(_)
(T1  D=3.175 CR=0. - ZMIN=-2. - FLAT END MILL)
G90 G94 G91.1 G40 G49 G17
G21

(CONTOUR1)
M5
M9
T1
S10000 M3
G54
M8
G0 X-10.218 Y-11.171
G43 Z15. H1
Z1.25
G1 Z0.013 F1588.
X-10.157 Y-11.128 Z0.011
X-10.091 Y-11.075 Z0.01
X-10.082 Y-11.067
X-10.014 Y-11.004 Z0.008
X-9.946 Y-10.933 Z0.006
X-9.94 Y-10.927
X-9.912 Y-10.893 Z0.005
X-9.884 Y-10.859 Z0.004
X-9.835 Y-10.791 Z0.003
X-9.798 Y-10.733 Z0.002
X-9.774 Y-10.691 Z0.001
X-9.75 Y-10.649 Z0.
X-9.716 Y-10.578 Z-0.001
X-9.686 Y-10.507 Z-0.003
X-9.656 Y-10.418 Z-0.004
X-9.64 Y-10.365 Z-0.005
X-9.623 Y-10.294 Z-0.006
X-9.61 Y-10.223 Z-0.008
X-9.601 Y-10.152 Z-0.009
X-9.595 Y-10.081 Z-0.01
X-9.592 Y-10.01 Z-0.011
X-9.594 Y-9.939 Z-0.013
X-9.598 Y-9.868 Z-0.014
X-9.607 Y-9.797 Z-0.015
X-9.635 Y-9.655 Z-0.018
X-9.656 Y-9.582 Z-0.019
X-9.679 Y-9.513 Z-0.02
X-9.708 Y-9.442 Z-0.022
X-9.741 Y-9.371 Z-0.023
X-9.768 Y-9.319 Z-0.024
X-9.798 Y-9.267 Z-0.025
X-9.822 Y-9.229 Z-0.026
X-9.872 Y-9.158 Z-0.027
X-9.928 Y-9.087 Z-0.029
X-9.94 Y-9.073
X-10. Y-9.009 Z-0.031
X-10.068 Y-8.945 Z-0.032
X-10.082 Y-8.933 Z-0.033
X-10.153 Y-8.876 Z-0.034
X-10.224 Y-8.826 Z-0.036
X-10.26 Y-8.803 Z-0.037
X-10.366 Y-8.743 Z-0.039
X-10.437 Y-8.71 Z-0.04
X-10.508 Y-8.681 Z-0.041
X-10.567 Y-8.661 Z-0.043
X-10.65 Y-8.637 Z-0.044
X-10.721 Y-8.62 Z-0.045
X-10.792 Y-8.608 Z-0.047
X-10.863 Y-8.599 Z-0.048
X-10.934 Y-8.594 Z-0.049
X-11.076 Z-0.052
X-11.147 Y-8.6 Z-0.053
X-11.218 Y-8.609 Z-0.054
X-11.289 Y-8.622 Z-0.055
X-11.36 Y-8.639 Z-0.057
X-11.433 Y-8.661 Z-0.058
X-11.502 Y-8.685 Z-0.059
X-11.573 Y-8.714 Z-0.061
X-11.644 Y-8.748 Z-0.062
X-11.74 Y-8.803 Z-0.064
X-11.786 Y-8.832 Z-0.065
X-11.857 Y-8.883 Z-0.066
X-11.928 Y-8.941 Z-0.068
X-11.932 Y-8.945
X-12.006 Y-9.015 Z-0.07
X-12.038 Y-9.05 Z-0.071
X-12.07 Y-9.085
X-12.072 Y-9.087
X-12.128 Y-9.158 Z-0.073
X-12.178 Y-9.229 Z-0.075
X-12.212 Y-9.283 Z-0.076
X-12.259 Y-9.371 Z-0.077
X-12.292 Y-9.442 Z-0.079
X-12.321 Y-9.513 Z-0.08
X-12.354 Y-9.615 Z-0.082
X-12.365 Y-9.655 Z-0.083
X-12.393 Y-9.797 Z-0.085
X-12.402 Y-9.868 Z-0.087
X-12.406 Y-9.939 Z-0.088
X-12.408 Y-10.01 Z-0.089
X-12.405 Y-10.081 Z-0.09
X-12.399 Y-10.152 Z-0.091
X-12.39 Y-10.223 Z-0.093
X-12.377 Y-10.294 Z-0.094
X-12.36 Y-10.365 Z-0.095
X-12.354 Y-10.385 Z-0.096
X-12.314 Y-10.507 Z-0.098
X-12.284 Y-10.578 Z-0.099
X-12.25 Y-10.649 Z-0.101
X-12.212 Y-10.717 Z-0.102
X-12.165 Y-10.791 Z-0.103
X-12.12 Y-10.853 Z-0.105
X-12.07 Y-10.915 Z-0.106
X-12.054 Y-10.933 Z-0.107
X-11.991 Y-11. Z-0.108
X-11.928 Y-11.059 Z-0.11
X-11.909 Y-11.075
X-11.847 Y-11.124 Z-0.112
X-11.786 Y-11.168 Z-0.113
X-11.708 Y-11.217 Z-0.114
X-11.644 Y-11.252 Z-0.116
X-11.573 Y-11.286 Z-0.117
X-11.502 Y-11.315 Z-0.118
X-11.435 Y-11.339 Z-0.12
X-11.368 Y-11.359 Z-0.121
X-11.36 Y-11.361
X-11.289 Y-11.378 Z-0.122
X-11.218 Y-11.391 Z-0.124
X-11.147 Y-11.4 Z-0.125
X-11.076 Y-11.406 Z-0.126
X-10.934 Z-0.129
X-10.863 Y-11.401 Z-0.13
X-10.792 Y-11.392 Z-0.131
X-10.721 Y-11.38 Z-0.132
X-10.65 Y-11.363 Z-0.134
X-10.632 Y-11.359
X-10.57 Y-11.34 Z-0.135
X-10.508 Y-11.319 Z-0.136
X-10.437 Y-11.29 Z-0.138
X-10.366 Y-11.257 Z-0.139
X-10.292 Y-11.217 Z-0.14
X-10.224 Y-11.174 Z-0.142
X-10.157 Y-11.128 Z-0.143
X-10.091 Y-11.075 Z-0.145
X-10.082 Y-11.067
X-10.014 Y-11.004 Z-0.146
X-9.946 Y-10.933 Z-0.148
X-9.94 Y-10.927
X-9.912 Y-10.893 Z-0.149
X-9.884 Y-10.859 Z-0.15
X-9.835 Y-10.791 Z-0.151
X-9.798 Y-10.733 Z-0.153
X-9.774 Y-10.691
X-9.75 Y-10.649 Z-0.154
X-9.716 Y-10.578 Z-0.156
X-9.686 Y-10.507 Z-0.157
X-9.656 Y-10.418 Z-0.159
X-9.64 Y-10.365 Z-0.16
X-9.623 Y-10.294 Z-0.161
X-9.61 Y-10.223 Z-0.162
X-9.601 Y-10.152 Z-0.163
X-9.595 Y-10.081 Z-0.165
X-9.592 Y-10.01 Z-0.166
X-9.594 Y-9.939 Z-0.167
X-9.598 Y-9.868 Z-0.168
X-9.607 Y-9.797 Z-0.17
X-9.635 Y-9.655 Z-0.172
X-9.656 Y-9.582 Z-0.173
X-9.679 Y-9.513 Z-0.175
X-9.708 Y-9.442 Z-0.176
X-9.741 Y-9.371 Z-0.177
X-9.768 Y-9.319 Z-0.178
X-9.798 Y-9.267 Z-0.179
X-9.822 Y-9.229 Z-0.18
X-9.872 Y-9.158 Z-0.182
X-9.928 Y-9.087 Z-0.183
X-9.94 Y-9.073 Z-0.184
X-10. Y-9.009 Z-0.185
X-10.068 Y-8.945 Z-0.187
X-10.082 Y-8.933
X-10.153 Y-8.876 Z-0.189
X-10.224 Y-8.826 Z-0.19
X-10.26 Y-8.803 Z-0.191
X-10.366 Y-8.743 Z-0.193
X-10.437 Y-8.71 Z-0.194
X-10.508 Y-8.681 Z-0.196
X-10.567 Y-8.661 Z-0.197
X-10.65 Y-8.637 Z-0.198
X-10.721 Y-8.62 Z-0.2
X-10.792 Y-8.608 Z-0.201
X-10.863 Y-8.599 Z-0.202
X-10.934 Y-8.594 Z-0.203
X-11.076 Z-0.206
X-11.147 Y-8.6 Z-0.207
X-11.218 Y-8.609 Z-0.208
X-11.289 Y-8.622 Z-0.21
X-11.36 Y-8.639 Z-0.211
X-11.433 Y-8.661 Z-0.212
X-11.502 Y-8.685 Z-0.214
X-11.573 Y-8.714 Z-0.215
X-11.644 Y-8.748 Z-0.216
X-11.74 Y-8.803 Z-0.218
X-11.786 Y-8.832 Z-0.219
X-11.857 Y-8.883 Z-0.221
X-11.928 Y-8.941 Z-0.222
X-11.932 Y-8.945
X-12.006 Y-9.015 Z-0.224
X-12.038 Y-9.05 Z-0.225
X-12.07 Y-9.085 Z-0.226
X-12.072 Y-9.087
X-12.128 Y-9.158 Z-0.227
X-12.178 Y-9.229 Z-0.229
X-12.212 Y-9.283 Z-0.23
X-12.259 Y-9.371 Z-0.232
X-12.292 Y-9.442 Z-0.233
X-12.321 Y-9.513 Z-0.235
X-12.354 Y-9.615 Z-0.236
X-12.365 Y-9.655 Z-0.237
X-12.393 Y-9.797 Z-0.24
X-12.402 Y-9.868 Z-0.241
X-12.406 Y-9.939 Z-0.242
X-12.408 Y-10.01 Z-0.243
X-12.405 Y-10.081 Z-0.245
X-12.399 Y-10.152 Z-0.246
X-12.39 Y-10.223 Z-0.247
X-12.377 Y-10.294 Z-0.248
X-12.36 Y-10.365 Z-0.25
X-12.354 Y-10.385
X-12.314 Y-10.507
X-12.284 Y-10.578
X-12.25 Y-10.649
X-12.212 Y-10.717
X-12.165 Y-10.791
X-12.12 Y-10.853
X-12.07 Y-10.915
X-12.054 Y-10.933
X-11.991 Y-11.
X-11.928 Y-11.059
X-11.909 Y-11.075
X-11.847 Y-11.124
X-11.786 Y-11.168
X-11.708 Y-11.217
X-11.644 Y-11.252
X-11.573 Y-11.286
X-11.502 Y-11.315
X-11.435 Y-11.339
X-11.368 Y-11.359
X-11.36 Y-11.361
X-11.289 Y-11.378
X-11.218 Y-11.391
X-11.147 Y-11.4
X-11.076 Y-11.406
X-10.934
X-10.863 Y-11.401
X-10.792 Y-11.392
X-10.721 Y-11.38
X-10.65 Y-11.363
X-10.632 Y-11.359
X-10.57 Y-11.34
X-10.508 Y-11.319
X-10.437 Y-11.29
X-10.366 Y-11.257
X-10.292 Y-11.217
X-10.224 Y-11.174
X-10.157 Y-11.128
X-10.091 Y-11.075
X-10.082 Y-11.067
X-10.014 Y-11.004
X-9.946 Y-10.933
X-9.94 Y-10.927
X-9.912 Y-10.893
X-9.884 Y-10.859
X-9.835 Y-10.791
X-9.798 Y-10.733
X-9.774 Y-10.691
X-9.75 Y-10.649
X-9.716 Y-10.578
X-9.686 Y-10.507
X-9.656 Y-10.418
X-9.64 Y-10.365
X-9.623 Y-10.294
X-9.61 Y-10.223
X-9.601 Y-10.152
X-9.595 Y-10.081
X-9.592 Y-10.01
X-9.594 Y-9.939
X-9.598 Y-9.868
X-9.607 Y-9.797
X-9.635 Y-9.655
X-9.656 Y-9.582
X-9.679 Y-9.513
X-9.708 Y-9.442
X-9.741 Y-9.371
X-9.768 Y-9.319
X-9.798 Y-9.267
X-9.822 Y-9.229
X-9.872 Y-9.158
X-9.928 Y-9.087
X-9.94 Y-9.073
X-10. Y-9.009
X-10.068 Y-8.945
X-10.082 Y-8.933
X-10.153 Y-8.876
X-10.224 Y-8.826
X-10.26 Y-8.803
X-10.366 Y-8.743
X-10.437 Y-8.71
X-10.508 Y-8.681
X-10.567 Y-8.661
X-10.65 Y-8.637
X-10.721 Y-8.62
X-10.792 Y-8.608
X-10.863 Y-8.599
X-10.934 Y-8.594
X-11.076
X-11.147 Y-8.6
X-11.218 Y-8.609
X-11.289 Y-8.622
X-11.36 Y-8.639
X-11.433 Y-8.661
X-11.502 Y-8.685
X-11.573 Y-8.714
X-11.644 Y-8.748
X-11.74 Y-8.803
X-11.786 Y-8.832
X-11.857 Y-8.883
X-11.928 Y-8.941
X-11.932 Y-8.945
X-12.006 Y-9.015
X-12.038 Y-9.05
X-12.07 Y-9.085
X-12.072 Y-9.087
X-12.128 Y-9.158
X-12.178 Y-9.229
X-12.212 Y-9.283
X-12.259 Y-9.371
X-12.292 Y-9.442
X-12.321 Y-9.513
X-12.354 Y-9.615
X-12.365 Y-9.655
X-12.393 Y-9.797
X-12.402 Y-9.868
X-12.406 Y-9.939
X-12.408 Y-10.01
X-12.405 Y-10.081
X-12.399 Y-10.152
X-12.39 Y-10.223
X-12.377 Y-10.294
X-12.36 Y-10.365
X-12.354 Y-10.385
X-12.314 Y-10.507 Z-0.252
X-12.284 Y-10.578 Z-0.254
X-12.25 Y-10.649 Z-0.255
X-12.212 Y-10.717 Z-0.256
X-12.165 Y-10.791 Z-0.258
X-12.12 Y-10.853 Z-0.259
X-12.07 Y-10.915 Z-0.261
X-12.054 Y-10.933
X-11.991 Y-11. Z-0.263
X-11.928 Y-11.059 Z-0.264
X-11.909 Y-11.075 Z-0.265
X-11.847 Y-11.124 Z-0.266
X-11.786 Y-11.168 Z-0.267
X-11.708 Y-11.217 Z-0.269
X-11.644 Y-11.252 Z-0.27
X-11.573 Y-11.286 Z-0.271
X-11.502 Y-11.315 Z-0.273
X-11.435 Y-11.339 Z-0.274
X-11.368 Y-11.359 Z-0.275
X-11.36 Y-11.361
X-11.289 Y-11.378 Z-0.277
X-11.218 Y-11.391 Z-0.278
X-11.147 Y-11.4 Z-0.279
X-11.076 Y-11.406 Z-0.28
X-10.934 Z-0.283
X-10.863 Y-11.401 Z-0.284
X-10.792 Y-11.392 Z-0.285
X-10.721 Y-11.38 Z-0.287
X-10.65 Y-11.363 Z-0.288
X-10.632 Y-11.359
X-10.57 Y-11.34 Z-0.289
X-10.508 Y-11.319 Z-0.291
X-10.437 Y-11.29 Z-0.292
X-10.366 Y-11.257 Z-0.293
X-10.292 Y-11.217 Z-0.295
X-10.224 Y-11.174 Z-0.296
X-10.157 Y-11.128 Z-0.298
X-10.091 Y-11.075 Z-0.299
X-10.082 Y-11.067
X-10.014 Y-11.004 Z-0.301
X-9.946 Y-10.933 Z-0.303
X-9.94 Y-10.927
X-9.912 Y-10.893
X-9.884 Y-10.859 Z-0.304
X-9.835 Y-10.791 Z-0.306
X-9.798 Y-10.733 Z-0.307
X-9.774 Y-10.691 Z-0.308
X-9.75 Y-10.649 Z-0.309
X-9.716 Y-10.578 Z-0.31
X-9.686 Y-10.507 Z-0.311
X-9.656 Y-10.418 Z-0.313
X-9.64 Y-10.365 Z-0.314
X-9.623 Y-10.294 Z-0.315
X-9.61 Y-10.223 Z-0.316
X-9.601 Y-10.152 Z-0.318
X-9.595 Y-10.081 Z-0.319
X-9.592 Y-10.01 Z-0.32
X-9.594 Y-9.939 Z-0.321
X-9.598 Y-9.868 Z-0.323
X-9.607 Y-9.797 Z-0.324
X-9.635 Y-9.655 Z-0.326
X-9.656 Y-9.582 Z-0.328
X-9.679 Y-9.513 Z-0.329
X-9.708 Y-9.442 Z-0.33
X-9.741 Y-9.371 Z-0.332
X-9.768 Y-9.319 Z-0.333
X-9.798 Y-9.267 Z-0.334
X-9.822 Y-9.229 Z-0.335
X-9.872 Y-9.158 Z-0.336
X-9.928 Y-9.087 Z-0.338
X-9.94 Y-9.073
X-10. Y-9.009 Z-0.34
X-10.068 Y-8.945 Z-0.341
X-10.082 Y-8.933 Z-0.342
X-10.153 Y-8.876 Z-0.343
X-10.224 Y-8.826 Z-0.345
X-10.26 Y-8.803
X-10.366 Y-8.743 Z-0.347
X-10.437 Y-8.71 Z-0.349
X-10.508 Y-8.681 Z-0.35
X-10.567 Y-8.661 Z-0.351
X-10.65 Y-8.637 Z-0.353
X-10.721 Y-8.62 Z-0.354
X-10.792 Y-8.608 Z-0.355
X-10.863 Y-8.599 Z-0.357
X-10.934 Y-8.594 Z-0.358
X-11.076 Z-0.36
X-11.147 Y-8.6 Z-0.362
X-11.218 Y-8.609 Z-0.363
X-11.289 Y-8.622 Z-0.364
X-11.36 Y-8.639 Z-0.365
X-11.433 Y-8.661 Z-0.367
X-11.502 Y-8.685 Z-0.368
X-11.573 Y-8.714 Z-0.369
X-11.644 Y-8.748 Z-0.371
X-11.74 Y-8.803 Z-0.373
X-11.786 Y-8.832 Z-0.374
X-11.857 Y-8.883 Z-0.375
X-11.928 Y-8.941 Z-0.377
X-11.932 Y-8.945
X-12.006 Y-9.015 Z-0.379
X-12.038 Y-9.05
X-12.07 Y-9.085 Z-0.38
X-12.072 Y-9.087
X-12.128 Y-9.158 Z-0.382
X-12.178 Y-9.229 Z-0.383
X-12.212 Y-9.283 Z-0.384
X-12.259 Y-9.371 Z-0.386
X-12.292 Y-9.442 Z-0.388
X-12.321 Y-9.513 Z-0.389
X-12.354 Y-9.615 Z-0.391
X-12.365 Y-9.655
X-12.393 Y-9.797 Z-0.394
X-12.402 Y-9.868 Z-0.395
X-12.406 Y-9.939 Z-0.396
X-12.408 Y-10.01 Z-0.398
X-12.405 Y-10.081 Z-0.399
X-12.399 Y-10.152 Z-0.4
X-12.39 Y-10.223 Z-0.401
X-12.377 Y-10.294 Z-0.403
X-12.36 Y-10.365 Z-0.404
X-12.354 Y-10.385
X-12.314 Y-10.507 Z-0.407
X-12.284 Y-10.578 Z-0.408
X-12.25 Y-10.649 Z-0.409
X-12.212 Y-10.717 Z-0.411
X-12.165 Y-10.791 Z-0.412
X-12.12 Y-10.853 Z-0.414
X-12.07 Y-10.915 Z-0.415
X-12.054 Y-10.933
X-11.991 Y-11. Z-0.417
X-11.928 Y-11.059 Z-0.418
X-11.909 Y-11.075 Z-0.419
X-11.847 Y-11.124 Z-0.42
X-11.786 Y-11.168 Z-0.422
X-11.708 Y-11.217 Z-0.423
X-11.644 Y-11.252 Z-0.424
X-11.573 Y-11.286 Z-0.426
X-11.502 Y-11.315 Z-0.427
X-11.435 Y-11.339 Z-0.428
X-11.368 Y-11.359 Z-0.43
X-11.36 Y-11.361
X-11.289 Y-11.378 Z-0.431
X-11.218 Y-11.391 Z-0.432
X-11.147 Y-11.4 Z-0.434
X-11.076 Y-11.406 Z-0.435
X-10.934 Z-0.437
X-10.863 Y-11.401 Z-0.439
X-10.792 Y-11.392 Z-0.44
X-10.721 Y-11.38 Z-0.441
X-10.65 Y-11.363 Z-0.442
X-10.632 Y-11.359 Z-0.443
X-10.57 Y-11.34 Z-0.444
X-10.508 Y-11.319 Z-0.445
X-10.437 Y-11.29 Z-0.446
X-10.366 Y-11.257 Z-0.448
X-10.292 Y-11.217 Z-0.449
X-10.224 Y-11.174 Z-0.451
X-10.157 Y-11.128 Z-0.452
X-10.091 Y-11.075 Z-0.453
X-10.082 Y-11.067 Z-0.454
X-10.014 Y-11.004 Z-0.455
X-9.946 Y-10.933 Z-0.457
X-9.94 Y-10.927
X-9.912 Y-10.893 Z-0.458
X-9.884 Y-10.859 Z-0.459
X-9.835 Y-10.791 Z-0.46
X-9.798 Y-10.733 Z-0.461
X-9.774 Y-10.691 Z-0.462
X-9.75 Y-10.649 Z-0.463
X-9.716 Y-10.578 Z-0.464
X-9.686 Y-10.507 Z-0.466
X-9.656 Y-10.418 Z-0.467
X-9.64 Y-10.365 Z-0.468
X-9.623 Y-10.294 Z-0.47
X-9.61 Y-10.223 Z-0.471
X-9.601 Y-10.152 Z-0.472
X-9.595 Y-10.081 Z-0.473
X-9.592 Y-10.01 Z-0.475
X-9.594 Y-9.939 Z-0.476
X-9.598 Y-9.868 Z-0.477
X-9.607 Y-9.797 Z-0.478
X-9.635 Y-9.655 Z-0.481
X-9.656 Y-9.582 Z-0.482
X-9.679 Y-9.513 Z-0.483
X-9.708 Y-9.442 Z-0.485
X-9.741 Y-9.371 Z-0.486
X-9.768 Y-9.319 Z-0.487
X-9.798 Y-9.267 Z-0.488
X-9.822 Y-9.229 Z-0.489
X-9.872 Y-9.158 Z-0.491
X-9.928 Y-9.087 Z-0.492
X-9.94 Y-9.073
X-10. Y-9.009 Z-0.494
X-10.068 Y-8.945 Z-0.496
X-10.082 Y-8.933
X-10.153 Y-8.876 Z-0.497
X-10.224 Y-8.826 Z-0.499
X-10.26 Y-8.803 Z-0.5
X-10.273 Y-8.795
X-10.366 Y-8.743
X-10.437 Y-8.71
X-10.508 Y-8.681
X-10.567 Y-8.661
X-10.65 Y-8.637
X-10.721 Y-8.62
X-10.792 Y-8.608
X-10.863 Y-8.599
X-10.934 Y-8.594
X-11.076
X-11.147 Y-8.6
X-11.218 Y-8.609
X-11.289 Y-8.622
X-11.36 Y-8.639
X-11.433 Y-8.661
X-11.502 Y-8.685
X-11.573 Y-8.714
X-11.644 Y-8.748
X-11.74 Y-8.803
X-11.786 Y-8.832
X-11.857 Y-8.883
X-11.928 Y-8.941
X-11.932 Y-8.945
X-12.006 Y-9.015
X-12.038 Y-9.05
X-12.07 Y-9.085
X-12.072 Y-9.087
X-12.128 Y-9.158
X-12.178 Y-9.229
X-12.212 Y-9.283
X-12.259 Y-9.371
X-12.292 Y-9.442
X-12.321 Y-9.513
X-12.354 Y-9.615
X-12.365 Y-9.655
X-12.393 Y-9.797
X-12.402 Y-9.868
X-12.406 Y-9.939
X-12.408 Y-10.01
X-12.405 Y-10.081
X-12.399 Y-10.152
X-12.39 Y-10.223
X-12.377 Y-10.294
X-12.36 Y-10.365
X-12.354 Y-10.385
X-12.314 Y-10.507
X-12.284 Y-10.578
X-12.25 Y-10.649
X-12.212 Y-10.717
X-12.165 Y-10.791
X-12.12 Y-10.853
X-12.07 Y-10.915
X-12.054 Y-10.933
X-11.991 Y-11.
X-11.928 Y-11.059
X-11.909 Y-11.075
X-11.847 Y-11.124
X-11.786 Y-11.168
X-11.708 Y-11.217
X-11.644 Y-11.252
X-11.573 Y-11.286
X-11.502 Y-11.315
X-11.435 Y-11.339
X-11.368 Y-11.359
X-11.36 Y-11.361
X-11.289 Y-11.378
X-11.218 Y-11.391
X-11.147 Y-11.4
X-11.076 Y-11.406
X-10.934
X-10.863 Y-11.401
X-10.792 Y-11.392
X-10.721 Y-11.38
X-10.65 Y-11.363
X-10.632 Y-11.359
X-10.57 Y-11.34
X-10.508 Y-11.319
X-10.437 Y-11.29
X-10.366 Y-11.257
X-10.292 Y-11.217
X-10.224 Y-11.174
X-10.157 Y-11.128
X-10.091 Y-11.075
X-10.082 Y-11.067
X-10.014 Y-11.004
X-9.946 Y-10.933
X-9.94 Y-10.927
X-9.912 Y-10.893
X-9.884 Y-10.859
X-9.835 Y-10.791
X-9.798 Y-10.733
X-9.774 Y-10.691
X-9.75 Y-10.649
X-9.716 Y-10.578
X-9.686 Y-10.507
X-9.656 Y-10.418
X-9.64 Y-10.365
X-9.623 Y-10.294
X-9.61 Y-10.223
X-9.601 Y-10.152
X-9.595 Y-10.081
X-9.592 Y-10.01
X-9.594 Y-9.939
X-9.598 Y-9.868
X-9.607 Y-9.797
X-9.635 Y-9.655
X-9.656 Y-9.582
X-9.679 Y-9.513
X-9.708 Y-9.442
X-9.741 Y-9.371
X-9.768 Y-9.319
X-9.798 Y-9.267
X-9.822 Y-9.229
X-9.872 Y-9.158
X-9.928 Y-9.087
X-9.94 Y-9.073
X-10. Y-9.009
X-10.068 Y-8.945
X-10.082 Y-8.933
X-10.153 Y-8.876
X-10.224 Y-8.826
X-10.26 Y-8.803
X-10.273 Y-8.795
X-10.366 Y-8.743 Z-0.502
X-10.437 Y-8.71 Z-0.503
X-10.508 Y-8.681 Z-0.505
X-10.567 Y-8.661 Z-0.506
X-10.65 Y-8.637 Z-0.507
X-10.721 Y-8.62 Z-0.508
X-10.792 Y-8.608 Z-0.51
X-10.863 Y-8.599 Z-0.511
X-10.934 Y-8.594 Z-0.512
X-11.076 Z-0.515
X-11.147 Y-8.6 Z-0.516
X-11.218 Y-8.609 Z-0.517
X-11.289 Y-8.622 Z-0.518
X-11.36 Y-8.639 Z-0.52
X-11.433 Y-8.661 Z-0.521
X-11.502 Y-8.685 Z-0.522
X-11.573 Y-8.714 Z-0.524
X-11.644 Y-8.748 Z-0.525
X-11.74 Y-8.803 Z-0.527
X-11.786 Y-8.832 Z-0.528
X-11.857 Y-8.883 Z-0.529
X-11.928 Y-8.941 Z-0.531
X-11.932 Y-8.945
X-12.006 Y-9.015 Z-0.533
X-12.038 Y-9.05 Z-0.534
X-12.07 Y-9.085 Z-0.535
X-12.072 Y-9.087
X-12.128 Y-9.158 Z-0.536
X-12.178 Y-9.229 Z-0.538
X-12.212 Y-9.283 Z-0.539
X-12.259 Y-9.371 Z-0.541
X-12.292 Y-9.442 Z-0.542
X-12.321 Y-9.513 Z-0.543
X-12.354 Y-9.615 Z-0.545
X-12.365 Y-9.655 Z-0.546
X-12.393 Y-9.797 Z-0.548
X-12.402 Y-9.868 Z-0.55
X-12.406 Y-9.939 Z-0.551
X-12.408 Y-10.01 Z-0.552
X-12.405 Y-10.081 Z-0.553
X-12.399 Y-10.152 Z-0.555
X-12.39 Y-10.223 Z-0.556
X-12.377 Y-10.294 Z-0.557
X-12.36 Y-10.365 Z-0.558
X-12.354 Y-10.385 Z-0.559
X-12.314 Y-10.507 Z-0.561
X-12.284 Y-10.578 Z-0.562
X-12.25 Y-10.649 Z-0.564
X-12.212 Y-10.717 Z-0.565
X-12.165 Y-10.791 Z-0.567
X-12.12 Y-10.853 Z-0.568
X-12.07 Y-10.915 Z-0.569
X-12.054 Y-10.933 Z-0.57
X-11.991 Y-11. Z-0.571
X-11.928 Y-11.059 Z-0.573
X-11.909 Y-11.075
X-11.847 Y-11.124 Z-0.575
X-11.786 Y-11.168 Z-0.576
X-11.708 Y-11.217 Z-0.578
X-11.644 Y-11.252 Z-0.579
X-11.573 Y-11.286 Z-0.58
X-11.502 Y-11.315 Z-0.582
X-11.435 Y-11.339 Z-0.583
X-11.368 Y-11.359 Z-0.584
X-11.36 Y-11.361
X-11.289 Y-11.378 Z-0.585
X-11.218 Y-11.391 Z-0.587
X-11.147 Y-11.4 Z-0.588
X-11.076 Y-11.406 Z-0.589
X-10.934 Z-0.592
X-10.863 Y-11.401 Z-0.593
X-10.792 Y-11.392 Z-0.594
X-10.721 Y-11.38 Z-0.595
X-10.65 Y-11.363 Z-0.597
X-10.632 Y-11.359
X-10.57 Y-11.34 Z-0.598
X-10.508 Y-11.319 Z-0.599
X-10.437 Y-11.29 Z-0.601
X-10.366 Y-11.257 Z-0.602
X-10.292 Y-11.217 Z-0.603
X-10.224 Y-11.174 Z-0.605
X-10.157 Y-11.128 Z-0.606
X-10.091 Y-11.075 Z-0.608
X-10.082 Y-11.067
X-10.014 Y-11.004 Z-0.61
X-9.946 Y-10.933 Z-0.611
X-9.94 Y-10.927
X-9.912 Y-10.893 Z-0.612
X-9.884 Y-10.859 Z-0.613
X-9.835 Y-10.791 Z-0.614
X-9.798 Y-10.733 Z-0.616
X-9.774 Y-10.691 Z-0.617
X-9.75 Y-10.649
X-9.716 Y-10.578 Z-0.619
X-9.686 Y-10.507 Z-0.62
X-9.656 Y-10.418 Z-0.622
X-9.64 Y-10.365 Z-0.623
X-9.623 Y-10.294 Z-0.624
X-9.61 Y-10.223 Z-0.625
X-9.601 Y-10.152 Z-0.626
X-9.595 Y-10.081 Z-0.628
X-9.592 Y-10.01 Z-0.629
X-9.594 Y-9.939 Z-0.63
X-9.598 Y-9.868 Z-0.631
X-9.607 Y-9.797 Z-0.633
X-9.635 Y-9.655 Z-0.635
X-9.656 Y-9.582 Z-0.637
X-9.679 Y-9.513 Z-0.638
X-9.708 Y-9.442 Z-0.639
X-9.741 Y-9.371 Z-0.641
X-9.768 Y-9.319 Z-0.642
X-9.798 Y-9.267 Z-0.643
X-9.822 Y-9.229
X-9.872 Y-9.158 Z-0.645
X-9.928 Y-9.087 Z-0.646
X-9.94 Y-9.073 Z-0.647
X-10. Y-9.009 Z-0.648
X-10.068 Y-8.945 Z-0.65
X-10.082 Y-8.933
X-10.153 Y-8.876 Z-0.652
X-10.224 Y-8.826 Z-0.653
X-10.26 Y-8.803 Z-0.654
X-10.366 Y-8.743 Z-0.656
X-10.437 Y-8.71 Z-0.658
X-10.508 Y-8.681 Z-0.659
X-10.567 Y-8.661 Z-0.66
X-10.65 Y-8.637 Z-0.662
X-10.721 Y-8.62 Z-0.663
X-10.792 Y-8.608 Z-0.664
X-10.863 Y-8.599 Z-0.665
X-10.934 Y-8.594 Z-0.667
X-11.076 Z-0.669
X-11.147 Y-8.6 Z-0.67
X-11.218 Y-8.609 Z-0.672
X-11.289 Y-8.622 Z-0.673
X-11.36 Y-8.639 Z-0.674
X-11.433 Y-8.661 Z-0.675
X-11.502 Y-8.685 Z-0.677
X-11.573 Y-8.714 Z-0.678
X-11.644 Y-8.748 Z-0.679
X-11.74 Y-8.803 Z-0.681
X-11.786 Y-8.832 Z-0.682
X-11.857 Y-8.883 Z-0.684
X-11.928 Y-8.941 Z-0.685
X-11.932 Y-8.945
X-12.006 Y-9.015 Z-0.687
X-12.038 Y-9.05 Z-0.688
X-12.07 Y-9.085 Z-0.689
X-12.072 Y-9.087
X-12.128 Y-9.158 Z-0.691
X-12.178 Y-9.229 Z-0.692
X-12.212 Y-9.283 Z-0.693
X-12.259 Y-9.371 Z-0.695
X-12.292 Y-9.442 Z-0.696
X-12.321 Y-9.513 Z-0.698
X-12.354 Y-9.615 Z-0.699
X-12.365 Y-9.655 Z-0.7
X-12.393 Y-9.797 Z-0.703
X-12.402 Y-9.868 Z-0.704
X-12.406 Y-9.939 Z-0.705
X-12.408 Y-10.01 Z-0.706
X-12.405 Y-10.081 Z-0.708
X-12.399 Y-10.152 Z-0.709
X-12.39 Y-10.223 Z-0.71
X-12.377 Y-10.294 Z-0.711
X-12.36 Y-10.365 Z-0.713
X-12.354 Y-10.385
X-12.314 Y-10.507 Z-0.715
X-12.284 Y-10.578 Z-0.717
X-12.25 Y-10.649 Z-0.718
X-12.212 Y-10.717 Z-0.719
X-12.165 Y-10.791 Z-0.721
X-12.12 Y-10.853 Z-0.722
X-12.07 Y-10.915 Z-0.724
X-12.054 Y-10.933
X-11.991 Y-11. Z-0.726
X-11.928 Y-11.059 Z-0.727
X-11.909 Y-11.075 Z-0.728
X-11.847 Y-11.124 Z-0.729
X-11.786 Y-11.168 Z-0.73
X-11.708 Y-11.217 Z-0.732
X-11.644 Y-11.252 Z-0.733
X-11.573 Y-11.286 Z-0.735
X-11.502 Y-11.315 Z-0.736
X-11.435 Y-11.339 Z-0.737
X-11.368 Y-11.359 Z-0.738
X-11.36 Y-11.361 Z-0.739
X-11.289 Y-11.378 Z-0.74
X-11.218 Y-11.391 Z-0.741
X-11.147 Y-11.4 Z-0.742
X-11.076 Y-11.406 Z-0.744
X-10.934 Z-0.746
X-10.863 Y-11.401 Z-0.747
X-10.792 Y-11.392 Z-0.749
X-10.721 Y-11.38 Z-0.75
X-10.71 Y-11.377
X-10.65 Y-11.363
X-10.632 Y-11.359
X-10.57 Y-11.34
X-10.508 Y-11.319
X-10.437 Y-11.29
X-10.366 Y-11.257
X-10.292 Y-11.217
X-10.224 Y-11.174
X-10.157 Y-11.128
X-10.091 Y-11.075
X-10.082 Y-11.067
X-10.014 Y-11.004
X-9.946 Y-10.933
X-9.94 Y-10.927
X-9.912 Y-10.893
X-9.884 Y-10.859
X-9.835 Y-10.791
X-9.798 Y-10.733
X-9.774 Y-10.691
X-9.75 Y-10.649
X-9.716 Y-10.578
X-9.686 Y-10.507
X-9.656 Y-10.418
X-9.64 Y-10.365
X-9.623 Y-10.294
X-9.61 Y-10.223
X-9.601 Y-10.152
X-9.595 Y-10.081
X-9.592 Y-10.01
X-9.594 Y-9.939
X-9.598 Y-9.868
X-9.607 Y-9.797
X-9.635 Y-9.655
X-9.656 Y-9.582
X-9.679 Y-9.513
X-9.708 Y-9.442
X-9.741 Y-9.371
X-9.768 Y-9.319
X-9.798 Y-9.267
X-9.822 Y-9.229
X-9.872 Y-9.158
X-9.928 Y-9.087
X-9.94 Y-9.073
X-10. Y-9.009
X-10.068 Y-8.945
X-10.082 Y-8.933
X-10.153 Y-8.876
X-10.224 Y-8.826
X-10.26 Y-8.803
X-10.366 Y-8.743
X-10.437 Y-8.71
X-10.508 Y-8.681
X-10.567 Y-8.661
X-10.65 Y-8.637
X-10.721 Y-8.62
X-10.792 Y-8.608
X-10.863 Y-8.599
X-10.934 Y-8.594
X-11.076
X-11.147 Y-8.6
X-11.218 Y-8.609
X-11.289 Y-8.622
X-11.36 Y-8.639
X-11.433 Y-8.661
X-11.502 Y-8.685
X-11.573 Y-8.714
X-11.644 Y-8.748
X-11.74 Y-8.803
X-11.786 Y-8.832
X-11.857 Y-8.883
X-11.928 Y-8.941
X-11.932 Y-8.945
X-12.006 Y-9.015
X-12.038 Y-9.05
X-12.07 Y-9.085
X-12.072 Y-9.087
X-12.128 Y-9.158
X-12.178 Y-9.229
X-12.212 Y-9.283
X-12.259 Y-9.371
X-12.292 Y-9.442
X-12.321 Y-9.513
X-12.354 Y-9.615
X-12.365 Y-9.655
X-12.393 Y-9.797
X-12.402 Y-9.868
X-12.406 Y-9.939
X-12.408 Y-10.01
X-12.405 Y-10.081
X-12.399 Y-10.152
X-12.39 Y-10.223
X-12.377 Y-10.294
X-12.36 Y-10.365
X-12.354 Y-10.385
X-12.314 Y-10.507
X-12.284 Y-10.578
X-12.25 Y-10.649
X-12.212 Y-10.717
X-12.165 Y-10.791
X-12.12 Y-10.853
X-12.07 Y-10.915
X-12.054 Y-10.933
X-11.991 Y-11.
X-11.928 Y-11.059
X-11.909 Y-11.075
X-11.847 Y-11.124
X-11.786 Y-11.168
X-11.708 Y-11.217
X-11.644 Y-11.252
X-11.573 Y-11.286
X-11.502 Y-11.315
X-11.435 Y-11.339
X-11.368 Y-11.359
X-11.36 Y-11.361
X-11.289 Y-11.378
X-11.218 Y-11.391
X-11.147 Y-11.4
X-11.076 Y-11.406
X-10.934
X-10.863 Y-11.401
X-10.792 Y-11.392
X-10.721 Y-11.38
X-10.71 Y-11.377
X-10.65 Y-11.363 Z-0.751
X-10.632 Y-11.359
X-10.57 Y-11.34 Z-0.753
X-10.508 Y-11.319 Z-0.754
X-10.437 Y-11.29 Z-0.755
X-10.366 Y-11.257 Z-0.756
X-10.292 Y-11.217 Z-0.758
X-10.224 Y-11.174 Z-0.759
X-10.157 Y-11.128 Z-0.761
X-10.091 Y-11.075 Z-0.762
X-10.082 Y-11.067
X-10.014 Y-11.004 Z-0.764
X-9.946 Y-10.933 Z-0.766
X-9.94 Y-10.927
X-9.912 Y-10.893 Z-0.767
X-9.884 Y-10.859
X-9.835 Y-10.791 Z-0.769
X-9.798 Y-10.733 Z-0.77
X-9.774 Y-10.691 Z-0.771
X-9.75 Y-10.649 Z-0.772
X-9.716 Y-10.578 Z-0.773
X-9.686 Y-10.507 Z-0.774
X-9.656 Y-10.418 Z-0.776
X-9.64 Y-10.365 Z-0.777
X-9.623 Y-10.294 Z-0.778
X-9.61 Y-10.223 Z-0.78
X-9.601 Y-10.152 Z-0.781
X-9.595 Y-10.081 Z-0.782
X-9.592 Y-10.01 Z-0.783
X-9.594 Y-9.939 Z-0.785
X-9.598 Y-9.868 Z-0.786
X-9.607 Y-9.797 Z-0.787
X-9.635 Y-9.655 Z-0.79
X-9.656 Y-9.582 Z-0.791
X-9.679 Y-9.513 Z-0.792
X-9.708 Y-9.442 Z-0.794
X-9.741 Y-9.371 Z-0.795
X-9.768 Y-9.319 Z-0.796
X-9.798 Y-9.267 Z-0.797
X-9.822 Y-9.229 Z-0.798
X-9.872 Y-9.158 Z-0.799
X-9.928 Y-9.087 Z-0.801
X-9.94 Y-9.073
X-10. Y-9.009 Z-0.803
X-10.068 Y-8.945 Z-0.804
X-10.082 Y-8.933 Z-0.805
X-10.153 Y-8.876 Z-0.806
X-10.224 Y-8.826 Z-0.808
X-10.26 Y-8.803
X-10.366 Y-8.743 Z-0.811
X-10.437 Y-8.71 Z-0.812
X-10.508 Y-8.681 Z-0.813
X-10.567 Y-8.661 Z-0.814
X-10.65 Y-8.637 Z-0.816
X-10.721 Y-8.62 Z-0.817
X-10.792 Y-8.608 Z-0.818
X-10.863 Y-8.599 Z-0.82
X-10.934 Y-8.594 Z-0.821
X-11.076 Z-0.823
X-11.147 Y-8.6 Z-0.825
X-11.218 Y-8.609 Z-0.826
X-11.289 Y-8.622 Z-0.827
X-11.36 Y-8.639 Z-0.828
X-11.433 Y-8.661 Z-0.83
X-11.502 Y-8.685 Z-0.831
X-11.573 Y-8.714 Z-0.832
X-11.644 Y-8.748 Z-0.834
X-11.74 Y-8.803 Z-0.836
X-11.786 Y-8.832 Z-0.837
X-11.857 Y-8.883 Z-0.838
X-11.928 Y-8.941 Z-0.84
X-11.932 Y-8.945
X-12.006 Y-9.015 Z-0.842
X-12.038 Y-9.05
X-12.07 Y-9.085 Z-0.843
X-12.072 Y-9.087
X-12.128 Y-9.158 Z-0.845
X-12.178 Y-9.229 Z-0.846
X-12.212 Y-9.283 Z-0.848
X-12.259 Y-9.371 Z-0.849
X-12.292 Y-9.442 Z-0.851
X-12.321 Y-9.513 Z-0.852
X-12.354 Y-9.615 Z-0.854
X-12.365 Y-9.655 Z-0.855
X-12.393 Y-9.797 Z-0.857
X-12.402 Y-9.868 Z-0.858
X-12.406 Y-9.939 Z-0.86
X-12.408 Y-10.01 Z-0.861
X-12.405 Y-10.081 Z-0.862
X-12.399 Y-10.152 Z-0.863
X-12.39 Y-10.223 Z-0.865
X-12.377 Y-10.294 Z-0.866
X-12.36 Y-10.365 Z-0.867
X-12.354 Y-10.385
X-12.314 Y-10.507 Z-0.87
X-12.284 Y-10.578 Z-0.871
X-12.25 Y-10.649 Z-0.872
X-12.212 Y-10.717 Z-0.874
X-12.165 Y-10.791 Z-0.875
X-12.12 Y-10.853 Z-0.877
X-12.07 Y-10.915 Z-0.878
X-12.054 Y-10.933
X-11.991 Y-11. Z-0.88
X-11.928 Y-11.059 Z-0.882
X-11.909 Y-11.075
X-11.847 Y-11.124 Z-0.883
X-11.786 Y-11.168 Z-0.885
X-11.708 Y-11.217 Z-0.886
X-11.644 Y-11.252 Z-0.888
X-11.573 Y-11.286 Z-0.889
X-11.502 Y-11.315 Z-0.89
X-11.435 Y-11.339 Z-0.892
X-11.368 Y-11.359 Z-0.893
X-11.36 Y-11.361
X-11.289 Y-11.378 Z-0.894
X-11.218 Y-11.391 Z-0.895
X-11.147 Y-11.4 Z-0.897
X-11.076 Y-11.406 Z-0.898
X-10.934 Z-0.9
X-10.863 Y-11.401 Z-0.902
X-10.792 Y-11.392 Z-0.903
X-10.721 Y-11.38 Z-0.904
X-10.65 Y-11.363 Z-0.905
X-10.632 Y-11.359 Z-0.906
X-10.57 Y-11.34 Z-0.907
X-10.508 Y-11.319 Z-0.908
X-10.437 Y-11.29 Z-0.909
X-10.366 Y-11.257 Z-0.911
X-10.292 Y-11.217 Z-0.912
X-10.224 Y-11.174 Z-0.914
X-10.157 Y-11.128 Z-0.915
X-10.091 Y-11.075 Z-0.917
X-10.082 Y-11.067
X-10.014 Y-11.004 Z-0.918
X-9.946 Y-10.933 Z-0.92
X-9.94 Y-10.927
X-9.912 Y-10.893 Z-0.921
X-9.884 Y-10.859 Z-0.922
X-9.835 Y-10.791 Z-0.923
X-9.798 Y-10.733 Z-0.924
X-9.774 Y-10.691 Z-0.925
X-9.75 Y-10.649 Z-0.926
X-9.716 Y-10.578 Z-0.927
X-9.686 Y-10.507 Z-0.929
X-9.656 Y-10.418 Z-0.93
X-9.64 Y-10.365 Z-0.931
X-9.623 Y-10.294 Z-0.933
X-9.61 Y-10.223 Z-0.934
X-9.601 Y-10.152 Z-0.935
X-9.595 Y-10.081 Z-0.936
X-9.592 Y-10.01 Z-0.938
X-9.594 Y-9.939 Z-0.939
X-9.598 Y-9.868 Z-0.94
X-9.607 Y-9.797 Z-0.941
X-9.635 Y-9.655 Z-0.944
X-9.656 Y-9.582 Z-0.945
X-9.679 Y-9.513 Z-0.947
X-9.708 Y-9.442 Z-0.948
X-9.741 Y-9.371 Z-0.949
X-9.768 Y-9.319 Z-0.95
X-9.798 Y-9.267 Z-0.951
X-9.822 Y-9.229 Z-0.952
X-9.872 Y-9.158 Z-0.954
X-9.928 Y-9.087 Z-0.955
X-9.94 Y-9.073 Z-0.956
X-10. Y-9.009 Z-0.957
X-10.068 Y-8.945 Z-0.959
X-10.082 Y-8.933
X-10.153 Y-8.876 Z-0.961
X-10.224 Y-8.826 Z-0.962
X-10.26 Y-8.803 Z-0.963
X-10.366 Y-8.743 Z-0.965
X-10.437 Y-8.71 Z-0.966
X-10.508 Y-8.681 Z-0.968
X-10.567 Y-8.661 Z-0.969
X-10.65 Y-8.637 Z-0.97
X-10.721 Y-8.62 Z-0.972
X-10.792 Y-8.608 Z-0.973
X-10.863 Y-8.599 Z-0.974
X-10.934 Y-8.594 Z-0.975
X-11.076 Z-0.978
X-11.147 Y-8.6 Z-0.979
X-11.218 Y-8.609 Z-0.98
X-11.289 Y-8.622 Z-0.982
X-11.36 Y-8.639 Z-0.983
X-11.433 Y-8.661 Z-0.984
X-11.502 Y-8.685 Z-0.985
X-11.573 Y-8.714 Z-0.987
X-11.644 Y-8.748 Z-0.988
X-11.74 Y-8.803 Z-0.99
X-11.786 Y-8.832 Z-0.991
X-11.857 Y-8.883 Z-0.993
X-11.928 Y-8.941 Z-0.994
X-11.932 Y-8.945
X-12.006 Y-9.015 Z-0.996
X-12.038 Y-9.05 Z-0.997
X-12.07 Y-9.085 Z-0.998
X-12.072 Y-9.087
X-12.128 Y-9.158 Z-0.999
X-12.151 Y-9.191 Z-1.
X-12.178 Y-9.229
X-12.212 Y-9.283
X-12.259 Y-9.371
X-12.292 Y-9.442
X-12.321 Y-9.513
X-12.354 Y-9.615
X-12.365 Y-9.655
X-12.393 Y-9.797
X-12.402 Y-9.868
X-12.406 Y-9.939
X-12.408 Y-10.01
X-12.405 Y-10.081
X-12.399 Y-10.152
X-12.39 Y-10.223
X-12.377 Y-10.294
X-12.36 Y-10.365
X-12.354 Y-10.385
X-12.314 Y-10.507
X-12.284 Y-10.578
X-12.25 Y-10.649
X-12.212 Y-10.717
X-12.165 Y-10.791
X-12.12 Y-10.853
X-12.07 Y-10.915
X-12.054 Y-10.933
X-11.991 Y-11.
X-11.928 Y-11.059
X-11.909 Y-11.075
X-11.847 Y-11.124
X-11.786 Y-11.168
X-11.708 Y-11.217
X-11.644 Y-11.252
X-11.573 Y-11.286
X-11.502 Y-11.315
X-11.435 Y-11.339
X-11.368 Y-11.359
X-11.36 Y-11.361
X-11.289 Y-11.378
X-11.218 Y-11.391
X-11.147 Y-11.4
X-11.076 Y-11.406
X-10.934
X-10.863 Y-11.401
X-10.792 Y-11.392
X-10.721 Y-11.38
X-10.65 Y-11.363
X-10.632 Y-11.359
X-10.57 Y-11.34
X-10.508 Y-11.319
X-10.437 Y-11.29
X-10.366 Y-11.257
X-10.292 Y-11.217
X-10.224 Y-11.174
X-10.157 Y-11.128
X-10.091 Y-11.075
X-10.082 Y-11.067
X-10.014 Y-11.004
X-9.946 Y-10.933
X-9.94 Y-10.927
X-9.912 Y-10.893
X-9.884 Y-10.859
X-9.835 Y-10.791
X-9.798 Y-10.733
X-9.774 Y-10.691
X-9.75 Y-10.649
X-9.716 Y-10.578
X-9.686 Y-10.507
X-9.656 Y-10.418
X-9.64 Y-10.365
X-9.623 Y-10.294
X-9.61 Y-10.223
X-9.601 Y-10.152
X-9.595 Y-10.081
X-9.592 Y-10.01
X-9.594 Y-9.939
X-9.598 Y-9.868
X-9.607 Y-9.797
X-9.635 Y-9.655
X-9.656 Y-9.582
X-9.679 Y-9.513
X-9.708 Y-9.442
X-9.741 Y-9.371
X-9.768 Y-9.319
X-9.798 Y-9.267
X-9.822 Y-9.229
X-9.872 Y-9.158
X-9.928 Y-9.087
X-9.94 Y-9.073
X-10. Y-9.009
X-10.068 Y-8.945
X-10.082 Y-8.933
X-10.153 Y-8.876
X-10.224 Y-8.826
X-10.26 Y-8.803
X-10.366 Y-8.743
X-10.437 Y-8.71
X-10.508 Y-8.681
X-10.567 Y-8.661
X-10.65 Y-8.637
X-10.721 Y-8.62
X-10.792 Y-8.608
X-10.863 Y-8.599
X-10.934 Y-8.594
X-11.076
X-11.147 Y-8.6
X-11.218 Y-8.609
X-11.289 Y-8.622
X-11.36 Y-8.639
X-11.433 Y-8.661
X-11.502 Y-8.685
X-11.573 Y-8.714
X-11.644 Y-8.748
X-11.74 Y-8.803
X-11.786 Y-8.832
X-11.857 Y-8.883
X-11.928 Y-8.941
X-11.932 Y-8.945
X-12.006 Y-9.015
X-12.038 Y-9.05
X-12.07 Y-9.085
X-12.072 Y-9.087
X-12.128 Y-9.158
X-12.151 Y-9.191
X-12.178 Y-9.229 Z-1.001
X-12.212 Y-9.283 Z-1.002
X-12.259 Y-9.371 Z-1.004
X-12.292 Y-9.442 Z-1.005
X-12.321 Y-9.513 Z-1.006
X-12.354 Y-9.615 Z-1.008
X-12.365 Y-9.655 Z-1.009
X-12.393 Y-9.797 Z-1.011
X-12.402 Y-9.868 Z-1.013
X-12.406 Y-9.939 Z-1.014
X-12.408 Y-10.01 Z-1.015
X-12.405 Y-10.081 Z-1.016
X-12.399 Y-10.152 Z-1.018
X-12.39 Y-10.223 Z-1.019
X-12.377 Y-10.294 Z-1.02
X-12.36 Y-10.365 Z-1.021
X-12.354 Y-10.385 Z-1.022
X-12.314 Y-10.507 Z-1.024
X-12.284 Y-10.578 Z-1.025
X-12.25 Y-10.649 Z-1.027
X-12.212 Y-10.717 Z-1.028
X-12.165 Y-10.791 Z-1.03
X-12.12 Y-10.853 Z-1.031
X-12.07 Y-10.915 Z-1.032
X-12.054 Y-10.933 Z-1.033
X-11.991 Y-11. Z-1.034
X-11.928 Y-11.059 Z-1.036
X-11.909 Y-11.075
X-11.847 Y-11.124 Z-1.038
X-11.786 Y-11.168 Z-1.039
X-11.708 Y-11.217 Z-1.041
X-11.644 Y-11.252 Z-1.042
X-11.573 Y-11.286 Z-1.043
X-11.502 Y-11.315 Z-1.045
X-11.435 Y-11.339 Z-1.046
X-11.368 Y-11.359 Z-1.047
X-11.36 Y-11.361
X-11.289 Y-11.378 Z-1.049
X-11.218 Y-11.391 Z-1.05
X-11.147 Y-11.4 Z-1.051
X-11.076 Y-11.406 Z-1.052
X-10.934 Z-1.055
X-10.863 Y-11.401 Z-1.056
X-10.792 Y-11.392 Z-1.057
X-10.721 Y-11.38 Z-1.059
X-10.65 Y-11.363 Z-1.06
X-10.632 Y-11.359
X-10.57 Y-11.34 Z-1.061
X-10.508 Y-11.319 Z-1.062
X-10.437 Y-11.29 Z-1.064
X-10.366 Y-11.257 Z-1.065
X-10.292 Y-11.217 Z-1.067
X-10.224 Y-11.174 Z-1.068
X-10.157 Y-11.128 Z-1.069
X-10.091 Y-11.075 Z-1.071
X-10.082 Y-11.067
X-10.014 Y-11.004 Z-1.073
X-9.946 Y-10.933 Z-1.074
X-9.94 Y-10.927 Z-1.075
X-9.912 Y-10.893
X-9.884 Y-10.859 Z-1.076
X-9.835 Y-10.791 Z-1.078
X-9.798 Y-10.733 Z-1.079
X-9.774 Y-10.691 Z-1.08
X-9.75 Y-10.649
X-9.716 Y-10.578 Z-1.082
X-9.686 Y-10.507 Z-1.083
X-9.656 Y-10.418 Z-1.085
X-9.64 Y-10.365 Z-1.086
X-9.623 Y-10.294 Z-1.087
X-9.61 Y-10.223 Z-1.088
X-9.601 Y-10.152 Z-1.09
X-9.595 Y-10.081 Z-1.091
X-9.592 Y-10.01 Z-1.092
X-9.594 Y-9.939 Z-1.093
X-9.598 Y-9.868 Z-1.095
X-9.607 Y-9.797 Z-1.096
X-9.635 Y-9.655 Z-1.098
X-9.656 Y-9.582 Z-1.1
X-9.679 Y-9.513 Z-1.101
X-9.708 Y-9.442 Z-1.102
X-9.741 Y-9.371 Z-1.104
X-9.768 Y-9.319 Z-1.105
X-9.798 Y-9.267 Z-1.106
X-9.822 Y-9.229
X-9.872 Y-9.158 Z-1.108
X-9.928 Y-9.087 Z-1.11
X-9.94 Y-9.073
X-10. Y-9.009 Z-1.111
X-10.068 Y-8.945 Z-1.113
X-10.082 Y-8.933
X-10.153 Y-8.876 Z-1.115
X-10.224 Y-8.826 Z-1.116
X-10.26 Y-8.803 Z-1.117
X-10.366 Y-8.743 Z-1.119
X-10.437 Y-8.71 Z-1.121
X-10.508 Y-8.681 Z-1.122
X-10.567 Y-8.661 Z-1.123
X-10.65 Y-8.637 Z-1.125
X-10.721 Y-8.62 Z-1.126
X-10.792 Y-8.608 Z-1.127
X-10.863 Y-8.599 Z-1.128
X-10.934 Y-8.594 Z-1.13
X-11.076 Z-1.132
X-11.147 Y-8.6 Z-1.133
X-11.218 Y-8.609 Z-1.135
X-11.289 Y-8.622 Z-1.136
X-11.36 Y-8.639 Z-1.137
X-11.433 Y-8.661 Z-1.139
X-11.502 Y-8.685 Z-1.14
X-11.573 Y-8.714 Z-1.141
X-11.644 Y-8.748 Z-1.143
X-11.74 Y-8.803 Z-1.144
X-11.786 Y-8.832 Z-1.145
X-11.857 Y-8.883 Z-1.147
X-11.928 Y-8.941 Z-1.149
X-11.932 Y-8.945
X-12.006 Y-9.015 Z-1.15
X-12.038 Y-9.05 Z-1.151
X-12.07 Y-9.085 Z-1.152
X-12.072 Y-9.087
X-12.128 Y-9.158 Z-1.154
X-12.178 Y-9.229 Z-1.155
X-12.212 Y-9.283 Z-1.156
X-12.259 Y-9.371 Z-1.158
X-12.292 Y-9.442 Z-1.159
X-12.321 Y-9.513 Z-1.161
X-12.354 Y-9.615 Z-1.163
X-12.365 Y-9.655
X-12.393 Y-9.797 Z-1.166
X-12.402 Y-9.868 Z-1.167
X-12.406 Y-9.939 Z-1.168
X-12.408 Y-10.01 Z-1.17
X-12.405 Y-10.081 Z-1.171
X-12.399 Y-10.152 Z-1.172
X-12.39 Y-10.223 Z-1.173
X-12.377 Y-10.294 Z-1.175
X-12.36 Y-10.365 Z-1.176
X-12.354 Y-10.385
X-12.314 Y-10.507 Z-1.178
X-12.284 Y-10.578 Z-1.18
X-12.25 Y-10.649 Z-1.181
X-12.212 Y-10.717 Z-1.183
X-12.165 Y-10.791 Z-1.184
X-12.12 Y-10.853 Z-1.185
X-12.07 Y-10.915 Z-1.187
X-12.054 Y-10.933
X-11.991 Y-11. Z-1.189
X-11.928 Y-11.059 Z-1.19
X-11.909 Y-11.075 Z-1.191
X-11.847 Y-11.124 Z-1.192
X-11.786 Y-11.168 Z-1.193
X-11.708 Y-11.217 Z-1.195
X-11.644 Y-11.252 Z-1.196
X-11.573 Y-11.286 Z-1.198
X-11.502 Y-11.315 Z-1.199
X-11.435 Y-11.339 Z-1.2
X-11.368 Y-11.359 Z-1.202
X-11.36 Y-11.361
X-11.289 Y-11.378 Z-1.203
X-11.218 Y-11.391 Z-1.204
X-11.147 Y-11.4 Z-1.205
X-11.076 Y-11.406 Z-1.207
X-10.934 Z-1.209
X-10.863 Y-11.401 Z-1.21
X-10.792 Y-11.392 Z-1.212
X-10.721 Y-11.38 Z-1.213
X-10.65 Y-11.363 Z-1.214
X-10.632 Y-11.359 Z-1.215
X-10.57 Y-11.34 Z-1.216
X-10.508 Y-11.319 Z-1.217
X-10.437 Y-11.29 Z-1.218
X-10.366 Y-11.257 Z-1.219
X-10.292 Y-11.217 Z-1.221
X-10.224 Y-11.174 Z-1.222
X-10.157 Y-11.128 Z-1.224
X-10.091 Y-11.075 Z-1.225
X-10.082 Y-11.067
X-10.014 Y-11.004 Z-1.227
X-9.946 Y-10.933 Z-1.229
X-9.94 Y-10.927
X-9.912 Y-10.893 Z-1.23
X-9.884 Y-10.859
X-9.835 Y-10.791 Z-1.232
X-9.798 Y-10.733 Z-1.233
X-9.774 Y-10.691 Z-1.234
X-9.75 Y-10.649 Z-1.235
X-9.716 Y-10.578 Z-1.236
X-9.686 Y-10.507 Z-1.238
X-9.656 Y-10.418 Z-1.239
X-9.64 Y-10.365 Z-1.24
X-9.623 Y-10.294 Z-1.241
X-9.61 Y-10.223 Z-1.243
X-9.601 Y-10.152 Z-1.244
X-9.595 Y-10.081 Z-1.245
X-9.592 Y-10.01 Z-1.246
X-9.594 Y-9.939 Z-1.248
X-9.598 Y-9.868 Z-1.249
X-9.606 Y-9.806 Z-1.25
X-9.607 Y-9.797
X-9.635 Y-9.655
X-9.656 Y-9.582
X-9.679 Y-9.513
X-9.708 Y-9.442
X-9.741 Y-9.371
X-9.768 Y-9.319
X-9.798 Y-9.267
X-9.822 Y-9.229
X-9.872 Y-9.158
X-9.928 Y-9.087
X-9.94 Y-9.073
X-10. Y-9.009
X-10.068 Y-8.945
X-10.082 Y-8.933
X-10.153 Y-8.876
X-10.224 Y-8.826
X-10.26 Y-8.803
X-10.366 Y-8.743
X-10.437 Y-8.71
X-10.508 Y-8.681
X-10.567 Y-8.661
X-10.65 Y-8.637
X-10.721 Y-8.62
X-10.792 Y-8.608
X-10.863 Y-8.599
X-10.934 Y-8.594
X-11.076
X-11.147 Y-8.6
X-11.218 Y-8.609
X-11.289 Y-8.622
X-11.36 Y-8.639
X-11.433 Y-8.661
X-11.502 Y-8.685
X-11.573 Y-8.714
X-11.644 Y-8.748
X-11.74 Y-8.803
X-11.786 Y-8.832
X-11.857 Y-8.883
X-11.928 Y-8.941
X-11.932 Y-8.945
X-12.006 Y-9.015
X-12.038 Y-9.05
X-12.07 Y-9.085
X-12.072 Y-9.087
X-12.128 Y-9.158
X-12.178 Y-9.229
X-12.212 Y-9.283
X-12.259 Y-9.371
X-12.292 Y-9.442
X-12.321 Y-9.513
X-12.354 Y-9.615
X-12.365 Y-9.655
X-12.393 Y-9.797
X-12.402 Y-9.868
X-12.406 Y-9.939
X-12.408 Y-10.01
X-12.405 Y-10.081
X-12.399 Y-10.152
X-12.39 Y-10.223
X-12.377 Y-10.294
X-12.36 Y-10.365
X-12.354 Y-10.385
X-12.314 Y-10.507
X-12.284 Y-10.578
X-12.25 Y-10.649
X-12.212 Y-10.717
X-12.165 Y-10.791
X-12.12 Y-10.853
X-12.07 Y-10.915
X-12.054 Y-10.933
X-11.991 Y-11.
X-11.928 Y-11.059
X-11.909 Y-11.075
X-11.847 Y-11.124
X-11.786 Y-11.168
X-11.708 Y-11.217
X-11.644 Y-11.252
X-11.573 Y-11.286
X-11.502 Y-11.315
X-11.435 Y-11.339
X-11.368 Y-11.359
X-11.36 Y-11.361
X-11.289 Y-11.378
X-11.218 Y-11.391
X-11.147 Y-11.4
X-11.076 Y-11.406
X-10.934
X-10.863 Y-11.401
X-10.792 Y-11.392
X-10.721 Y-11.38
X-10.65 Y-11.363
X-10.632 Y-11.359
X-10.57 Y-11.34
X-10.508 Y-11.319
X-10.437 Y-11.29
X-10.366 Y-11.257
X-10.292 Y-11.217
X-10.224 Y-11.174
X-10.157 Y-11.128
X-10.091 Y-11.075
X-10.082 Y-11.067
X-10.014 Y-11.004
X-9.946 Y-10.933
X-9.94 Y-10.927
X-9.912 Y-10.893
X-9.884 Y-10.859
X-9.835 Y-10.791
X-9.798 Y-10.733
X-9.774 Y-10.691
X-9.75 Y-10.649
X-9.716 Y-10.578
X-9.686 Y-10.507
X-9.656 Y-10.418
X-9.64 Y-10.365
X-9.623 Y-10.294
X-9.61 Y-10.223
X-9.601 Y-10.152
X-9.595 Y-10.081
X-9.592 Y-10.01
X-9.594 Y-9.939
X-9.598 Y-9.868
X-9.606 Y-9.806
X-9.607 Y-9.797
X-9.635 Y-9.655 Z-1.253
X-9.656 Y-9.582 Z-1.254
X-9.679 Y-9.513 Z-1.255
X-9.708 Y-9.442 Z-1.257
X-9.741 Y-9.371 Z-1.258
X-9.768 Y-9.319 Z-1.259
X-9.798 Y-9.267 Z-1.26
X-9.822 Y-9.229 Z-1.261
X-9.872 Y-9.158 Z-1.262
X-9.928 Y-9.087 Z-1.264
X-9.94 Y-9.073
X-10. Y-9.009 Z-1.266
X-10.068 Y-8.945 Z-1.267
X-10.082 Y-8.933 Z-1.268
X-10.153 Y-8.876 Z-1.269
X-10.224 Y-8.826 Z-1.271
X-10.26 Y-8.803 Z-1.272
X-10.366 Y-8.743 Z-1.274
X-10.437 Y-8.71 Z-1.275
X-10.508 Y-8.681 Z-1.276
X-10.567 Y-8.661 Z-1.278
X-10.65 Y-8.637 Z-1.279
X-10.721 Y-8.62 Z-1.28
X-10.792 Y-8.608 Z-1.282
X-10.863 Y-8.599 Z-1.283
X-10.934 Y-8.594 Z-1.284
X-11.076 Z-1.287
X-11.147 Y-8.6 Z-1.288
X-11.218 Y-8.609 Z-1.289
X-11.289 Y-8.622 Z-1.29
X-11.36 Y-8.639 Z-1.292
X-11.433 Y-8.661 Z-1.293
X-11.502 Y-8.685 Z-1.294
X-11.573 Y-8.714 Z-1.295
X-11.644 Y-8.748 Z-1.297
X-11.74 Y-8.803 Z-1.299
X-11.786 Y-8.832 Z-1.3
X-11.857 Y-8.883 Z-1.301
X-11.928 Y-8.941 Z-1.303
X-11.932 Y-8.945
X-12.006 Y-9.015 Z-1.305
X-12.038 Y-9.05 Z-1.306
X-12.07 Y-9.085
X-12.072 Y-9.087
X-12.128 Y-9.158 Z-1.308
X-12.178 Y-9.229 Z-1.31
X-12.212 Y-9.283 Z-1.311
X-12.259 Y-9.371 Z-1.312
X-12.292 Y-9.442 Z-1.314
X-12.321 Y-9.513 Z-1.315
X-12.354 Y-9.615 Z-1.317
X-12.365 Y-9.655 Z-1.318
X-12.393 Y-9.797 Z-1.32
X-12.402 Y-9.868 Z-1.321
X-12.406 Y-9.939 Z-1.323
X-12.408 Y-10.01 Z-1.324
X-12.405 Y-10.081 Z-1.325
X-12.399 Y-10.152 Z-1.326
X-12.39 Y-10.223 Z-1.328
X-12.377 Y-10.294 Z-1.329
X-12.36 Y-10.365 Z-1.33
X-12.354 Y-10.385 Z-1.331
X-12.314 Y-10.507 Z-1.333
X-12.284 Y-10.578 Z-1.334
X-12.25 Y-10.649 Z-1.336
X-12.212 Y-10.717 Z-1.337
X-12.165 Y-10.791 Z-1.338
X-12.12 Y-10.853 Z-1.34
X-12.07 Y-10.915 Z-1.341
X-12.054 Y-10.933 Z-1.342
X-11.991 Y-11. Z-1.343
X-11.928 Y-11.059 Z-1.345
X-11.909 Y-11.075
X-11.847 Y-11.124 Z-1.347
X-11.786 Y-11.168 Z-1.348
X-11.708 Y-11.217 Z-1.349
X-11.644 Y-11.252 Z-1.351
X-11.573 Y-11.286 Z-1.352
X-11.502 Y-11.315 Z-1.353
X-11.435 Y-11.339 Z-1.355
X-11.368 Y-11.359 Z-1.356
X-11.36 Y-11.361
X-11.289 Y-11.378 Z-1.357
X-11.218 Y-11.391 Z-1.359
X-11.147 Y-11.4 Z-1.36
X-11.076 Y-11.406 Z-1.361
X-10.934 Z-1.364
X-10.863 Y-11.401 Z-1.365
X-10.792 Y-11.392 Z-1.366
X-10.721 Y-11.38 Z-1.367
X-10.65 Y-11.363 Z-1.369
X-10.632 Y-11.359
X-10.57 Y-11.34 Z-1.37
X-10.508 Y-11.319 Z-1.371
X-10.437 Y-11.29 Z-1.372
X-10.366 Y-11.257 Z-1.374
X-10.292 Y-11.217 Z-1.375
X-10.224 Y-11.174 Z-1.377
X-10.157 Y-11.128 Z-1.378
X-10.091 Y-11.075 Z-1.38
X-10.082 Y-11.067
X-10.014 Y-11.004 Z-1.381
X-9.946 Y-10.933 Z-1.383
X-9.94 Y-10.927
X-9.912 Y-10.893 Z-1.384
X-9.884 Y-10.859 Z-1.385
X-9.835 Y-10.791 Z-1.386
X-9.798 Y-10.733 Z-1.388
X-9.774 Y-10.691
X-9.75 Y-10.649 Z-1.389
X-9.716 Y-10.578 Z-1.391
X-9.686 Y-10.507 Z-1.392
X-9.656 Y-10.418 Z-1.394
X-9.64 Y-10.365 Z-1.395
X-9.623 Y-10.294 Z-1.396
X-9.61 Y-10.223 Z-1.397
X-9.601 Y-10.152 Z-1.398
X-9.595 Y-10.081 Z-1.4
X-9.592 Y-10.01 Z-1.401
X-9.594 Y-9.939 Z-1.402
X-9.598 Y-9.868 Z-1.403
X-9.607 Y-9.797 Z-1.405
X-9.635 Y-9.655 Z-1.407
X-9.656 Y-9.582 Z-1.408
X-9.679 Y-9.513 Z-1.41
X-9.708 Y-9.442 Z-1.411
X-9.741 Y-9.371 Z-1.412
X-9.768 Y-9.319 Z-1.413
X-9.798 Y-9.267 Z-1.414
X-9.822 Y-9.229 Z-1.415
X-9.872 Y-9.158 Z-1.417
X-9.928 Y-9.087 Z-1.418
X-9.94 Y-9.073 Z-1.419
X-10. Y-9.009 Z-1.42
X-10.068 Y-8.945 Z-1.422
X-10.082 Y-8.933
X-10.153 Y-8.876 Z-1.424
X-10.224 Y-8.826 Z-1.425
X-10.26 Y-8.803 Z-1.426
X-10.366 Y-8.743 Z-1.428
X-10.437 Y-8.71 Z-1.429
X-10.508 Y-8.681 Z-1.431
X-10.567 Y-8.661 Z-1.432
X-10.65 Y-8.637 Z-1.433
X-10.721 Y-8.62 Z-1.435
X-10.792 Y-8.608 Z-1.436
X-10.863 Y-8.599 Z-1.437
X-10.934 Y-8.594 Z-1.438
X-11.076 Z-1.441
X-11.147 Y-8.6 Z-1.442
X-11.218 Y-8.609 Z-1.443
X-11.289 Y-8.622 Z-1.445
X-11.36 Y-8.639 Z-1.446
X-11.433 Y-8.661 Z-1.447
X-11.502 Y-8.685 Z-1.449
X-11.573 Y-8.714 Z-1.45
X-11.644 Y-8.748 Z-1.451
X-11.74 Y-8.803 Z-1.453
X-11.786 Y-8.832 Z-1.454
X-11.857 Y-8.883 Z-1.456
X-11.928 Y-8.941 Z-1.457
X-11.932 Y-8.945
X-12.006 Y-9.015 Z-1.459
X-12.038 Y-9.05 Z-1.46
X-12.07 Y-9.085 Z-1.461
X-12.072 Y-9.087
X-12.128 Y-9.158 Z-1.462
X-12.178 Y-9.229 Z-1.464
X-12.212 Y-9.283 Z-1.465
X-12.259 Y-9.371 Z-1.467
X-12.292 Y-9.442 Z-1.468
X-12.321 Y-9.513 Z-1.469
X-12.354 Y-9.615 Z-1.471
X-12.365 Y-9.655 Z-1.472
X-12.393 Y-9.797 Z-1.475
X-12.402 Y-9.868 Z-1.476
X-12.406 Y-9.939 Z-1.477
X-12.408 Y-10.01 Z-1.478
X-12.405 Y-10.081 Z-1.48
X-12.399 Y-10.152 Z-1.481
X-12.39 Y-10.223 Z-1.482
X-12.377 Y-10.294 Z-1.483
X-12.36 Y-10.365 Z-1.485
X-12.354 Y-10.385
X-12.314 Y-10.507 Z-1.487
X-12.284 Y-10.578 Z-1.489
X-12.25 Y-10.649 Z-1.49
X-12.212 Y-10.717 Z-1.491
X-12.165 Y-10.791 Z-1.493
X-12.12 Y-10.853 Z-1.494
X-12.07 Y-10.915 Z-1.496
X-12.054 Y-10.933
X-11.991 Y-11. Z-1.498
X-11.928 Y-11.059 Z-1.499
X-11.909 Y-11.075 Z-1.5
X-11.887 Y-11.092
X-11.847 Y-11.124
X-11.786 Y-11.168
X-11.708 Y-11.217
X-11.644 Y-11.252
X-11.573 Y-11.286
X-11.502 Y-11.315
X-11.435 Y-11.339
X-11.368 Y-11.359
X-11.36 Y-11.361
X-11.289 Y-11.378
X-11.218 Y-11.391
X-11.147 Y-11.4
X-11.076 Y-11.406
X-10.934
X-10.863 Y-11.401
X-10.792 Y-11.392
X-10.721 Y-11.38
X-10.65 Y-11.363
X-10.632 Y-11.359
X-10.57 Y-11.34
X-10.508 Y-11.319
X-10.437 Y-11.29
X-10.366 Y-11.257
X-10.292 Y-11.217
X-10.224 Y-11.174
X-10.157 Y-11.128
X-10.091 Y-11.075
X-10.082 Y-11.067
X-10.014 Y-11.004
X-9.946 Y-10.933
X-9.94 Y-10.927
X-9.912 Y-10.893
X-9.884 Y-10.859
X-9.835 Y-10.791
X-9.798 Y-10.733
X-9.774 Y-10.691
X-9.75 Y-10.649
X-9.716 Y-10.578
X-9.686 Y-10.507
X-9.656 Y-10.418
X-9.64 Y-10.365
X-9.623 Y-10.294
X-9.61 Y-10.223
X-9.601 Y-10.152
X-9.595 Y-10.081
X-9.592 Y-10.01
X-9.594 Y-9.939
X-9.598 Y-9.868
X-9.606 Y-9.806
X-9.607 Y-9.797
X-9.635 Y-9.655
X-9.656 Y-9.582
X-9.679 Y-9.513
X-9.708 Y-9.442
X-9.741 Y-9.371
X-9.768 Y-9.319
X-9.798 Y-9.267
X-9.822 Y-9.229
X-9.872 Y-9.158
X-9.928 Y-9.087
X-9.94 Y-9.073
X-10. Y-9.009
X-10.068 Y-8.945
X-10.082 Y-8.933
X-10.153 Y-8.876
X-10.224 Y-8.826
X-10.26 Y-8.803
X-10.366 Y-8.743
X-10.437 Y-8.71
X-10.508 Y-8.681
X-10.567 Y-8.661
X-10.65 Y-8.637
X-10.721 Y-8.62
X-10.792 Y-8.608
X-10.863 Y-8.599
X-10.934 Y-8.594
X-11.076
X-11.147 Y-8.6
X-11.218 Y-8.609
X-11.289 Y-8.622
X-11.36 Y-8.639
X-11.433 Y-8.661
X-11.502 Y-8.685
X-11.573 Y-8.714
X-11.644 Y-8.748
X-11.74 Y-8.803
X-11.786 Y-8.832
X-11.857 Y-8.883
X-11.928 Y-8.941
X-11.932 Y-8.945
X-12.006 Y-9.015
X-12.038 Y-9.05
X-12.07 Y-9.085
X-12.072 Y-9.087
X-12.128 Y-9.158
X-12.178 Y-9.229
X-12.212 Y-9.283
X-12.259 Y-9.371
X-12.292 Y-9.442
X-12.321 Y-9.513
X-12.354 Y-9.615
X-12.365 Y-9.655
X-12.393 Y-9.797
X-12.402 Y-9.868
X-12.406 Y-9.939
X-12.408 Y-10.01
X-12.405 Y-10.081
X-12.399 Y-10.152
X-12.39 Y-10.223
X-12.377 Y-10.294
X-12.36 Y-10.365
X-12.354 Y-10.385
X-12.314 Y-10.507
X-12.284 Y-10.578
X-12.25 Y-10.649
X-12.212 Y-10.717
X-12.165 Y-10.791
X-12.12 Y-10.853
X-12.07 Y-10.915
X-12.054 Y-10.933
X-11.991 Y-11.
X-11.928 Y-11.059
X-11.909 Y-11.075
X-11.887 Y-11.092
X-11.847 Y-11.124 Z-1.501
X-11.786 Y-11.168 Z-1.502
X-11.708 Y-11.217 Z-1.504
X-11.644 Y-11.252 Z-1.505
X-11.573 Y-11.286 Z-1.506
X-11.502 Y-11.315 Z-1.508
X-11.435 Y-11.339 Z-1.509
X-11.368 Y-11.359 Z-1.51
X-11.36 Y-11.361
X-11.289 Y-11.378 Z-1.512
X-11.218 Y-11.391 Z-1.513
X-11.147 Y-11.4 Z-1.514
X-11.076 Y-11.406 Z-1.515
X-10.934 Z-1.518
X-10.863 Y-11.401 Z-1.519
X-10.792 Y-11.392 Z-1.52
X-10.721 Y-11.38 Z-1.522
X-10.65 Y-11.363 Z-1.523
X-10.632 Y-11.359
X-10.57 Y-11.34 Z-1.524
X-10.508 Y-11.319 Z-1.526
X-10.437 Y-11.29 Z-1.527
X-10.366 Y-11.257 Z-1.528
X-10.292 Y-11.217 Z-1.53
X-10.224 Y-11.174 Z-1.531
X-10.157 Y-11.128 Z-1.533
X-10.091 Y-11.075 Z-1.534
X-10.082 Y-11.067
X-10.014 Y-11.004 Z-1.536
X-9.946 Y-10.933 Z-1.538
X-9.94 Y-10.927
X-9.912 Y-10.893
X-9.884 Y-10.859 Z-1.539
X-9.835 Y-10.791 Z-1.541
X-9.798 Y-10.733 Z-1.542
X-9.774 Y-10.691 Z-1.543
X-9.75 Y-10.649 Z-1.544
X-9.716 Y-10.578 Z-1.545
X-9.686 Y-10.507 Z-1.546
X-9.656 Y-10.418 Z-1.548
X-9.64 Y-10.365 Z-1.549
X-9.623 Y-10.294 Z-1.55
X-9.61 Y-10.223 Z-1.551
X-9.601 Y-10.152 Z-1.553
X-9.595 Y-10.081 Z-1.554
X-9.592 Y-10.01 Z-1.555
X-9.594 Y-9.939 Z-1.556
X-9.598 Y-9.868 Z-1.558
X-9.607 Y-9.797 Z-1.559
X-9.635 Y-9.655 Z-1.561
X-9.656 Y-9.582 Z-1.563
X-9.679 Y-9.513 Z-1.564
X-9.708 Y-9.442 Z-1.565
X-9.741 Y-9.371 Z-1.567
X-9.768 Y-9.319 Z-1.568
X-9.798 Y-9.267 Z-1.569
X-9.822 Y-9.229 Z-1.57
X-9.872 Y-9.158 Z-1.571
X-9.928 Y-9.087 Z-1.573
X-9.94 Y-9.073
X-10. Y-9.009 Z-1.575
X-10.068 Y-8.945 Z-1.576
X-10.082 Y-8.933
X-10.153 Y-8.876 Z-1.578
X-10.224 Y-8.826 Z-1.58
X-10.26 Y-8.803
X-10.366 Y-8.743 Z-1.582
X-10.437 Y-8.71 Z-1.584
X-10.508 Y-8.681 Z-1.585
X-10.567 Y-8.661 Z-1.586
X-10.65 Y-8.637 Z-1.588
X-10.721 Y-8.62 Z-1.589
X-10.792 Y-8.608 Z-1.59
X-10.863 Y-8.599 Z-1.592
X-10.934 Y-8.594 Z-1.593
X-11.076 Z-1.595
X-11.147 Y-8.6 Z-1.597
X-11.218 Y-8.609 Z-1.598
X-11.289 Y-8.622 Z-1.599
X-11.36 Y-8.639 Z-1.6
X-11.433 Y-8.661 Z-1.602
X-11.502 Y-8.685 Z-1.603
X-11.573 Y-8.714 Z-1.604
X-11.644 Y-8.748 Z-1.606
X-11.74 Y-8.803 Z-1.608
X-11.786 Y-8.832
X-11.857 Y-8.883 Z-1.61
X-11.928 Y-8.941 Z-1.612
X-11.932 Y-8.945
X-12.006 Y-9.015 Z-1.613
X-12.038 Y-9.05 Z-1.614
X-12.07 Y-9.085 Z-1.615
X-12.072 Y-9.087
X-12.128 Y-9.158 Z-1.617
X-12.178 Y-9.229 Z-1.618
X-12.212 Y-9.283 Z-1.619
X-12.259 Y-9.371 Z-1.621
X-12.292 Y-9.442 Z-1.623
X-12.321 Y-9.513 Z-1.624
X-12.354 Y-9.615 Z-1.626
X-12.365 Y-9.655
X-12.393 Y-9.797 Z-1.629
X-12.402 Y-9.868 Z-1.63
X-12.406 Y-9.939 Z-1.631
X-12.408 Y-10.01 Z-1.633
X-12.405 Y-10.081 Z-1.634
X-12.399 Y-10.152 Z-1.635
X-12.39 Y-10.223 Z-1.636
X-12.377 Y-10.294 Z-1.638
X-12.36 Y-10.365 Z-1.639
X-12.354 Y-10.385
X-12.314 Y-10.507 Z-1.642
X-12.284 Y-10.578 Z-1.643
X-12.25 Y-10.649 Z-1.644
X-12.212 Y-10.717 Z-1.646
X-12.165 Y-10.791 Z-1.647
X-12.12 Y-10.853 Z-1.649
X-12.07 Y-10.915 Z-1.65
X-12.054 Y-10.933
X-11.991 Y-11. Z-1.652
X-11.928 Y-11.059 Z-1.653
X-11.909 Y-11.075 Z-1.654
X-11.847 Y-11.124 Z-1.655
X-11.786 Y-11.168 Z-1.657
X-11.708 Y-11.217 Z-1.658
X-11.644 Y-11.252 Z-1.659
X-11.573 Y-11.286 Z-1.661
X-11.502 Y-11.315 Z-1.662
X-11.435 Y-11.339 Z-1.663
X-11.368 Y-11.359 Z-1.665
X-11.36 Y-11.361
X-11.289 Y-11.378 Z-1.666
X-11.218 Y-11.391 Z-1.667
X-11.147 Y-11.4 Z-1.669
X-11.076 Y-11.406 Z-1.67
X-10.934 Z-1.672
X-10.863 Y-11.401 Z-1.674
X-10.792 Y-11.392 Z-1.675
X-10.721 Y-11.38 Z-1.676
X-10.65 Y-11.363 Z-1.677
X-10.632 Y-11.359 Z-1.678
X-10.57 Y-11.34 Z-1.679
X-10.508 Y-11.319 Z-1.68
X-10.437 Y-11.29 Z-1.681
X-10.366 Y-11.257 Z-1.683
X-10.292 Y-11.217 Z-1.684
X-10.224 Y-11.174 Z-1.685
X-10.157 Y-11.128 Z-1.687
X-10.091 Y-11.075 Z-1.688
X-10.082 Y-11.067 Z-1.689
X-10.014 Y-11.004 Z-1.69
X-9.946 Y-10.933 Z-1.692
X-9.94 Y-10.927
X-9.912 Y-10.893 Z-1.693
X-9.884 Y-10.859 Z-1.694
X-9.835 Y-10.791 Z-1.695
X-9.798 Y-10.733 Z-1.696
X-9.774 Y-10.691 Z-1.697
X-9.75 Y-10.649 Z-1.698
X-9.716 Y-10.578 Z-1.699
X-9.686 Y-10.507 Z-1.701
X-9.656 Y-10.418 Z-1.702
X-9.64 Y-10.365 Z-1.703
X-9.623 Y-10.294 Z-1.705
X-9.61 Y-10.223 Z-1.706
X-9.601 Y-10.152 Z-1.707
X-9.595 Y-10.081 Z-1.708
X-9.592 Y-10.01 Z-1.71
X-9.594 Y-9.939 Z-1.711
X-9.598 Y-9.868 Z-1.712
X-9.607 Y-9.797 Z-1.713
X-9.635 Y-9.655 Z-1.716
X-9.656 Y-9.582 Z-1.717
X-9.679 Y-9.513 Z-1.718
X-9.708 Y-9.442 Z-1.72
X-9.741 Y-9.371 Z-1.721
X-9.768 Y-9.319 Z-1.722
X-9.798 Y-9.267 Z-1.723
X-9.822 Y-9.229 Z-1.724
X-9.872 Y-9.158 Z-1.725
X-9.928 Y-9.087 Z-1.727
X-9.94 Y-9.073
X-10. Y-9.009 Z-1.729
X-10.068 Y-8.945 Z-1.731
X-10.082 Y-8.933
X-10.153 Y-8.876 Z-1.732
X-10.224 Y-8.826 Z-1.734
X-10.26 Y-8.803 Z-1.735
X-10.366 Y-8.743 Z-1.737
X-10.437 Y-8.71 Z-1.738
X-10.508 Y-8.681 Z-1.74
X-10.567 Y-8.661 Z-1.741
X-10.65 Y-8.637 Z-1.742
X-10.721 Y-8.62 Z-1.743
X-10.792 Y-8.608 Z-1.745
X-10.863 Y-8.599 Z-1.746
X-10.934 Y-8.594 Z-1.747
X-11.076 Z-1.75
X-11.096 Y-8.596
X-11.147 Y-8.6
X-11.218 Y-8.609
X-11.289 Y-8.622
X-11.36 Y-8.639
X-11.433 Y-8.661
X-11.502 Y-8.685
X-11.573 Y-8.714
X-11.644 Y-8.748
X-11.74 Y-8.803
X-11.786 Y-8.832
X-11.857 Y-8.883
X-11.928 Y-8.941
X-11.932 Y-8.945
X-12.006 Y-9.015
X-12.038 Y-9.05
X-12.07 Y-9.085
X-12.072 Y-9.087
X-12.128 Y-9.158
X-12.178 Y-9.229
X-12.212 Y-9.283
X-12.259 Y-9.371
X-12.292 Y-9.442
X-12.321 Y-9.513
X-12.354 Y-9.615
X-12.365 Y-9.655
X-12.393 Y-9.797
X-12.402 Y-9.868
X-12.406 Y-9.939
X-12.408 Y-10.01
X-12.405 Y-10.081
X-12.399 Y-10.152
X-12.39 Y-10.223
X-12.377 Y-10.294
X-12.36 Y-10.365
X-12.354 Y-10.385
X-12.314 Y-10.507
X-12.284 Y-10.578
X-12.25 Y-10.649
X-12.212 Y-10.717
X-12.165 Y-10.791
X-12.12 Y-10.853
X-12.07 Y-10.915
X-12.054 Y-10.933
X-11.991 Y-11.
X-11.928 Y-11.059
X-11.909 Y-11.075
X-11.847 Y-11.124
X-11.786 Y-11.168
X-11.708 Y-11.217
X-11.644 Y-11.252
X-11.573 Y-11.286
X-11.502 Y-11.315
X-11.435 Y-11.339
X-11.368 Y-11.359
X-11.36 Y-11.361
X-11.289 Y-11.378
X-11.218 Y-11.391
X-11.147 Y-11.4
X-11.076 Y-11.406
X-10.934
X-10.863 Y-11.401
X-10.792 Y-11.392
X-10.721 Y-11.38
X-10.65 Y-11.363
X-10.632 Y-11.359
X-10.57 Y-11.34
X-10.508 Y-11.319
X-10.437 Y-11.29
X-10.366 Y-11.257
X-10.292 Y-11.217
X-10.224 Y-11.174
X-10.157 Y-11.128
X-10.091 Y-11.075
X-10.082 Y-11.067
X-10.014 Y-11.004
X-9.946 Y-10.933
X-9.94 Y-10.927
X-9.912 Y-10.893
X-9.884 Y-10.859
X-9.835 Y-10.791
X-9.798 Y-10.733
X-9.774 Y-10.691
X-9.75 Y-10.649
X-9.716 Y-10.578
X-9.686 Y-10.507
X-9.656 Y-10.418
X-9.64 Y-10.365
X-9.623 Y-10.294
X-9.61 Y-10.223
X-9.601 Y-10.152
X-9.595 Y-10.081
X-9.592 Y-10.01
X-9.594 Y-9.939
X-9.598 Y-9.868
X-9.607 Y-9.797
X-9.635 Y-9.655
X-9.656 Y-9.582
X-9.679 Y-9.513
X-9.708 Y-9.442
X-9.741 Y-9.371
X-9.768 Y-9.319
X-9.798 Y-9.267
X-9.822 Y-9.229
X-9.872 Y-9.158
X-9.928 Y-9.087
X-9.94 Y-9.073
X-10. Y-9.009
X-10.068 Y-8.945
X-10.082 Y-8.933
X-10.153 Y-8.876
X-10.224 Y-8.826
X-10.26 Y-8.803
X-10.366 Y-8.743
X-10.437 Y-8.71
X-10.508 Y-8.681
X-10.567 Y-8.661
X-10.65 Y-8.637
X-10.721 Y-8.62
X-10.792 Y-8.608
X-10.863 Y-8.599
X-10.934 Y-8.594
X-11.076
X-11.096 Y-8.596
X-11.147 Y-8.6 Z-1.751
X-11.218 Y-8.609 Z-1.752
X-11.289 Y-8.622 Z-1.753
X-11.36 Y-8.639 Z-1.755
X-11.433 Y-8.661 Z-1.756
X-11.502 Y-8.685 Z-1.757
X-11.573 Y-8.714 Z-1.759
X-11.644 Y-8.748 Z-1.76
X-11.74 Y-8.803 Z-1.762
X-11.786 Y-8.832 Z-1.763
X-11.857 Y-8.883 Z-1.764
X-11.928 Y-8.941 Z-1.766
X-11.932 Y-8.945
X-12.006 Y-9.015 Z-1.768
X-12.038 Y-9.05 Z-1.769
X-12.07 Y-9.085 Z-1.77
X-12.072 Y-9.087
X-12.128 Y-9.158 Z-1.771
X-12.178 Y-9.229 Z-1.773
X-12.212 Y-9.283 Z-1.774
X-12.259 Y-9.371 Z-1.776
X-12.292 Y-9.442 Z-1.777
X-12.321 Y-9.513 Z-1.778
X-12.354 Y-9.615 Z-1.78
X-12.365 Y-9.655 Z-1.781
X-12.393 Y-9.797 Z-1.783
X-12.402 Y-9.868 Z-1.785
X-12.406 Y-9.939 Z-1.786
X-12.408 Y-10.01 Z-1.787
X-12.405 Y-10.081 Z-1.788
X-12.399 Y-10.152 Z-1.79
X-12.39 Y-10.223 Z-1.791
X-12.377 Y-10.294 Z-1.792
X-12.36 Y-10.365 Z-1.793
X-12.354 Y-10.385 Z-1.794
X-12.314 Y-10.507 Z-1.796
X-12.284 Y-10.578 Z-1.797
X-12.25 Y-10.649 Z-1.799
X-12.212 Y-10.717 Z-1.8
X-12.165 Y-10.791 Z-1.802
X-12.12 Y-10.853 Z-1.803
X-12.07 Y-10.915 Z-1.804
X-12.054 Y-10.933 Z-1.805
X-11.991 Y-11. Z-1.806
X-11.928 Y-11.059 Z-1.808
X-11.909 Y-11.075
X-11.847 Y-11.124 Z-1.81
X-11.786 Y-11.168 Z-1.811
X-11.708 Y-11.217 Z-1.813
X-11.644 Y-11.252 Z-1.814
X-11.573 Y-11.286 Z-1.815
X-11.502 Y-11.315 Z-1.817
X-11.435 Y-11.339 Z-1.818
X-11.368 Y-11.359 Z-1.819
X-11.36 Y-11.361
X-11.289 Y-11.378 Z-1.82
X-11.218 Y-11.391 Z-1.822
X-11.147 Y-11.4 Z-1.823
X-11.076 Y-11.406 Z-1.824
X-10.934 Z-1.827
X-10.863 Y-11.401 Z-1.828
X-10.792 Y-11.392 Z-1.829
X-10.721 Y-11.38 Z-1.83
X-10.65 Y-11.363 Z-1.832
X-10.632 Y-11.359
X-10.57 Y-11.34 Z-1.833
X-10.508 Y-11.319 Z-1.834
X-10.437 Y-11.29 Z-1.836
X-10.366 Y-11.257 Z-1.837
X-10.292 Y-11.217 Z-1.838
X-10.224 Y-11.174 Z-1.84
X-10.157 Y-11.128 Z-1.841
X-10.091 Y-11.075 Z-1.843
X-10.082 Y-11.067
X-10.014 Y-11.004 Z-1.845
X-9.946 Y-10.933 Z-1.846
X-9.94 Y-10.927
X-9.912 Y-10.893 Z-1.847
X-9.884 Y-10.859 Z-1.848
X-9.835 Y-10.791 Z-1.849
X-9.798 Y-10.733 Z-1.851
X-9.774 Y-10.691
X-9.75 Y-10.649 Z-1.852
X-9.716 Y-10.578 Z-1.854
X-9.686 Y-10.507 Z-1.855
X-9.656 Y-10.418 Z-1.857
X-9.64 Y-10.365 Z-1.858
X-9.623 Y-10.294 Z-1.859
X-9.61 Y-10.223 Z-1.86
X-9.601 Y-10.152 Z-1.861
X-9.595 Y-10.081 Z-1.863
X-9.592 Y-10.01 Z-1.864
X-9.594 Y-9.939 Z-1.865
X-9.598 Y-9.868 Z-1.866
X-9.607 Y-9.797 Z-1.868
X-9.635 Y-9.655 Z-1.87
X-9.656 Y-9.582 Z-1.872
X-9.679 Y-9.513 Z-1.873
X-9.708 Y-9.442 Z-1.874
X-9.741 Y-9.371 Z-1.875
X-9.768 Y-9.319 Z-1.877
X-9.798 Y-9.267 Z-1.878
X-9.822 Y-9.229
X-9.872 Y-9.158 Z-1.88
X-9.928 Y-9.087 Z-1.881
X-9.94 Y-9.073 Z-1.882
X-10. Y-9.009 Z-1.883
X-10.068 Y-8.945 Z-1.885
X-10.082 Y-8.933
X-10.153 Y-8.876 Z-1.887
X-10.224 Y-8.826 Z-1.888
X-10.26 Y-8.803 Z-1.889
X-10.366 Y-8.743 Z-1.891
X-10.437 Y-8.71 Z-1.893
X-10.508 Y-8.681 Z-1.894
X-10.567 Y-8.661 Z-1.895
X-10.65 Y-8.637 Z-1.897
X-10.721 Y-8.62 Z-1.898
X-10.792 Y-8.608 Z-1.899
X-10.863 Y-8.599 Z-1.9
X-10.934 Y-8.594 Z-1.902
X-11.076 Z-1.904
X-11.147 Y-8.6 Z-1.905
X-11.218 Y-8.609 Z-1.907
X-11.289 Y-8.622 Z-1.908
X-11.36 Y-8.639 Z-1.909
X-11.433 Y-8.661 Z-1.91
X-11.502 Y-8.685 Z-1.912
X-11.573 Y-8.714 Z-1.913
X-11.644 Y-8.748 Z-1.914
X-11.74 Y-8.803 Z-1.916
X-11.786 Y-8.832 Z-1.917
X-11.857 Y-8.883 Z-1.919
X-11.928 Y-8.941 Z-1.92
X-11.932 Y-8.945
X-12.006 Y-9.015 Z-1.922
X-12.038 Y-9.05 Z-1.923
X-12.07 Y-9.085 Z-1.924
X-12.072 Y-9.087
X-12.128 Y-9.158 Z-1.926
X-12.178 Y-9.229 Z-1.927
X-12.212 Y-9.283 Z-1.928
X-12.259 Y-9.371 Z-1.93
X-12.292 Y-9.442 Z-1.931
X-12.321 Y-9.513 Z-1.933
X-12.354 Y-9.615 Z-1.934
X-12.365 Y-9.655 Z-1.935
X-12.393 Y-9.797 Z-1.938
X-12.402 Y-9.868 Z-1.939
X-12.406 Y-9.939 Z-1.94
X-12.408 Y-10.01 Z-1.941
X-12.405 Y-10.081 Z-1.943
X-12.399 Y-10.152 Z-1.944
X-12.39 Y-10.223 Z-1.945
X-12.377 Y-10.294 Z-1.946
X-12.36 Y-10.365 Z-1.948
X-12.354 Y-10.385
X-12.314 Y-10.507 Z-1.95
X-12.284 Y-10.578 Z-1.952
X-12.25 Y-10.649 Z-1.953
X-12.212 Y-10.717 Z-1.954
X-12.165 Y-10.791 Z-1.956
X-12.12 Y-10.853 Z-1.957
X-12.07 Y-10.915 Z-1.959
X-12.054 Y-10.933
X-11.991 Y-11. Z-1.961
X-11.928 Y-11.059 Z-1.962
X-11.909 Y-11.075 Z-1.963
X-11.847 Y-11.124 Z-1.964
X-11.786 Y-11.168 Z-1.965
X-11.708 Y-11.217 Z-1.967
X-11.644 Y-11.252 Z-1.968
X-11.573 Y-11.286 Z-1.97
X-11.502 Y-11.315 Z-1.971
X-11.435 Y-11.339 Z-1.972
X-11.368 Y-11.359 Z-1.973
X-11.36 Y-11.361 Z-1.974
X-11.289 Y-11.378 Z-1.975
X-11.218 Y-11.391 Z-1.976
X-11.147 Y-11.4 Z-1.977
X-11.076 Y-11.406 Z-1.979
X-10.934 Z-1.981
X-10.863 Y-11.401 Z-1.982
X-10.792 Y-11.392 Z-1.984
X-10.721 Y-11.38 Z-1.985
X-10.65 Y-11.363 Z-1.986
X-10.632 Y-11.359
X-10.57 Y-11.34 Z-1.988
X-10.508 Y-11.319 Z-1.989
X-10.437 Y-11.29 Z-1.99
X-10.366 Y-11.257 Z-1.991
X-10.292 Y-11.217 Z-1.993
X-10.224 Y-11.174 Z-1.994
X-10.157 Y-11.128 Z-1.996
X-10.091 Y-11.075 Z-1.997
X-10.082 Y-11.067
X-10.014 Y-11.004 Z-1.999
X-9.972 Y-10.961 Z-2.
X-9.946 Y-10.933
X-9.94 Y-10.927
X-9.912 Y-10.893
X-9.884 Y-10.859
X-9.835 Y-10.791
X-9.798 Y-10.733
X-9.774 Y-10.691
X-9.75 Y-10.649
X-9.716 Y-10.578
X-9.686 Y-10.507
X-9.656 Y-10.418
X-9.64 Y-10.365
X-9.623 Y-10.294
X-9.61 Y-10.223
X-9.601 Y-10.152
X-9.595 Y-10.081
X-9.592 Y-10.01
X-9.594 Y-9.939
X-9.598 Y-9.868
X-9.607 Y-9.797
X-9.635 Y-9.655
X-9.656 Y-9.582
X-9.679 Y-9.513
X-9.708 Y-9.442
X-9.741 Y-9.371
X-9.768 Y-9.319
X-9.798 Y-9.267
X-9.822 Y-9.229
X-9.872 Y-9.158
X-9.928 Y-9.087
X-9.94 Y-9.073
X-10. Y-9.009
X-10.068 Y-8.945
X-10.082 Y-8.933
X-10.153 Y-8.876
X-10.224 Y-8.826
X-10.26 Y-8.803
X-10.366 Y-8.743
X-10.437 Y-8.71
X-10.508 Y-8.681
X-10.567 Y-8.661
X-10.65 Y-8.637
X-10.721 Y-8.62
X-10.792 Y-8.608
X-10.863 Y-8.599
X-10.934 Y-8.594
X-11.076
X-11.147 Y-8.6
X-11.218 Y-8.609
X-11.289 Y-8.622
X-11.36 Y-8.639
X-11.433 Y-8.661
X-11.502 Y-8.685
X-11.573 Y-8.714
X-11.644 Y-8.748
X-11.74 Y-8.803
X-11.786 Y-8.832
X-11.857 Y-8.883
X-11.928 Y-8.941
X-11.932 Y-8.945
X-12.006 Y-9.015
X-12.038 Y-9.05
X-12.07 Y-9.085
X-12.072 Y-9.087
X-12.128 Y-9.158
X-12.178 Y-9.229
X-12.212 Y-9.283
X-12.259 Y-9.371
X-12.292 Y-9.442
X-12.321 Y-9.513
X-12.354 Y-9.615
X-12.365 Y-9.655
X-12.393 Y-9.797
X-12.402 Y-9.868
X-12.406 Y-9.939
X-12.408 Y-10.01
X-12.405 Y-10.081
X-12.399 Y-10.152
X-12.39 Y-10.223
X-12.377 Y-10.294
X-12.36 Y-10.365
X-12.354 Y-10.385
X-12.314 Y-10.507
X-12.284 Y-10.578
X-12.25 Y-10.649
X-12.212 Y-10.717
X-12.165 Y-10.791
X-12.12 Y-10.853
X-12.07 Y-10.915
X-12.054 Y-10.933
X-11.991 Y-11.
X-11.928 Y-11.059
X-11.909 Y-11.075
X-11.847 Y-11.124
X-11.786 Y-11.168
X-11.708 Y-11.217
X-11.644 Y-11.252
X-11.573 Y-11.286
X-11.502 Y-11.315
X-11.435 Y-11.339
X-11.368 Y-11.359
X-11.36 Y-11.361
X-11.289 Y-11.378
X-11.218 Y-11.391
X-11.147 Y-11.4
X-11.076 Y-11.406
X-10.934
X-10.863 Y-11.401
X-10.792 Y-11.392
X-10.721 Y-11.38
X-10.65 Y-11.363
X-10.632 Y-11.359
X-10.57 Y-11.34
X-10.508 Y-11.319
X-10.437 Y-11.29
X-10.366 Y-11.257
X-10.292 Y-11.217
X-10.224 Y-11.174
X-10.157 Y-11.128
X-10.091 Y-11.075
X-10.082 Y-11.067
X-10.014 Y-11.004
X-9.972 Y-10.961
G0 Z1.25
X-9.682 Y10.494
G1 Z0.013 F1588.
X-9.687 Y10.509 Z0.012
X-9.717 Y10.58 Z0.011
X-9.752 Y10.651 Z0.009
X-9.774 Y10.692
X-9.798 Y10.733 Z0.008
X-9.837 Y10.793 Z0.007
X-9.885 Y10.86 Z0.005
X-9.912 Y10.893 Z0.004
X-9.94 Y10.927
X-9.948 Y10.935 Z0.003
X-10.015 Y11.005 Z0.002
X-10.082 Y11.067 Z0.
X-10.094 Y11.077
X-10.159 Y11.129 Z-0.002
X-10.224 Y11.174 Z-0.003
X-10.296 Y11.219 Z-0.004
X-10.366 Y11.257 Z-0.006
X-10.437 Y11.29 Z-0.007
X-10.508 Y11.319 Z-0.009
X-10.575 Y11.342 Z-0.01
X-10.641 Y11.361 Z-0.011
X-10.65 Y11.363
X-10.721 Y11.38 Z-0.012
X-10.792 Y11.392 Z-0.014
X-10.863 Y11.401 Z-0.015
X-10.934 Y11.406 Z-0.016
X-11.076 Z-0.019
X-11.147 Y11.4 Z-0.02
X-11.218 Y11.391 Z-0.021
X-11.288 Y11.378 Z-0.022
X-11.359 Y11.361 Z-0.024
X-11.36
X-11.431 Y11.34 Z-0.025
X-11.502 Y11.315 Z-0.026
X-11.573 Y11.286 Z-0.028
X-11.644 Y11.252 Z-0.029
X-11.704 Y11.219 Z-0.03
X-11.786 Y11.168 Z-0.032
X-11.846 Y11.125 Z-0.033
X-11.906 Y11.077 Z-0.034
X-11.928 Y11.059 Z-0.035
X-11.99 Y11.001 Z-0.036
X-12.052 Y10.935 Z-0.038
X-12.07 Y10.915
X-12.119 Y10.854 Z-0.04
X-12.163 Y10.793 Z-0.041
X-12.212 Y10.717 Z-0.043
X-12.248 Y10.651 Z-0.044
X-12.283 Y10.58 Z-0.045
X-12.313 Y10.509 Z-0.047
X-12.354 Y10.385 Z-0.049
X-12.359 Y10.367
X-12.376 Y10.296 Z-0.051
X-12.39 Y10.225 Z-0.052
X-12.399 Y10.154 Z-0.053
X-12.405 Y10.083 Z-0.054
X-12.408 Y10.012 Z-0.056
X-12.407 Y9.941 Z-0.057
X-12.402 Y9.87 Z-0.058
X-12.394 Y9.799 Z-0.059
X-12.365 Y9.657 Z-0.062
X-12.354 Y9.615 Z-0.063
X-12.322 Y9.515 Z-0.065
X-12.293 Y9.444 Z-0.066
X-12.26 Y9.373 Z-0.067
X-12.212 Y9.283 Z-0.069
X-12.179 Y9.231 Z-0.07
X-12.13 Y9.16 Z-0.072
X-12.074 Y9.089 Z-0.073
X-12.07 Y9.085
X-12.039 Y9.05 Z-0.074
X-12.007 Y9.016 Z-0.075
X-11.934 Y8.947 Z-0.077
X-11.928 Y8.941
X-11.857 Y8.883 Z-0.078
X-11.786 Y8.832 Z-0.08
X-11.744 Y8.805 Z-0.081
X-11.644 Y8.748 Z-0.083
X-11.573 Y8.714 Z-0.084
X-11.502 Y8.685 Z-0.086
X-11.441 Y8.663 Z-0.087
X-11.36 Y8.639 Z-0.088
X-11.289 Y8.622 Z-0.089
X-11.218 Y8.609 Z-0.091
X-11.147 Y8.6 Z-0.092
X-11.076 Y8.594 Z-0.093
X-10.934 Z-0.096
X-10.863 Y8.599 Z-0.097
X-10.792 Y8.608 Z-0.098
X-10.721 Y8.62 Z-0.099
X-10.65 Y8.637 Z-0.101
X-10.559 Y8.663 Z-0.102
X-10.508 Y8.681 Z-0.103
X-10.437 Y8.71 Z-0.105
X-10.366 Y8.743 Z-0.106
X-10.256 Y8.805 Z-0.108
X-10.224 Y8.826 Z-0.109
X-10.153 Y8.876 Z-0.11
X-10.082 Y8.933 Z-0.112
X-10.066 Y8.947
X-9.999 Y9.01 Z-0.114
X-9.94 Y9.073 Z-0.115
X-9.926 Y9.089 Z-0.116
X-9.87 Y9.16 Z-0.117
X-9.821 Y9.231 Z-0.119
X-9.798 Y9.267 Z-0.12
X-9.767 Y9.32 Z-0.121
X-9.74 Y9.373 Z-0.122
X-9.707 Y9.444 Z-0.123
X-9.678 Y9.515 Z-0.124
X-9.656 Y9.582 Z-0.126
X-9.635 Y9.657 Z-0.127
X-9.606 Y9.799 Z-0.13
X-9.598 Y9.87 Z-0.131
X-9.593 Y9.941 Z-0.132
X-9.592 Y10.012 Z-0.133
X-9.595 Y10.083 Z-0.135
X-9.601 Y10.154 Z-0.136
X-9.61 Y10.225 Z-0.137
X-9.624 Y10.296 Z-0.138
X-9.641 Y10.367 Z-0.14
X-9.656 Y10.418
X-9.687 Y10.509 Z-0.142
X-9.717 Y10.58 Z-0.143
X-9.752 Y10.651 Z-0.145
X-9.774 Y10.692 Z-0.146
X-9.798 Y10.733 Z-0.147
X-9.837 Y10.793 Z-0.148
X-9.885 Y10.86 Z-0.149
X-9.912 Y10.893 Z-0.15
X-9.94 Y10.927 Z-0.151
X-9.948 Y10.935
X-10.015 Y11.005 Z-0.153
X-10.082 Y11.067 Z-0.154
X-10.094 Y11.077
X-10.159 Y11.129 Z-0.156
X-10.224 Y11.174 Z-0.157
X-10.296 Y11.219 Z-0.159
X-10.366 Y11.257 Z-0.16
X-10.437 Y11.29 Z-0.162
X-10.508 Y11.319 Z-0.163
X-10.575 Y11.342 Z-0.164
X-10.641 Y11.361 Z-0.165
X-10.65 Y11.363
X-10.721 Y11.38 Z-0.167
X-10.792 Y11.392 Z-0.168
X-10.863 Y11.401 Z-0.169
X-10.934 Y11.406 Z-0.171
X-11.076 Z-0.173
X-11.147 Y11.4 Z-0.174
X-11.218 Y11.391 Z-0.175
X-11.288 Y11.378 Z-0.177
X-11.359 Y11.361 Z-0.178
X-11.36
X-11.431 Y11.34 Z-0.179
X-11.502 Y11.315 Z-0.181
X-11.573 Y11.286 Z-0.182
X-11.644 Y11.252 Z-0.183
X-11.704 Y11.219 Z-0.185
X-11.786 Y11.168 Z-0.186
X-11.846 Y11.125 Z-0.188
X-11.906 Y11.077 Z-0.189
X-11.928 Y11.059
X-11.99 Y11.001 Z-0.191
X-12.052 Y10.935 Z-0.192
X-12.07 Y10.915 Z-0.193
X-12.119 Y10.854 Z-0.194
X-12.163 Y10.793 Z-0.196
X-12.212 Y10.717 Z-0.197
X-12.248 Y10.651 Z-0.198
X-12.283 Y10.58 Z-0.2
X-12.313 Y10.509 Z-0.201
X-12.354 Y10.385 Z-0.203
X-12.359 Y10.367 Z-0.204
X-12.376 Y10.296 Z-0.205
X-12.39 Y10.225 Z-0.206
X-12.399 Y10.154 Z-0.208
X-12.405 Y10.083 Z-0.209
X-12.408 Y10.012 Z-0.21
X-12.407 Y9.941 Z-0.211
X-12.402 Y9.87 Z-0.213
X-12.394 Y9.799 Z-0.214
X-12.365 Y9.657 Z-0.216
X-12.354 Y9.615 Z-0.217
X-12.322 Y9.515 Z-0.219
X-12.293 Y9.444 Z-0.22
X-12.26 Y9.373 Z-0.222
X-12.212 Y9.283 Z-0.223
X-12.179 Y9.231 Z-0.224
X-12.13 Y9.16 Z-0.226
X-12.074 Y9.089 Z-0.228
X-12.07 Y9.085
X-12.039 Y9.05
X-12.007 Y9.016 Z-0.229
X-11.934 Y8.947 Z-0.231
X-11.928 Y8.941
X-11.857 Y8.883 Z-0.233
X-11.786 Y8.832 Z-0.234
X-11.744 Y8.805 Z-0.235
X-11.644 Y8.748 Z-0.237
X-11.573 Y8.714 Z-0.239
X-11.502 Y8.685 Z-0.24
X-11.441 Y8.663 Z-0.241
X-11.36 Y8.639 Z-0.242
X-11.289 Y8.622 Z-0.244
X-11.218 Y8.609 Z-0.245
X-11.147 Y8.6 Z-0.246
X-11.076 Y8.594 Z-0.248
X-10.934 Z-0.25
X-10.863 Y8.599
X-10.792 Y8.608
X-10.721 Y8.62
X-10.65 Y8.637
X-10.559 Y8.663
X-10.508 Y8.681
X-10.437 Y8.71
X-10.366 Y8.743
X-10.256 Y8.805
X-10.224 Y8.826
X-10.153 Y8.876
X-10.082 Y8.933
X-10.066 Y8.947
X-9.999 Y9.01
X-9.94 Y9.073
X-9.926 Y9.089
X-9.87 Y9.16
X-9.821 Y9.231
X-9.798 Y9.267
X-9.767 Y9.32
X-9.74 Y9.373
X-9.707 Y9.444
X-9.678 Y9.515
X-9.656 Y9.582
X-9.635 Y9.657
X-9.606 Y9.799
X-9.598 Y9.87
X-9.593 Y9.941
X-9.592 Y10.012
X-9.595 Y10.083
X-9.601 Y10.154
X-9.61 Y10.225
X-9.624 Y10.296
X-9.641 Y10.367
X-9.656 Y10.418
X-9.687 Y10.509
X-9.717 Y10.58
X-9.752 Y10.651
X-9.774 Y10.692
X-9.798 Y10.733
X-9.837 Y10.793
X-9.885 Y10.86
X-9.912 Y10.893
X-9.94 Y10.927
X-9.948 Y10.935
X-10.015 Y11.005
X-10.082 Y11.067
X-10.094 Y11.077
X-10.159 Y11.129
X-10.224 Y11.174
X-10.296 Y11.219
X-10.366 Y11.257
X-10.437 Y11.29
X-10.508 Y11.319
X-10.575 Y11.342
X-10.641 Y11.361
X-10.65 Y11.363
X-10.721 Y11.38
X-10.792 Y11.392
X-10.863 Y11.401
X-10.934 Y11.406
X-11.076
X-11.147 Y11.4
X-11.218 Y11.391
X-11.288 Y11.378
X-11.359 Y11.361
X-11.36
X-11.431 Y11.34
X-11.502 Y11.315
X-11.573 Y11.286
X-11.644 Y11.252
X-11.704 Y11.219
X-11.786 Y11.168
X-11.846 Y11.125
X-11.906 Y11.077
X-11.928 Y11.059
X-11.99 Y11.001
X-12.052 Y10.935
X-12.07 Y10.915
X-12.119 Y10.854
X-12.163 Y10.793
X-12.212 Y10.717
X-12.248 Y10.651
X-12.283 Y10.58
X-12.313 Y10.509
X-12.354 Y10.385
X-12.359 Y10.367
X-12.376 Y10.296
X-12.39 Y10.225
X-12.399 Y10.154
X-12.405 Y10.083
X-12.408 Y10.012
X-12.407 Y9.941
X-12.402 Y9.87
X-12.394 Y9.799
X-12.365 Y9.657
X-12.354 Y9.615
X-12.322 Y9.515
X-12.293 Y9.444
X-12.26 Y9.373
X-12.212 Y9.283
X-12.179 Y9.231
X-12.13 Y9.16
X-12.074 Y9.089
X-12.07 Y9.085
X-12.039 Y9.05
X-12.007 Y9.016
X-11.934 Y8.947
X-11.928 Y8.941
X-11.857 Y8.883
X-11.786 Y8.832
X-11.744 Y8.805
X-11.644 Y8.748
X-11.573 Y8.714
X-11.502 Y8.685
X-11.441 Y8.663
X-11.36 Y8.639
X-11.289 Y8.622
X-11.218 Y8.609
X-11.147 Y8.6
X-11.076 Y8.594
X-10.934
X-10.863 Y8.599 Z-0.251
X-10.792 Y8.608 Z-0.252
X-10.721 Y8.62 Z-0.254
X-10.65 Y8.637 Z-0.255
X-10.559 Y8.663 Z-0.257
X-10.508 Y8.681 Z-0.258
X-10.437 Y8.71 Z-0.259
X-10.366 Y8.743 Z-0.26
X-10.256 Y8.805 Z-0.263
X-10.224 Y8.826
X-10.153 Y8.876 Z-0.265
X-10.082 Y8.933 Z-0.266
X-10.066 Y8.947 Z-0.267
X-9.999 Y9.01 Z-0.268
X-9.94 Y9.073 Z-0.27
X-9.926 Y9.089
X-9.87 Y9.16 Z-0.272
X-9.821 Y9.231 Z-0.273
X-9.798 Y9.267 Z-0.274
X-9.767 Y9.32 Z-0.275
X-9.74 Y9.373 Z-0.276
X-9.707 Y9.444 Z-0.277
X-9.678 Y9.515 Z-0.279
X-9.656 Y9.582 Z-0.28
X-9.635 Y9.657 Z-0.281
X-9.606 Y9.799 Z-0.284
X-9.598 Y9.87 Z-0.285
X-9.593 Y9.941 Z-0.286
X-9.592 Y10.012 Z-0.288
X-9.595 Y10.083 Z-0.289
X-9.601 Y10.154 Z-0.29
X-9.61 Y10.225 Z-0.291
X-9.624 Y10.296 Z-0.293
X-9.641 Y10.367 Z-0.294
X-9.656 Y10.418 Z-0.295
X-9.687 Y10.509 Z-0.297
X-9.717 Y10.58 Z-0.298
X-9.752 Y10.651 Z-0.299
X-9.774 Y10.692 Z-0.3
X-9.798 Y10.733 Z-0.301
X-9.837 Y10.793 Z-0.302
X-9.885 Y10.86 Z-0.304
X-9.912 Y10.893
X-9.94 Y10.927 Z-0.305
X-9.948 Y10.935
X-10.015 Y11.005 Z-0.307
X-10.082 Y11.067 Z-0.309
X-10.094 Y11.077
X-10.159 Y11.129 Z-0.31
X-10.224 Y11.174 Z-0.312
X-10.296 Y11.219 Z-0.313
X-10.366 Y11.257 Z-0.315
X-10.437 Y11.29 Z-0.316
X-10.508 Y11.319 Z-0.317
X-10.575 Y11.342 Z-0.318
X-10.641 Y11.361 Z-0.32
X-10.65 Y11.363
X-10.721 Y11.38 Z-0.321
X-10.792 Y11.392 Z-0.322
X-10.863 Y11.401 Z-0.324
X-10.934 Y11.406 Z-0.325
X-11.076 Z-0.327
X-11.147 Y11.4 Z-0.329
X-11.218 Y11.391 Z-0.33
X-11.288 Y11.378 Z-0.331
X-11.359 Y11.361 Z-0.332
X-11.36
X-11.431 Y11.34 Z-0.334
X-11.502 Y11.315 Z-0.335
X-11.573 Y11.286 Z-0.336
X-11.644 Y11.252 Z-0.338
X-11.704 Y11.219 Z-0.339
X-11.786 Y11.168 Z-0.341
X-11.846 Y11.125 Z-0.342
X-11.906 Y11.077 Z-0.343
X-11.928 Y11.059 Z-0.344
X-11.99 Y11.001 Z-0.345
X-12.052 Y10.935 Z-0.347
X-12.07 Y10.915
X-12.119 Y10.854 Z-0.349
X-12.163 Y10.793 Z-0.35
X-12.212 Y10.717 Z-0.352
X-12.248 Y10.651 Z-0.353
X-12.283 Y10.58 Z-0.354
X-12.313 Y10.509 Z-0.356
X-12.354 Y10.385 Z-0.358
X-12.359 Y10.367
X-12.376 Y10.296 Z-0.359
X-12.39 Y10.225 Z-0.361
X-12.399 Y10.154 Z-0.362
X-12.405 Y10.083 Z-0.363
X-12.408 Y10.012 Z-0.364
X-12.407 Y9.941 Z-0.366
X-12.402 Y9.87 Z-0.367
X-12.394 Y9.799 Z-0.368
X-12.365 Y9.657 Z-0.371
X-12.354 Y9.615
X-12.322 Y9.515 Z-0.373
X-12.293 Y9.444 Z-0.375
X-12.26 Y9.373 Z-0.376
X-12.212 Y9.283 Z-0.378
X-12.179 Y9.231 Z-0.379
X-12.13 Y9.16 Z-0.38
X-12.074 Y9.089 Z-0.382
X-12.07 Y9.085
X-12.039 Y9.05 Z-0.383
X-12.007 Y9.016 Z-0.384
X-11.934 Y8.947 Z-0.385
X-11.928 Y8.941 Z-0.386
X-11.857 Y8.883 Z-0.387
X-11.786 Y8.832 Z-0.389
X-11.744 Y8.805 Z-0.39
X-11.644 Y8.748 Z-0.392
X-11.573 Y8.714 Z-0.393
X-11.502 Y8.685 Z-0.394
X-11.441 Y8.663 Z-0.395
X-11.36 Y8.639 Z-0.397
X-11.289 Y8.622 Z-0.398
X-11.218 Y8.609 Z-0.399
X-11.147 Y8.6 Z-0.401
X-11.076 Y8.594 Z-0.402
X-10.934 Z-0.404
X-10.863 Y8.599 Z-0.406
X-10.792 Y8.608 Z-0.407
X-10.721 Y8.62 Z-0.408
X-10.65 Y8.637 Z-0.409
X-10.559 Y8.663 Z-0.411
X-10.508 Y8.681 Z-0.412
X-10.437 Y8.71 Z-0.413
X-10.366 Y8.743 Z-0.415
X-10.256 Y8.805 Z-0.417
X-10.224 Y8.826 Z-0.418
X-10.153 Y8.876 Z-0.419
X-10.082 Y8.933 Z-0.421
X-10.066 Y8.947
X-9.999 Y9.01 Z-0.423
X-9.94 Y9.073 Z-0.424
X-9.926 Y9.089 Z-0.425
X-9.87 Y9.16 Z-0.426
X-9.821 Y9.231 Z-0.428
X-9.798 Y9.267
X-9.767 Y9.32 Z-0.429
X-9.74 Y9.373 Z-0.43
X-9.707 Y9.444 Z-0.432
X-9.678 Y9.515 Z-0.433
X-9.656 Y9.582 Z-0.434
X-9.635 Y9.657 Z-0.436
X-9.606 Y9.799 Z-0.438
X-9.598 Y9.87 Z-0.44
X-9.593 Y9.941 Z-0.441
X-9.592 Y10.012 Z-0.442
X-9.595 Y10.083 Z-0.443
X-9.601 Y10.154 Z-0.445
X-9.61 Y10.225 Z-0.446
X-9.624 Y10.296 Z-0.447
X-9.641 Y10.367 Z-0.448
X-9.656 Y10.418 Z-0.449
X-9.687 Y10.509 Z-0.451
X-9.717 Y10.58 Z-0.452
X-9.752 Y10.651 Z-0.454
X-9.774 Y10.692
X-9.798 Y10.733 Z-0.455
X-9.837 Y10.793 Z-0.457
X-9.885 Y10.86 Z-0.458
X-9.912 Y10.893 Z-0.459
X-9.94 Y10.927
X-9.948 Y10.935 Z-0.46
X-10.015 Y11.005 Z-0.461
X-10.082 Y11.067 Z-0.463
X-10.094 Y11.077
X-10.159 Y11.129 Z-0.465
X-10.224 Y11.174 Z-0.466
X-10.296 Y11.219 Z-0.468
X-10.366 Y11.257 Z-0.469
X-10.437 Y11.29 Z-0.47
X-10.508 Y11.319 Z-0.472
X-10.575 Y11.342 Z-0.473
X-10.641 Y11.361 Z-0.474
X-10.65 Y11.363
X-10.721 Y11.38 Z-0.475
X-10.792 Y11.392 Z-0.477
X-10.863 Y11.401 Z-0.478
X-10.934 Y11.406 Z-0.479
X-11.076 Z-0.482
X-11.147 Y11.4 Z-0.483
X-11.218 Y11.391 Z-0.484
X-11.288 Y11.378 Z-0.485
X-11.359 Y11.361 Z-0.487
X-11.36
X-11.431 Y11.34 Z-0.488
X-11.502 Y11.315 Z-0.489
X-11.573 Y11.286 Z-0.491
X-11.644 Y11.252 Z-0.492
X-11.704 Y11.219 Z-0.493
X-11.786 Y11.168 Z-0.495
X-11.846 Y11.125 Z-0.496
X-11.906 Y11.077 Z-0.498
X-11.928 Y11.059
X-11.99 Y11.001 Z-0.5
X-12.007 Y10.983
X-12.052 Y10.935
X-12.07 Y10.915
X-12.119 Y10.854
X-12.163 Y10.793
X-12.212 Y10.717
X-12.248 Y10.651
X-12.283 Y10.58
X-12.313 Y10.509
X-12.354 Y10.385
X-12.359 Y10.367
X-12.376 Y10.296
X-12.39 Y10.225
X-12.399 Y10.154
X-12.405 Y10.083
X-12.408 Y10.012
X-12.407 Y9.941
X-12.402 Y9.87
X-12.394 Y9.799
X-12.365 Y9.657
X-12.354 Y9.615
X-12.322 Y9.515
X-12.293 Y9.444
X-12.26 Y9.373
X-12.212 Y9.283
X-12.179 Y9.231
X-12.13 Y9.16
X-12.074 Y9.089
X-12.07 Y9.085
X-12.039 Y9.05
X-12.007 Y9.016
X-11.934 Y8.947
X-11.928 Y8.941
X-11.857 Y8.883
X-11.786 Y8.832
X-11.744 Y8.805
X-11.644 Y8.748
X-11.573 Y8.714
X-11.502 Y8.685
X-11.441 Y8.663
X-11.36 Y8.639
X-11.289 Y8.622
X-11.218 Y8.609
X-11.147 Y8.6
X-11.076 Y8.594
X-10.934
X-10.863 Y8.599
X-10.792 Y8.608
X-10.721 Y8.62
X-10.65 Y8.637
X-10.559 Y8.663
X-10.508 Y8.681
X-10.437 Y8.71
X-10.366 Y8.743
X-10.256 Y8.805
X-10.224 Y8.826
X-10.153 Y8.876
X-10.082 Y8.933
X-10.066 Y8.947
X-9.999 Y9.01
X-9.94 Y9.073
X-9.926 Y9.089
X-9.87 Y9.16
X-9.821 Y9.231
X-9.798 Y9.267
X-9.767 Y9.32
X-9.74 Y9.373
X-9.707 Y9.444
X-9.678 Y9.515
X-9.656 Y9.582
X-9.635 Y9.657
X-9.606 Y9.799
X-9.598 Y9.87
X-9.593 Y9.941
X-9.592 Y10.012
X-9.595 Y10.083
X-9.601 Y10.154
X-9.61 Y10.225
X-9.624 Y10.296
X-9.641 Y10.367
X-9.656 Y10.418
X-9.687 Y10.509
X-9.717 Y10.58
X-9.752 Y10.651
X-9.774 Y10.692
X-9.798 Y10.733
X-9.837 Y10.793
X-9.885 Y10.86
X-9.912 Y10.893
X-9.94 Y10.927
X-9.948 Y10.935
X-10.015 Y11.005
X-10.082 Y11.067
X-10.094 Y11.077
X-10.159 Y11.129
X-10.224 Y11.174
X-10.296 Y11.219
X-10.366 Y11.257
X-10.437 Y11.29
X-10.508 Y11.319
X-10.575 Y11.342
X-10.641 Y11.361
X-10.65 Y11.363
X-10.721 Y11.38
X-10.792 Y11.392
X-10.863 Y11.401
X-10.934 Y11.406
X-11.076
X-11.147 Y11.4
X-11.218 Y11.391
X-11.288 Y11.378
X-11.359 Y11.361
X-11.36
X-11.431 Y11.34
X-11.502 Y11.315
X-11.573 Y11.286
X-11.644 Y11.252
X-11.704 Y11.219
X-11.786 Y11.168
X-11.846 Y11.125
X-11.906 Y11.077
X-11.928 Y11.059
X-11.99 Y11.001
X-12.007 Y10.983
X-12.052 Y10.935 Z-0.501
X-12.07 Y10.915 Z-0.502
X-12.119 Y10.854 Z-0.503
X-12.163 Y10.793 Z-0.504
X-12.212 Y10.717 Z-0.506
X-12.248 Y10.651 Z-0.507
X-12.283 Y10.58 Z-0.509
X-12.313 Y10.509 Z-0.51
X-12.354 Y10.385 Z-0.512
X-12.359 Y10.367 Z-0.513
X-12.376 Y10.296 Z-0.514
X-12.39 Y10.225 Z-0.515
X-12.399 Y10.154 Z-0.516
X-12.405 Y10.083 Z-0.518
X-12.408 Y10.012 Z-0.519
X-12.407 Y9.941 Z-0.52
X-12.402 Y9.87 Z-0.521
X-12.394 Y9.799 Z-0.523
X-12.365 Y9.657 Z-0.525
X-12.354 Y9.615 Z-0.526
X-12.322 Y9.515 Z-0.528
X-12.293 Y9.444 Z-0.529
X-12.26 Y9.373 Z-0.53
X-12.212 Y9.283 Z-0.532
X-12.179 Y9.231 Z-0.533
X-12.13 Y9.16 Z-0.535
X-12.074 Y9.089 Z-0.536
X-12.07 Y9.085
X-12.039 Y9.05 Z-0.537
X-12.007 Y9.016 Z-0.538
X-11.934 Y8.947 Z-0.54
X-11.928 Y8.941
X-11.857 Y8.883 Z-0.542
X-11.786 Y8.832 Z-0.543
X-11.744 Y8.805 Z-0.544
X-11.644 Y8.748 Z-0.546
X-11.573 Y8.714 Z-0.547
X-11.502 Y8.685 Z-0.549
X-11.441 Y8.663 Z-0.55
X-11.36 Y8.639 Z-0.551
X-11.289 Y8.622 Z-0.553
X-11.218 Y8.609 Z-0.554
X-11.147 Y8.6 Z-0.555
X-11.076 Y8.594 Z-0.556
X-10.934 Z-0.559
X-10.863 Y8.599 Z-0.56
X-10.792 Y8.608 Z-0.561
X-10.721 Y8.62 Z-0.562
X-10.65 Y8.637 Z-0.564
X-10.559 Y8.663 Z-0.565
X-10.508 Y8.681 Z-0.566
X-10.437 Y8.71 Z-0.568
X-10.366 Y8.743 Z-0.569
X-10.256 Y8.805 Z-0.571
X-10.224 Y8.826 Z-0.572
X-10.153 Y8.876 Z-0.573
X-10.082 Y8.933 Z-0.575
X-10.066 Y8.947
X-9.999 Y9.01 Z-0.577
X-9.94 Y9.073 Z-0.579
X-9.926 Y9.089
X-9.87 Y9.16 Z-0.58
X-9.821 Y9.231 Z-0.582
X-9.798 Y9.267 Z-0.583
X-9.767 Y9.32 Z-0.584
X-9.74 Y9.373 Z-0.585
X-9.707 Y9.444 Z-0.586
X-9.678 Y9.515 Z-0.588
X-9.656 Y9.582 Z-0.589
X-9.635 Y9.657 Z-0.59
X-9.606 Y9.799 Z-0.593
X-9.598 Y9.87 Z-0.594
X-9.593 Y9.941 Z-0.595
X-9.592 Y10.012 Z-0.596
X-9.595 Y10.083 Z-0.598
X-9.601 Y10.154 Z-0.599
X-9.61 Y10.225 Z-0.6
X-9.624 Y10.296 Z-0.601
X-9.641 Y10.367 Z-0.603
X-9.656 Y10.418 Z-0.604
X-9.687 Y10.509 Z-0.605
X-9.717 Y10.58 Z-0.607
X-9.752 Y10.651 Z-0.608
X-9.774 Y10.692 Z-0.609
X-9.798 Y10.733 Z-0.61
X-9.837 Y10.793 Z-0.611
X-9.885 Y10.86 Z-0.612
X-9.912 Y10.893 Z-0.613
X-9.94 Y10.927 Z-0.614
X-9.948 Y10.935
X-10.015 Y11.005 Z-0.616
X-10.082 Y11.067 Z-0.617
X-10.094 Y11.077 Z-0.618
X-10.159 Y11.129 Z-0.619
X-10.224 Y11.174 Z-0.62
X-10.296 Y11.219 Z-0.622
X-10.366 Y11.257 Z-0.623
X-10.437 Y11.29 Z-0.625
X-10.508 Y11.319 Z-0.626
X-10.575 Y11.342 Z-0.627
X-10.641 Y11.361 Z-0.628
X-10.65 Y11.363 Z-0.629
X-10.721 Y11.38 Z-0.63
X-10.792 Y11.392 Z-0.631
X-10.863 Y11.401 Z-0.632
X-10.934 Y11.406 Z-0.634
X-11.076 Z-0.636
X-11.147 Y11.4 Z-0.637
X-11.218 Y11.391 Z-0.639
X-11.288 Y11.378 Z-0.64
X-11.359 Y11.361 Z-0.641
X-11.36
X-11.431 Y11.34 Z-0.642
X-11.502 Y11.315 Z-0.644
X-11.573 Y11.286 Z-0.645
X-11.644 Y11.252 Z-0.646
X-11.704 Y11.219 Z-0.648
X-11.786 Y11.168 Z-0.649
X-11.846 Y11.125 Z-0.651
X-11.906 Y11.077 Z-0.652
X-11.928 Y11.059
X-11.99 Y11.001 Z-0.654
X-12.052 Y10.935 Z-0.656
X-12.07 Y10.915
X-12.119 Y10.854 Z-0.657
X-12.163 Y10.793 Z-0.659
X-12.212 Y10.717 Z-0.66
X-12.248 Y10.651 Z-0.662
X-12.283 Y10.58 Z-0.663
X-12.313 Y10.509 Z-0.664
X-12.354 Y10.385 Z-0.667
X-12.359 Y10.367
X-12.376 Y10.296 Z-0.668
X-12.39 Y10.225 Z-0.669
X-12.399 Y10.154 Z-0.671
X-12.405 Y10.083 Z-0.672
X-12.408 Y10.012 Z-0.673
X-12.407 Y9.941 Z-0.674
X-12.402 Y9.87 Z-0.676
X-12.394 Y9.799 Z-0.677
X-12.365 Y9.657 Z-0.679
X-12.354 Y9.615 Z-0.68
X-12.322 Y9.515 Z-0.682
X-12.293 Y9.444 Z-0.683
X-12.26 Y9.373 Z-0.685
X-12.212 Y9.283 Z-0.686
X-12.179 Y9.231 Z-0.688
X-12.13 Y9.16 Z-0.689
X-12.074 Y9.089 Z-0.691
X-12.07 Y9.085
X-12.039 Y9.05 Z-0.692
X-12.007 Y9.016
X-11.934 Y8.947 Z-0.694
X-11.928 Y8.941
X-11.857 Y8.883 Z-0.696
X-11.786 Y8.832 Z-0.697
X-11.744 Y8.805 Z-0.698
X-11.644 Y8.748 Z-0.7
X-11.573 Y8.714 Z-0.702
X-11.502 Y8.685 Z-0.703
X-11.441 Y8.663 Z-0.704
X-11.36 Y8.639 Z-0.706
X-11.289 Y8.622 Z-0.707
X-11.218 Y8.609 Z-0.708
X-11.147 Y8.6 Z-0.709
X-11.076 Y8.594 Z-0.711
X-10.934 Z-0.713
X-10.863 Y8.599 Z-0.714
X-10.792 Y8.608 Z-0.716
X-10.721 Y8.62 Z-0.717
X-10.65 Y8.637 Z-0.718
X-10.559 Y8.663 Z-0.72
X-10.508 Y8.681 Z-0.721
X-10.437 Y8.71 Z-0.722
X-10.366 Y8.743 Z-0.723
X-10.256 Y8.805 Z-0.726
X-10.224 Y8.826
X-10.153 Y8.876 Z-0.728
X-10.082 Y8.933 Z-0.729
X-10.066 Y8.947 Z-0.73
X-9.999 Y9.01 Z-0.731
X-9.94 Y9.073 Z-0.733
X-9.926 Y9.089
X-9.87 Y9.16 Z-0.735
X-9.821 Y9.231 Z-0.736
X-9.798 Y9.267 Z-0.737
X-9.767 Y9.32 Z-0.738
X-9.74 Y9.373 Z-0.739
X-9.707 Y9.444 Z-0.741
X-9.678 Y9.515 Z-0.742
X-9.656 Y9.582 Z-0.743
X-9.635 Y9.657 Z-0.745
X-9.606 Y9.799 Z-0.747
X-9.598 Y9.87 Z-0.748
X-9.593 Y9.941 Z-0.75
Y9.968
X-9.592 Y10.012
X-9.595 Y10.083
X-9.601 Y10.154
X-9.61 Y10.225
X-9.624 Y10.296
X-9.641 Y10.367
X-9.656 Y10.418
X-9.687 Y10.509
X-9.717 Y10.58
X-9.752 Y10.651
X-9.774 Y10.692
X-9.798 Y10.733
X-9.837 Y10.793
X-9.885 Y10.86
X-9.912 Y10.893
X-9.94 Y10.927
X-9.948 Y10.935
X-10.015 Y11.005
X-10.082 Y11.067
X-10.094 Y11.077
X-10.159 Y11.129
X-10.224 Y11.174
X-10.296 Y11.219
X-10.366 Y11.257
X-10.437 Y11.29
X-10.508 Y11.319
X-10.575 Y11.342
X-10.641 Y11.361
X-10.65 Y11.363
X-10.721 Y11.38
X-10.792 Y11.392
X-10.863 Y11.401
X-10.934 Y11.406
X-11.076
X-11.147 Y11.4
X-11.218 Y11.391
X-11.288 Y11.378
X-11.359 Y11.361
X-11.36
X-11.431 Y11.34
X-11.502 Y11.315
X-11.573 Y11.286
X-11.644 Y11.252
X-11.704 Y11.219
X-11.786 Y11.168
X-11.846 Y11.125
X-11.906 Y11.077
X-11.928 Y11.059
X-11.99 Y11.001
X-12.052 Y10.935
X-12.07 Y10.915
X-12.119 Y10.854
X-12.163 Y10.793
X-12.212 Y10.717
X-12.248 Y10.651
X-12.283 Y10.58
X-12.313 Y10.509
X-12.354 Y10.385
X-12.359 Y10.367
X-12.376 Y10.296
X-12.39 Y10.225
X-12.399 Y10.154
X-12.405 Y10.083
X-12.408 Y10.012
X-12.407 Y9.941
X-12.402 Y9.87
X-12.394 Y9.799
X-12.365 Y9.657
X-12.354 Y9.615
X-12.322 Y9.515
X-12.293 Y9.444
X-12.26 Y9.373
X-12.212 Y9.283
X-12.179 Y9.231
X-12.13 Y9.16
X-12.074 Y9.089
X-12.07 Y9.085
X-12.039 Y9.05
X-12.007 Y9.016
X-11.934 Y8.947
X-11.928 Y8.941
X-11.857 Y8.883
X-11.786 Y8.832
X-11.744 Y8.805
X-11.644 Y8.748
X-11.573 Y8.714
X-11.502 Y8.685
X-11.441 Y8.663
X-11.36 Y8.639
X-11.289 Y8.622
X-11.218 Y8.609
X-11.147 Y8.6
X-11.076 Y8.594
X-10.934
X-10.863 Y8.599
X-10.792 Y8.608
X-10.721 Y8.62
X-10.65 Y8.637
X-10.559 Y8.663
X-10.508 Y8.681
X-10.437 Y8.71
X-10.366 Y8.743
X-10.256 Y8.805
X-10.224 Y8.826
X-10.153 Y8.876
X-10.082 Y8.933
X-10.066 Y8.947
X-9.999 Y9.01
X-9.94 Y9.073
X-9.926 Y9.089
X-9.87 Y9.16
X-9.821 Y9.231
X-9.798 Y9.267
X-9.767 Y9.32
X-9.74 Y9.373
X-9.707 Y9.444
X-9.678 Y9.515
X-9.656 Y9.582
X-9.635 Y9.657
X-9.606 Y9.799
X-9.598 Y9.87
X-9.593 Y9.941
Y9.968
X-9.592 Y10.012 Z-0.751
X-9.595 Y10.083 Z-0.752
X-9.601 Y10.154 Z-0.753
X-9.61 Y10.225 Z-0.755
X-9.624 Y10.296 Z-0.756
X-9.641 Y10.367 Z-0.757
X-9.656 Y10.418 Z-0.758
X-9.687 Y10.509 Z-0.76
X-9.717 Y10.58 Z-0.761
X-9.752 Y10.651 Z-0.762
X-9.774 Y10.692 Z-0.763
X-9.798 Y10.733 Z-0.764
X-9.837 Y10.793 Z-0.765
X-9.885 Y10.86 Z-0.767
X-9.912 Y10.893
X-9.94 Y10.927 Z-0.768
X-9.948 Y10.935
X-10.015 Y11.005 Z-0.77
X-10.082 Y11.067 Z-0.772
X-10.094 Y11.077
X-10.159 Y11.129 Z-0.773
X-10.224 Y11.174 Z-0.775
X-10.296 Y11.219 Z-0.776
X-10.366 Y11.257 Z-0.778
X-10.437 Y11.29 Z-0.779
X-10.508 Y11.319 Z-0.78
X-10.575 Y11.342 Z-0.782
X-10.641 Y11.361 Z-0.783
X-10.65 Y11.363
X-10.721 Y11.38 Z-0.784
X-10.792 Y11.392 Z-0.786
X-10.863 Y11.401 Z-0.787
X-10.934 Y11.406 Z-0.788
X-11.076 Z-0.79
X-11.147 Y11.4 Z-0.792
X-11.218 Y11.391 Z-0.793
X-11.288 Y11.378 Z-0.794
X-11.359 Y11.361 Z-0.795
X-11.36 Z-0.796
X-11.431 Y11.34 Z-0.797
X-11.502 Y11.315 Z-0.798
X-11.573 Y11.286 Z-0.799
X-11.644 Y11.252 Z-0.801
X-11.704 Y11.219 Z-0.802
X-11.786 Y11.168 Z-0.804
X-11.846 Y11.125 Z-0.805
X-11.906 Y11.077 Z-0.806
X-11.928 Y11.059 Z-0.807
X-11.99 Y11.001 Z-0.808
X-12.052 Y10.935 Z-0.81
X-12.07 Y10.915
X-12.119 Y10.854 Z-0.812
X-12.163 Y10.793 Z-0.813
X-12.212 Y10.717 Z-0.815
X-12.248 Y10.651 Z-0.816
X-12.283 Y10.58 Z-0.817
X-12.313 Y10.509 Z-0.819
X-12.354 Y10.385 Z-0.821
X-12.359 Y10.367
X-12.376 Y10.296 Z-0.823
X-12.39 Y10.225 Z-0.824
X-12.399 Y10.154 Z-0.825
X-12.405 Y10.083 Z-0.826
X-12.408 Y10.012 Z-0.828
X-12.407 Y9.941 Z-0.829
X-12.402 Y9.87 Z-0.83
X-12.394 Y9.799 Z-0.831
X-12.365 Y9.657 Z-0.834
X-12.354 Y9.615 Z-0.835
X-12.322 Y9.515 Z-0.836
X-12.293 Y9.444 Z-0.838
X-12.26 Y9.373 Z-0.839
X-12.212 Y9.283 Z-0.841
X-12.179 Y9.231 Z-0.842
X-12.13 Y9.16 Z-0.843
X-12.074 Y9.089 Z-0.845
X-12.07 Y9.085
X-12.039 Y9.05 Z-0.846
X-12.007 Y9.016 Z-0.847
X-11.934 Y8.947 Z-0.849
X-11.928 Y8.941
X-11.857 Y8.883 Z-0.85
X-11.786 Y8.832 Z-0.852
X-11.744 Y8.805 Z-0.853
X-11.644 Y8.748 Z-0.855
X-11.573 Y8.714 Z-0.856
X-11.502 Y8.685 Z-0.857
X-11.441 Y8.663 Z-0.859
X-11.36 Y8.639 Z-0.86
X-11.289 Y8.622 Z-0.861
X-11.218 Y8.609 Z-0.863
X-11.147 Y8.6 Z-0.864
X-11.076 Y8.594 Z-0.865
X-10.934 Z-0.867
X-10.863 Y8.599 Z-0.869
X-10.792 Y8.608 Z-0.87
X-10.721 Y8.62 Z-0.871
X-10.65 Y8.637 Z-0.873
X-10.559 Y8.663 Z-0.874
X-10.508 Y8.681 Z-0.875
X-10.437 Y8.71 Z-0.876
X-10.366 Y8.743 Z-0.878
X-10.256 Y8.805 Z-0.88
X-10.224 Y8.826 Z-0.881
X-10.153 Y8.876 Z-0.882
X-10.082 Y8.933 Z-0.884
X-10.066 Y8.947
X-9.999 Y9.01 Z-0.886
X-9.94 Y9.073 Z-0.887
X-9.926 Y9.089 Z-0.888
X-9.87 Y9.16 Z-0.889
X-9.821 Y9.231 Z-0.891
X-9.798 Y9.267
X-9.767 Y9.32 Z-0.893
X-9.74 Y9.373 Z-0.894
X-9.707 Y9.444 Z-0.895
X-9.678 Y9.515 Z-0.896
X-9.656 Y9.582 Z-0.898
X-9.635 Y9.657 Z-0.899
X-9.606 Y9.799 Z-0.901
X-9.598 Y9.87 Z-0.903
X-9.593 Y9.941 Z-0.904
X-9.592 Y10.012 Z-0.905
X-9.595 Y10.083 Z-0.906
X-9.601 Y10.154 Z-0.908
X-9.61 Y10.225 Z-0.909
X-9.624 Y10.296 Z-0.91
X-9.641 Y10.367 Z-0.911
X-9.656 Y10.418 Z-0.912
X-9.687 Y10.509 Z-0.914
X-9.717 Y10.58 Z-0.915
X-9.752 Y10.651 Z-0.917
X-9.774 Y10.692 Z-0.918
X-9.798 Y10.733
X-9.837 Y10.793 Z-0.92
X-9.885 Y10.86 Z-0.921
X-9.912 Y10.893 Z-0.922
X-9.94 Y10.927 Z-0.923
X-9.948 Y10.935
X-10.015 Y11.005 Z-0.924
X-10.082 Y11.067 Z-0.926
X-10.094 Y11.077
X-10.159 Y11.129 Z-0.928
X-10.224 Y11.174 Z-0.929
X-10.296 Y11.219 Z-0.931
X-10.366 Y11.257 Z-0.932
X-10.437 Y11.29 Z-0.933
X-10.508 Y11.319 Z-0.935
X-10.575 Y11.342 Z-0.936
X-10.641 Y11.361 Z-0.937
X-10.65 Y11.363
X-10.721 Y11.38 Z-0.939
X-10.792 Y11.392 Z-0.94
X-10.863 Y11.401 Z-0.941
X-10.934 Y11.406 Z-0.942
X-11.076 Z-0.945
X-11.147 Y11.4 Z-0.946
X-11.218 Y11.391 Z-0.947
X-11.288 Y11.378 Z-0.949
X-11.359 Y11.361 Z-0.95
X-11.36
X-11.431 Y11.34 Z-0.951
X-11.502 Y11.315 Z-0.952
X-11.573 Y11.286 Z-0.954
X-11.644 Y11.252 Z-0.955
X-11.704 Y11.219 Z-0.956
X-11.786 Y11.168 Z-0.958
X-11.846 Y11.125 Z-0.959
X-11.906 Y11.077 Z-0.961
X-11.928 Y11.059
X-11.99 Y11.001 Z-0.963
X-12.052 Y10.935 Z-0.964
X-12.07 Y10.915 Z-0.965
X-12.119 Y10.854 Z-0.966
X-12.163 Y10.793 Z-0.967
X-12.212 Y10.717 Z-0.969
X-12.248 Y10.651 Z-0.97
X-12.283 Y10.58 Z-0.972
X-12.313 Y10.509 Z-0.973
X-12.354 Y10.385 Z-0.975
X-12.359 Y10.367 Z-0.976
X-12.376 Y10.296 Z-0.977
X-12.39 Y10.225 Z-0.978
X-12.399 Y10.154 Z-0.979
X-12.405 Y10.083 Z-0.981
X-12.408 Y10.012 Z-0.982
X-12.407 Y9.941 Z-0.983
X-12.402 Y9.87 Z-0.984
X-12.394 Y9.799 Z-0.986
X-12.365 Y9.657 Z-0.988
X-12.354 Y9.615 Z-0.989
X-12.322 Y9.515 Z-0.991
X-12.293 Y9.444 Z-0.992
X-12.26 Y9.373 Z-0.993
X-12.212 Y9.283 Z-0.995
X-12.179 Y9.231 Z-0.996
X-12.13 Y9.16 Z-0.998
X-12.074 Y9.089 Z-0.999
X-12.07 Y9.085 Z-1.
X-12.051 Y9.064
X-12.039 Y9.05
X-12.007 Y9.016
X-11.934 Y8.947
X-11.928 Y8.941
X-11.857 Y8.883
X-11.786 Y8.832
X-11.744 Y8.805
X-11.644 Y8.748
X-11.573 Y8.714
X-11.502 Y8.685
X-11.441 Y8.663
X-11.36 Y8.639
X-11.289 Y8.622
X-11.218 Y8.609
X-11.147 Y8.6
X-11.076 Y8.594
X-10.934
X-10.863 Y8.599
X-10.792 Y8.608
X-10.721 Y8.62
X-10.65 Y8.637
X-10.559 Y8.663
X-10.508 Y8.681
X-10.437 Y8.71
X-10.366 Y8.743
X-10.256 Y8.805
X-10.224 Y8.826
X-10.153 Y8.876
X-10.082 Y8.933
X-10.066 Y8.947
X-9.999 Y9.01
X-9.94 Y9.073
X-9.926 Y9.089
X-9.87 Y9.16
X-9.821 Y9.231
X-9.798 Y9.267
X-9.767 Y9.32
X-9.74 Y9.373
X-9.707 Y9.444
X-9.678 Y9.515
X-9.656 Y9.582
X-9.635 Y9.657
X-9.606 Y9.799
X-9.598 Y9.87
X-9.593 Y9.941
X-9.592 Y10.012
X-9.595 Y10.083
X-9.601 Y10.154
X-9.61 Y10.225
X-9.624 Y10.296
X-9.641 Y10.367
X-9.656 Y10.418
X-9.687 Y10.509
X-9.717 Y10.58
X-9.752 Y10.651
X-9.774 Y10.692
X-9.798 Y10.733
X-9.837 Y10.793
X-9.885 Y10.86
X-9.912 Y10.893
X-9.94 Y10.927
X-9.948 Y10.935
X-10.015 Y11.005
X-10.082 Y11.067
X-10.094 Y11.077
X-10.159 Y11.129
X-10.224 Y11.174
X-10.296 Y11.219
X-10.366 Y11.257
X-10.437 Y11.29
X-10.508 Y11.319
X-10.575 Y11.342
X-10.641 Y11.361
X-10.65 Y11.363
X-10.721 Y11.38
X-10.792 Y11.392
X-10.863 Y11.401
X-10.934 Y11.406
X-11.076
X-11.147 Y11.4
X-11.218 Y11.391
X-11.288 Y11.378
X-11.359 Y11.361
X-11.36
X-11.431 Y11.34
X-11.502 Y11.315
X-11.573 Y11.286
X-11.644 Y11.252
X-11.704 Y11.219
X-11.786 Y11.168
X-11.846 Y11.125
X-11.906 Y11.077
X-11.928 Y11.059
X-11.99 Y11.001
X-12.052 Y10.935
X-12.07 Y10.915
X-12.119 Y10.854
X-12.163 Y10.793
X-12.212 Y10.717
X-12.248 Y10.651
X-12.283 Y10.58
X-12.313 Y10.509
X-12.354 Y10.385
X-12.359 Y10.367
X-12.376 Y10.296
X-12.39 Y10.225
X-12.399 Y10.154
X-12.405 Y10.083
X-12.408 Y10.012
X-12.407 Y9.941
X-12.402 Y9.87
X-12.394 Y9.799
X-12.365 Y9.657
X-12.354 Y9.615
X-12.322 Y9.515
X-12.293 Y9.444
X-12.26 Y9.373
X-12.212 Y9.283
X-12.179 Y9.231
X-12.13 Y9.16
X-12.074 Y9.089
X-12.07 Y9.085
X-12.051 Y9.064
X-12.039 Y9.05
X-12.007 Y9.016 Z-1.001
X-11.934 Y8.947 Z-1.003
X-11.928 Y8.941
X-11.857 Y8.883 Z-1.005
X-11.786 Y8.832 Z-1.006
X-11.744 Y8.805 Z-1.007
X-11.644 Y8.748 Z-1.009
X-11.573 Y8.714 Z-1.01
X-11.502 Y8.685 Z-1.012
X-11.441 Y8.663 Z-1.013
X-11.36 Y8.639 Z-1.014
X-11.289 Y8.622 Z-1.016
X-11.218 Y8.609 Z-1.017
X-11.147 Y8.6 Z-1.018
X-11.076 Y8.594 Z-1.019
X-10.934 Z-1.022
X-10.863 Y8.599 Z-1.023
X-10.792 Y8.608 Z-1.024
X-10.721 Y8.62 Z-1.026
X-10.65 Y8.637 Z-1.027
X-10.559 Y8.663 Z-1.029
X-10.508 Y8.681
X-10.437 Y8.71 Z-1.031
X-10.366 Y8.743 Z-1.032
X-10.256 Y8.805 Z-1.034
X-10.224 Y8.826 Z-1.035
X-10.153 Y8.876 Z-1.037
X-10.082 Y8.933 Z-1.038
X-10.066 Y8.947 Z-1.039
X-9.999 Y9.01 Z-1.04
X-9.94 Y9.073 Z-1.042
X-9.926 Y9.089
X-9.87 Y9.16 Z-1.044
X-9.821 Y9.231 Z-1.045
X-9.798 Y9.267 Z-1.046
X-9.767 Y9.32 Z-1.047
X-9.74 Y9.373 Z-1.048
X-9.707 Y9.444 Z-1.049
X-9.678 Y9.515 Z-1.051
X-9.656 Y9.582 Z-1.052
X-9.635 Y9.657 Z-1.053
X-9.606 Y9.799 Z-1.056
X-9.598 Y9.87 Z-1.057
X-9.593 Y9.941 Z-1.058
X-9.592 Y10.012 Z-1.06
X-9.595 Y10.083 Z-1.061
X-9.601 Y10.154 Z-1.062
X-9.61 Y10.225 Z-1.063
X-9.624 Y10.296 Z-1.065
X-9.641 Y10.367 Z-1.066
X-9.656 Y10.418 Z-1.067
X-9.687 Y10.509 Z-1.068
X-9.717 Y10.58 Z-1.07
X-9.752 Y10.651 Z-1.071
X-9.774 Y10.692 Z-1.072
X-9.798 Y10.733 Z-1.073
X-9.837 Y10.793 Z-1.074
X-9.885 Y10.86 Z-1.075
X-9.912 Y10.893 Z-1.076
X-9.94 Y10.927 Z-1.077
X-9.948 Y10.935
X-10.015 Y11.005 Z-1.079
X-10.082 Y11.067 Z-1.08
X-10.094 Y11.077 Z-1.081
X-10.159 Y11.129 Z-1.082
X-10.224 Y11.174 Z-1.084
X-10.296 Y11.219 Z-1.085
X-10.366 Y11.257 Z-1.086
X-10.437 Y11.29 Z-1.088
X-10.508 Y11.319 Z-1.089
X-10.575 Y11.342 Z-1.09
X-10.641 Y11.361 Z-1.092
X-10.65 Y11.363
X-10.721 Y11.38 Z-1.093
X-10.792 Y11.392 Z-1.094
X-10.863 Y11.401 Z-1.095
X-10.934 Y11.406 Z-1.097
X-11.076 Z-1.099
X-11.147 Y11.4 Z-1.1
X-11.218 Y11.391 Z-1.102
X-11.288 Y11.378 Z-1.103
X-11.359 Y11.361 Z-1.104
X-11.36
X-11.431 Y11.34 Z-1.106
X-11.502 Y11.315 Z-1.107
X-11.573 Y11.286 Z-1.108
X-11.644 Y11.252 Z-1.11
X-11.704 Y11.219 Z-1.111
X-11.786 Y11.168 Z-1.112
X-11.846 Y11.125 Z-1.114
X-11.906 Y11.077 Z-1.115
X-11.928 Y11.059 Z-1.116
X-11.99 Y11.001 Z-1.117
X-12.052 Y10.935 Z-1.119
X-12.07 Y10.915
X-12.119 Y10.854 Z-1.12
X-12.163 Y10.793 Z-1.122
X-12.212 Y10.717 Z-1.123
X-12.248 Y10.651 Z-1.125
X-12.283 Y10.58 Z-1.126
X-12.313 Y10.509 Z-1.127
X-12.354 Y10.385 Z-1.13
X-12.359 Y10.367
X-12.376 Y10.296 Z-1.131
X-12.39 Y10.225 Z-1.133
X-12.399 Y10.154 Z-1.134
X-12.405 Y10.083 Z-1.135
X-12.408 Y10.012 Z-1.136
X-12.407 Y9.941 Z-1.138
X-12.402 Y9.87 Z-1.139
X-12.394 Y9.799 Z-1.14
X-12.365 Y9.657 Z-1.143
X-12.354 Y9.615
X-12.322 Y9.515 Z-1.145
X-12.293 Y9.444 Z-1.146
X-12.26 Y9.373 Z-1.148
X-12.212 Y9.283 Z-1.15
X-12.179 Y9.231 Z-1.151
X-12.13 Y9.16 Z-1.152
X-12.074 Y9.089 Z-1.154
X-12.07 Y9.085
X-12.039 Y9.05 Z-1.155
X-12.007 Y9.016 Z-1.156
X-11.934 Y8.947 Z-1.157
X-11.928 Y8.941
X-11.857 Y8.883 Z-1.159
X-11.786 Y8.832 Z-1.161
X-11.744 Y8.805
X-11.644 Y8.748 Z-1.163
X-11.573 Y8.714 Z-1.165
X-11.502 Y8.685 Z-1.166
X-11.441 Y8.663 Z-1.167
X-11.36 Y8.639 Z-1.169
X-11.289 Y8.622 Z-1.17
X-11.218 Y8.609 Z-1.171
X-11.147 Y8.6 Z-1.173
X-11.076 Y8.594 Z-1.174
X-10.934 Z-1.176
X-10.863 Y8.599 Z-1.177
X-10.792 Y8.608 Z-1.179
X-10.721 Y8.62 Z-1.18
X-10.65 Y8.637 Z-1.181
X-10.559 Y8.663 Z-1.183
X-10.508 Y8.681 Z-1.184
X-10.437 Y8.71 Z-1.185
X-10.366 Y8.743 Z-1.187
X-10.256 Y8.805 Z-1.189
X-10.224 Y8.826
X-10.153 Y8.876 Z-1.191
X-10.082 Y8.933 Z-1.193
X-10.066 Y8.947
X-9.999 Y9.01 Z-1.195
X-9.94 Y9.073 Z-1.196
X-9.926 Y9.089
X-9.87 Y9.16 Z-1.198
X-9.821 Y9.231 Z-1.199
X-9.798 Y9.267 Z-1.2
X-9.767 Y9.32 Z-1.201
X-9.74 Y9.373 Z-1.202
X-9.707 Y9.444 Z-1.204
X-9.678 Y9.515 Z-1.205
X-9.656 Y9.582 Z-1.206
X-9.635 Y9.657 Z-1.208
X-9.606 Y9.799 Z-1.21
X-9.598 Y9.87 Z-1.211
X-9.593 Y9.941 Z-1.213
X-9.592 Y10.012 Z-1.214
X-9.595 Y10.083 Z-1.215
X-9.601 Y10.154 Z-1.216
X-9.61 Y10.225 Z-1.218
X-9.624 Y10.296 Z-1.219
X-9.641 Y10.367 Z-1.22
X-9.656 Y10.418 Z-1.221
X-9.687 Y10.509 Z-1.223
X-9.717 Y10.58 Z-1.224
X-9.752 Y10.651 Z-1.225
X-9.774 Y10.692 Z-1.226
X-9.798 Y10.733 Z-1.227
X-9.837 Y10.793 Z-1.228
X-9.885 Y10.86 Z-1.23
X-9.912 Y10.893 Z-1.231
X-9.94 Y10.927
X-9.948 Y10.935 Z-1.232
X-10.015 Y11.005 Z-1.233
X-10.082 Y11.067 Z-1.235
X-10.094 Y11.077
X-10.159 Y11.129 Z-1.237
X-10.224 Y11.174 Z-1.238
X-10.296 Y11.219 Z-1.239
X-10.366 Y11.257 Z-1.241
X-10.437 Y11.29 Z-1.242
X-10.508 Y11.319 Z-1.243
X-10.575 Y11.342 Z-1.245
X-10.641 Y11.361 Z-1.246
X-10.65 Y11.363
X-10.721 Y11.38 Z-1.247
X-10.792 Y11.392 Z-1.249
X-10.863 Y11.401 Z-1.25
X-10.87 Y11.402
X-10.934 Y11.406
X-11.076
X-11.147 Y11.4
X-11.218 Y11.391
X-11.288 Y11.378
X-11.359 Y11.361
X-11.36
X-11.431 Y11.34
X-11.502 Y11.315
X-11.573 Y11.286
X-11.644 Y11.252
X-11.704 Y11.219
X-11.786 Y11.168
X-11.846 Y11.125
X-11.906 Y11.077
X-11.928 Y11.059
X-11.99 Y11.001
X-12.052 Y10.935
X-12.07 Y10.915
X-12.119 Y10.854
X-12.163 Y10.793
X-12.212 Y10.717
X-12.248 Y10.651
X-12.283 Y10.58
X-12.313 Y10.509
X-12.354 Y10.385
X-12.359 Y10.367
X-12.376 Y10.296
X-12.39 Y10.225
X-12.399 Y10.154
X-12.405 Y10.083
X-12.408 Y10.012
X-12.407 Y9.941
X-12.402 Y9.87
X-12.394 Y9.799
X-12.365 Y9.657
X-12.354 Y9.615
X-12.322 Y9.515
X-12.293 Y9.444
X-12.26 Y9.373
X-12.212 Y9.283
X-12.179 Y9.231
X-12.13 Y9.16
X-12.074 Y9.089
X-12.07 Y9.085
X-12.051 Y9.064
X-12.039 Y9.05
X-12.007 Y9.016
X-11.934 Y8.947
X-11.928 Y8.941
X-11.857 Y8.883
X-11.786 Y8.832
X-11.744 Y8.805
X-11.644 Y8.748
X-11.573 Y8.714
X-11.502 Y8.685
X-11.441 Y8.663
X-11.36 Y8.639
X-11.289 Y8.622
X-11.218 Y8.609
X-11.147 Y8.6
X-11.076 Y8.594
X-10.934
X-10.863 Y8.599
X-10.792 Y8.608
X-10.721 Y8.62
X-10.65 Y8.637
X-10.559 Y8.663
X-10.508 Y8.681
X-10.437 Y8.71
X-10.366 Y8.743
X-10.256 Y8.805
X-10.224 Y8.826
X-10.153 Y8.876
X-10.082 Y8.933
X-10.066 Y8.947
X-9.999 Y9.01
X-9.94 Y9.073
X-9.926 Y9.089
X-9.87 Y9.16
X-9.821 Y9.231
X-9.798 Y9.267
X-9.767 Y9.32
X-9.74 Y9.373
X-9.707 Y9.444
X-9.678 Y9.515
X-9.656 Y9.582
X-9.635 Y9.657
X-9.606 Y9.799
X-9.598 Y9.87
X-9.593 Y9.941
X-9.592 Y10.012
X-9.595 Y10.083
X-9.601 Y10.154
X-9.61 Y10.225
X-9.624 Y10.296
X-9.641 Y10.367
X-9.656 Y10.418
X-9.687 Y10.509
X-9.717 Y10.58
X-9.752 Y10.651
X-9.774 Y10.692
X-9.798 Y10.733
X-9.837 Y10.793
X-9.885 Y10.86
X-9.912 Y10.893
X-9.94 Y10.927
X-9.948 Y10.935
X-10.015 Y11.005
X-10.082 Y11.067
X-10.094 Y11.077
X-10.159 Y11.129
X-10.224 Y11.174
X-10.296 Y11.219
X-10.366 Y11.257
X-10.437 Y11.29
X-10.508 Y11.319
X-10.575 Y11.342
X-10.641 Y11.361
X-10.65 Y11.363
X-10.721 Y11.38
X-10.792 Y11.392
X-10.863 Y11.401
X-10.87 Y11.402
X-10.934 Y11.406 Z-1.251
X-11.076 Z-1.254
X-11.147 Y11.4 Z-1.255
X-11.218 Y11.391 Z-1.256
X-11.288 Y11.378 Z-1.257
X-11.359 Y11.361 Z-1.259
X-11.36
X-11.431 Y11.34 Z-1.26
X-11.502 Y11.315 Z-1.261
X-11.573 Y11.286 Z-1.263
X-11.644 Y11.252 Z-1.264
X-11.704 Y11.219 Z-1.265
X-11.786 Y11.168 Z-1.267
X-11.846 Y11.125 Z-1.268
X-11.906 Y11.077 Z-1.269
X-11.928 Y11.059 Z-1.27
X-11.99 Y11.001 Z-1.271
X-12.052 Y10.935 Z-1.273
X-12.07 Y10.915
X-12.119 Y10.854 Z-1.275
X-12.163 Y10.793 Z-1.276
X-12.212 Y10.717 Z-1.278
X-12.248 Y10.651 Z-1.279
X-12.283 Y10.58 Z-1.28
X-12.313 Y10.509 Z-1.282
X-12.354 Y10.385 Z-1.284
X-12.359 Y10.367
X-12.376 Y10.296 Z-1.286
X-12.39 Y10.225 Z-1.287
X-12.399 Y10.154 Z-1.288
X-12.405 Y10.083 Z-1.289
X-12.408 Y10.012 Z-1.291
X-12.407 Y9.941 Z-1.292
X-12.402 Y9.87 Z-1.293
X-12.394 Y9.799 Z-1.294
X-12.365 Y9.657 Z-1.297
X-12.354 Y9.615 Z-1.298
X-12.322 Y9.515 Z-1.3
X-12.293 Y9.444 Z-1.301
X-12.26 Y9.373 Z-1.302
X-12.212 Y9.283 Z-1.304
X-12.179 Y9.231 Z-1.305
X-12.13 Y9.16 Z-1.307
X-12.074 Y9.089 Z-1.308
X-12.07 Y9.085
X-12.039 Y9.05 Z-1.309
X-12.007 Y9.016 Z-1.31
X-11.934 Y8.947 Z-1.312
X-11.928 Y8.941
X-11.857 Y8.883 Z-1.313
X-11.786 Y8.832 Z-1.315
X-11.744 Y8.805 Z-1.316
X-11.644 Y8.748 Z-1.318
X-11.573 Y8.714 Z-1.319
X-11.502 Y8.685 Z-1.321
X-11.441 Y8.663 Z-1.322
X-11.36 Y8.639 Z-1.323
X-11.289 Y8.622 Z-1.324
X-11.218 Y8.609 Z-1.326
X-11.147 Y8.6 Z-1.327
X-11.076 Y8.594 Z-1.328
X-10.934 Z-1.331
X-10.863 Y8.599 Z-1.332
X-10.792 Y8.608 Z-1.333
X-10.721 Y8.62 Z-1.334
X-10.65 Y8.637 Z-1.336
X-10.559 Y8.663 Z-1.337
X-10.508 Y8.681 Z-1.338
X-10.437 Y8.71 Z-1.34
X-10.366 Y8.743 Z-1.341
X-10.256 Y8.805 Z-1.343
X-10.224 Y8.826 Z-1.344
X-10.153 Y8.876 Z-1.345
X-10.082 Y8.933 Z-1.347
X-10.066 Y8.947
X-9.999 Y9.01 Z-1.349
X-9.94 Y9.073 Z-1.35
X-9.926 Y9.089 Z-1.351
X-9.87 Y9.16 Z-1.352
X-9.821 Y9.231 Z-1.354
X-9.798 Y9.267 Z-1.355
X-9.767 Y9.32 Z-1.356
X-9.74 Y9.373 Z-1.357
X-9.707 Y9.444 Z-1.358
X-9.678 Y9.515 Z-1.359
X-9.656 Y9.582 Z-1.361
X-9.635 Y9.657 Z-1.362
X-9.606 Y9.799 Z-1.365
X-9.598 Y9.87 Z-1.366
X-9.593 Y9.941 Z-1.367
X-9.592 Y10.012 Z-1.368
X-9.595 Y10.083 Z-1.37
X-9.601 Y10.154 Z-1.371
X-9.61 Y10.225 Z-1.372
X-9.624 Y10.296 Z-1.373
X-9.641 Y10.367 Z-1.375
X-9.656 Y10.418
X-9.687 Y10.509 Z-1.377
X-9.717 Y10.58 Z-1.378
X-9.752 Y10.651 Z-1.38
X-9.774 Y10.692 Z-1.381
X-9.798 Y10.733 Z-1.382
X-9.837 Y10.793 Z-1.383
X-9.885 Y10.86 Z-1.384
X-9.912 Y10.893 Z-1.385
X-9.94 Y10.927 Z-1.386
X-9.948 Y10.935
X-10.015 Y11.005 Z-1.388
X-10.082 Y11.067 Z-1.389
X-10.094 Y11.077
X-10.159 Y11.129 Z-1.391
X-10.224 Y11.174 Z-1.392
X-10.296 Y11.219 Z-1.394
X-10.366 Y11.257 Z-1.395
X-10.437 Y11.29 Z-1.397
X-10.508 Y11.319 Z-1.398
X-10.575 Y11.342 Z-1.399
X-10.641 Y11.361 Z-1.4
X-10.65 Y11.363
X-10.721 Y11.38 Z-1.402
X-10.792 Y11.392 Z-1.403
X-10.863 Y11.401 Z-1.404
X-10.934 Y11.406 Z-1.405
X-11.076 Z-1.408
X-11.147 Y11.4 Z-1.409
X-11.218 Y11.391 Z-1.41
X-11.288 Y11.378 Z-1.412
X-11.359 Y11.361 Z-1.413
X-11.36
X-11.431 Y11.34 Z-1.414
X-11.502 Y11.315 Z-1.416
X-11.573 Y11.286 Z-1.417
X-11.644 Y11.252 Z-1.418
X-11.704 Y11.219 Z-1.42
X-11.786 Y11.168 Z-1.421
X-11.846 Y11.125 Z-1.422
X-11.906 Y11.077 Z-1.424
X-11.928 Y11.059
X-11.99 Y11.001 Z-1.426
X-12.052 Y10.935 Z-1.427
X-12.07 Y10.915 Z-1.428
X-12.119 Y10.854 Z-1.429
X-12.163 Y10.793 Z-1.431
X-12.212 Y10.717 Z-1.432
X-12.248 Y10.651 Z-1.433
X-12.283 Y10.58 Z-1.435
X-12.313 Y10.509 Z-1.436
X-12.354 Y10.385 Z-1.438
X-12.359 Y10.367 Z-1.439
X-12.376 Y10.296 Z-1.44
X-12.39 Y10.225 Z-1.441
X-12.399 Y10.154 Z-1.443
X-12.405 Y10.083 Z-1.444
X-12.408 Y10.012 Z-1.445
X-12.407 Y9.941 Z-1.446
X-12.402 Y9.87 Z-1.448
X-12.394 Y9.799 Z-1.449
X-12.365 Y9.657 Z-1.451
X-12.354 Y9.615 Z-1.452
X-12.322 Y9.515 Z-1.454
X-12.293 Y9.444 Z-1.455
X-12.26 Y9.373 Z-1.457
X-12.212 Y9.283 Z-1.458
X-12.179 Y9.231 Z-1.459
X-12.13 Y9.16 Z-1.461
X-12.074 Y9.089 Z-1.463
X-12.07 Y9.085
X-12.039 Y9.05
X-12.007 Y9.016 Z-1.464
X-11.934 Y8.947 Z-1.466
X-11.928 Y8.941
X-11.857 Y8.883 Z-1.468
X-11.786 Y8.832 Z-1.469
X-11.744 Y8.805 Z-1.47
X-11.644 Y8.748 Z-1.472
X-11.573 Y8.714 Z-1.474
X-11.502 Y8.685 Z-1.475
X-11.441 Y8.663 Z-1.476
X-11.36 Y8.639 Z-1.477
X-11.289 Y8.622 Z-1.479
X-11.218 Y8.609 Z-1.48
X-11.147 Y8.6 Z-1.481
X-11.076 Y8.594 Z-1.483
X-10.934 Z-1.485
X-10.863 Y8.599 Z-1.486
X-10.792 Y8.608 Z-1.487
X-10.721 Y8.62 Z-1.489
X-10.65 Y8.637 Z-1.49
X-10.559 Y8.663 Z-1.492
X-10.508 Y8.681 Z-1.493
X-10.437 Y8.71 Z-1.494
X-10.366 Y8.743 Z-1.495
X-10.256 Y8.805 Z-1.498
X-10.224 Y8.826
X-10.153 Y8.876 Z-1.5
X-10.139 Y8.887
X-10.082 Y8.933
X-10.066 Y8.947
X-9.999 Y9.01
X-9.94 Y9.073
X-9.926 Y9.089
X-9.87 Y9.16
X-9.821 Y9.231
X-9.798 Y9.267
X-9.767 Y9.32
X-9.74 Y9.373
X-9.707 Y9.444
X-9.678 Y9.515
X-9.656 Y9.582
X-9.635 Y9.657
X-9.606 Y9.799
X-9.598 Y9.87
X-9.593 Y9.941
X-9.592 Y10.012
X-9.595 Y10.083
X-9.601 Y10.154
X-9.61 Y10.225
X-9.624 Y10.296
X-9.641 Y10.367
X-9.656 Y10.418
X-9.687 Y10.509
X-9.717 Y10.58
X-9.752 Y10.651
X-9.774 Y10.692
X-9.798 Y10.733
X-9.837 Y10.793
X-9.885 Y10.86
X-9.912 Y10.893
X-9.94 Y10.927
X-9.948 Y10.935
X-10.015 Y11.005
X-10.082 Y11.067
X-10.094 Y11.077
X-10.159 Y11.129
X-10.224 Y11.174
X-10.296 Y11.219
X-10.366 Y11.257
X-10.437 Y11.29
X-10.508 Y11.319
X-10.575 Y11.342
X-10.641 Y11.361
X-10.65 Y11.363
X-10.721 Y11.38
X-10.792 Y11.392
X-10.863 Y11.401
X-10.934 Y11.406
X-11.076
X-11.147 Y11.4
X-11.218 Y11.391
X-11.288 Y11.378
X-11.359 Y11.361
X-11.36
X-11.431 Y11.34
X-11.502 Y11.315
X-11.573 Y11.286
X-11.644 Y11.252
X-11.704 Y11.219
X-11.786 Y11.168
X-11.846 Y11.125
X-11.906 Y11.077
X-11.928 Y11.059
X-11.99 Y11.001
X-12.052 Y10.935
X-12.07 Y10.915
X-12.119 Y10.854
X-12.163 Y10.793
X-12.212 Y10.717
X-12.248 Y10.651
X-12.283 Y10.58
X-12.313 Y10.509
X-12.354 Y10.385
X-12.359 Y10.367
X-12.376 Y10.296
X-12.39 Y10.225
X-12.399 Y10.154
X-12.405 Y10.083
X-12.408 Y10.012
X-12.407 Y9.941
X-12.402 Y9.87
X-12.394 Y9.799
X-12.365 Y9.657
X-12.354 Y9.615
X-12.322 Y9.515
X-12.293 Y9.444
X-12.26 Y9.373
X-12.212 Y9.283
X-12.179 Y9.231
X-12.13 Y9.16
X-12.074 Y9.089
X-12.07 Y9.085
X-12.039 Y9.05
X-12.007 Y9.016
X-11.934 Y8.947
X-11.928 Y8.941
X-11.857 Y8.883
X-11.786 Y8.832
X-11.744 Y8.805
X-11.644 Y8.748
X-11.573 Y8.714
X-11.502 Y8.685
X-11.441 Y8.663
X-11.36 Y8.639
X-11.289 Y8.622
X-11.218 Y8.609
X-11.147 Y8.6
X-11.076 Y8.594
X-10.934
X-10.863 Y8.599
X-10.792 Y8.608
X-10.721 Y8.62
X-10.65 Y8.637
X-10.559 Y8.663
X-10.508 Y8.681
X-10.437 Y8.71
X-10.366 Y8.743
X-10.256 Y8.805
X-10.224 Y8.826
X-10.153 Y8.876
X-10.139 Y8.887
X-10.082 Y8.933 Z-1.501
X-10.066 Y8.947 Z-1.502
X-9.999 Y9.01 Z-1.503
X-9.94 Y9.073 Z-1.505
X-9.926 Y9.089
X-9.87 Y9.16 Z-1.507
X-9.821 Y9.231 Z-1.508
X-9.798 Y9.267 Z-1.509
X-9.767 Y9.32 Z-1.51
X-9.74 Y9.373 Z-1.511
X-9.707 Y9.444 Z-1.512
X-9.678 Y9.515 Z-1.514
X-9.656 Y9.582 Z-1.515
X-9.635 Y9.657 Z-1.516
X-9.606 Y9.799 Z-1.519
X-9.598 Y9.87 Z-1.52
X-9.593 Y9.941 Z-1.521
X-9.592 Y10.012 Z-1.523
X-9.595 Y10.083 Z-1.524
X-9.601 Y10.154 Z-1.525
X-9.61 Y10.225 Z-1.526
X-9.624 Y10.296 Z-1.528
X-9.641 Y10.367 Z-1.529
X-9.656 Y10.418 Z-1.53
X-9.687 Y10.509 Z-1.532
X-9.717 Y10.58 Z-1.533
X-9.752 Y10.651 Z-1.534
X-9.774 Y10.692 Z-1.535
X-9.798 Y10.733 Z-1.536
X-9.837 Y10.793 Z-1.537
X-9.885 Y10.86 Z-1.539
X-9.912 Y10.893
X-9.94 Y10.927 Z-1.54
X-9.948 Y10.935
X-10.015 Y11.005 Z-1.542
X-10.082 Y11.067 Z-1.544
X-10.094 Y11.077
X-10.159 Y11.129 Z-1.545
X-10.224 Y11.174 Z-1.547
X-10.296 Y11.219 Z-1.548
X-10.366 Y11.257 Z-1.55
X-10.437 Y11.29 Z-1.551
X-10.508 Y11.319 Z-1.552
X-10.575 Y11.342 Z-1.553
X-10.641 Y11.361 Z-1.555
X-10.65 Y11.363
X-10.721 Y11.38 Z-1.556
X-10.792 Y11.392 Z-1.557
X-10.863 Y11.401 Z-1.559
X-10.934 Y11.406 Z-1.56
X-11.076 Z-1.562
X-11.147 Y11.4 Z-1.564
X-11.218 Y11.391 Z-1.565
X-11.288 Y11.378 Z-1.566
X-11.359 Y11.361 Z-1.567
X-11.36
X-11.431 Y11.34 Z-1.569
X-11.502 Y11.315 Z-1.57
X-11.573 Y11.286 Z-1.571
X-11.644 Y11.252 Z-1.573
X-11.704 Y11.219 Z-1.574
X-11.786 Y11.168 Z-1.576
X-11.846 Y11.125 Z-1.577
X-11.906 Y11.077 Z-1.578
X-11.928 Y11.059 Z-1.579
X-11.99 Y11.001 Z-1.58
X-12.052 Y10.935 Z-1.582
X-12.07 Y10.915
X-12.119 Y10.854 Z-1.584
X-12.163 Y10.793 Z-1.585
X-12.212 Y10.717 Z-1.586
X-12.248 Y10.651 Z-1.588
X-12.283 Y10.58 Z-1.589
X-12.313 Y10.509 Z-1.591
X-12.354 Y10.385 Z-1.593
X-12.359 Y10.367
X-12.376 Y10.296 Z-1.594
X-12.39 Y10.225 Z-1.596
X-12.399 Y10.154 Z-1.597
X-12.405 Y10.083 Z-1.598
X-12.408 Y10.012 Z-1.599
X-12.407 Y9.941 Z-1.601
X-12.402 Y9.87 Z-1.602
X-12.394 Y9.799 Z-1.603
X-12.365 Y9.657 Z-1.606
X-12.354 Y9.615
X-12.322 Y9.515 Z-1.608
X-12.293 Y9.444 Z-1.61
X-12.26 Y9.373 Z-1.611
X-12.212 Y9.283 Z-1.613
X-12.179 Y9.231 Z-1.614
X-12.13 Y9.16 Z-1.615
X-12.074 Y9.089 Z-1.617
X-12.07 Y9.085
X-12.039 Y9.05 Z-1.618
X-12.007 Y9.016 Z-1.619
X-11.934 Y8.947 Z-1.62
X-11.928 Y8.941 Z-1.621
X-11.857 Y8.883 Z-1.622
X-11.786 Y8.832 Z-1.624
X-11.744 Y8.805 Z-1.625
X-11.644 Y8.748 Z-1.627
X-11.573 Y8.714 Z-1.628
X-11.502 Y8.685 Z-1.629
X-11.441 Y8.663 Z-1.63
X-11.36 Y8.639 Z-1.632
X-11.289 Y8.622 Z-1.633
X-11.218 Y8.609 Z-1.634
X-11.147 Y8.6 Z-1.636
X-11.076 Y8.594 Z-1.637
X-10.934 Z-1.639
X-10.863 Y8.599 Z-1.641
X-10.792 Y8.608 Z-1.642
X-10.721 Y8.62 Z-1.643
X-10.65 Y8.637 Z-1.644
X-10.559 Y8.663 Z-1.646
X-10.508 Y8.681 Z-1.647
X-10.437 Y8.71 Z-1.648
X-10.366 Y8.743 Z-1.65
X-10.256 Y8.805 Z-1.652
X-10.224 Y8.826 Z-1.653
X-10.153 Y8.876 Z-1.654
X-10.082 Y8.933 Z-1.656
X-10.066 Y8.947
X-9.999 Y9.01 Z-1.658
X-9.94 Y9.073 Z-1.659
X-9.926 Y9.089 Z-1.66
X-9.87 Y9.16 Z-1.661
X-9.821 Y9.231 Z-1.663
X-9.798 Y9.267
X-9.767 Y9.32 Z-1.664
X-9.74 Y9.373 Z-1.665
X-9.707 Y9.444 Z-1.667
X-9.678 Y9.515 Z-1.668
X-9.656 Y9.582 Z-1.669
X-9.635 Y9.657 Z-1.671
X-9.606 Y9.799 Z-1.673
X-9.598 Y9.87 Z-1.675
X-9.593 Y9.941 Z-1.676
X-9.592 Y10.012 Z-1.677
X-9.595 Y10.083 Z-1.678
X-9.601 Y10.154 Z-1.679
X-9.61 Y10.225 Z-1.681
X-9.624 Y10.296 Z-1.682
X-9.641 Y10.367 Z-1.683
X-9.656 Y10.418 Z-1.684
X-9.687 Y10.509 Z-1.686
X-9.717 Y10.58 Z-1.687
X-9.752 Y10.651 Z-1.689
X-9.774 Y10.692
X-9.798 Y10.733 Z-1.69
X-9.837 Y10.793 Z-1.691
X-9.885 Y10.86 Z-1.693
X-9.912 Y10.893 Z-1.694
X-9.94 Y10.927
X-9.948 Y10.935 Z-1.695
X-10.015 Y11.005 Z-1.696
X-10.082 Y11.067 Z-1.698
X-10.094 Y11.077
X-10.159 Y11.129 Z-1.7
X-10.224 Y11.174 Z-1.701
X-10.296 Y11.219 Z-1.703
X-10.366 Y11.257 Z-1.704
X-10.437 Y11.29 Z-1.705
X-10.508 Y11.319 Z-1.707
X-10.575 Y11.342 Z-1.708
X-10.641 Y11.361 Z-1.709
X-10.65 Y11.363
X-10.721 Y11.38 Z-1.71
X-10.792 Y11.392 Z-1.712
X-10.863 Y11.401 Z-1.713
X-10.934 Y11.406 Z-1.714
X-11.076 Z-1.717
X-11.147 Y11.4 Z-1.718
X-11.218 Y11.391 Z-1.719
X-11.288 Y11.378 Z-1.72
X-11.359 Y11.361 Z-1.722
X-11.36
X-11.431 Y11.34 Z-1.723
X-11.502 Y11.315 Z-1.724
X-11.573 Y11.286 Z-1.726
X-11.644 Y11.252 Z-1.727
X-11.704 Y11.219 Z-1.728
X-11.786 Y11.168 Z-1.73
X-11.846 Y11.125 Z-1.731
X-11.906 Y11.077 Z-1.733
X-11.928 Y11.059
X-11.99 Y11.001 Z-1.735
X-12.052 Y10.935 Z-1.736
X-12.07 Y10.915 Z-1.737
X-12.119 Y10.854 Z-1.738
X-12.163 Y10.793 Z-1.739
X-12.212 Y10.717 Z-1.741
X-12.248 Y10.651 Z-1.742
X-12.283 Y10.58 Z-1.744
X-12.313 Y10.509 Z-1.745
X-12.354 Y10.385 Z-1.747
X-12.359 Y10.367 Z-1.748
X-12.376 Y10.296 Z-1.749
X-12.389 Y10.227 Z-1.75
X-12.39 Y10.225
X-12.399 Y10.154
X-12.405 Y10.083
X-12.408 Y10.012
X-12.407 Y9.941
X-12.402 Y9.87
X-12.394 Y9.799
X-12.365 Y9.657
X-12.354 Y9.615
X-12.322 Y9.515
X-12.293 Y9.444
X-12.26 Y9.373
X-12.212 Y9.283
X-12.179 Y9.231
X-12.13 Y9.16
X-12.074 Y9.089
X-12.07 Y9.085
X-12.039 Y9.05
X-12.007 Y9.016
X-11.934 Y8.947
X-11.928 Y8.941
X-11.857 Y8.883
X-11.786 Y8.832
X-11.744 Y8.805
X-11.644 Y8.748
X-11.573 Y8.714
X-11.502 Y8.685
X-11.441 Y8.663
X-11.36 Y8.639
X-11.289 Y8.622
X-11.218 Y8.609
X-11.147 Y8.6
X-11.076 Y8.594
X-10.934
X-10.863 Y8.599
X-10.792 Y8.608
X-10.721 Y8.62
X-10.65 Y8.637
X-10.559 Y8.663
X-10.508 Y8.681
X-10.437 Y8.71
X-10.366 Y8.743
X-10.256 Y8.805
X-10.224 Y8.826
X-10.153 Y8.876
X-10.082 Y8.933
X-10.066 Y8.947
X-9.999 Y9.01
X-9.94 Y9.073
X-9.926 Y9.089
X-9.87 Y9.16
X-9.821 Y9.231
X-9.798 Y9.267
X-9.767 Y9.32
X-9.74 Y9.373
X-9.707 Y9.444
X-9.678 Y9.515
X-9.656 Y9.582
X-9.635 Y9.657
X-9.606 Y9.799
X-9.598 Y9.87
X-9.593 Y9.941
X-9.592 Y10.012
