(_3)
(T1  D=3.175 CR=0. - ZMIN=-8. - FLAT END MILL)
G90 G94 G91.1 G40 G49 G17
G21

(2D CONTOUR1)
M5
M9
T1
S5500 M3
G54
M8
G0 X1.187 Y10.596
G43 Z15. H1
Z5.
G1 Z3. F762.
Z2.5
G3 X-1.187 Y-10.596 Z-0.431 R10.663 F351.
X10.663 Y0. Z-2. R10.663
X-10.663 R10.663
X10.663 R10.663
X-5.782 Y8.958 Z-4. R10.663
X5.782 Y-8.958 R10.663
X-5.782 Y8.958 R10.663
X-4.391 Y-9.716 Z-6. R10.662
X4.391 Y9.716 R10.662
X-4.391 Y-9.716 R10.662
X10.545 Y1.58 Z-8. R10.663
X-10.545 Y-1.58 R10.663
X10.545 Y1.58 R10.663
G0 Z15.

(2D POCKET1)
M8
G0 X-15.739 Y7.449
Z15.
Z5.
G1 Z2.5 F351.
G3 X14.072 Y-10.255 Z-2. R17.413
X17.413 Y0. R17.413
Y0.03 R17.413
X-10.448 Y13.93 R17.413
X-12.227 Y-12.397 R17.413
X14.072 Y-10.255 R17.413
G1 X13.585 Y-9.9 Z-1.94
G0 Z5.
X-13.184 Y9.218
G1 Z2.5 F351.
G2 X16.087 Y0. Z-1.063 R16.087
Y-0.03 Z-1.066 R16.088
X12.652 Y-9.937 Z-2. R16.088
X-9.653 Y-12.87 R16.088
X9.652 Y12.87 R16.087
X16.087 Y0. R16.087
Y-0.03 R16.088
X12.652 Y-9.937 R16.088
G1 X13.126 Y-10.31 Z-1.94
G0 Z15.

(2D POCKET2)
M8
G0 X-15.605 Y19.708
Z15.
Z5.
G1 Z2.5 F351.
G3 X-12.923 Y18.329 Z2.085 R1.508
X-15.605 Y19.708 Z1.671 R1.508
X-12.923 Y18.329 Z1.256 R1.508
X-15.605 Y19.708 Z0.842 R1.508
X-12.923 Y18.329 Z0.427 R1.508
X-15.605 Y19.708 Z0.013 R1.508
X-12.923 Y18.329 Z-0.402 R1.508
X-15.605 Y19.708 Z-0.816 R1.508
X-12.923 Y18.329 Z-1.231 R1.508
X-15.605 Y19.708 Z-1.645 R1.508
X-13.359 Y17.812 Z-2. R1.508
G2 X16.448 Y14.99 R22.244
X9.946 Y-19.908 R22.246
X-21.879 Y4.066 R22.275
X-13.359 Y17.812 R22.244
X-11.806 Y17.88 R1.377
G3 X-10.252 Y17.853 R1.515
G2 X10.252 Y-17.853 R20.587
X-12.352 Y-16.47 R20.587
X-12.392 Y-16.44 R20.588
X-12.352 Y16.47 R20.588
X-10.252 Y17.853 R20.587
G3 X-10.176 Y18.123 R0.2
G1 X-11.498 Y20.527
G3 X-11.772 Y20.605 R0.2
X-23.325 Y-4.455 R23.759
X10.629 Y-21.235 R23.719
X10.504 Y21.297 R23.767
X-11.772 Y20.605 R23.759
G2 X-13.251 Y20.692 R1.354
G3 X-14.732 Y20.707 R1.26
X-15.248 Y-20.33 R25.413
X-15.208 Y-20.36 R25.413
X25.413 Y0. R25.413
X-14.732 Y20.707 R25.412
X-14.758 Y20.403 R0.2
G1 X-11.842 Y17.441
G3 X-11.516 Y17.503 R0.2
X-14.293 Y18.681 Z-2.415 R1.508
X-11.516 Y17.503 Z-2.829 R1.508
X-14.293 Y18.681 Z-3.244 R1.508
X-11.516 Y17.503 Z-3.658 R1.508
X-13.78 Y19.32 Z-4. R1.508
X-23.325 Y-4.455 R23.759
X10.629 Y-21.235 R23.719
X10.504 Y21.297 R23.767
X-13.78 Y19.32 R23.759
G2 X-15.26 Y19.259 R1.355
G3 X-16.735 Y19.124 R1.26
X-15.248 Y-20.33 R25.413
X-15.208 Y-20.36 R25.413
X25.413 Y0. R25.413
X-16.735 Y19.124 R25.412
X-16.755 Y18.844 R0.2
G1 X-14.966 Y16.757
G3 X-14.683 Y16.737 R0.2
G2 X16.448 Y14.99 R22.244
X9.946 Y-19.908 R22.246
X-21.879 Y4.066 R22.275
X-14.683 Y16.737 R22.244
X-13.14 Y16.924 R1.376
G3 X-11.589 Y17.016 R1.515
G2 X11.589 Y-17.016 R20.587
X-12.352 Y-16.47 R20.587
X-12.392 Y-16.44 R20.588
X-12.352 Y16.47 R20.588
X-11.589 Y17.016 R20.588
G3 X-11.557 Y17.319 R0.2
G1 X-14.429 Y20.325
G3 X-14.756 Y20.269 R0.2
X-12.006 Y19.031 Z-4.415 R1.508
X-14.756 Y20.269 Z-4.829 R1.508
X-12.006 Y19.031 Z-5.244 R1.508
X-14.756 Y20.269 Z-5.658 R1.508
X-12.532 Y18.404 Z-6. R1.508
G2 X16.448 Y14.99 R22.244
X9.946 Y-19.908 R22.246
X-21.879 Y4.066 R22.275
X-12.532 Y18.404 R22.244
X-10.977 Y18.401 R1.377
G3 X-9.425 Y18.303 R1.516
G2 X9.425 Y-18.303 R20.587
X-12.352 Y-16.47 R20.587
X-12.392 Y-16.44 R20.588
X-12.352 Y16.47 R20.588
X-9.425 Y18.303 R20.588
G3 X-9.339 Y18.573 R0.2
G1 X-10.596 Y21.011
G3 X-10.865 Y21.097 R0.2
X-23.325 Y-4.455 R23.759
X10.629 Y-21.235 R23.719
X10.504 Y21.297 R23.767
X-10.865 Y21.097 R23.759
G2 X-12.338 Y21.249 R1.354
G3 X-13.817 Y21.328 R1.26
X-15.248 Y-20.33 R25.413
X-15.208 Y-20.36 R25.413
X25.413 Y0. R25.413
X-13.817 Y21.328 R25.412
G1 X-13.489 Y20.822 Z-5.94
G0 Z15.

(2D CONTOUR2)
M8
G0 X0.576 Y10.847
Z15.
Z5.
G1 Z2.5 F762.
G3 X-0.576 Y-10.847 Z-0.486 R10.863 F351.
X0.576 Y10.847 Z-3.471 R10.863
X-0.576 Y-10.847 Z-6.457 R10.863
X10.863 Y0. Z-8. R10.863
X-10.863 R10.863 F201.
X10.863 R10.863
X-10.863 R10.863
X10.863 R10.863
G0 Z15.

(2D CONTOUR3)
M8
G0 X6.473 Y-27.845
Z15.
Z5.
G1 Z3. F762.
Z2.5
G2 X-28.587 Y0. Z-2. R28.587 F351.
X28.587 R28.587
X-28.587 R28.587
X-17.153 Y22.87 Z-3.874 R28.588
X-15.698 Y23.892 Z-4. R28.587
X15.698 Y-23.892 R28.587
X-15.698 Y23.892 R28.587
X11.347 Y26.239 Z-6. R28.588
X-11.347 Y-26.239 R28.588
X11.347 Y26.239 R28.588
X28.16 Y4.925 Z-8. R28.587
X-28.16 Y-4.925 R28.587
X28.16 Y4.925 R28.587
G0 Z15.

M9
M30
