( )
(T1  D=3.175 CR=0. - ZMIN=-8. - FLAT END MILL)
G90 G94 G91.1 G40 G49 G17
G21

(2D POCKET1)
M5
M9
T1
S10000 M3
G54
M8
G0 X-26.088 Y-5.98
G43 Z15. H1
Z5.
G1 Z2.5 F1588.
G3 X-27.103 Y-6.02 Z2.219 R0.508
X-26.088 Y-5.98 Z1.937 R0.508
X-27.103 Y-6.02 Z1.656 R0.508
X-26.088 Y-5.98 Z1.374 R0.508
X-27.103 Y-6.02 Z1.093 R0.508
X-26.088 Y-5.98 Z0.811 R0.508
X-27.103 Y-6.02 Z0.53 R0.508
X-26.088 Y-5.98 Z0.248 R0.508
X-27.103 Y-6.02 Z-0.033 R0.508
X-26.088 Y-5.98 Z-0.315 R0.508
X-27.103 Y-6.02 Z-0.596 R0.508
X-26.088 Y-5.98 Z-0.878 R0.508
X-27.103 Y-6.02 Z-1.159 R0.508
X-26.088 Y-5.98 Z-1.441 R0.508
X-27.103 Y-6.02 Z-1.722 R0.508
X-26.087 Y-6. Z-2. R0.508
X-27.913 R0.913
X-26.087 R0.913
X-27.913 Z-2.505 R0.913
X-26.087 Z-3.011 R0.913
X-27.913 Z-3.516 R0.913
X-26.096 Y-6.124 Z-4. R0.913
X-27.904 Y-5.876 R0.913
X-26.096 Y-6.124 R0.913
X-27.904 Y-5.876 Z-4.505 R0.912
X-26.096 Y-6.124 Z-5.011 R0.912
X-27.904 Y-5.876 Z-5.516 R0.912
X-26.121 Y-6.245 Z-6. R0.912
X-27.879 Y-5.755 R0.912
X-26.121 Y-6.245 R0.912
X-27.879 Y-5.755 Z-6.505 R0.912
X-26.121 Y-6.245 Z-7.011 R0.912
X-27.879 Y-5.755 Z-7.516 R0.912
X-26.163 Y-6.362 Z-8. R0.912
X-27.837 Y-5.638 R0.912
X-26.163 Y-6.362 R0.912
G1 X-26.716 Y-6.123 Z-7.94
G0 Z5.
X26.469 Y-6.742
G1 Z2.5 F1588.
G3 X27.046 Y-5.905 Z2.219 R0.508
X26.469 Y-6.742 Z1.937 R0.508
X27.046 Y-5.905 Z1.656 R0.508
X26.469 Y-6.742 Z1.374 R0.508
X27.046 Y-5.905 Z1.093 R0.508
X26.469 Y-6.742 Z0.811 R0.508
X27.046 Y-5.905 Z0.53 R0.508
X26.469 Y-6.742 Z0.248 R0.508
X27.046 Y-5.905 Z-0.033 R0.508
X26.469 Y-6.742 Z-0.315 R0.508
X27.046 Y-5.905 Z-0.596 R0.508
X26.469 Y-6.742 Z-0.878 R0.508
X27.046 Y-5.905 Z-1.159 R0.508
X26.469 Y-6.742 Z-1.441 R0.508
X27.046 Y-5.905 Z-1.722 R0.508
X26.452 Y-6.73 Z-2. R0.508
X27.548 Y-5.27 R0.913
X26.452 Y-6.73 R0.913
X27.548 Y-5.27 Z-2.505 R0.912
X26.452 Y-6.73 Z-3.011 R0.912
X27.548 Y-5.27 Z-3.516 R0.912
X26.358 Y-6.649 Z-4. R0.912
X27.642 Y-5.351 R0.912
X26.358 Y-6.649 R0.912
X27.642 Y-5.351 Z-4.505 R0.913
X26.358 Y-6.649 Z-5.011 R0.913
X27.642 Y-5.351 Z-5.516 R0.913
X26.276 Y-6.556 Z-6. R0.913
X27.724 Y-5.444 R0.913
X26.276 Y-6.556 R0.913
X27.724 Y-5.444 Z-6.505 R0.913
X26.276 Y-6.556 Z-7.011 R0.913
X27.724 Y-5.444 Z-7.516 R0.913
X26.208 Y-6.452 Z-8. R0.913
X27.792 Y-5.548 R0.913
X26.208 Y-6.452 R0.913
G1 X26.731 Y-6.153 Z-7.94
G0 Z15.

(2D POCKET2)
M8
G0 X27.085 Y6.791
Z15.
Z5.
G1 Z2.5 F1588.
G3 X29.914 Y7.836 Z1.665 R1.508
X27.085 Y6.791 Z0.829 R1.508
X29.914 Y7.836 Z-0.006 R1.508
X27.085 Y6.791 Z-0.842 R1.508
X29.914 Y7.836 Z-1.677 R1.508
X28.503 Y8.822 Z-2. R1.508
G1 X11.954 Y8.865
G3 X11.635 Y8.546 R0.319
G1 Y6.454
G3 X11.954 Y6.135 R0.319
G1 X29.546
G3 X29.865 Y6.454 R0.319
X29.843 Y7.227 R13.287
G2 X29.82 Y8. R13.287
G3 X29. Y8.82 R0.82
G1 X28.503 Y8.822
G2 X26.564 Y10.117 R2.108
G3 X24.624 Y11.413 R2.1
G1 X9.087
Y3.588
X32.412
Y8.
G3 X29. Y11.413 R3.413
G1 X24.624
G3 X23.786 Y8.651 Z-2.409 R1.508
G1 X27.661 Y6.06 Z-2.903
G3 X29.338 Y8.567 Z-3.406 R1.508
X28.503 Y8.822 Z-3.5 R1.508
G1 X11.954 Y8.865
G3 X11.635 Y8.546 R0.319
G1 Y6.454
G3 X11.954 Y6.135 R0.319
G1 X29.546
G3 X29.865 Y6.454 R0.319
X29.843 Y7.227 R13.287
G2 X29.82 Y8. R13.287
G3 X29. Y8.82 R0.82
G1 X28.503 Y8.822
G2 X26.564 Y10.117 R2.108
G3 X24.624 Y11.413 R2.1
G1 X9.087
Y3.588
X32.412
Y8.
G3 X29. Y11.413 R3.413
G1 X24.624
Y10.809 Z-3.44
G0 Z5.
X-14.411 Y6.824
G1 Z2.5 F1588.
G3 X-11.588 Y7.884 Z1.665 R1.508
X-14.411 Y6.824 Z0.829 R1.508
X-11.588 Y7.884 Z-0.006 R1.508
X-14.411 Y6.824 Z-0.842 R1.508
X-11.588 Y7.884 Z-1.677 R1.508
X-13.004 Y8.862 Z-2. R1.508
G1 X-29. Y8.82
G3 X-29.82 Y8. R0.82
G2 X-29.843 Y7.227 R13.287
G3 X-29.865 Y6.454 R13.287
X-29.546 Y6.135 R0.319
G1 X-11.954
G3 X-11.635 Y6.454 R0.319
G1 Y8.546
G3 X-11.954 Y8.865 R0.319
G1 X-13.004 Y8.862
G2 X-14.92 Y10.137 R2.069
G3 X-16.835 Y11.413 R2.077
G1 X-29.
G3 X-32.412 Y8. R3.412
G1 Y3.588
X-9.087
Y11.413
X-16.835
G3 X-17.67 Y8.648 Z-2.41 R1.508
G1 X-13.835 Y6.098 Z-2.901
G3 X-12.165 Y8.61 Z-3.405 R1.508
X-13.004 Y8.862 Z-3.5 R1.508
G1 X-29. Y8.82
G3 X-29.82 Y8. R0.82
G2 X-29.843 Y7.227 R13.287
G3 X-29.865 Y6.454 R13.287
X-29.546 Y6.135 R0.319
G1 X-11.954
G3 X-11.635 Y6.454 R0.319
G1 Y8.546
G3 X-11.954 Y8.865 R0.319
G1 X-13.004 Y8.862
G2 X-14.92 Y10.137 R2.069
G3 X-16.835 Y11.413 R2.077
G1 X-29.
G3 X-32.412 Y8. R3.412
G1 Y3.588
X-9.087
Y11.413
X-16.835
Y10.809 Z-3.44
G0 Z15.

M9
M30
