(  )
(T1  D=3.175 CR=0. - ZMIN=-8. - FLAT END MILL)
G90 G94 G91.1 G40 G49 G17
G21

(2D POCKET1)
M5
M9
T1
S10000 M3
G54
M8
G0 X-0.564 Y-5.283
G43 Z15. H1
Z5.
G1 Z2.5 F1588.
G3 X0.078 Y-6.07 Z2.219 R0.508
X-0.564 Y-5.283 Z1.937 R0.508
X0.078 Y-6.07 Z1.656 R0.508
X-0.564 Y-5.283 Z1.374 R0.508
X0.078 Y-6.07 Z1.093 R0.508
X-0.564 Y-5.283 Z0.811 R0.508
X0.078 Y-6.07 Z0.53 R0.508
X-0.564 Y-5.283 Z0.248 R0.508
X0.078 Y-6.07 Z-0.033 R0.508
X-0.564 Y-5.283 Z-0.315 R0.508
X0.078 Y-6.07 Z-0.596 R0.508
X-0.564 Y-5.283 Z-0.878 R0.508
X0.078 Y-6.07 Z-1.159 R0.508
X-0.564 Y-5.283 Z-1.441 R0.508
X0.078 Y-6.07 Z-1.722 R0.508
X-0.548 Y-5.27 Z-2. R0.508
X0.548 Y-6.73 R0.913
X-0.548 Y-5.27 R0.913
X0.547 Y-6.73 Z-2.505 R0.912
X-0.547 Y-5.27 Z-3.011 R0.912
X0.547 Y-6.73 Z-3.516 R0.912
X-0.443 Y-5.202 Z-4. R0.912
X0.443 Y-6.798 R0.912
X-0.443 Y-5.202 R0.912
X0.443 Y-6.798 Z-4.505 R0.912
X-0.443 Y-5.202 Z-5.011 R0.912
X0.443 Y-6.798 Z-5.516 R0.912
X-0.331 Y-5.15 Z-6. R0.912
X0.331 Y-6.85 R0.912
X-0.331 Y-5.15 R0.912
X0.331 Y-6.85 Z-6.505 R0.912
X-0.331 Y-5.15 Z-7.011 R0.912
X0.331 Y-6.85 Z-7.516 R0.912
X-0.212 Y-5.113 Z-8. R0.912
X0.212 Y-6.887 R0.912
X-0.212 Y-5.113 R0.912
G1 X-0.072 Y-5.699 Z-7.94
G0 Z15.

(2D POCKET2)
M8
G0 X-2.913 Y6.786
Z15.
Z5.
G1 Z2.5 F1588.
G3 X-0.087 Y7.839 Z1.665 R1.508
X-2.913 Y6.786 Z0.829 R1.508
X-0.087 Y7.839 Z-0.006 R1.508
X-2.913 Y6.786 Z-0.842 R1.508
X-0.087 Y7.839 Z-1.677 R1.508
X-1.5 Y8.82 Z-2. R1.508
G1 X-2.
G3 X-2.82 Y8. R0.82
G2 X-2.843 Y7.227 R13.287
G3 X-2.865 Y6.454 R13.287
X-2.546 Y6.135 R0.319
G1 X2.546
G3 X2.865 Y6.454 R0.319
X2.843 Y7.227 R13.287
G2 X2.82 Y8. R13.287
G3 X2. Y8.82 R0.82
G1 X-1.5
G2 X-3.047 Y9.768 R1.737
G3 X-4.858 Y9.864 R1.048
X-5.412 Y8. R3.412
G1 Y3.588
X5.412
Y8.
G3 X2. Y11.413 R3.413
G1 X-2.
G3 X-4.858 Y9.864 R3.413
X-4.774 Y9.573 R0.2
G1 X-0.347 Y7.558
G3 X-0.075 Y7.805 R0.2
X-2.925 Y6.819 Z-2.835 R1.508
X-0.075 Y7.805 Z-3.671 R1.508
X-1.5 Y8.82 Z-4. R1.508
G1 X-2.
G3 X-2.82 Y8. R0.82
G2 X-2.843 Y7.227 R13.287
G3 X-2.865 Y6.454 R13.287
X-2.546 Y6.135 R0.319
G1 X2.546
G3 X2.865 Y6.454 R0.319
X2.843 Y7.227 R13.287
G2 X2.82 Y8. R13.287
G3 X2. Y8.82 R0.82
G1 X-1.5
G2 X-3.047 Y9.768 R1.737
G3 X-4.858 Y9.864 R1.048
X-5.412 Y8. R3.412
G1 Y3.588
X5.412
Y8.
G3 X2. Y11.413 R3.413
G1 X-2.
G3 X-4.858 Y9.864 R3.413
X-4.555 Y7.877 Z-4.103 R1.508
G1 X-2.46 Y6.149 Z-4.23
G3 X-0.54 Y8.476 Z-4.451 R1.508
X-1.5 Y8.82 Z-4.5 R1.508
G1 Z5.
Z-4.5
X-2.
G3 X-2.82 Y8. R0.82
G2 X-2.843 Y7.227 R13.287
G3 X-2.865 Y6.454 R13.287
X-2.546 Y6.135 R0.319
G1 X2.546
G3 X2.865 Y6.454 R0.319
X2.843 Y7.227 R13.287
G2 X2.82 Y8. R13.287
G3 X2. Y8.82 R0.82
G1 X-1.5
G2 X-3.047 Y9.768 R1.737
G3 X-4.858 Y9.864 R1.048
X-5.412 Y8. R3.412
G1 Y3.588
X5.412
Y8.
G3 X2. Y11.413 R3.413
G1 X-2.
G3 X-4.858 Y9.864 R3.413
G1 X-4.353 Y9.534 Z-4.44
G0 Z15.

(2D CONTOUR2)
M8
G0 X5.052 Y-13.838
Z15.
Z5.
G1 Z3. F762.
Z2.5
G2 X2. Y-14.587 Z1.94 R6.587 F1588.
G1 X-2. Z1.235
G2 X-8.587 Y-8. Z-0.589 R6.587
G1 Y0. Z-2.
Y8.
G2 X-2. Y14.587 R6.587
G1 X2.
G2 X8.587 Y8. R6.587
G1 Y-8.
G2 X2. Y-14.587 R6.587
G1 X-2.
G2 X-8.587 Y-8. R6.587
G1 Y0.
Y8. Z-3.248
G2 X-6.903 Y12.399 Z-4. R6.587
X-2. Y14.587 R6.587
G1 X2.
G2 X8.587 Y8. R6.587
G1 Y-8.
G2 X2. Y-14.587 R6.587
G1 X-2.
G2 X-8.587 Y-8. R6.587
G1 Y8.
G2 X-6.903 Y12.399 R6.587
X-2. Y14.587 Z-4.863 R6.587
G1 X2. Z-5.487
G2 X5.152 Y13.784 Z-6. R6.588
X8.587 Y8. R6.587
G1 Y-8.
G2 X2. Y-14.587 R6.587
G1 X-2.
G2 X-8.587 Y-8. R6.587
G1 Y8.
G2 X-2. Y14.587 R6.587
G1 X2.
G2 X5.152 Y13.784 R6.588
X8.587 Y8. Z-7.102 R6.587
G1 Y2.243 Z-8.
Y-8.
G2 X2. Y-14.587 R6.587
G1 X-2.
G2 X-8.587 Y-8. R6.587
G1 Y8.
G2 X-2. Y14.587 R6.587
G1 X2.
G2 X8.587 Y8. R6.587
G1 Y2.243
G0 Z15.

M9
M30
