(_)
(T5  D=4. CR=0. - ZMIN=-5. - FLAT END MILL)
G90 G94 G91.1 G40 G49 G17
G21

(CONTOUR1)
M5
M9
T5
S5000 M3
G54
M8
G0 X-11.558 Y-9.176
G43 Z15. H5
Z1.5
G1 Z0.025 F400.
X-11.596 Y-9.203 Z0.022 F200.
X-11.636 Y-9.234 Z0.018
X-11.647 Y-9.244 Z0.017
X-11.688 Y-9.281 Z0.013
X-11.729 Y-9.323 Z0.009
X-11.764 Y-9.362 Z0.006
X-11.795 Y-9.401 Z0.002
X-11.796 Y-9.403
X-11.851 Y-9.483 Z-0.005
X-11.873 Y-9.523 Z-0.008
X-11.894 Y-9.562 Z-0.011
X-11.912 Y-9.602 Z-0.014
X-11.928 Y-9.641 Z-0.017
X-11.955 Y-9.719 Z-0.023
Y-9.722
X-11.976 Y-9.802 Z-0.029
X-11.982 Y-9.841 Z-0.032
X-11.988 Y-9.881 Z-0.035
X-11.995 Y-9.961 Z-0.04
Y-10.001 Z-0.043
X-11.994 Y-10.041 Z-0.046
X-11.988 Y-10.12 Z-0.051
X-11.982 Y-10.16 Z-0.054
X-11.975 Y-10.2 Z-0.057
X-11.955 Y-10.281 Z-0.063
X-11.928 Y-10.359 Z-0.069
X-11.912 Y-10.399 Z-0.072
X-11.893 Y-10.439 Z-0.075
X-11.872 Y-10.479 Z-0.078
X-11.849 Y-10.519 Z-0.081
X-11.795 Y-10.599 Z-0.088
X-11.763 Y-10.638 Z-0.091
X-11.728 Y-10.678 Z-0.095
X-11.682 Y-10.725 Z-0.1
X-11.636 Y-10.766 Z-0.104
X-11.587 Y-10.804 Z-0.108
X-11.562 Y-10.821 Z-0.11
X-11.538 Y-10.838 Z-0.112
X-11.476 Y-10.874 Z-0.117
X-11.397 Y-10.913 Z-0.124
X-11.357 Y-10.929 Z-0.127
X-11.317 Y-10.943 Z-0.13
X-11.237 Y-10.967 Z-0.135
X-11.197 Y-10.975 Z-0.138
X-11.158 Y-10.983 Z-0.141
X-11.078 Y-10.992 Z-0.147
X-11.038 Y-10.994 Z-0.15
X-10.998 Y-10.995 Z-0.152
X-10.918 Y-10.992 Z-0.158
X-10.839 Y-10.982 Z-0.163
X-10.799 Y-10.975 Z-0.166
X-10.759 Y-10.966 Z-0.169
X-10.679 Y-10.942 Z-0.175
X-10.639 Y-10.927 Z-0.178
X-10.6 Y-10.911 Z-0.181
X-10.52 Y-10.872 Z-0.187
X-10.462 Y-10.838 Z-0.192
X-10.437 Y-10.82 Z-0.194
X-10.411 Y-10.803 Z-0.196
X-10.36 Y-10.763 Z-0.201
X-10.316 Y-10.723 Z-0.205
X-10.272 Y-10.678 Z-0.209
X-10.234 Y-10.636 Z-0.213
X-10.201 Y-10.593 Z-0.217
X-10.151 Y-10.519 Z-0.223
X-10.128 Y-10.479 Z-0.227
X-10.107 Y-10.439 Z-0.23
X-10.088 Y-10.399 Z-0.233
X-10.072 Y-10.359 Z-0.236
X-10.042 Y-10.268 Z-0.242
X-10.025 Y-10.2 Z-0.247
X-10.018 Y-10.16 Z-0.25
X-10.012 Y-10.12 Z-0.253
X-10.006 Y-10.041 Z-0.259
X-10.005 Y-10.001 Z-0.261
Y-9.961 Z-0.264
X-10.012 Y-9.881 Z-0.27
X-10.024 Y-9.806 Z-0.275
X-10.032 Y-9.769 Z-0.278
X-10.042 Y-9.732 Z-0.28
X-10.045 Y-9.722 Z-0.281
X-10.071 Y-9.642 Z-0.287
X-10.088 Y-9.602 Z-0.29
X-10.106 Y-9.562 Z-0.293
X-10.126 Y-9.524 Z-0.296
X-10.148 Y-9.485 Z-0.299
X-10.201 Y-9.407 Z-0.306
X-10.204 Y-9.403
X-10.235 Y-9.363 Z-0.31
X-10.27 Y-9.323 Z-0.313
X-10.312 Y-9.281 Z-0.318
X-10.353 Y-9.244 Z-0.322
X-10.36 Y-9.237
X-10.4 Y-9.206 Z-0.326
X-10.44 Y-9.177 Z-0.329
X-10.48 Y-9.152 Z-0.333
X-10.52 Y-9.128 Z-0.336
X-10.61 Y-9.084 Z-0.343
X-10.644 Y-9.071 Z-0.345
X-10.679 Y-9.058 Z-0.348
X-10.759 Y-9.034 Z-0.354
X-10.799 Y-9.025 Z-0.357
X-10.839 Y-9.018 Z-0.359
X-10.918 Y-9.008 Z-0.365
X-10.998 Y-9.005 Z-0.371
X-11.038 Y-9.006 Z-0.373
X-11.078 Y-9.008 Z-0.376
X-11.158 Y-9.017 Z-0.382
X-11.197 Y-9.025 Z-0.385
X-11.237 Y-9.033 Z-0.388
X-11.317 Y-9.057 Z-0.393
X-11.354 Y-9.07 Z-0.396
X-11.39 Y-9.084 Z-0.399
X-11.476 Y-9.126 Z-0.405
X-11.516 Y-9.149 Z-0.409
X-11.556 Y-9.175 Z-0.412
X-11.596 Y-9.203 Z-0.415
X-11.636 Y-9.234 Z-0.419
X-11.647 Y-9.244 Z-0.42
X-11.688 Y-9.281 Z-0.424
X-11.729 Y-9.323 Z-0.428
X-11.764 Y-9.362 Z-0.432
X-11.795 Y-9.401 Z-0.435
X-11.796 Y-9.403
X-11.851 Y-9.483 Z-0.442
X-11.873 Y-9.523 Z-0.445
X-11.894 Y-9.562 Z-0.448
X-11.912 Y-9.602 Z-0.451
X-11.928 Y-9.641 Z-0.454
X-11.955 Y-9.719 Z-0.46
Y-9.722
X-11.976 Y-9.802 Z-0.466
X-11.982 Y-9.841 Z-0.469
X-11.988 Y-9.881 Z-0.472
X-11.995 Y-9.961 Z-0.477
Y-10.001 Z-0.48
X-11.994 Y-10.041 Z-0.483
X-11.988 Y-10.12 Z-0.488
X-11.982 Y-10.16 Z-0.491
X-11.975 Y-10.2 Z-0.494
X-11.955 Y-10.281 Z-0.5
X-11.928 Y-10.359 F400.
X-11.912 Y-10.399
X-11.893 Y-10.439
X-11.872 Y-10.479
X-11.849 Y-10.519
X-11.795 Y-10.599
X-11.763 Y-10.638
X-11.728 Y-10.678
X-11.682 Y-10.725
X-11.636 Y-10.766
X-11.587 Y-10.804
X-11.562 Y-10.821
X-11.538 Y-10.838
X-11.476 Y-10.874
X-11.397 Y-10.913
X-11.357 Y-10.929
X-11.317 Y-10.943
X-11.237 Y-10.967
X-11.197 Y-10.975
X-11.158 Y-10.983
X-11.078 Y-10.992
X-11.038 Y-10.994
X-10.998 Y-10.995
X-10.918 Y-10.992
X-10.839 Y-10.982
X-10.799 Y-10.975
X-10.759 Y-10.966
X-10.679 Y-10.942
X-10.639 Y-10.927
X-10.6 Y-10.911
X-10.52 Y-10.872
X-10.462 Y-10.838
X-10.437 Y-10.82
X-10.411 Y-10.803
X-10.36 Y-10.763
X-10.316 Y-10.723
X-10.272 Y-10.678
X-10.234 Y-10.636
X-10.201 Y-10.593
X-10.151 Y-10.519
X-10.128 Y-10.479
X-10.107 Y-10.439
X-10.088 Y-10.399
X-10.072 Y-10.359
X-10.042 Y-10.268
X-10.025 Y-10.2
X-10.018 Y-10.16
X-10.012 Y-10.12
X-10.006 Y-10.041
X-10.005 Y-10.001
Y-9.961
X-10.012 Y-9.881
X-10.024 Y-9.806
X-10.032 Y-9.769
X-10.042 Y-9.732
X-10.045 Y-9.722
X-10.071 Y-9.642
X-10.088 Y-9.602
X-10.106 Y-9.562
X-10.126 Y-9.524
X-10.148 Y-9.485
X-10.201 Y-9.407
X-10.204 Y-9.403
X-10.235 Y-9.363
X-10.27 Y-9.323
X-10.312 Y-9.281
X-10.353 Y-9.244
X-10.36 Y-9.237
X-10.4 Y-9.206
X-10.44 Y-9.177
X-10.48 Y-9.152
X-10.52 Y-9.128
X-10.61 Y-9.084
X-10.644 Y-9.071
X-10.679 Y-9.058
X-10.759 Y-9.034
X-10.799 Y-9.025
X-10.839 Y-9.018
X-10.918 Y-9.008
X-10.998 Y-9.005
X-11.038 Y-9.006
X-11.078 Y-9.008
X-11.158 Y-9.017
X-11.197 Y-9.025
X-11.237 Y-9.033
X-11.317 Y-9.057
X-11.354 Y-9.07
X-11.39 Y-9.084
X-11.476 Y-9.126
X-11.516 Y-9.149
X-11.556 Y-9.175
X-11.596 Y-9.203
X-11.636 Y-9.234
X-11.647 Y-9.244
X-11.688 Y-9.281
X-11.729 Y-9.323
X-11.764 Y-9.362
X-11.795 Y-9.401
X-11.796 Y-9.403
X-11.851 Y-9.483
X-11.873 Y-9.523
X-11.894 Y-9.562
X-11.912 Y-9.602
X-11.928 Y-9.641
X-11.955 Y-9.719
Y-9.722
X-11.976 Y-9.802
X-11.982 Y-9.841
X-11.988 Y-9.881
X-11.995 Y-9.961
Y-10.001
X-11.994 Y-10.041
X-11.988 Y-10.12
X-11.982 Y-10.16
X-11.975 Y-10.2
X-11.955 Y-10.281
X-11.928 Y-10.359 Z-0.506 F200.
X-11.912 Y-10.399 Z-0.509
X-11.893 Y-10.439 Z-0.512
X-11.872 Y-10.479 Z-0.515
X-11.849 Y-10.519 Z-0.518
X-11.795 Y-10.599 Z-0.525
X-11.763 Y-10.638 Z-0.529
X-11.728 Y-10.678 Z-0.532
X-11.682 Y-10.725 Z-0.537
X-11.636 Y-10.766 Z-0.541
X-11.587 Y-10.804 Z-0.545
X-11.562 Y-10.821 Z-0.548
X-11.538 Y-10.838 Z-0.55
X-11.476 Y-10.874 Z-0.555
X-11.397 Y-10.913 Z-0.561
X-11.357 Y-10.929 Z-0.564
X-11.317 Y-10.943 Z-0.567
X-11.237 Y-10.967 Z-0.573
X-11.197 Y-10.975 Z-0.575
X-11.158 Y-10.983 Z-0.578
X-11.078 Y-10.992 Z-0.584
X-11.038 Y-10.994 Z-0.587
X-10.998 Y-10.995 Z-0.589
X-10.918 Y-10.992 Z-0.595
X-10.839 Y-10.982 Z-0.601
X-10.799 Y-10.975 Z-0.604
X-10.759 Y-10.966 Z-0.606
X-10.679 Y-10.942 Z-0.612
X-10.639 Y-10.927 Z-0.615
X-10.6 Y-10.911 Z-0.618
X-10.52 Y-10.872 Z-0.624
X-10.462 Y-10.838 Z-0.629
X-10.437 Y-10.82 Z-0.631
X-10.411 Y-10.803 Z-0.633
X-10.36 Y-10.763 Z-0.638
X-10.316 Y-10.723 Z-0.642
X-10.272 Y-10.678 Z-0.646
X-10.234 Y-10.636 Z-0.65
X-10.201 Y-10.593 Z-0.654
X-10.151 Y-10.519 Z-0.66
X-10.128 Y-10.479 Z-0.664
X-10.107 Y-10.439 Z-0.667
X-10.088 Y-10.399 Z-0.67
X-10.072 Y-10.359 Z-0.673
X-10.042 Y-10.268 Z-0.68
X-10.025 Y-10.2 Z-0.685
X-10.018 Y-10.16 Z-0.687
X-10.012 Y-10.12 Z-0.69
X-10.006 Y-10.041 Z-0.696
X-10.005 Y-10.001 Z-0.699
Y-9.961 Z-0.701
X-10.012 Y-9.881 Z-0.707
X-10.024 Y-9.806 Z-0.712
X-10.032 Y-9.769 Z-0.715
X-10.042 Y-9.732 Z-0.718
X-10.045 Y-9.722
X-10.071 Y-9.642 Z-0.724
X-10.088 Y-9.602 Z-0.727
X-10.106 Y-9.562 Z-0.73
X-10.126 Y-9.524 Z-0.733
X-10.148 Y-9.485 Z-0.737
X-10.201 Y-9.407 Z-0.743
X-10.204 Y-9.403
X-10.235 Y-9.363 Z-0.747
X-10.27 Y-9.323 Z-0.751
X-10.312 Y-9.281 Z-0.755
X-10.353 Y-9.244 Z-0.759
X-10.36 Y-9.237
X-10.4 Y-9.206 Z-0.763
X-10.44 Y-9.177 Z-0.766
X-10.48 Y-9.152 Z-0.77
X-10.52 Y-9.128 Z-0.773
X-10.61 Y-9.084 Z-0.78
X-10.644 Y-9.071 Z-0.783
X-10.679 Y-9.058 Z-0.785
X-10.759 Y-9.034 Z-0.791
X-10.799 Y-9.025 Z-0.794
X-10.839 Y-9.018 Z-0.797
X-10.918 Y-9.008 Z-0.802
X-10.998 Y-9.005 Z-0.808
X-11.038 Y-9.006 Z-0.811
X-11.078 Y-9.008 Z-0.813
X-11.158 Y-9.017 Z-0.819
X-11.197 Y-9.025 Z-0.822
X-11.237 Y-9.033 Z-0.825
X-11.317 Y-9.057 Z-0.83
X-11.354 Y-9.07 Z-0.833
X-11.39 Y-9.084 Z-0.836
X-11.476 Y-9.126 Z-0.843
X-11.516 Y-9.149 Z-0.846
X-11.556 Y-9.175 Z-0.849
X-11.596 Y-9.203 Z-0.853
X-11.636 Y-9.234 Z-0.856
X-11.647 Y-9.244 Z-0.857
X-11.688 Y-9.281 Z-0.861
X-11.729 Y-9.323 Z-0.865
X-11.764 Y-9.362 Z-0.869
X-11.795 Y-9.401 Z-0.872
X-11.796 Y-9.403
X-11.851 Y-9.483 Z-0.879
X-11.873 Y-9.523 Z-0.882
X-11.894 Y-9.562 Z-0.886
X-11.912 Y-9.602 Z-0.889
X-11.928 Y-9.641 Z-0.892
X-11.955 Y-9.719 Z-0.897
Y-9.722 Z-0.898
X-11.976 Y-9.802 Z-0.903
X-11.982 Y-9.841 Z-0.906
X-11.988 Y-9.881 Z-0.909
X-11.995 Y-9.961 Z-0.915
Y-10.001 Z-0.917
X-11.994 Y-10.041 Z-0.92
X-11.988 Y-10.12 Z-0.926
X-11.982 Y-10.16 Z-0.928
X-11.975 Y-10.2 Z-0.931
X-11.955 Y-10.281 Z-0.937
X-11.928 Y-10.359 Z-0.943
X-11.912 Y-10.399 Z-0.946
X-11.893 Y-10.439 Z-0.949
X-11.872 Y-10.479 Z-0.952
X-11.849 Y-10.519 Z-0.955
X-11.795 Y-10.599 Z-0.962
X-11.763 Y-10.638 Z-0.966
X-11.728 Y-10.678 Z-0.969
X-11.682 Y-10.725 Z-0.974
X-11.636 Y-10.766 Z-0.978
X-11.587 Y-10.804 Z-0.983
X-11.562 Y-10.821 Z-0.985
X-11.538 Y-10.838 Z-0.987
X-11.476 Y-10.874 Z-0.992
X-11.397 Y-10.913 Z-0.998
X-11.37 Y-10.923 Z-1.
X-11.357 Y-10.929 F400.
X-11.317 Y-10.943
X-11.237 Y-10.967
X-11.197 Y-10.975
X-11.158 Y-10.983
X-11.078 Y-10.992
X-11.038 Y-10.994
X-10.998 Y-10.995
X-10.918 Y-10.992
X-10.839 Y-10.982
X-10.799 Y-10.975
X-10.759 Y-10.966
X-10.679 Y-10.942
X-10.639 Y-10.927
X-10.6 Y-10.911
X-10.52 Y-10.872
X-10.462 Y-10.838
X-10.437 Y-10.82
X-10.411 Y-10.803
X-10.36 Y-10.763
X-10.316 Y-10.723
X-10.272 Y-10.678
X-10.234 Y-10.636
X-10.201 Y-10.593
X-10.151 Y-10.519
X-10.128 Y-10.479
X-10.107 Y-10.439
X-10.088 Y-10.399
X-10.072 Y-10.359
X-10.042 Y-10.268
X-10.025 Y-10.2
X-10.018 Y-10.16
X-10.012 Y-10.12
X-10.006 Y-10.041
X-10.005 Y-10.001
Y-9.961
X-10.012 Y-9.881
X-10.024 Y-9.806
X-10.032 Y-9.769
X-10.042 Y-9.732
X-10.045 Y-9.722
X-10.071 Y-9.642
X-10.088 Y-9.602
X-10.106 Y-9.562
X-10.126 Y-9.524
X-10.148 Y-9.485
X-10.201 Y-9.407
X-10.204 Y-9.403
X-10.235 Y-9.363
X-10.27 Y-9.323
X-10.312 Y-9.281
X-10.353 Y-9.244
X-10.36 Y-9.237
X-10.4 Y-9.206
X-10.44 Y-9.177
X-10.48 Y-9.152
X-10.52 Y-9.128
X-10.61 Y-9.084
X-10.644 Y-9.071
X-10.679 Y-9.058
X-10.759 Y-9.034
X-10.799 Y-9.025
X-10.839 Y-9.018
X-10.918 Y-9.008
X-10.998 Y-9.005
X-11.038 Y-9.006
X-11.078 Y-9.008
X-11.158 Y-9.017
X-11.197 Y-9.025
X-11.237 Y-9.033
X-11.317 Y-9.057
X-11.354 Y-9.07
X-11.39 Y-9.084
X-11.476 Y-9.126
X-11.516 Y-9.149
X-11.556 Y-9.175
X-11.596 Y-9.203
X-11.636 Y-9.234
X-11.647 Y-9.244
X-11.688 Y-9.281
X-11.729 Y-9.323
X-11.764 Y-9.362
X-11.795 Y-9.401
X-11.796 Y-9.403
X-11.851 Y-9.483
X-11.873 Y-9.523
X-11.894 Y-9.562
X-11.912 Y-9.602
X-11.928 Y-9.641
X-11.955 Y-9.719
Y-9.722
X-11.976 Y-9.802
X-11.982 Y-9.841
X-11.988 Y-9.881
X-11.995 Y-9.961
Y-10.001
X-11.994 Y-10.041
X-11.988 Y-10.12
X-11.982 Y-10.16
X-11.975 Y-10.2
X-11.955 Y-10.281
X-11.928 Y-10.359
X-11.912 Y-10.399
X-11.893 Y-10.439
X-11.872 Y-10.479
X-11.849 Y-10.519
X-11.795 Y-10.599
X-11.763 Y-10.638
X-11.728 Y-10.678
X-11.682 Y-10.725
X-11.636 Y-10.766
X-11.587 Y-10.804
X-11.562 Y-10.821
X-11.538 Y-10.838
X-11.476 Y-10.874
X-11.397 Y-10.913
X-11.37 Y-10.923
X-11.357 Y-10.929 Z-1.001 F200.
X-11.317 Y-10.943 Z-1.004
X-11.237 Y-10.967 Z-1.01
X-11.197 Y-10.975 Z-1.013
X-11.158 Y-10.983 Z-1.015
X-11.078 Y-10.992 Z-1.021
X-11.038 Y-10.994 Z-1.024
X-10.998 Y-10.995 Z-1.027
X-10.918 Y-10.992 Z-1.032
X-10.839 Y-10.982 Z-1.038
X-10.799 Y-10.975 Z-1.041
X-10.759 Y-10.966 Z-1.044
X-10.679 Y-10.942 Z-1.049
X-10.639 Y-10.927 Z-1.052
X-10.6 Y-10.911 Z-1.055
X-10.52 Y-10.872 Z-1.062
X-10.462 Y-10.838 Z-1.066
X-10.437 Y-10.82 Z-1.068
X-10.411 Y-10.803 Z-1.071
X-10.36 Y-10.763 Z-1.075
X-10.316 Y-10.723 Z-1.079
X-10.272 Y-10.678 Z-1.084
X-10.234 Y-10.636 Z-1.088
X-10.201 Y-10.593 Z-1.091
X-10.151 Y-10.519 Z-1.098
X-10.128 Y-10.479 Z-1.101
X-10.107 Y-10.439 Z-1.104
X-10.088 Y-10.399 Z-1.107
X-10.072 Y-10.359 Z-1.11
X-10.042 Y-10.268 Z-1.117
X-10.025 Y-10.2 Z-1.122
X-10.018 Y-10.16 Z-1.125
X-10.012 Y-10.12 Z-1.127
X-10.006 Y-10.041 Z-1.133
X-10.005 Y-10.001 Z-1.136
Y-9.961 Z-1.139
X-10.012 Y-9.881 Z-1.144
X-10.024 Y-9.806 Z-1.149
X-10.032 Y-9.769 Z-1.152
X-10.042 Y-9.732 Z-1.155
X-10.045 Y-9.722 Z-1.156
X-10.071 Y-9.642 Z-1.161
X-10.088 Y-9.602 Z-1.164
X-10.106 Y-9.562 Z-1.168
X-10.126 Y-9.524 Z-1.171
X-10.148 Y-9.485 Z-1.174
X-10.201 Y-9.407 Z-1.18
X-10.204 Y-9.403 Z-1.181
X-10.235 Y-9.363 Z-1.184
X-10.27 Y-9.323 Z-1.188
X-10.312 Y-9.281 Z-1.192
X-10.353 Y-9.244 Z-1.196
X-10.36 Y-9.237 Z-1.197
X-10.4 Y-9.206 Z-1.2
X-10.44 Y-9.177 Z-1.204
X-10.48 Y-9.152 Z-1.207
X-10.52 Y-9.128 Z-1.21
X-10.61 Y-9.084 Z-1.217
X-10.644 Y-9.071 Z-1.22
X-10.679 Y-9.058 Z-1.222
X-10.759 Y-9.034 Z-1.228
X-10.799 Y-9.025 Z-1.231
X-10.839 Y-9.018 Z-1.234
X-10.918 Y-9.008 Z-1.239
X-10.998 Y-9.005 Z-1.245
X-11.038 Y-9.006 Z-1.248
X-11.078 Y-9.008 Z-1.251
X-11.158 Y-9.017 Z-1.256
X-11.197 Y-9.025 Z-1.259
X-11.237 Y-9.033 Z-1.262
X-11.317 Y-9.057 Z-1.268
X-11.354 Y-9.07 Z-1.27
X-11.39 Y-9.084 Z-1.273
X-11.476 Y-9.126 Z-1.28
X-11.516 Y-9.149 Z-1.283
X-11.556 Y-9.175 Z-1.286
X-11.596 Y-9.203 Z-1.29
X-11.636 Y-9.234 Z-1.293
X-11.647 Y-9.244 Z-1.294
X-11.688 Y-9.281 Z-1.298
X-11.729 Y-9.323 Z-1.302
X-11.764 Y-9.362 Z-1.306
X-11.795 Y-9.401 Z-1.31
X-11.796 Y-9.403
X-11.851 Y-9.483 Z-1.316
X-11.873 Y-9.523 Z-1.32
X-11.894 Y-9.562 Z-1.323
X-11.912 Y-9.602 Z-1.326
X-11.928 Y-9.641 Z-1.329
X-11.955 Y-9.719 Z-1.334
Y-9.722 Z-1.335
X-11.976 Y-9.802 Z-1.34
X-11.982 Y-9.841 Z-1.343
X-11.988 Y-9.881 Z-1.346
X-11.995 Y-9.961 Z-1.352
Y-10.001 Z-1.354
X-11.994 Y-10.041 Z-1.357
X-11.988 Y-10.12 Z-1.363
X-11.982 Y-10.16 Z-1.366
X-11.975 Y-10.2 Z-1.369
X-11.955 Y-10.281 Z-1.374
X-11.928 Y-10.359 Z-1.38
X-11.912 Y-10.399 Z-1.383
X-11.893 Y-10.439 Z-1.386
X-11.872 Y-10.479 Z-1.389
X-11.849 Y-10.519 Z-1.393
X-11.795 Y-10.599 Z-1.399
X-11.763 Y-10.638 Z-1.403
X-11.728 Y-10.678 Z-1.407
X-11.682 Y-10.725 Z-1.411
X-11.636 Y-10.766 Z-1.416
X-11.587 Y-10.804 Z-1.42
X-11.562 Y-10.821 Z-1.422
X-11.538 Y-10.838 Z-1.424
X-11.476 Y-10.874 Z-1.429
X-11.397 Y-10.913 Z-1.435
X-11.357 Y-10.929 Z-1.438
X-11.317 Y-10.943 Z-1.441
X-11.237 Y-10.967 Z-1.447
X-11.197 Y-10.975 Z-1.45
X-11.158 Y-10.983 Z-1.453
X-11.078 Y-10.992 Z-1.458
X-11.038 Y-10.994 Z-1.461
X-10.998 Y-10.995 Z-1.464
X-10.918 Y-10.992 Z-1.469
X-10.839 Y-10.982 Z-1.475
X-10.799 Y-10.975 Z-1.478
X-10.759 Y-10.966 Z-1.481
X-10.679 Y-10.942 Z-1.487
X-10.639 Y-10.927 Z-1.49
X-10.6 Y-10.911 Z-1.493
X-10.52 Y-10.872 Z-1.499
X-10.505 Y-10.863 Z-1.5
X-10.462 Y-10.838 F400.
X-10.437 Y-10.82
X-10.411 Y-10.803
X-10.36 Y-10.763
X-10.316 Y-10.723
X-10.272 Y-10.678
X-10.234 Y-10.636
X-10.201 Y-10.593
X-10.151 Y-10.519
X-10.128 Y-10.479
X-10.107 Y-10.439
X-10.088 Y-10.399
X-10.072 Y-10.359
X-10.042 Y-10.268
X-10.025 Y-10.2
X-10.018 Y-10.16
X-10.012 Y-10.12
X-10.006 Y-10.041
X-10.005 Y-10.001
Y-9.961
X-10.012 Y-9.881
X-10.024 Y-9.806
X-10.032 Y-9.769
X-10.042 Y-9.732
X-10.045 Y-9.722
X-10.071 Y-9.642
X-10.088 Y-9.602
X-10.106 Y-9.562
X-10.126 Y-9.524
X-10.148 Y-9.485
X-10.201 Y-9.407
X-10.204 Y-9.403
X-10.235 Y-9.363
X-10.27 Y-9.323
X-10.312 Y-9.281
X-10.353 Y-9.244
X-10.36 Y-9.237
X-10.4 Y-9.206
X-10.44 Y-9.177
X-10.48 Y-9.152
X-10.52 Y-9.128
X-10.61 Y-9.084
X-10.644 Y-9.071
X-10.679 Y-9.058
X-10.759 Y-9.034
X-10.799 Y-9.025
X-10.839 Y-9.018
X-10.918 Y-9.008
X-10.998 Y-9.005
X-11.038 Y-9.006
X-11.078 Y-9.008
X-11.158 Y-9.017
X-11.197 Y-9.025
X-11.237 Y-9.033
X-11.317 Y-9.057
X-11.354 Y-9.07
X-11.39 Y-9.084
X-11.476 Y-9.126
X-11.516 Y-9.149
X-11.556 Y-9.175
X-11.596 Y-9.203
X-11.636 Y-9.234
X-11.647 Y-9.244
X-11.688 Y-9.281
X-11.729 Y-9.323
X-11.764 Y-9.362
X-11.795 Y-9.401
X-11.796 Y-9.403
X-11.851 Y-9.483
X-11.873 Y-9.523
X-11.894 Y-9.562
X-11.912 Y-9.602
X-11.928 Y-9.641
X-11.955 Y-9.719
Y-9.722
X-11.976 Y-9.802
X-11.982 Y-9.841
X-11.988 Y-9.881
X-11.995 Y-9.961
Y-10.001
X-11.994 Y-10.041
X-11.988 Y-10.12
X-11.982 Y-10.16
X-11.975 Y-10.2
X-11.955 Y-10.281
X-11.928 Y-10.359
X-11.912 Y-10.399
X-11.893 Y-10.439
X-11.872 Y-10.479
X-11.849 Y-10.519
X-11.795 Y-10.599
X-11.763 Y-10.638
X-11.728 Y-10.678
X-11.682 Y-10.725
X-11.636 Y-10.766
X-11.587 Y-10.804
X-11.562 Y-10.821
X-11.538 Y-10.838
X-11.476 Y-10.874
X-11.397 Y-10.913
X-11.37 Y-10.923
X-11.357 Y-10.929
X-11.317 Y-10.943
X-11.237 Y-10.967
X-11.197 Y-10.975
X-11.158 Y-10.983
X-11.078 Y-10.992
X-11.038 Y-10.994
X-10.998 Y-10.995
X-10.918 Y-10.992
X-10.839 Y-10.982
X-10.799 Y-10.975
X-10.759 Y-10.966
X-10.679 Y-10.942
X-10.639 Y-10.927
X-10.6 Y-10.911
X-10.52 Y-10.872
X-10.505 Y-10.863
X-10.462 Y-10.838 Z-1.503 F200.
X-10.437 Y-10.82 Z-1.506
X-10.411 Y-10.803 Z-1.508
X-10.36 Y-10.763 Z-1.512
X-10.316 Y-10.723 Z-1.516
X-10.272 Y-10.678 Z-1.521
X-10.234 Y-10.636 Z-1.525
X-10.201 Y-10.593 Z-1.529
X-10.151 Y-10.519 Z-1.535
X-10.128 Y-10.479 Z-1.538
X-10.107 Y-10.439 Z-1.541
X-10.088 Y-10.399 Z-1.544
X-10.072 Y-10.359 Z-1.547
X-10.042 Y-10.268 Z-1.554
X-10.025 Y-10.2 Z-1.559
X-10.018 Y-10.16 Z-1.562
X-10.012 Y-10.12 Z-1.565
X-10.006 Y-10.041 Z-1.57
X-10.005 Y-10.001 Z-1.573
Y-9.961 Z-1.576
X-10.012 Y-9.881 Z-1.581
X-10.024 Y-9.806 Z-1.587
X-10.032 Y-9.769 Z-1.589
X-10.042 Y-9.732 Z-1.592
X-10.045 Y-9.722 Z-1.593
X-10.071 Y-9.642 Z-1.599
X-10.088 Y-9.602 Z-1.602
X-10.106 Y-9.562 Z-1.605
X-10.126 Y-9.524 Z-1.608
X-10.148 Y-9.485 Z-1.611
X-10.201 Y-9.407 Z-1.617
X-10.204 Y-9.403 Z-1.618
X-10.235 Y-9.363 Z-1.621
X-10.27 Y-9.323 Z-1.625
X-10.312 Y-9.281 Z-1.629
X-10.353 Y-9.244 Z-1.633
X-10.36 Y-9.237 Z-1.634
X-10.4 Y-9.206 Z-1.637
X-10.44 Y-9.177 Z-1.641
X-10.48 Y-9.152 Z-1.644
X-10.52 Y-9.128 Z-1.647
X-10.61 Y-9.084 Z-1.654
X-10.644 Y-9.071 Z-1.657
X-10.679 Y-9.058 Z-1.659
X-10.759 Y-9.034 Z-1.665
X-10.799 Y-9.025 Z-1.668
X-10.839 Y-9.018 Z-1.671
X-10.918 Y-9.008 Z-1.677
X-10.998 Y-9.005 Z-1.682
X-11.038 Y-9.006 Z-1.685
X-11.078 Y-9.008 Z-1.688
X-11.158 Y-9.017 Z-1.693
X-11.197 Y-9.025 Z-1.696
X-11.237 Y-9.033 Z-1.699
X-11.317 Y-9.057 Z-1.705
X-11.354 Y-9.07 Z-1.708
X-11.39 Y-9.084 Z-1.71
X-11.476 Y-9.126 Z-1.717
X-11.516 Y-9.149 Z-1.72
X-11.556 Y-9.175 Z-1.724
X-11.596 Y-9.203 Z-1.727
X-11.636 Y-9.234 Z-1.731
X-11.647 Y-9.244 Z-1.732
X-11.688 Y-9.281 Z-1.735
X-11.729 Y-9.323 Z-1.74
X-11.764 Y-9.362 Z-1.743
X-11.795 Y-9.401 Z-1.747
X-11.796 Y-9.403
X-11.851 Y-9.483 Z-1.754
X-11.873 Y-9.523 Z-1.757
X-11.894 Y-9.562 Z-1.76
X-11.912 Y-9.602 Z-1.763
X-11.928 Y-9.641 Z-1.766
X-11.955 Y-9.719 Z-1.772
Y-9.722
X-11.976 Y-9.802 Z-1.778
X-11.982 Y-9.841 Z-1.78
X-11.988 Y-9.881 Z-1.783
X-11.995 Y-9.961 Z-1.789
Y-10.001 Z-1.792
X-11.994 Y-10.041 Z-1.794
X-11.988 Y-10.12 Z-1.8
X-11.982 Y-10.16 Z-1.803
X-11.975 Y-10.2 Z-1.806
X-11.955 Y-10.281 Z-1.812
X-11.928 Y-10.359 Z-1.817
X-11.912 Y-10.399 Z-1.82
X-11.893 Y-10.439 Z-1.823
X-11.872 Y-10.479 Z-1.827
X-11.849 Y-10.519 Z-1.83
X-11.795 Y-10.599 Z-1.837
X-11.763 Y-10.638 Z-1.84
X-11.728 Y-10.678 Z-1.844
X-11.682 Y-10.725 Z-1.848
X-11.636 Y-10.766 Z-1.853
X-11.587 Y-10.804 Z-1.857
X-11.562 Y-10.821 Z-1.859
X-11.538 Y-10.838 Z-1.861
X-11.476 Y-10.874 Z-1.866
X-11.397 Y-10.913 Z-1.872
X-11.357 Y-10.929 Z-1.875
X-11.317 Y-10.943 Z-1.878
X-11.237 Y-10.967 Z-1.884
X-11.197 Y-10.975 Z-1.887
X-11.158 Y-10.983 Z-1.89
X-11.078 Y-10.992 Z-1.895
X-11.038 Y-10.994 Z-1.898
X-10.998 Y-10.995 Z-1.901
X-10.918 Y-10.992 Z-1.907
X-10.839 Y-10.982 Z-1.912
X-10.799 Y-10.975 Z-1.915
X-10.759 Y-10.966 Z-1.918
X-10.679 Y-10.942 Z-1.924
X-10.639 Y-10.927 Z-1.927
X-10.6 Y-10.911 Z-1.93
X-10.52 Y-10.872 Z-1.936
X-10.462 Y-10.838 Z-1.941
X-10.437 Y-10.82 Z-1.943
X-10.411 Y-10.803 Z-1.945
X-10.36 Y-10.763 Z-1.949
X-10.316 Y-10.723 Z-1.954
X-10.272 Y-10.678 Z-1.958
X-10.234 Y-10.636 Z-1.962
X-10.201 Y-10.593 Z-1.966
X-10.151 Y-10.519 Z-1.972
X-10.128 Y-10.479 Z-1.975
X-10.107 Y-10.439 Z-1.978
X-10.088 Y-10.399 Z-1.981
X-10.072 Y-10.359 Z-1.985
X-10.042 Y-10.268 Z-1.991
X-10.025 Y-10.2 Z-1.996
X-10.018 Y-10.16 Z-1.999
X-10.016 Y-10.146 Z-2.
X-10.012 Y-10.12 F400.
X-10.006 Y-10.041
X-10.005 Y-10.001
Y-9.961
X-10.012 Y-9.881
X-10.024 Y-9.806
X-10.032 Y-9.769
X-10.042 Y-9.732
X-10.045 Y-9.722
X-10.071 Y-9.642
X-10.088 Y-9.602
X-10.106 Y-9.562
X-10.126 Y-9.524
X-10.148 Y-9.485
X-10.201 Y-9.407
X-10.204 Y-9.403
X-10.235 Y-9.363
X-10.27 Y-9.323
X-10.312 Y-9.281
X-10.353 Y-9.244
X-10.36 Y-9.237
X-10.4 Y-9.206
X-10.44 Y-9.177
X-10.48 Y-9.152
X-10.52 Y-9.128
X-10.61 Y-9.084
X-10.644 Y-9.071
X-10.679 Y-9.058
X-10.759 Y-9.034
X-10.799 Y-9.025
X-10.839 Y-9.018
X-10.918 Y-9.008
X-10.998 Y-9.005
X-11.038 Y-9.006
X-11.078 Y-9.008
X-11.158 Y-9.017
X-11.197 Y-9.025
X-11.237 Y-9.033
X-11.317 Y-9.057
X-11.354 Y-9.07
X-11.39 Y-9.084
X-11.476 Y-9.126
X-11.516 Y-9.149
X-11.556 Y-9.175
X-11.596 Y-9.203
X-11.636 Y-9.234
X-11.647 Y-9.244
X-11.688 Y-9.281
X-11.729 Y-9.323
X-11.764 Y-9.362
X-11.795 Y-9.401
X-11.796 Y-9.403
X-11.851 Y-9.483
X-11.873 Y-9.523
X-11.894 Y-9.562
X-11.912 Y-9.602
X-11.928 Y-9.641
X-11.955 Y-9.719
Y-9.722
X-11.976 Y-9.802
X-11.982 Y-9.841
X-11.988 Y-9.881
X-11.995 Y-9.961
Y-10.001
X-11.994 Y-10.041
X-11.988 Y-10.12
X-11.982 Y-10.16
X-11.975 Y-10.2
X-11.955 Y-10.281
X-11.928 Y-10.359
X-11.912 Y-10.399
X-11.893 Y-10.439
X-11.872 Y-10.479
X-11.849 Y-10.519
X-11.795 Y-10.599
X-11.763 Y-10.638
X-11.728 Y-10.678
X-11.682 Y-10.725
X-11.636 Y-10.766
X-11.587 Y-10.804
X-11.562 Y-10.821
X-11.538 Y-10.838
X-11.476 Y-10.874
X-11.397 Y-10.913
X-11.357 Y-10.929
X-11.317 Y-10.943
X-11.237 Y-10.967
X-11.197 Y-10.975
X-11.158 Y-10.983
X-11.078 Y-10.992
X-11.038 Y-10.994
X-10.998 Y-10.995
X-10.918 Y-10.992
X-10.839 Y-10.982
X-10.799 Y-10.975
X-10.759 Y-10.966
X-10.679 Y-10.942
X-10.639 Y-10.927
X-10.6 Y-10.911
X-10.52 Y-10.872
X-10.462 Y-10.838
X-10.437 Y-10.82
X-10.411 Y-10.803
X-10.36 Y-10.763
X-10.316 Y-10.723
X-10.272 Y-10.678
X-10.234 Y-10.636
X-10.201 Y-10.593
X-10.151 Y-10.519
X-10.128 Y-10.479
X-10.107 Y-10.439
X-10.088 Y-10.399
X-10.072 Y-10.359
X-10.042 Y-10.268
X-10.025 Y-10.2
X-10.018 Y-10.16
X-10.016 Y-10.146
X-10.012 Y-10.12 Z-2.002 F200.
X-10.006 Y-10.041 Z-2.007
X-10.005 Y-10.001 Z-2.01
Y-9.961 Z-2.013
X-10.012 Y-9.881 Z-2.019
X-10.024 Y-9.806 Z-2.024
X-10.032 Y-9.769 Z-2.027
X-10.042 Y-9.732 Z-2.029
X-10.045 Y-9.722 Z-2.03
X-10.071 Y-9.642 Z-2.036
X-10.088 Y-9.602 Z-2.039
X-10.106 Y-9.562 Z-2.042
X-10.126 Y-9.524 Z-2.045
X-10.148 Y-9.485 Z-2.048
X-10.201 Y-9.407 Z-2.055
X-10.204 Y-9.403
X-10.235 Y-9.363 Z-2.059
X-10.27 Y-9.323 Z-2.062
X-10.312 Y-9.281 Z-2.066
X-10.353 Y-9.244 Z-2.07
X-10.36 Y-9.237 Z-2.071
X-10.4 Y-9.206 Z-2.075
X-10.44 Y-9.177 Z-2.078
X-10.48 Y-9.152 Z-2.081
X-10.52 Y-9.128 Z-2.084
X-10.61 Y-9.084 Z-2.091
X-10.644 Y-9.071 Z-2.094
X-10.679 Y-9.058 Z-2.097
X-10.759 Y-9.034 Z-2.102
X-10.799 Y-9.025 Z-2.105
X-10.839 Y-9.018 Z-2.108
X-10.918 Y-9.008 Z-2.114
X-10.998 Y-9.005 Z-2.119
X-11.038 Y-9.006 Z-2.122
X-11.078 Y-9.008 Z-2.125
X-11.158 Y-9.017 Z-2.131
X-11.197 Y-9.025 Z-2.133
X-11.237 Y-9.033 Z-2.136
X-11.317 Y-9.057 Z-2.142
X-11.354 Y-9.07 Z-2.145
X-11.39 Y-9.084 Z-2.148
X-11.476 Y-9.126 Z-2.154
X-11.516 Y-9.149 Z-2.157
X-11.556 Y-9.175 Z-2.161
X-11.596 Y-9.203 Z-2.164
X-11.636 Y-9.234 Z-2.168
X-11.647 Y-9.244 Z-2.169
X-11.688 Y-9.281 Z-2.173
X-11.729 Y-9.323 Z-2.177
X-11.764 Y-9.362 Z-2.18
X-11.795 Y-9.401 Z-2.184
X-11.796 Y-9.403
X-11.851 Y-9.483 Z-2.191
X-11.873 Y-9.523 Z-2.194
X-11.894 Y-9.562 Z-2.197
X-11.912 Y-9.602 Z-2.2
X-11.928 Y-9.641 Z-2.203
X-11.955 Y-9.719 Z-2.209
Y-9.722
X-11.976 Y-9.802 Z-2.215
X-11.982 Y-9.841 Z-2.218
X-11.988 Y-9.881 Z-2.22
X-11.995 Y-9.961 Z-2.226
Y-10.001 Z-2.229
X-11.994 Y-10.041 Z-2.232
X-11.988 Y-10.12 Z-2.237
X-11.982 Y-10.16 Z-2.24
X-11.975 Y-10.2 Z-2.243
X-11.955 Y-10.281 Z-2.249
X-11.928 Y-10.359 Z-2.255
X-11.912 Y-10.399 Z-2.258
X-11.893 Y-10.439 Z-2.261
X-11.872 Y-10.479 Z-2.264
X-11.849 Y-10.519 Z-2.267
X-11.795 Y-10.599 Z-2.274
X-11.763 Y-10.638 Z-2.277
X-11.728 Y-10.678 Z-2.281
X-11.682 Y-10.725 Z-2.286
X-11.636 Y-10.766 Z-2.29
X-11.587 Y-10.804 Z-2.294
X-11.562 Y-10.821 Z-2.296
X-11.538 Y-10.838 Z-2.298
X-11.476 Y-10.874 Z-2.303
X-11.397 Y-10.913 Z-2.31
X-11.357 Y-10.929 Z-2.313
X-11.317 Y-10.943 Z-2.316
X-11.237 Y-10.967 Z-2.321
X-11.197 Y-10.975 Z-2.324
X-11.158 Y-10.983 Z-2.327
X-11.078 Y-10.992 Z-2.333
X-11.038 Y-10.994 Z-2.335
X-10.998 Y-10.995 Z-2.338
X-10.918 Y-10.992 Z-2.344
X-10.839 Y-10.982 Z-2.349
X-10.799 Y-10.975 Z-2.352
X-10.759 Y-10.966 Z-2.355
X-10.679 Y-10.942 Z-2.361
X-10.639 Y-10.927 Z-2.364
X-10.6 Y-10.911 Z-2.367
X-10.52 Y-10.872 Z-2.373
X-10.462 Y-10.838 Z-2.378
X-10.437 Y-10.82 Z-2.38
X-10.411 Y-10.803 Z-2.382
X-10.36 Y-10.763 Z-2.387
X-10.316 Y-10.723 Z-2.391
X-10.272 Y-10.678 Z-2.395
X-10.234 Y-10.636 Z-2.399
X-10.201 Y-10.593 Z-2.403
X-10.151 Y-10.519 Z-2.409
X-10.128 Y-10.479 Z-2.412
X-10.107 Y-10.439 Z-2.416
X-10.088 Y-10.399 Z-2.419
X-10.072 Y-10.359 Z-2.422
X-10.042 Y-10.268 Z-2.428
X-10.025 Y-10.2 Z-2.433
X-10.018 Y-10.16 Z-2.436
X-10.012 Y-10.12 Z-2.439
X-10.006 Y-10.041 Z-2.445
X-10.005 Y-10.001 Z-2.447
Y-9.961 Z-2.45
X-10.012 Y-9.881 Z-2.456
X-10.024 Y-9.806 Z-2.461
X-10.032 Y-9.769 Z-2.464
X-10.042 Y-9.732 Z-2.466
X-10.045 Y-9.722 Z-2.467
X-10.071 Y-9.642 Z-2.473
X-10.088 Y-9.602 Z-2.476
X-10.106 Y-9.562 Z-2.479
X-10.126 Y-9.524 Z-2.482
X-10.148 Y-9.485 Z-2.485
X-10.201 Y-9.407 Z-2.492
X-10.204 Y-9.403
X-10.235 Y-9.363 Z-2.496
X-10.27 Y-9.323 Z-2.499
X-10.276 Y-9.318 Z-2.5
X-10.312 Y-9.281 F400.
X-10.353 Y-9.244
X-10.36 Y-9.237
X-10.4 Y-9.206
X-10.44 Y-9.177
X-10.48 Y-9.152
X-10.52 Y-9.128
X-10.61 Y-9.084
X-10.644 Y-9.071
X-10.679 Y-9.058
X-10.759 Y-9.034
X-10.799 Y-9.025
X-10.839 Y-9.018
X-10.918 Y-9.008
X-10.998 Y-9.005
X-11.038 Y-9.006
X-11.078 Y-9.008
X-11.158 Y-9.017
X-11.197 Y-9.025
X-11.237 Y-9.033
X-11.317 Y-9.057
X-11.354 Y-9.07
X-11.39 Y-9.084
X-11.476 Y-9.126
X-11.516 Y-9.149
X-11.556 Y-9.175
X-11.596 Y-9.203
X-11.636 Y-9.234
X-11.647 Y-9.244
X-11.688 Y-9.281
X-11.729 Y-9.323
X-11.764 Y-9.362
X-11.795 Y-9.401
X-11.796 Y-9.403
X-11.851 Y-9.483
X-11.873 Y-9.523
X-11.894 Y-9.562
X-11.912 Y-9.602
X-11.928 Y-9.641
X-11.955 Y-9.719
Y-9.722
X-11.976 Y-9.802
X-11.982 Y-9.841
X-11.988 Y-9.881
X-11.995 Y-9.961
Y-10.001
X-11.994 Y-10.041
X-11.988 Y-10.12
X-11.982 Y-10.16
X-11.975 Y-10.2
X-11.955 Y-10.281
X-11.928 Y-10.359
X-11.912 Y-10.399
X-11.893 Y-10.439
X-11.872 Y-10.479
X-11.849 Y-10.519
X-11.795 Y-10.599
X-11.763 Y-10.638
X-11.728 Y-10.678
X-11.682 Y-10.725
X-11.636 Y-10.766
X-11.587 Y-10.804
X-11.562 Y-10.821
X-11.538 Y-10.838
X-11.476 Y-10.874
X-11.397 Y-10.913
X-11.357 Y-10.929
X-11.317 Y-10.943
X-11.237 Y-10.967
X-11.197 Y-10.975
X-11.158 Y-10.983
X-11.078 Y-10.992
X-11.038 Y-10.994
X-10.998 Y-10.995
X-10.918 Y-10.992
X-10.839 Y-10.982
X-10.799 Y-10.975
X-10.759 Y-10.966
X-10.679 Y-10.942
X-10.639 Y-10.927
X-10.6 Y-10.911
X-10.52 Y-10.872
X-10.462 Y-10.838
X-10.437 Y-10.82
X-10.411 Y-10.803
X-10.36 Y-10.763
X-10.316 Y-10.723
X-10.272 Y-10.678
X-10.234 Y-10.636
X-10.201 Y-10.593
X-10.151 Y-10.519
X-10.128 Y-10.479
X-10.107 Y-10.439
X-10.088 Y-10.399
X-10.072 Y-10.359
X-10.042 Y-10.268
X-10.025 Y-10.2
X-10.018 Y-10.16
X-10.012 Y-10.12
X-10.006 Y-10.041
X-10.005 Y-10.001
Y-9.961
X-10.012 Y-9.881
X-10.024 Y-9.806
X-10.032 Y-9.769
X-10.042 Y-9.732
X-10.045 Y-9.722
X-10.071 Y-9.642
X-10.088 Y-9.602
X-10.106 Y-9.562
X-10.126 Y-9.524
X-10.148 Y-9.485
X-10.201 Y-9.407
X-10.204 Y-9.403
X-10.235 Y-9.363
X-10.27 Y-9.323
X-10.276 Y-9.318
X-10.312 Y-9.281 Z-2.504 F200.
X-10.353 Y-9.244 Z-2.507
X-10.36 Y-9.237 Z-2.508
X-10.4 Y-9.206 Z-2.512
X-10.44 Y-9.177 Z-2.515
X-10.48 Y-9.152 Z-2.518
X-10.52 Y-9.128 Z-2.522
X-10.61 Y-9.084 Z-2.529
X-10.644 Y-9.071 Z-2.531
X-10.679 Y-9.058 Z-2.534
X-10.759 Y-9.034 Z-2.54
X-10.799 Y-9.025 Z-2.543
X-10.839 Y-9.018 Z-2.545
X-10.918 Y-9.008 Z-2.551
X-10.998 Y-9.005 Z-2.557
X-11.038 Y-9.006 Z-2.559
X-11.078 Y-9.008 Z-2.562
X-11.158 Y-9.017 Z-2.568
X-11.197 Y-9.025 Z-2.571
X-11.237 Y-9.033 Z-2.573
X-11.317 Y-9.057 Z-2.579
X-11.354 Y-9.07 Z-2.582
X-11.39 Y-9.084 Z-2.585
X-11.476 Y-9.126 Z-2.591
X-11.516 Y-9.149 Z-2.595
X-11.556 Y-9.175 Z-2.598
X-11.596 Y-9.203 Z-2.601
X-11.636 Y-9.234 Z-2.605
X-11.647 Y-9.244 Z-2.606
X-11.688 Y-9.281 Z-2.61
X-11.729 Y-9.323 Z-2.614
X-11.764 Y-9.362 Z-2.618
X-11.795 Y-9.401 Z-2.621
X-11.796 Y-9.403
X-11.851 Y-9.483 Z-2.628
X-11.873 Y-9.523 Z-2.631
X-11.894 Y-9.562 Z-2.634
X-11.912 Y-9.602 Z-2.637
X-11.928 Y-9.641 Z-2.64
X-11.955 Y-9.719 Z-2.646
Y-9.722
X-11.976 Y-9.802 Z-2.652
X-11.982 Y-9.841 Z-2.655
X-11.988 Y-9.881 Z-2.658
X-11.995 Y-9.961 Z-2.663
Y-10.001 Z-2.666
X-11.994 Y-10.041 Z-2.669
X-11.988 Y-10.12 Z-2.674
X-11.982 Y-10.16 Z-2.677
X-11.975 Y-10.2 Z-2.68
X-11.955 Y-10.281 Z-2.686
X-11.928 Y-10.359 Z-2.692
X-11.912 Y-10.399 Z-2.695
X-11.893 Y-10.439 Z-2.698
X-11.872 Y-10.479 Z-2.701
X-11.849 Y-10.519 Z-2.704
X-11.795 Y-10.599 Z-2.711
X-11.763 Y-10.638 Z-2.714
X-11.728 Y-10.678 Z-2.718
X-11.682 Y-10.725 Z-2.723
X-11.636 Y-10.766 Z-2.727
X-11.587 Y-10.804 Z-2.731
X-11.562 Y-10.821 Z-2.734
X-11.538 Y-10.838 Z-2.736
X-11.476 Y-10.874 Z-2.741
X-11.397 Y-10.913 Z-2.747
X-11.357 Y-10.929 Z-2.75
X-11.317 Y-10.943 Z-2.753
X-11.237 Y-10.967 Z-2.759
X-11.197 Y-10.975 Z-2.761
X-11.158 Y-10.983 Z-2.764
X-11.078 Y-10.992 Z-2.77
X-11.038 Y-10.994 Z-2.773
X-10.998 Y-10.995 Z-2.775
X-10.918 Y-10.992 Z-2.781
X-10.839 Y-10.982 Z-2.787
X-10.799 Y-10.975 Z-2.789
X-10.759 Y-10.966 Z-2.792
X-10.679 Y-10.942 Z-2.798
X-10.639 Y-10.927 Z-2.801
X-10.6 Y-10.911 Z-2.804
X-10.52 Y-10.872 Z-2.81
X-10.462 Y-10.838 Z-2.815
X-10.437 Y-10.82 Z-2.817
X-10.411 Y-10.803 Z-2.819
X-10.36 Y-10.763 Z-2.824
X-10.316 Y-10.723 Z-2.828
X-10.272 Y-10.678 Z-2.832
X-10.234 Y-10.636 Z-2.836
X-10.201 Y-10.593 Z-2.84
X-10.151 Y-10.519 Z-2.846
X-10.128 Y-10.479 Z-2.85
X-10.107 Y-10.439 Z-2.853
X-10.088 Y-10.399 Z-2.856
X-10.072 Y-10.359 Z-2.859
X-10.042 Y-10.268 Z-2.866
X-10.025 Y-10.2 Z-2.871
X-10.018 Y-10.16 Z-2.873
X-10.012 Y-10.12 Z-2.876
X-10.006 Y-10.041 Z-2.882
X-10.005 Y-10.001 Z-2.885
Y-9.961 Z-2.887
X-10.012 Y-9.881 Z-2.893
X-10.024 Y-9.806 Z-2.898
X-10.032 Y-9.769 Z-2.901
X-10.042 Y-9.732 Z-2.904
X-10.045 Y-9.722
X-10.071 Y-9.642 Z-2.91
X-10.088 Y-9.602 Z-2.913
X-10.106 Y-9.562 Z-2.916
X-10.126 Y-9.524 Z-2.919
X-10.148 Y-9.485 Z-2.922
X-10.201 Y-9.407 Z-2.929
X-10.204 Y-9.403
X-10.235 Y-9.363 Z-2.933
X-10.27 Y-9.323 Z-2.937
X-10.312 Y-9.281 Z-2.941
X-10.353 Y-9.244 Z-2.945
X-10.36 Y-9.237
X-10.4 Y-9.206 Z-2.949
X-10.44 Y-9.177 Z-2.952
X-10.48 Y-9.152 Z-2.956
X-10.52 Y-9.128 Z-2.959
X-10.61 Y-9.084 Z-2.966
X-10.644 Y-9.071 Z-2.968
X-10.679 Y-9.058 Z-2.971
X-10.759 Y-9.034 Z-2.977
X-10.799 Y-9.025 Z-2.98
X-10.839 Y-9.018 Z-2.983
X-10.918 Y-9.008 Z-2.988
X-10.998 Y-9.005 Z-2.994
X-11.038 Y-9.006 Z-2.997
X-11.078 Y-9.008 Z-2.999
X-11.087 Y-9.009 Z-3.
X-11.158 Y-9.017 F400.
X-11.197 Y-9.025
X-11.237 Y-9.033
X-11.317 Y-9.057
X-11.354 Y-9.07
X-11.39 Y-9.084
X-11.476 Y-9.126
X-11.516 Y-9.149
X-11.556 Y-9.175
X-11.596 Y-9.203
X-11.636 Y-9.234
X-11.647 Y-9.244
X-11.688 Y-9.281
X-11.729 Y-9.323
X-11.764 Y-9.362
X-11.795 Y-9.401
X-11.796 Y-9.403
X-11.851 Y-9.483
X-11.873 Y-9.523
X-11.894 Y-9.562
X-11.912 Y-9.602
X-11.928 Y-9.641
X-11.955 Y-9.719
Y-9.722
X-11.976 Y-9.802
X-11.982 Y-9.841
X-11.988 Y-9.881
X-11.995 Y-9.961
Y-10.001
X-11.994 Y-10.041
X-11.988 Y-10.12
X-11.982 Y-10.16
X-11.975 Y-10.2
X-11.955 Y-10.281
X-11.928 Y-10.359
X-11.912 Y-10.399
X-11.893 Y-10.439
X-11.872 Y-10.479
X-11.849 Y-10.519
X-11.795 Y-10.599
X-11.763 Y-10.638
X-11.728 Y-10.678
X-11.682 Y-10.725
X-11.636 Y-10.766
X-11.587 Y-10.804
X-11.562 Y-10.821
X-11.538 Y-10.838
X-11.476 Y-10.874
X-11.397 Y-10.913
X-11.357 Y-10.929
X-11.317 Y-10.943
X-11.237 Y-10.967
X-11.197 Y-10.975
X-11.158 Y-10.983
X-11.078 Y-10.992
X-11.038 Y-10.994
X-10.998 Y-10.995
X-10.918 Y-10.992
X-10.839 Y-10.982
X-10.799 Y-10.975
X-10.759 Y-10.966
X-10.679 Y-10.942
X-10.639 Y-10.927
X-10.6 Y-10.911
X-10.52 Y-10.872
X-10.462 Y-10.838
X-10.437 Y-10.82
X-10.411 Y-10.803
X-10.36 Y-10.763
X-10.316 Y-10.723
X-10.272 Y-10.678
X-10.234 Y-10.636
X-10.201 Y-10.593
X-10.151 Y-10.519
X-10.128 Y-10.479
X-10.107 Y-10.439
X-10.088 Y-10.399
X-10.072 Y-10.359
X-10.042 Y-10.268
X-10.025 Y-10.2
X-10.018 Y-10.16
X-10.012 Y-10.12
X-10.006 Y-10.041
X-10.005 Y-10.001
Y-9.961
X-10.012 Y-9.881
X-10.024 Y-9.806
X-10.032 Y-9.769
X-10.042 Y-9.732
X-10.045 Y-9.722
X-10.071 Y-9.642
X-10.088 Y-9.602
X-10.106 Y-9.562
X-10.126 Y-9.524
X-10.148 Y-9.485
X-10.201 Y-9.407
X-10.204 Y-9.403
X-10.235 Y-9.363
X-10.27 Y-9.323
X-10.312 Y-9.281
X-10.353 Y-9.244
X-10.36 Y-9.237
X-10.4 Y-9.206
X-10.44 Y-9.177
X-10.48 Y-9.152
X-10.52 Y-9.128
X-10.61 Y-9.084
X-10.644 Y-9.071
X-10.679 Y-9.058
X-10.759 Y-9.034
X-10.799 Y-9.025
X-10.839 Y-9.018
X-10.918 Y-9.008
X-10.998 Y-9.005
X-11.038 Y-9.006
X-11.078 Y-9.008
X-11.087 Y-9.009
X-11.158 Y-9.017 Z-3.005 F200.
X-11.197 Y-9.025 Z-3.008
X-11.237 Y-9.033 Z-3.011
X-11.317 Y-9.057 Z-3.016
X-11.354 Y-9.07 Z-3.019
X-11.39 Y-9.084 Z-3.022
X-11.476 Y-9.126 Z-3.029
X-11.516 Y-9.149 Z-3.032
X-11.556 Y-9.175 Z-3.035
X-11.596 Y-9.203 Z-3.039
X-11.636 Y-9.234 Z-3.042
X-11.647 Y-9.244 Z-3.043
X-11.688 Y-9.281 Z-3.047
X-11.729 Y-9.323 Z-3.051
X-11.764 Y-9.362 Z-3.055
X-11.795 Y-9.401 Z-3.058
X-11.796 Y-9.403
X-11.851 Y-9.483 Z-3.065
X-11.873 Y-9.523 Z-3.068
X-11.894 Y-9.562 Z-3.072
X-11.912 Y-9.602 Z-3.075
X-11.928 Y-9.641 Z-3.077
X-11.955 Y-9.719 Z-3.083
Y-9.722
X-11.976 Y-9.802 Z-3.089
X-11.982 Y-9.841 Z-3.092
X-11.988 Y-9.881 Z-3.095
X-11.995 Y-9.961 Z-3.1
Y-10.001 Z-3.103
X-11.994 Y-10.041 Z-3.106
X-11.988 Y-10.12 Z-3.112
X-11.982 Y-10.16 Z-3.114
X-11.975 Y-10.2 Z-3.117
X-11.955 Y-10.281 Z-3.123
X-11.928 Y-10.359 Z-3.129
X-11.912 Y-10.399 Z-3.132
X-11.893 Y-10.439 Z-3.135
X-11.872 Y-10.479 Z-3.138
X-11.849 Y-10.519 Z-3.141
X-11.795 Y-10.599 Z-3.148
X-11.763 Y-10.638 Z-3.152
X-11.728 Y-10.678 Z-3.155
X-11.682 Y-10.725 Z-3.16
X-11.636 Y-10.766 Z-3.164
X-11.587 Y-10.804 Z-3.169
X-11.562 Y-10.821 Z-3.171
X-11.538 Y-10.838 Z-3.173
X-11.476 Y-10.874 Z-3.178
X-11.397 Y-10.913 Z-3.184
X-11.357 Y-10.929 Z-3.187
X-11.317 Y-10.943 Z-3.19
X-11.237 Y-10.967 Z-3.196
X-11.197 Y-10.975 Z-3.199
X-11.158 Y-10.983 Z-3.201
X-11.078 Y-10.992 Z-3.207
X-11.038 Y-10.994 Z-3.21
X-10.998 Y-10.995 Z-3.213
X-10.918 Y-10.992 Z-3.218
X-10.839 Y-10.982 Z-3.224
X-10.799 Y-10.975 Z-3.227
X-10.759 Y-10.966 Z-3.23
X-10.679 Y-10.942 Z-3.235
X-10.639 Y-10.927 Z-3.238
X-10.6 Y-10.911 Z-3.241
X-10.52 Y-10.872 Z-3.248
X-10.462 Y-10.838 Z-3.252
X-10.437 Y-10.82 Z-3.254
X-10.411 Y-10.803 Z-3.257
X-10.36 Y-10.763 Z-3.261
X-10.316 Y-10.723 Z-3.265
X-10.272 Y-10.678 Z-3.27
X-10.234 Y-10.636 Z-3.274
X-10.201 Y-10.593 Z-3.277
X-10.151 Y-10.519 Z-3.284
X-10.128 Y-10.479 Z-3.287
X-10.107 Y-10.439 Z-3.29
X-10.088 Y-10.399 Z-3.293
X-10.072 Y-10.359 Z-3.296
X-10.042 Y-10.268 Z-3.303
X-10.025 Y-10.2 Z-3.308
X-10.018 Y-10.16 Z-3.311
X-10.012 Y-10.12 Z-3.313
X-10.006 Y-10.041 Z-3.319
X-10.005 Y-10.001 Z-3.322
Y-9.961 Z-3.325
X-10.012 Y-9.881 Z-3.33
X-10.024 Y-9.806 Z-3.335
X-10.032 Y-9.769 Z-3.338
X-10.042 Y-9.732 Z-3.341
X-10.045 Y-9.722
X-10.071 Y-9.642 Z-3.347
X-10.088 Y-9.602 Z-3.35
X-10.106 Y-9.562 Z-3.353
X-10.126 Y-9.524 Z-3.357
X-10.148 Y-9.485 Z-3.36
X-10.201 Y-9.407 Z-3.366
X-10.204 Y-9.403 Z-3.367
X-10.235 Y-9.363 Z-3.37
X-10.27 Y-9.323 Z-3.374
X-10.312 Y-9.281 Z-3.378
X-10.353 Y-9.244 Z-3.382
X-10.36 Y-9.237 Z-3.383
X-10.4 Y-9.206 Z-3.386
X-10.44 Y-9.177 Z-3.39
X-10.48 Y-9.152 Z-3.393
X-10.52 Y-9.128 Z-3.396
X-10.61 Y-9.084 Z-3.403
X-10.644 Y-9.071 Z-3.406
X-10.679 Y-9.058 Z-3.408
X-10.759 Y-9.034 Z-3.414
X-10.799 Y-9.025 Z-3.417
X-10.839 Y-9.018 Z-3.42
X-10.918 Y-9.008 Z-3.425
X-10.998 Y-9.005 Z-3.431
X-11.038 Y-9.006 Z-3.434
X-11.078 Y-9.008 Z-3.437
X-11.158 Y-9.017 Z-3.442
X-11.197 Y-9.025 Z-3.445
X-11.237 Y-9.033 Z-3.448
X-11.317 Y-9.057 Z-3.454
X-11.354 Y-9.07 Z-3.456
X-11.39 Y-9.084 Z-3.459
X-11.476 Y-9.126 Z-3.466
X-11.516 Y-9.149 Z-3.469
X-11.556 Y-9.175 Z-3.472
X-11.596 Y-9.203 Z-3.476
X-11.636 Y-9.234 Z-3.479
X-11.647 Y-9.244 Z-3.48
X-11.688 Y-9.281 Z-3.484
X-11.729 Y-9.323 Z-3.488
X-11.764 Y-9.362 Z-3.492
X-11.795 Y-9.401 Z-3.495
X-11.796 Y-9.403 Z-3.496
X-11.832 Y-9.455 Z-3.5
X-11.851 Y-9.483 F400.
X-11.873 Y-9.523
X-11.894 Y-9.562
X-11.912 Y-9.602
X-11.928 Y-9.641
X-11.955 Y-9.719
Y-9.722
X-11.976 Y-9.802
X-11.982 Y-9.841
X-11.988 Y-9.881
X-11.995 Y-9.961
Y-10.001
X-11.994 Y-10.041
X-11.988 Y-10.12
X-11.982 Y-10.16
X-11.975 Y-10.2
X-11.955 Y-10.281
X-11.928 Y-10.359
X-11.912 Y-10.399
X-11.893 Y-10.439
X-11.872 Y-10.479
X-11.849 Y-10.519
X-11.795 Y-10.599
X-11.763 Y-10.638
X-11.728 Y-10.678
X-11.682 Y-10.725
X-11.636 Y-10.766
X-11.587 Y-10.804
X-11.562 Y-10.821
X-11.538 Y-10.838
X-11.476 Y-10.874
X-11.397 Y-10.913
X-11.357 Y-10.929
X-11.317 Y-10.943
X-11.237 Y-10.967
X-11.197 Y-10.975
X-11.158 Y-10.983
X-11.078 Y-10.992
X-11.038 Y-10.994
X-10.998 Y-10.995
X-10.918 Y-10.992
X-10.839 Y-10.982
X-10.799 Y-10.975
X-10.759 Y-10.966
X-10.679 Y-10.942
X-10.639 Y-10.927
X-10.6 Y-10.911
X-10.52 Y-10.872
X-10.462 Y-10.838
X-10.437 Y-10.82
X-10.411 Y-10.803
X-10.36 Y-10.763
X-10.316 Y-10.723
X-10.272 Y-10.678
X-10.234 Y-10.636
X-10.201 Y-10.593
X-10.151 Y-10.519
X-10.128 Y-10.479
X-10.107 Y-10.439
X-10.088 Y-10.399
X-10.072 Y-10.359
X-10.042 Y-10.268
X-10.025 Y-10.2
X-10.018 Y-10.16
X-10.012 Y-10.12
X-10.006 Y-10.041
X-10.005 Y-10.001
Y-9.961
X-10.012 Y-9.881
X-10.024 Y-9.806
X-10.032 Y-9.769
X-10.042 Y-9.732
X-10.045 Y-9.722
X-10.071 Y-9.642
X-10.088 Y-9.602
X-10.106 Y-9.562
X-10.126 Y-9.524
X-10.148 Y-9.485
X-10.201 Y-9.407
X-10.204 Y-9.403
X-10.235 Y-9.363
X-10.27 Y-9.323
X-10.312 Y-9.281
X-10.353 Y-9.244
X-10.36 Y-9.237
X-10.4 Y-9.206
X-10.44 Y-9.177
X-10.48 Y-9.152
X-10.52 Y-9.128
X-10.61 Y-9.084
X-10.644 Y-9.071
X-10.679 Y-9.058
X-10.759 Y-9.034
X-10.799 Y-9.025
X-10.839 Y-9.018
X-10.918 Y-9.008
X-10.998 Y-9.005
X-11.038 Y-9.006
X-11.078 Y-9.008
X-11.158 Y-9.017
X-11.197 Y-9.025
X-11.237 Y-9.033
X-11.317 Y-9.057
X-11.354 Y-9.07
X-11.39 Y-9.084
X-11.476 Y-9.126
X-11.516 Y-9.149
X-11.556 Y-9.175
X-11.596 Y-9.203
X-11.636 Y-9.234
X-11.647 Y-9.244
X-11.688 Y-9.281
X-11.729 Y-9.323
X-11.764 Y-9.362
X-11.795 Y-9.401
X-11.796 Y-9.403
X-11.832 Y-9.455
X-11.851 Y-9.483 Z-3.502 F200.
X-11.873 Y-9.523 Z-3.506
X-11.894 Y-9.562 Z-3.509
X-11.912 Y-9.602 Z-3.512
X-11.928 Y-9.641 Z-3.515
X-11.955 Y-9.719 Z-3.52
Y-9.722 Z-3.521
X-11.976 Y-9.802 Z-3.526
X-11.982 Y-9.841 Z-3.529
X-11.988 Y-9.881 Z-3.532
X-11.995 Y-9.961 Z-3.538
Y-10.001 Z-3.54
X-11.994 Y-10.041 Z-3.543
X-11.988 Y-10.12 Z-3.549
X-11.982 Y-10.16 Z-3.552
X-11.975 Y-10.2 Z-3.554
X-11.955 Y-10.281 Z-3.56
X-11.928 Y-10.359 Z-3.566
X-11.912 Y-10.399 Z-3.569
X-11.893 Y-10.439 Z-3.572
X-11.872 Y-10.479 Z-3.575
X-11.849 Y-10.519 Z-3.579
X-11.795 Y-10.599 Z-3.585
X-11.763 Y-10.638 Z-3.589
X-11.728 Y-10.678 Z-3.593
X-11.682 Y-10.725 Z-3.597
X-11.636 Y-10.766 Z-3.601
X-11.587 Y-10.804 Z-3.606
X-11.562 Y-10.821 Z-3.608
X-11.538 Y-10.838 Z-3.61
X-11.476 Y-10.874 Z-3.615
X-11.397 Y-10.913 Z-3.621
X-11.357 Y-10.929 Z-3.624
X-11.317 Y-10.943 Z-3.627
X-11.237 Y-10.967 Z-3.633
X-11.197 Y-10.975 Z-3.636
X-11.158 Y-10.983 Z-3.639
X-11.078 Y-10.992 Z-3.644
X-11.038 Y-10.994 Z-3.647
X-10.998 Y-10.995 Z-3.65
X-10.918 Y-10.992 Z-3.655
X-10.839 Y-10.982 Z-3.661
X-10.799 Y-10.975 Z-3.664
X-10.759 Y-10.966 Z-3.667
X-10.679 Y-10.942 Z-3.673
X-10.639 Y-10.927 Z-3.675
X-10.6 Y-10.911 Z-3.678
X-10.52 Y-10.872 Z-3.685
X-10.462 Y-10.838 Z-3.689
X-10.437 Y-10.82 Z-3.692
X-10.411 Y-10.803 Z-3.694
X-10.36 Y-10.763 Z-3.698
X-10.316 Y-10.723 Z-3.702
X-10.272 Y-10.678 Z-3.707
X-10.234 Y-10.636 Z-3.711
X-10.201 Y-10.593 Z-3.715
X-10.151 Y-10.519 Z-3.721
X-10.128 Y-10.479 Z-3.724
X-10.107 Y-10.439 Z-3.727
X-10.088 Y-10.399 Z-3.73
X-10.072 Y-10.359 Z-3.733
X-10.042 Y-10.268 Z-3.74
X-10.025 Y-10.2 Z-3.745
X-10.018 Y-10.16 Z-3.748
X-10.012 Y-10.12 Z-3.751
X-10.006 Y-10.041 Z-3.756
X-10.005 Y-10.001 Z-3.759
Y-9.961 Z-3.762
X-10.012 Y-9.881 Z-3.767
X-10.024 Y-9.806 Z-3.773
X-10.032 Y-9.769 Z-3.775
X-10.042 Y-9.732 Z-3.778
X-10.045 Y-9.722 Z-3.779
X-10.071 Y-9.642 Z-3.785
X-10.088 Y-9.602 Z-3.788
X-10.106 Y-9.562 Z-3.791
X-10.126 Y-9.524 Z-3.794
X-10.148 Y-9.485 Z-3.797
X-10.201 Y-9.407 Z-3.803
X-10.204 Y-9.403 Z-3.804
X-10.235 Y-9.363 Z-3.807
X-10.27 Y-9.323 Z-3.811
X-10.312 Y-9.281 Z-3.815
X-10.353 Y-9.244 Z-3.819
X-10.36 Y-9.237 Z-3.82
X-10.4 Y-9.206 Z-3.823
X-10.44 Y-9.177 Z-3.827
X-10.48 Y-9.152 Z-3.83
X-10.52 Y-9.128 Z-3.833
X-10.61 Y-9.084 Z-3.84
X-10.644 Y-9.071 Z-3.843
X-10.679 Y-9.058 Z-3.845
X-10.759 Y-9.034 Z-3.851
X-10.799 Y-9.025 Z-3.854
X-10.839 Y-9.018 Z-3.857
X-10.918 Y-9.008 Z-3.863
X-10.998 Y-9.005 Z-3.868
X-11.038 Y-9.006 Z-3.871
X-11.078 Y-9.008 Z-3.874
X-11.158 Y-9.017 Z-3.879
X-11.197 Y-9.025 Z-3.882
X-11.237 Y-9.033 Z-3.885
X-11.317 Y-9.057 Z-3.891
X-11.354 Y-9.07 Z-3.894
X-11.39 Y-9.084 Z-3.896
X-11.476 Y-9.126 Z-3.903
X-11.516 Y-9.149 Z-3.906
X-11.556 Y-9.175 Z-3.91
X-11.596 Y-9.203 Z-3.913
X-11.636 Y-9.234 Z-3.916
X-11.647 Y-9.244 Z-3.917
X-11.688 Y-9.281 Z-3.921
X-11.729 Y-9.323 Z-3.925
X-11.764 Y-9.362 Z-3.929
X-11.795 Y-9.401 Z-3.933
X-11.796 Y-9.403
X-11.851 Y-9.483 Z-3.94
X-11.873 Y-9.523 Z-3.943
X-11.894 Y-9.562 Z-3.946
X-11.912 Y-9.602 Z-3.949
X-11.928 Y-9.641 Z-3.952
X-11.955 Y-9.719 Z-3.958
Y-9.722
X-11.976 Y-9.802 Z-3.964
X-11.982 Y-9.841 Z-3.966
X-11.988 Y-9.881 Z-3.969
X-11.995 Y-9.961 Z-3.975
Y-10.001 Z-3.978
X-11.994 Y-10.041 Z-3.98
X-11.988 Y-10.12 Z-3.986
X-11.982 Y-10.16 Z-3.989
X-11.975 Y-10.2 Z-3.992
X-11.955 Y-10.281 Z-3.998
X-11.943 Y-10.315 Z-4.
X-11.928 Y-10.359 F400.
X-11.912 Y-10.399
X-11.893 Y-10.439
X-11.872 Y-10.479
X-11.849 Y-10.519
X-11.795 Y-10.599
X-11.763 Y-10.638
X-11.728 Y-10.678
X-11.682 Y-10.725
X-11.636 Y-10.766
X-11.587 Y-10.804
X-11.562 Y-10.821
X-11.538 Y-10.838
X-11.476 Y-10.874
X-11.397 Y-10.913
X-11.357 Y-10.929
X-11.317 Y-10.943
X-11.237 Y-10.967
X-11.197 Y-10.975
X-11.158 Y-10.983
X-11.078 Y-10.992
X-11.038 Y-10.994
X-10.998 Y-10.995
X-10.918 Y-10.992
X-10.839 Y-10.982
X-10.799 Y-10.975
X-10.759 Y-10.966
X-10.679 Y-10.942
X-10.639 Y-10.927
X-10.6 Y-10.911
X-10.52 Y-10.872
X-10.462 Y-10.838
X-10.437 Y-10.82
X-10.411 Y-10.803
X-10.36 Y-10.763
X-10.316 Y-10.723
X-10.272 Y-10.678
X-10.234 Y-10.636
X-10.201 Y-10.593
X-10.151 Y-10.519
X-10.128 Y-10.479
X-10.107 Y-10.439
X-10.088 Y-10.399
X-10.072 Y-10.359
X-10.042 Y-10.268
X-10.025 Y-10.2
X-10.018 Y-10.16
X-10.012 Y-10.12
X-10.006 Y-10.041
X-10.005 Y-10.001
Y-9.961
X-10.012 Y-9.881
X-10.024 Y-9.806
X-10.032 Y-9.769
X-10.042 Y-9.732
X-10.045 Y-9.722
X-10.071 Y-9.642
X-10.088 Y-9.602
X-10.106 Y-9.562
X-10.126 Y-9.524
X-10.148 Y-9.485
X-10.201 Y-9.407
X-10.204 Y-9.403
X-10.235 Y-9.363
X-10.27 Y-9.323
X-10.312 Y-9.281
X-10.353 Y-9.244
X-10.36 Y-9.237
X-10.4 Y-9.206
X-10.44 Y-9.177
X-10.48 Y-9.152
X-10.52 Y-9.128
X-10.61 Y-9.084
X-10.644 Y-9.071
X-10.679 Y-9.058
X-10.759 Y-9.034
X-10.799 Y-9.025
X-10.839 Y-9.018
X-10.918 Y-9.008
X-10.998 Y-9.005
X-11.038 Y-9.006
X-11.078 Y-9.008
X-11.158 Y-9.017
X-11.197 Y-9.025
X-11.237 Y-9.033
X-11.317 Y-9.057
X-11.354 Y-9.07
X-11.39 Y-9.084
X-11.476 Y-9.126
X-11.516 Y-9.149
X-11.556 Y-9.175
X-11.596 Y-9.203
X-11.636 Y-9.234
X-11.647 Y-9.244
X-11.688 Y-9.281
X-11.729 Y-9.323
X-11.764 Y-9.362
X-11.795 Y-9.401
X-11.796 Y-9.403
X-11.832 Y-9.455
X-11.851 Y-9.483
X-11.873 Y-9.523
X-11.894 Y-9.562
X-11.912 Y-9.602
X-11.928 Y-9.641
X-11.955 Y-9.719
Y-9.722
X-11.976 Y-9.802
X-11.982 Y-9.841
X-11.988 Y-9.881
X-11.995 Y-9.961
Y-10.001
X-11.994 Y-10.041
X-11.988 Y-10.12
X-11.982 Y-10.16
X-11.975 Y-10.2
X-11.955 Y-10.281
X-11.943 Y-10.315
X-11.928 Y-10.359 Z-4.003 F200.
X-11.912 Y-10.399 Z-4.006
X-11.893 Y-10.439 Z-4.009
X-11.872 Y-10.479 Z-4.013
X-11.849 Y-10.519 Z-4.016
X-11.795 Y-10.599 Z-4.022
X-11.763 Y-10.638 Z-4.026
X-11.728 Y-10.678 Z-4.03
X-11.682 Y-10.725 Z-4.034
X-11.636 Y-10.766 Z-4.039
X-11.587 Y-10.804 Z-4.043
X-11.562 Y-10.821 Z-4.045
X-11.538 Y-10.838 Z-4.047
X-11.476 Y-10.874 Z-4.052
X-11.397 Y-10.913 Z-4.058
X-11.357 Y-10.929 Z-4.061
X-11.317 Y-10.943 Z-4.064
X-11.237 Y-10.967 Z-4.07
X-11.197 Y-10.975 Z-4.073
X-11.158 Y-10.983 Z-4.076
X-11.078 Y-10.992 Z-4.081
X-11.038 Y-10.994 Z-4.084
X-10.998 Y-10.995 Z-4.087
X-10.918 Y-10.992 Z-4.093
X-10.839 Y-10.982 Z-4.098
X-10.799 Y-10.975 Z-4.101
X-10.759 Y-10.966 Z-4.104
X-10.679 Y-10.942 Z-4.11
X-10.639 Y-10.927 Z-4.113
X-10.6 Y-10.911 Z-4.116
X-10.52 Y-10.872 Z-4.122
X-10.462 Y-10.838 Z-4.127
X-10.437 Y-10.82 Z-4.129
X-10.411 Y-10.803 Z-4.131
X-10.36 Y-10.763 Z-4.135
X-10.316 Y-10.723 Z-4.14
X-10.272 Y-10.678 Z-4.144
X-10.234 Y-10.636 Z-4.148
X-10.201 Y-10.593 Z-4.152
X-10.151 Y-10.519 Z-4.158
X-10.128 Y-10.479 Z-4.161
X-10.107 Y-10.439 Z-4.164
X-10.088 Y-10.399 Z-4.167
X-10.072 Y-10.359 Z-4.17
X-10.042 Y-10.268 Z-4.177
X-10.025 Y-10.2 Z-4.182
X-10.018 Y-10.16 Z-4.185
X-10.012 Y-10.12 Z-4.188
X-10.006 Y-10.041 Z-4.193
X-10.005 Y-10.001 Z-4.196
Y-9.961 Z-4.199
X-10.012 Y-9.881 Z-4.204
X-10.024 Y-9.806 Z-4.21
X-10.032 Y-9.769 Z-4.212
X-10.042 Y-9.732 Z-4.215
X-10.045 Y-9.722 Z-4.216
X-10.071 Y-9.642 Z-4.222
X-10.088 Y-9.602 Z-4.225
X-10.106 Y-9.562 Z-4.228
X-10.126 Y-9.524 Z-4.231
X-10.148 Y-9.485 Z-4.234
X-10.201 Y-9.407 Z-4.241
X-10.204 Y-9.403
X-10.235 Y-9.363 Z-4.244
X-10.27 Y-9.323 Z-4.248
X-10.312 Y-9.281 Z-4.252
X-10.353 Y-9.244 Z-4.256
X-10.36 Y-9.237 Z-4.257
X-10.4 Y-9.206 Z-4.26
X-10.44 Y-9.177 Z-4.264
X-10.48 Y-9.152 Z-4.267
X-10.52 Y-9.128 Z-4.27
X-10.61 Y-9.084 Z-4.277
X-10.644 Y-9.071 Z-4.28
X-10.679 Y-9.058 Z-4.283
X-10.759 Y-9.034 Z-4.288
X-10.799 Y-9.025 Z-4.291
X-10.839 Y-9.018 Z-4.294
X-10.918 Y-9.008 Z-4.3
X-10.998 Y-9.005 Z-4.305
X-11.038 Y-9.006 Z-4.308
X-11.078 Y-9.008 Z-4.311
X-11.158 Y-9.017 Z-4.317
X-11.197 Y-9.025 Z-4.319
X-11.237 Y-9.033 Z-4.322
X-11.317 Y-9.057 Z-4.328
X-11.354 Y-9.07 Z-4.331
X-11.39 Y-9.084 Z-4.334
X-11.476 Y-9.126 Z-4.34
X-11.516 Y-9.149 Z-4.343
X-11.556 Y-9.175 Z-4.347
X-11.596 Y-9.203 Z-4.35
X-11.636 Y-9.234 Z-4.354
X-11.647 Y-9.244 Z-4.355
X-11.688 Y-9.281 Z-4.359
X-11.729 Y-9.323 Z-4.363
X-11.764 Y-9.362 Z-4.366
X-11.795 Y-9.401 Z-4.37
X-11.796 Y-9.403
X-11.851 Y-9.483 Z-4.377
X-11.873 Y-9.523 Z-4.38
X-11.894 Y-9.562 Z-4.383
X-11.912 Y-9.602 Z-4.386
X-11.928 Y-9.641 Z-4.389
X-11.955 Y-9.719 Z-4.395
Y-9.722
X-11.976 Y-9.802 Z-4.401
X-11.982 Y-9.841 Z-4.404
X-11.988 Y-9.881 Z-4.406
X-11.995 Y-9.961 Z-4.412
Y-10.001 Z-4.415
X-11.994 Y-10.041 Z-4.418
X-11.988 Y-10.12 Z-4.423
X-11.982 Y-10.16 Z-4.426
X-11.975 Y-10.2 Z-4.429
X-11.955 Y-10.281 Z-4.435
X-11.928 Y-10.359 Z-4.44
X-11.912 Y-10.399 Z-4.443
X-11.893 Y-10.439 Z-4.447
X-11.872 Y-10.479 Z-4.45
X-11.849 Y-10.519 Z-4.453
X-11.795 Y-10.599 Z-4.46
X-11.763 Y-10.638 Z-4.463
X-11.728 Y-10.678 Z-4.467
X-11.682 Y-10.725 Z-4.472
X-11.636 Y-10.766 Z-4.476
X-11.587 Y-10.804 Z-4.48
X-11.562 Y-10.821 Z-4.482
X-11.538 Y-10.838 Z-4.484
X-11.476 Y-10.874 Z-4.489
X-11.397 Y-10.913 Z-4.496
X-11.357 Y-10.929 Z-4.499
X-11.337 Y-10.936 Z-4.5
X-11.317 Y-10.943 F400.
X-11.237 Y-10.967
X-11.197 Y-10.975
X-11.158 Y-10.983
X-11.078 Y-10.992
X-11.038 Y-10.994
X-10.998 Y-10.995
X-10.918 Y-10.992
X-10.839 Y-10.982
X-10.799 Y-10.975
X-10.759 Y-10.966
X-10.679 Y-10.942
X-10.639 Y-10.927
X-10.6 Y-10.911
X-10.52 Y-10.872
X-10.462 Y-10.838
X-10.437 Y-10.82
X-10.411 Y-10.803
X-10.36 Y-10.763
X-10.316 Y-10.723
X-10.272 Y-10.678
X-10.234 Y-10.636
X-10.201 Y-10.593
X-10.151 Y-10.519
X-10.128 Y-10.479
X-10.107 Y-10.439
X-10.088 Y-10.399
X-10.072 Y-10.359
X-10.042 Y-10.268
X-10.025 Y-10.2
X-10.018 Y-10.16
X-10.012 Y-10.12
X-10.006 Y-10.041
X-10.005 Y-10.001
Y-9.961
X-10.012 Y-9.881
X-10.024 Y-9.806
X-10.032 Y-9.769
X-10.042 Y-9.732
X-10.045 Y-9.722
X-10.071 Y-9.642
X-10.088 Y-9.602
X-10.106 Y-9.562
X-10.126 Y-9.524
X-10.148 Y-9.485
X-10.201 Y-9.407
X-10.204 Y-9.403
X-10.235 Y-9.363
X-10.27 Y-9.323
X-10.312 Y-9.281
X-10.353 Y-9.244
X-10.36 Y-9.237
X-10.4 Y-9.206
X-10.44 Y-9.177
X-10.48 Y-9.152
X-10.52 Y-9.128
X-10.61 Y-9.084
X-10.644 Y-9.071
X-10.679 Y-9.058
X-10.759 Y-9.034
X-10.799 Y-9.025
X-10.839 Y-9.018
X-10.918 Y-9.008
X-10.998 Y-9.005
X-11.038 Y-9.006
X-11.078 Y-9.008
X-11.158 Y-9.017
X-11.197 Y-9.025
X-11.237 Y-9.033
X-11.317 Y-9.057
X-11.354 Y-9.07
X-11.39 Y-9.084
X-11.476 Y-9.126
X-11.516 Y-9.149
X-11.556 Y-9.175
X-11.596 Y-9.203
X-11.636 Y-9.234
X-11.647 Y-9.244
X-11.688 Y-9.281
X-11.729 Y-9.323
X-11.764 Y-9.362
X-11.795 Y-9.401
X-11.796 Y-9.403
X-11.851 Y-9.483
X-11.873 Y-9.523
X-11.894 Y-9.562
X-11.912 Y-9.602
X-11.928 Y-9.641
X-11.955 Y-9.719
Y-9.722
X-11.976 Y-9.802
X-11.982 Y-9.841
X-11.988 Y-9.881
X-11.995 Y-9.961
Y-10.001
X-11.994 Y-10.041
X-11.988 Y-10.12
X-11.982 Y-10.16
X-11.975 Y-10.2
X-11.955 Y-10.281
X-11.928 Y-10.359
X-11.912 Y-10.399
X-11.893 Y-10.439
X-11.872 Y-10.479
X-11.849 Y-10.519
X-11.795 Y-10.599
X-11.763 Y-10.638
X-11.728 Y-10.678
X-11.682 Y-10.725
X-11.636 Y-10.766
X-11.587 Y-10.804
X-11.562 Y-10.821
X-11.538 Y-10.838
X-11.476 Y-10.874
X-11.397 Y-10.913
X-11.357 Y-10.929
X-11.337 Y-10.936
X-11.317 Y-10.943 Z-4.502 F200.
X-11.237 Y-10.967 Z-4.507
X-11.197 Y-10.975 Z-4.51
X-11.158 Y-10.983 Z-4.513
X-11.078 Y-10.992 Z-4.519
X-11.038 Y-10.994 Z-4.521
X-10.998 Y-10.995 Z-4.524
X-10.918 Y-10.992 Z-4.53
X-10.839 Y-10.982 Z-4.535
X-10.799 Y-10.975 Z-4.538
X-10.759 Y-10.966 Z-4.541
X-10.679 Y-10.942 Z-4.547
X-10.639 Y-10.927 Z-4.55
X-10.6 Y-10.911 Z-4.553
X-10.52 Y-10.872 Z-4.559
X-10.462 Y-10.838 Z-4.564
X-10.437 Y-10.82 Z-4.566
X-10.411 Y-10.803 Z-4.568
X-10.36 Y-10.763 Z-4.573
X-10.316 Y-10.723 Z-4.577
X-10.272 Y-10.678 Z-4.581
X-10.234 Y-10.636 Z-4.585
X-10.201 Y-10.593 Z-4.589
X-10.151 Y-10.519 Z-4.595
X-10.128 Y-10.479 Z-4.598
X-10.107 Y-10.439 Z-4.602
X-10.088 Y-10.399 Z-4.605
X-10.072 Y-10.359 Z-4.608
X-10.042 Y-10.268 Z-4.614
X-10.025 Y-10.2 Z-4.619
X-10.018 Y-10.16 Z-4.622
X-10.012 Y-10.12 Z-4.625
X-10.006 Y-10.041 Z-4.631
X-10.005 Y-10.001 Z-4.633
Y-9.961 Z-4.636
X-10.012 Y-9.881 Z-4.642
X-10.024 Y-9.806 Z-4.647
X-10.032 Y-9.769 Z-4.65
X-10.042 Y-9.732 Z-4.652
X-10.045 Y-9.722 Z-4.653
X-10.071 Y-9.642 Z-4.659
X-10.088 Y-9.602 Z-4.662
X-10.106 Y-9.562 Z-4.665
X-10.126 Y-9.524 Z-4.668
X-10.148 Y-9.485 Z-4.671
X-10.201 Y-9.407 Z-4.678
X-10.204 Y-9.403
X-10.235 Y-9.363 Z-4.682
X-10.27 Y-9.323 Z-4.685
X-10.312 Y-9.281 Z-4.69
X-10.353 Y-9.244 Z-4.693
X-10.36 Y-9.237 Z-4.694
X-10.4 Y-9.206 Z-4.698
X-10.44 Y-9.177 Z-4.701
X-10.48 Y-9.152 Z-4.704
X-10.52 Y-9.128 Z-4.708
X-10.61 Y-9.084 Z-4.715
X-10.644 Y-9.071 Z-4.717
X-10.679 Y-9.058 Z-4.72
X-10.759 Y-9.034 Z-4.726
X-10.799 Y-9.025 Z-4.728
X-10.839 Y-9.018 Z-4.731
X-10.918 Y-9.008 Z-4.737
X-10.998 Y-9.005 Z-4.743
X-11.038 Y-9.006 Z-4.745
X-11.078 Y-9.008 Z-4.748
X-11.158 Y-9.017 Z-4.754
X-11.197 Y-9.025 Z-4.757
X-11.237 Y-9.033 Z-4.759
X-11.317 Y-9.057 Z-4.765
X-11.354 Y-9.07 Z-4.768
X-11.39 Y-9.084 Z-4.771
X-11.476 Y-9.126 Z-4.777
X-11.516 Y-9.149 Z-4.781
X-11.556 Y-9.175 Z-4.784
X-11.596 Y-9.203 Z-4.787
X-11.636 Y-9.234 Z-4.791
X-11.647 Y-9.244 Z-4.792
X-11.688 Y-9.281 Z-4.796
X-11.729 Y-9.323 Z-4.8
X-11.764 Y-9.362 Z-4.804
X-11.795 Y-9.401 Z-4.807
X-11.796 Y-9.403
X-11.851 Y-9.483 Z-4.814
X-11.873 Y-9.523 Z-4.817
X-11.894 Y-9.562 Z-4.82
X-11.912 Y-9.602 Z-4.823
X-11.928 Y-9.641 Z-4.826
X-11.955 Y-9.719 Z-4.832
Y-9.722
X-11.976 Y-9.802 Z-4.838
X-11.982 Y-9.841 Z-4.841
X-11.988 Y-9.881 Z-4.844
X-11.995 Y-9.961 Z-4.849
Y-10.001 Z-4.852
X-11.994 Y-10.041 Z-4.855
X-11.988 Y-10.12 Z-4.86
X-11.982 Y-10.16 Z-4.863
X-11.975 Y-10.2 Z-4.866
X-11.955 Y-10.281 Z-4.872
X-11.928 Y-10.359 Z-4.878
X-11.912 Y-10.399 Z-4.881
X-11.893 Y-10.439 Z-4.884
X-11.872 Y-10.479 Z-4.887
X-11.849 Y-10.519 Z-4.89
X-11.795 Y-10.599 Z-4.897
X-11.763 Y-10.638 Z-4.9
X-11.728 Y-10.678 Z-4.904
X-11.682 Y-10.725 Z-4.909
X-11.636 Y-10.766 Z-4.913
X-11.587 Y-10.804 Z-4.917
X-11.562 Y-10.821 Z-4.919
X-11.538 Y-10.838 Z-4.922
X-11.476 Y-10.874 Z-4.927
X-11.397 Y-10.913 Z-4.933
X-11.357 Y-10.929 Z-4.936
X-11.317 Y-10.943 Z-4.939
X-11.237 Y-10.967 Z-4.945
X-11.197 Y-10.975 Z-4.947
X-11.158 Y-10.983 Z-4.95
X-11.078 Y-10.992 Z-4.956
X-11.038 Y-10.994 Z-4.959
X-10.998 Y-10.995 Z-4.961
X-10.918 Y-10.992 Z-4.967
X-10.839 Y-10.982 Z-4.973
X-10.799 Y-10.975 Z-4.975
X-10.759 Y-10.966 Z-4.978
X-10.679 Y-10.942 Z-4.984
X-10.639 Y-10.927 Z-4.987
X-10.6 Y-10.911 Z-4.99
X-10.52 Y-10.872 Z-4.996
X-10.474 Y-10.845 Z-5.
X-10.462 Y-10.838 F400.
X-10.437 Y-10.82
X-10.411 Y-10.803
X-10.36 Y-10.763
X-10.316 Y-10.723
X-10.272 Y-10.678
X-10.234 Y-10.636
X-10.201 Y-10.593
X-10.151 Y-10.519
X-10.128 Y-10.479
X-10.107 Y-10.439
X-10.088 Y-10.399
X-10.072 Y-10.359
X-10.042 Y-10.268
X-10.025 Y-10.2
X-10.018 Y-10.16
X-10.012 Y-10.12
X-10.006 Y-10.041
X-10.005 Y-10.001
Y-9.961
X-10.012 Y-9.881
X-10.024 Y-9.806
X-10.032 Y-9.769
X-10.042 Y-9.732
X-10.045 Y-9.722
X-10.071 Y-9.642
X-10.088 Y-9.602
X-10.106 Y-9.562
X-10.126 Y-9.524
X-10.148 Y-9.485
X-10.201 Y-9.407
X-10.204 Y-9.403
X-10.235 Y-9.363
X-10.27 Y-9.323
X-10.312 Y-9.281
X-10.353 Y-9.244
X-10.36 Y-9.237
X-10.4 Y-9.206
X-10.44 Y-9.177
X-10.48 Y-9.152
X-10.52 Y-9.128
X-10.61 Y-9.084
X-10.644 Y-9.071
X-10.679 Y-9.058
X-10.759 Y-9.034
X-10.799 Y-9.025
X-10.839 Y-9.018
X-10.918 Y-9.008
X-10.998 Y-9.005
X-11.038 Y-9.006
X-11.078 Y-9.008
X-11.158 Y-9.017
X-11.197 Y-9.025
X-11.237 Y-9.033
X-11.317 Y-9.057
X-11.354 Y-9.07
X-11.39 Y-9.084
X-11.476 Y-9.126
X-11.516 Y-9.149
X-11.556 Y-9.175
X-11.596 Y-9.203
X-11.636 Y-9.234
X-11.647 Y-9.244
X-11.688 Y-9.281
X-11.729 Y-9.323
X-11.764 Y-9.362
X-11.795 Y-9.401
X-11.796 Y-9.403
X-11.851 Y-9.483
X-11.873 Y-9.523
X-11.894 Y-9.562
X-11.912 Y-9.602
X-11.928 Y-9.641
X-11.955 Y-9.719
Y-9.722
X-11.976 Y-9.802
X-11.982 Y-9.841
X-11.988 Y-9.881
X-11.995 Y-9.961
Y-10.001
X-11.994 Y-10.041
X-11.988 Y-10.12
X-11.982 Y-10.16
X-11.975 Y-10.2
X-11.955 Y-10.281
X-11.928 Y-10.359
X-11.912 Y-10.399
X-11.893 Y-10.439
X-11.872 Y-10.479
X-11.849 Y-10.519
X-11.795 Y-10.599
X-11.763 Y-10.638
X-11.728 Y-10.678
X-11.682 Y-10.725
X-11.636 Y-10.766
X-11.587 Y-10.804
X-11.562 Y-10.821
X-11.538 Y-10.838
X-11.476 Y-10.874
X-11.397 Y-10.913
X-11.357 Y-10.929
X-11.317 Y-10.943
X-11.237 Y-10.967
X-11.197 Y-10.975
X-11.158 Y-10.983
X-11.078 Y-10.992
X-11.038 Y-10.994
X-10.998 Y-10.995
X-10.918 Y-10.992
X-10.839 Y-10.982
X-10.799 Y-10.975
X-10.759 Y-10.966
X-10.679 Y-10.942
X-10.639 Y-10.927
X-10.6 Y-10.911
X-10.52 Y-10.872
X-10.474 Y-10.845
G0 Z1.5
X-11.947 Y9.696
G1 Z0.025 F400.
X-11.929 Y9.642 Z0.021 F200.
X-11.913 Y9.603 Z0.018
X-11.895 Y9.565 Z0.015
X-11.875 Y9.525 Z0.012
X-11.852 Y9.485 Z0.009
X-11.798 Y9.406 Z0.002
X-11.795 Y9.401
X-11.764 Y9.363 Z-0.002
X-11.73 Y9.324 Z-0.005
X-11.69 Y9.283 Z-0.009
X-11.65 Y9.246 Z-0.013
X-11.636 Y9.234 Z-0.014
X-11.596 Y9.203 Z-0.018
X-11.556 Y9.175 Z-0.021
X-11.516 Y9.149 Z-0.025
X-11.476 Y9.126 Z-0.028
X-11.396 Y9.087 Z-0.034
X-11.356 Y9.071 Z-0.037
X-11.317 Y9.057 Z-0.04
X-11.237 Y9.033 Z-0.046
X-11.197 Y9.025 Z-0.049
X-11.158 Y9.017 Z-0.052
X-11.078 Y9.008 Z-0.057
X-11.038 Y9.006 Z-0.06
X-10.998 Y9.005 Z-0.063
X-10.918 Y9.008 Z-0.068
X-10.839 Y9.018 Z-0.074
X-10.799 Y9.025 Z-0.077
X-10.759 Y9.034 Z-0.08
X-10.679 Y9.058 Z-0.086
X-10.642 Y9.072 Z-0.088
X-10.604 Y9.087 Z-0.091
X-10.52 Y9.128 Z-0.098
X-10.48 Y9.152 Z-0.101
X-10.44 Y9.177 Z-0.104
X-10.4 Y9.206 Z-0.108
X-10.36 Y9.237 Z-0.111
X-10.35 Y9.246 Z-0.112
X-10.309 Y9.284 Z-0.116
X-10.268 Y9.326 Z-0.12
X-10.233 Y9.366 Z-0.124
X-10.202 Y9.406 Z-0.127
X-10.201 Y9.407 Z-0.128
X-10.148 Y9.486 Z-0.134
X-10.125 Y9.525 Z-0.137
X-10.105 Y9.565 Z-0.14
X-10.087 Y9.605 Z-0.144
X-10.07 Y9.645 Z-0.147
X-10.044 Y9.724 Z-0.152
X-10.042 Y9.732 Z-0.153
X-10.032 Y9.77 Z-0.156
X-10.023 Y9.808 Z-0.158
X-10.012 Y9.884 Z-0.164
X-10.005 Y9.963 Z-0.169
Y10.003 Z-0.172
X-10.006 Y10.043 Z-0.175
X-10.012 Y10.123 Z-0.181
X-10.018 Y10.163 Z-0.183
X-10.025 Y10.202 Z-0.186
X-10.042 Y10.268 Z-0.191
X-10.056 Y10.315 Z-0.194
X-10.073 Y10.362 Z-0.198
X-10.108 Y10.442 Z-0.204
X-10.129 Y10.481 Z-0.207
X-10.152 Y10.521 Z-0.21
X-10.201 Y10.593 Z-0.216
X-10.235 Y10.637 Z-0.22
X-10.274 Y10.681 Z-0.224
X-10.317 Y10.724 Z-0.229
X-10.36 Y10.763 Z-0.233
X-10.413 Y10.804 Z-0.237
X-10.44 Y10.822 Z-0.24
X-10.466 Y10.84 Z-0.242
X-10.52 Y10.872 Z-0.246
X-10.6 Y10.911 Z-0.252
X-10.639 Y10.927 Z-0.255
X-10.679 Y10.942 Z-0.258
X-10.759 Y10.966 Z-0.264
X-10.799 Y10.975 Z-0.267
X-10.839 Y10.982 Z-0.27
X-10.918 Y10.992 Z-0.276
X-10.998 Y10.995 Z-0.281
X-11.038 Y10.994 Z-0.284
X-11.078 Y10.992 Z-0.287
X-11.158 Y10.983 Z-0.292
X-11.197 Y10.975 Z-0.295
X-11.237 Y10.967 Z-0.298
X-11.317 Y10.943 Z-0.304
X-11.357 Y10.929 Z-0.307
X-11.397 Y10.913 Z-0.31
X-11.476 Y10.874 Z-0.316
X-11.534 Y10.84 Z-0.321
X-11.585 Y10.806 Z-0.325
X-11.61 Y10.786 Z-0.327
X-11.636 Y10.766 Z-0.329
X-11.681 Y10.726 Z-0.334
X-11.726 Y10.681 Z-0.338
X-11.762 Y10.64 Z-0.342
X-11.795 Y10.599 Z-0.346
X-11.848 Y10.521 Z-0.352
X-11.871 Y10.481 Z-0.355
X-11.892 Y10.442 Z-0.359
X-11.927 Y10.362 Z-0.365
X-11.942 Y10.322 Z-0.368
X-11.955 Y10.281 Z-0.371
X-11.975 Y10.202 Z-0.376
X-11.982 Y10.163 Z-0.379
X-11.988 Y10.123 Z-0.382
X-11.994 Y10.043 Z-0.388
X-11.995 Y10.003 Z-0.39
Y9.963 Z-0.393
X-11.988 Y9.884 Z-0.399
X-11.976 Y9.804 Z-0.404
X-11.967 Y9.764 Z-0.407
X-11.956 Y9.724 Z-0.41
X-11.955 Y9.719 Z-0.411
X-11.929 Y9.642 Z-0.416
X-11.913 Y9.603 Z-0.419
X-11.895 Y9.565 Z-0.422
X-11.875 Y9.525 Z-0.425
X-11.852 Y9.485 Z-0.428
X-11.798 Y9.406 Z-0.435
X-11.795 Y9.401
X-11.764 Y9.363 Z-0.439
X-11.73 Y9.324 Z-0.443
X-11.69 Y9.283 Z-0.447
X-11.65 Y9.246 Z-0.45
X-11.636 Y9.234 Z-0.452
X-11.596 Y9.203 Z-0.455
X-11.556 Y9.175 Z-0.459
X-11.516 Y9.149 Z-0.462
X-11.476 Y9.126 Z-0.465
X-11.396 Y9.087 Z-0.471
X-11.356 Y9.071 Z-0.474
X-11.317 Y9.057 Z-0.477
X-11.237 Y9.033 Z-0.483
X-11.197 Y9.025 Z-0.486
X-11.158 Y9.017 Z-0.489
X-11.078 Y9.008 Z-0.494
X-11.038 Y9.006 Z-0.497
X-10.998 Y9.005 Z-0.5
X-10.918 Y9.008 F400.
X-10.839 Y9.018
X-10.799 Y9.025
X-10.759 Y9.034
X-10.679 Y9.058
X-10.642 Y9.072
X-10.604 Y9.087
X-10.52 Y9.128
X-10.48 Y9.152
X-10.44 Y9.177
X-10.4 Y9.206
X-10.36 Y9.237
X-10.35 Y9.246
X-10.309 Y9.284
X-10.268 Y9.326
X-10.233 Y9.366
X-10.202 Y9.406
X-10.201 Y9.407
X-10.148 Y9.486
X-10.125 Y9.525
X-10.105 Y9.565
X-10.087 Y9.605
X-10.07 Y9.645
X-10.044 Y9.724
X-10.042 Y9.732
X-10.032 Y9.77
X-10.023 Y9.808
X-10.012 Y9.884
X-10.005 Y9.963
Y10.003
X-10.006 Y10.043
X-10.012 Y10.123
X-10.018 Y10.163
X-10.025 Y10.202
X-10.042 Y10.268
X-10.056 Y10.315
X-10.073 Y10.362
X-10.108 Y10.442
X-10.129 Y10.481
X-10.152 Y10.521
X-10.201 Y10.593
X-10.235 Y10.637
X-10.274 Y10.681
X-10.317 Y10.724
X-10.36 Y10.763
X-10.413 Y10.804
X-10.44 Y10.822
X-10.466 Y10.84
X-10.52 Y10.872
X-10.6 Y10.911
X-10.639 Y10.927
X-10.679 Y10.942
X-10.759 Y10.966
X-10.799 Y10.975
X-10.839 Y10.982
X-10.918 Y10.992
X-10.998 Y10.995
X-11.038 Y10.994
X-11.078 Y10.992
X-11.158 Y10.983
X-11.197 Y10.975
X-11.237 Y10.967
X-11.317 Y10.943
X-11.357 Y10.929
X-11.397 Y10.913
X-11.476 Y10.874
X-11.534 Y10.84
X-11.585 Y10.806
X-11.61 Y10.786
X-11.636 Y10.766
X-11.681 Y10.726
X-11.726 Y10.681
X-11.762 Y10.64
X-11.795 Y10.599
X-11.848 Y10.521
X-11.871 Y10.481
X-11.892 Y10.442
X-11.927 Y10.362
X-11.942 Y10.322
X-11.955 Y10.281
X-11.975 Y10.202
X-11.982 Y10.163
X-11.988 Y10.123
X-11.994 Y10.043
X-11.995 Y10.003
Y9.963
X-11.988 Y9.884
X-11.976 Y9.804
X-11.967 Y9.764
X-11.956 Y9.724
X-11.955 Y9.719
X-11.929 Y9.642
X-11.913 Y9.603
X-11.895 Y9.565
X-11.875 Y9.525
X-11.852 Y9.485
X-11.798 Y9.406
X-11.795 Y9.401
X-11.764 Y9.363
X-11.73 Y9.324
X-11.69 Y9.283
X-11.65 Y9.246
X-11.636 Y9.234
X-11.596 Y9.203
X-11.556 Y9.175
X-11.516 Y9.149
X-11.476 Y9.126
X-11.396 Y9.087
X-11.356 Y9.071
X-11.317 Y9.057
X-11.237 Y9.033
X-11.197 Y9.025
X-11.158 Y9.017
X-11.078 Y9.008
X-11.038 Y9.006
X-10.998 Y9.005
X-10.918 Y9.008 Z-0.506 F200.
X-10.839 Y9.018 Z-0.511
X-10.799 Y9.025 Z-0.514
X-10.759 Y9.034 Z-0.517
X-10.679 Y9.058 Z-0.523
X-10.642 Y9.072 Z-0.525
X-10.604 Y9.087 Z-0.528
X-10.52 Y9.128 Z-0.535
X-10.48 Y9.152 Z-0.538
X-10.44 Y9.177 Z-0.541
X-10.4 Y9.206 Z-0.545
X-10.36 Y9.237 Z-0.548
X-10.35 Y9.246 Z-0.549
X-10.309 Y9.284 Z-0.553
X-10.268 Y9.326 Z-0.557
X-10.233 Y9.366 Z-0.561
X-10.202 Y9.406 Z-0.565
X-10.201 Y9.407
X-10.148 Y9.486 Z-0.571
X-10.125 Y9.525 Z-0.575
X-10.105 Y9.565 Z-0.578
X-10.087 Y9.605 Z-0.581
X-10.07 Y9.645 Z-0.584
X-10.044 Y9.724 Z-0.59
X-10.042 Y9.732
X-10.032 Y9.77 Z-0.593
X-10.023 Y9.808 Z-0.596
X-10.012 Y9.884 Z-0.601
X-10.005 Y9.963 Z-0.607
Y10.003 Z-0.609
X-10.006 Y10.043 Z-0.612
X-10.012 Y10.123 Z-0.618
X-10.018 Y10.163 Z-0.621
X-10.025 Y10.202 Z-0.623
X-10.042 Y10.268 Z-0.628
X-10.056 Y10.315 Z-0.632
X-10.073 Y10.362 Z-0.635
X-10.108 Y10.442 Z-0.641
X-10.129 Y10.481 Z-0.644
X-10.152 Y10.521 Z-0.648
X-10.201 Y10.593 Z-0.654
X-10.235 Y10.637 Z-0.657
X-10.274 Y10.681 Z-0.662
X-10.317 Y10.724 Z-0.666
X-10.36 Y10.763 Z-0.67
X-10.413 Y10.804 Z-0.675
X-10.44 Y10.822 Z-0.677
X-10.466 Y10.84 Z-0.679
X-10.52 Y10.872 Z-0.683
X-10.6 Y10.911 Z-0.69
X-10.639 Y10.927 Z-0.693
X-10.679 Y10.942 Z-0.696
X-10.759 Y10.966 Z-0.701
X-10.799 Y10.975 Z-0.704
X-10.839 Y10.982 Z-0.707
X-10.918 Y10.992 Z-0.713
X-10.998 Y10.995 Z-0.718
X-11.038 Y10.994 Z-0.721
X-11.078 Y10.992 Z-0.724
X-11.158 Y10.983 Z-0.73
X-11.197 Y10.975 Z-0.732
X-11.237 Y10.967 Z-0.735
X-11.317 Y10.943 Z-0.741
X-11.357 Y10.929 Z-0.744
X-11.397 Y10.913 Z-0.747
X-11.476 Y10.874 Z-0.753
X-11.534 Y10.84 Z-0.758
X-11.585 Y10.806 Z-0.762
X-11.61 Y10.786 Z-0.764
X-11.636 Y10.766 Z-0.767
X-11.681 Y10.726 Z-0.771
X-11.726 Y10.681 Z-0.775
X-11.762 Y10.64 Z-0.779
X-11.795 Y10.599 Z-0.783
X-11.848 Y10.521 Z-0.789
X-11.871 Y10.481 Z-0.793
X-11.892 Y10.442 Z-0.796
X-11.927 Y10.362 Z-0.802
X-11.942 Y10.322 Z-0.805
X-11.955 Y10.281 Z-0.808
X-11.975 Y10.202 Z-0.814
X-11.982 Y10.163 Z-0.816
X-11.988 Y10.123 Z-0.819
X-11.994 Y10.043 Z-0.825
X-11.995 Y10.003 Z-0.828
Y9.963 Z-0.83
X-11.988 Y9.884 Z-0.836
X-11.976 Y9.804 Z-0.842
X-11.967 Y9.764 Z-0.844
X-11.956 Y9.724 Z-0.847
X-11.955 Y9.719 Z-0.848
X-11.929 Y9.642 Z-0.853
X-11.913 Y9.603 Z-0.856
X-11.895 Y9.565 Z-0.859
X-11.875 Y9.525 Z-0.862
X-11.852 Y9.485 Z-0.866
X-11.798 Y9.406 Z-0.872
X-11.795 Y9.401 Z-0.873
X-11.764 Y9.363 Z-0.876
X-11.73 Y9.324 Z-0.88
X-11.69 Y9.283 Z-0.884
X-11.65 Y9.246 Z-0.888
X-11.636 Y9.234 Z-0.889
X-11.596 Y9.203 Z-0.892
X-11.556 Y9.175 Z-0.896
X-11.516 Y9.149 Z-0.899
X-11.476 Y9.126 Z-0.902
X-11.396 Y9.087 Z-0.909
X-11.356 Y9.071 Z-0.912
X-11.317 Y9.057 Z-0.915
X-11.237 Y9.033 Z-0.92
X-11.197 Y9.025 Z-0.923
X-11.158 Y9.017 Z-0.926
X-11.078 Y9.008 Z-0.932
X-11.038 Y9.006 Z-0.934
X-10.998 Y9.005 Z-0.937
X-10.918 Y9.008 Z-0.943
X-10.839 Y9.018 Z-0.948
X-10.799 Y9.025 Z-0.951
X-10.759 Y9.034 Z-0.954
X-10.679 Y9.058 Z-0.96
X-10.642 Y9.072 Z-0.963
X-10.604 Y9.087 Z-0.965
X-10.52 Y9.128 Z-0.972
X-10.48 Y9.152 Z-0.975
X-10.44 Y9.177 Z-0.979
X-10.4 Y9.206 Z-0.982
X-10.36 Y9.237 Z-0.986
X-10.35 Y9.246 Z-0.987
X-10.309 Y9.284 Z-0.99
X-10.268 Y9.326 Z-0.995
X-10.233 Y9.366 Z-0.998
X-10.218 Y9.385 Z-1.
X-10.202 Y9.406 F400.
X-10.201 Y9.407
X-10.148 Y9.486
X-10.125 Y9.525
X-10.105 Y9.565
X-10.087 Y9.605
X-10.07 Y9.645
X-10.044 Y9.724
X-10.042 Y9.732
X-10.032 Y9.77
X-10.023 Y9.808
X-10.012 Y9.884
X-10.005 Y9.963
Y10.003
X-10.006 Y10.043
X-10.012 Y10.123
X-10.018 Y10.163
X-10.025 Y10.202
X-10.042 Y10.268
X-10.056 Y10.315
X-10.073 Y10.362
X-10.108 Y10.442
X-10.129 Y10.481
X-10.152 Y10.521
X-10.201 Y10.593
X-10.235 Y10.637
X-10.274 Y10.681
X-10.317 Y10.724
X-10.36 Y10.763
X-10.413 Y10.804
X-10.44 Y10.822
X-10.466 Y10.84
X-10.52 Y10.872
X-10.6 Y10.911
X-10.639 Y10.927
X-10.679 Y10.942
X-10.759 Y10.966
X-10.799 Y10.975
X-10.839 Y10.982
X-10.918 Y10.992
X-10.998 Y10.995
X-11.038 Y10.994
X-11.078 Y10.992
X-11.158 Y10.983
X-11.197 Y10.975
X-11.237 Y10.967
X-11.317 Y10.943
X-11.357 Y10.929
X-11.397 Y10.913
X-11.476 Y10.874
X-11.534 Y10.84
X-11.585 Y10.806
X-11.61 Y10.786
X-11.636 Y10.766
X-11.681 Y10.726
X-11.726 Y10.681
X-11.762 Y10.64
X-11.795 Y10.599
X-11.848 Y10.521
X-11.871 Y10.481
X-11.892 Y10.442
X-11.927 Y10.362
X-11.942 Y10.322
X-11.955 Y10.281
X-11.975 Y10.202
X-11.982 Y10.163
X-11.988 Y10.123
X-11.994 Y10.043
X-11.995 Y10.003
Y9.963
X-11.988 Y9.884
X-11.976 Y9.804
X-11.967 Y9.764
X-11.956 Y9.724
X-11.955 Y9.719
X-11.929 Y9.642
X-11.913 Y9.603
X-11.895 Y9.565
X-11.875 Y9.525
X-11.852 Y9.485
X-11.798 Y9.406
X-11.795 Y9.401
X-11.764 Y9.363
X-11.73 Y9.324
X-11.69 Y9.283
X-11.65 Y9.246
X-11.636 Y9.234
X-11.596 Y9.203
X-11.556 Y9.175
X-11.516 Y9.149
X-11.476 Y9.126
X-11.396 Y9.087
X-11.356 Y9.071
X-11.317 Y9.057
X-11.237 Y9.033
X-11.197 Y9.025
X-11.158 Y9.017
X-11.078 Y9.008
X-11.038 Y9.006
X-10.998 Y9.005
X-10.918 Y9.008
X-10.839 Y9.018
X-10.799 Y9.025
X-10.759 Y9.034
X-10.679 Y9.058
X-10.642 Y9.072
X-10.604 Y9.087
X-10.52 Y9.128
X-10.48 Y9.152
X-10.44 Y9.177
X-10.4 Y9.206
X-10.36 Y9.237
X-10.35 Y9.246
X-10.309 Y9.284
X-10.268 Y9.326
X-10.233 Y9.366
X-10.218 Y9.385
X-10.202 Y9.406 Z-1.002 F200.
X-10.201 Y9.407
X-10.148 Y9.486 Z-1.009
X-10.125 Y9.525 Z-1.012
X-10.105 Y9.565 Z-1.015
X-10.087 Y9.605 Z-1.018
X-10.07 Y9.645 Z-1.021
X-10.044 Y9.724 Z-1.027
X-10.042 Y9.732
X-10.032 Y9.77 Z-1.03
X-10.023 Y9.808 Z-1.033
X-10.012 Y9.884 Z-1.038
X-10.005 Y9.963 Z-1.044
Y10.003 Z-1.047
X-10.006 Y10.043 Z-1.049
X-10.012 Y10.123 Z-1.055
X-10.018 Y10.163 Z-1.058
X-10.025 Y10.202 Z-1.061
X-10.042 Y10.268 Z-1.065
X-10.056 Y10.315 Z-1.069
X-10.073 Y10.362 Z-1.072
X-10.108 Y10.442 Z-1.078
X-10.129 Y10.481 Z-1.081
X-10.152 Y10.521 Z-1.085
X-10.201 Y10.593 Z-1.091
X-10.235 Y10.637 Z-1.095
X-10.274 Y10.681 Z-1.099
X-10.317 Y10.724 Z-1.103
X-10.36 Y10.763 Z-1.107
X-10.413 Y10.804 Z-1.112
X-10.44 Y10.822 Z-1.114
X-10.466 Y10.84 Z-1.116
X-10.52 Y10.872 Z-1.121
X-10.6 Y10.911 Z-1.127
X-10.639 Y10.927 Z-1.13
X-10.679 Y10.942 Z-1.133
X-10.759 Y10.966 Z-1.139
X-10.799 Y10.975 Z-1.141
X-10.839 Y10.982 Z-1.144
X-10.918 Y10.992 Z-1.15
X-10.998 Y10.995 Z-1.156
X-11.038 Y10.994 Z-1.158
X-11.078 Y10.992 Z-1.161
X-11.158 Y10.983 Z-1.167
X-11.197 Y10.975 Z-1.17
X-11.237 Y10.967 Z-1.172
X-11.317 Y10.943 Z-1.178
X-11.357 Y10.929 Z-1.181
X-11.397 Y10.913 Z-1.184
X-11.476 Y10.874 Z-1.19
X-11.534 Y10.84 Z-1.195
X-11.585 Y10.806 Z-1.199
X-11.61 Y10.786 Z-1.202
X-11.636 Y10.766 Z-1.204
X-11.681 Y10.726 Z-1.208
X-11.726 Y10.681 Z-1.213
X-11.762 Y10.64 Z-1.216
X-11.795 Y10.599 Z-1.22
X-11.848 Y10.521 Z-1.227
X-11.871 Y10.481 Z-1.23
X-11.892 Y10.442 Z-1.233
X-11.927 Y10.362 Z-1.239
X-11.942 Y10.322 Z-1.242
X-11.955 Y10.281 Z-1.245
X-11.975 Y10.202 Z-1.251
X-11.982 Y10.163 Z-1.254
X-11.988 Y10.123 Z-1.256
X-11.994 Y10.043 Z-1.262
X-11.995 Y10.003 Z-1.265
Y9.963 Z-1.268
X-11.988 Y9.884 Z-1.273
X-11.976 Y9.804 Z-1.279
X-11.967 Y9.764 Z-1.282
X-11.956 Y9.724 Z-1.284
X-11.955 Y9.719 Z-1.285
X-11.929 Y9.642 Z-1.291
X-11.913 Y9.603 Z-1.293
X-11.895 Y9.565 Z-1.296
X-11.875 Y9.525 Z-1.3
X-11.852 Y9.485 Z-1.303
X-11.798 Y9.406 Z-1.309
X-11.795 Y9.401 Z-1.31
X-11.764 Y9.363 Z-1.313
X-11.73 Y9.324 Z-1.317
X-11.69 Y9.283 Z-1.321
X-11.65 Y9.246 Z-1.325
X-11.636 Y9.234 Z-1.326
X-11.596 Y9.203 Z-1.33
X-11.556 Y9.175 Z-1.333
X-11.516 Y9.149 Z-1.336
X-11.476 Y9.126 Z-1.34
X-11.396 Y9.087 Z-1.346
X-11.356 Y9.071 Z-1.349
X-11.317 Y9.057 Z-1.352
X-11.237 Y9.033 Z-1.357
X-11.197 Y9.025 Z-1.36
X-11.158 Y9.017 Z-1.363
X-11.078 Y9.008 Z-1.369
X-11.038 Y9.006 Z-1.372
X-10.998 Y9.005 Z-1.374
X-10.918 Y9.008 Z-1.38
X-10.839 Y9.018 Z-1.386
X-10.799 Y9.025 Z-1.388
X-10.759 Y9.034 Z-1.391
X-10.679 Y9.058 Z-1.397
X-10.642 Y9.072 Z-1.4
X-10.604 Y9.087 Z-1.403
X-10.52 Y9.128 Z-1.409
X-10.48 Y9.152 Z-1.412
X-10.44 Y9.177 Z-1.416
X-10.4 Y9.206 Z-1.419
X-10.36 Y9.237 Z-1.423
X-10.35 Y9.246 Z-1.424
X-10.309 Y9.284 Z-1.428
X-10.268 Y9.326 Z-1.432
X-10.233 Y9.366 Z-1.435
X-10.202 Y9.406 Z-1.439
X-10.201 Y9.407
X-10.148 Y9.486 Z-1.446
X-10.125 Y9.525 Z-1.449
X-10.105 Y9.565 Z-1.452
X-10.087 Y9.605 Z-1.455
X-10.07 Y9.645 Z-1.458
X-10.044 Y9.724 Z-1.464
X-10.042 Y9.732 Z-1.465
X-10.032 Y9.77 Z-1.467
X-10.023 Y9.808 Z-1.47
X-10.012 Y9.884 Z-1.475
X-10.005 Y9.963 Z-1.481
Y10.003 Z-1.484
X-10.006 Y10.043 Z-1.487
X-10.012 Y10.123 Z-1.492
X-10.018 Y10.163 Z-1.495
X-10.025 Y10.202 Z-1.498
X-10.033 Y10.233 Z-1.5
X-10.042 Y10.268 F400.
X-10.056 Y10.315
X-10.073 Y10.362
X-10.108 Y10.442
X-10.129 Y10.481
X-10.152 Y10.521
X-10.201 Y10.593
X-10.235 Y10.637
X-10.274 Y10.681
X-10.317 Y10.724
X-10.36 Y10.763
X-10.413 Y10.804
X-10.44 Y10.822
X-10.466 Y10.84
X-10.52 Y10.872
X-10.6 Y10.911
X-10.639 Y10.927
X-10.679 Y10.942
X-10.759 Y10.966
X-10.799 Y10.975
X-10.839 Y10.982
X-10.918 Y10.992
X-10.998 Y10.995
X-11.038 Y10.994
X-11.078 Y10.992
X-11.158 Y10.983
X-11.197 Y10.975
X-11.237 Y10.967
X-11.317 Y10.943
X-11.357 Y10.929
X-11.397 Y10.913
X-11.476 Y10.874
X-11.534 Y10.84
X-11.585 Y10.806
X-11.61 Y10.786
X-11.636 Y10.766
X-11.681 Y10.726
X-11.726 Y10.681
X-11.762 Y10.64
X-11.795 Y10.599
X-11.848 Y10.521
X-11.871 Y10.481
X-11.892 Y10.442
X-11.927 Y10.362
X-11.942 Y10.322
X-11.955 Y10.281
X-11.975 Y10.202
X-11.982 Y10.163
X-11.988 Y10.123
X-11.994 Y10.043
X-11.995 Y10.003
Y9.963
X-11.988 Y9.884
X-11.976 Y9.804
X-11.967 Y9.764
X-11.956 Y9.724
X-11.955 Y9.719
X-11.929 Y9.642
X-11.913 Y9.603
X-11.895 Y9.565
X-11.875 Y9.525
X-11.852 Y9.485
X-11.798 Y9.406
X-11.795 Y9.401
X-11.764 Y9.363
X-11.73 Y9.324
X-11.69 Y9.283
X-11.65 Y9.246
X-11.636 Y9.234
X-11.596 Y9.203
X-11.556 Y9.175
X-11.516 Y9.149
X-11.476 Y9.126
X-11.396 Y9.087
X-11.356 Y9.071
X-11.317 Y9.057
X-11.237 Y9.033
X-11.197 Y9.025
X-11.158 Y9.017
X-11.078 Y9.008
X-11.038 Y9.006
X-10.998 Y9.005
X-10.918 Y9.008
X-10.839 Y9.018
X-10.799 Y9.025
X-10.759 Y9.034
X-10.679 Y9.058
X-10.642 Y9.072
X-10.604 Y9.087
X-10.52 Y9.128
X-10.48 Y9.152
X-10.44 Y9.177
X-10.4 Y9.206
X-10.36 Y9.237
X-10.35 Y9.246
X-10.309 Y9.284
X-10.268 Y9.326
X-10.233 Y9.366
X-10.202 Y9.406
X-10.201 Y9.407
X-10.148 Y9.486
X-10.125 Y9.525
X-10.105 Y9.565
X-10.087 Y9.605
X-10.07 Y9.645
X-10.044 Y9.724
X-10.042 Y9.732
X-10.032 Y9.77
X-10.023 Y9.808
X-10.012 Y9.884
X-10.005 Y9.963
Y10.003
X-10.006 Y10.043
X-10.012 Y10.123
X-10.018 Y10.163
X-10.025 Y10.202
X-10.033 Y10.233
X-10.042 Y10.268 Z-1.503 F200.
X-10.056 Y10.315 Z-1.506
X-10.073 Y10.362 Z-1.509
X-10.108 Y10.442 Z-1.516
X-10.129 Y10.481 Z-1.519
X-10.152 Y10.521 Z-1.522
X-10.201 Y10.593 Z-1.528
X-10.235 Y10.637 Z-1.532
X-10.274 Y10.681 Z-1.536
X-10.317 Y10.724 Z-1.54
X-10.36 Y10.763 Z-1.544
X-10.413 Y10.804 Z-1.549
X-10.44 Y10.822 Z-1.551
X-10.466 Y10.84 Z-1.553
X-10.52 Y10.872 Z-1.558
X-10.6 Y10.911 Z-1.564
X-10.639 Y10.927 Z-1.567
X-10.679 Y10.942 Z-1.57
X-10.759 Y10.966 Z-1.576
X-10.799 Y10.975 Z-1.579
X-10.839 Y10.982 Z-1.582
X-10.918 Y10.992 Z-1.587
X-10.998 Y10.995 Z-1.593
X-11.038 Y10.994 Z-1.595
X-11.078 Y10.992 Z-1.598
X-11.158 Y10.983 Z-1.604
X-11.197 Y10.975 Z-1.607
X-11.237 Y10.967 Z-1.61
X-11.317 Y10.943 Z-1.615
X-11.357 Y10.929 Z-1.618
X-11.397 Y10.913 Z-1.621
X-11.476 Y10.874 Z-1.628
X-11.534 Y10.84 Z-1.632
X-11.585 Y10.806 Z-1.637
X-11.61 Y10.786 Z-1.639
X-11.636 Y10.766 Z-1.641
X-11.681 Y10.726 Z-1.645
X-11.726 Y10.681 Z-1.65
X-11.762 Y10.64 Z-1.654
X-11.795 Y10.599 Z-1.657
X-11.848 Y10.521 Z-1.664
X-11.871 Y10.481 Z-1.667
X-11.892 Y10.442 Z-1.67
X-11.927 Y10.362 Z-1.676
X-11.942 Y10.322 Z-1.679
X-11.955 Y10.281 Z-1.682
X-11.975 Y10.202 Z-1.688
X-11.982 Y10.163 Z-1.691
X-11.988 Y10.123 Z-1.694
X-11.994 Y10.043 Z-1.699
X-11.995 Y10.003 Z-1.702
Y9.963 Z-1.705
X-11.988 Y9.884 Z-1.71
X-11.976 Y9.804 Z-1.716
X-11.967 Y9.764 Z-1.719
X-11.956 Y9.724 Z-1.722
X-11.955 Y9.719
X-11.929 Y9.642 Z-1.728
X-11.913 Y9.603 Z-1.731
X-11.895 Y9.565 Z-1.734
X-11.875 Y9.525 Z-1.737
X-11.852 Y9.485 Z-1.74
X-11.798 Y9.406 Z-1.747
X-11.795 Y9.401
X-11.764 Y9.363 Z-1.751
X-11.73 Y9.324 Z-1.754
X-11.69 Y9.283 Z-1.758
X-11.65 Y9.246 Z-1.762
X-11.636 Y9.234 Z-1.763
X-11.596 Y9.203 Z-1.767
X-11.556 Y9.175 Z-1.77
X-11.516 Y9.149 Z-1.773
X-11.476 Y9.126 Z-1.777
X-11.396 Y9.087 Z-1.783
X-11.356 Y9.071 Z-1.786
X-11.317 Y9.057 Z-1.789
X-11.237 Y9.033 Z-1.795
X-11.197 Y9.025 Z-1.798
X-11.158 Y9.017 Z-1.8
X-11.078 Y9.008 Z-1.806
X-11.038 Y9.006 Z-1.809
X-10.998 Y9.005 Z-1.812
X-10.918 Y9.008 Z-1.817
X-10.839 Y9.018 Z-1.823
X-10.799 Y9.025 Z-1.826
X-10.759 Y9.034 Z-1.828
X-10.679 Y9.058 Z-1.834
X-10.642 Y9.072 Z-1.837
X-10.604 Y9.087 Z-1.84
X-10.52 Y9.128 Z-1.846
X-10.48 Y9.152 Z-1.85
X-10.44 Y9.177 Z-1.853
X-10.4 Y9.206 Z-1.856
X-10.36 Y9.237 Z-1.86
X-10.35 Y9.246 Z-1.861
X-10.309 Y9.284 Z-1.865
X-10.268 Y9.326 Z-1.869
X-10.233 Y9.366 Z-1.873
X-10.202 Y9.406 Z-1.876
X-10.201 Y9.407
X-10.148 Y9.486 Z-1.883
X-10.125 Y9.525 Z-1.886
X-10.105 Y9.565 Z-1.889
X-10.087 Y9.605 Z-1.892
X-10.07 Y9.645 Z-1.895
X-10.044 Y9.724 Z-1.901
X-10.042 Y9.732 Z-1.902
X-10.032 Y9.77 Z-1.904
X-10.023 Y9.808 Z-1.907
X-10.012 Y9.884 Z-1.913
X-10.005 Y9.963 Z-1.918
Y10.003 Z-1.921
X-10.006 Y10.043 Z-1.924
X-10.012 Y10.123 Z-1.929
X-10.018 Y10.163 Z-1.932
X-10.025 Y10.202 Z-1.935
X-10.042 Y10.268 Z-1.94
X-10.056 Y10.315 Z-1.943
X-10.073 Y10.362 Z-1.947
X-10.108 Y10.442 Z-1.953
X-10.129 Y10.481 Z-1.956
X-10.152 Y10.521 Z-1.959
X-10.201 Y10.593 Z-1.965
X-10.235 Y10.637 Z-1.969
X-10.274 Y10.681 Z-1.973
X-10.317 Y10.724 Z-1.977
X-10.36 Y10.763 Z-1.981
X-10.413 Y10.804 Z-1.986
X-10.44 Y10.822 Z-1.988
X-10.466 Y10.84 Z-1.991
X-10.52 Y10.872 Z-1.995
X-10.584 Y10.903 Z-2.
X-10.6 Y10.911 F400.
X-10.639 Y10.927
X-10.679 Y10.942
X-10.759 Y10.966
X-10.799 Y10.975
X-10.839 Y10.982
X-10.918 Y10.992
X-10.998 Y10.995
X-11.038 Y10.994
X-11.078 Y10.992
X-11.158 Y10.983
X-11.197 Y10.975
X-11.237 Y10.967
X-11.317 Y10.943
X-11.357 Y10.929
X-11.397 Y10.913
X-11.476 Y10.874
X-11.534 Y10.84
X-11.585 Y10.806
X-11.61 Y10.786
X-11.636 Y10.766
X-11.681 Y10.726
X-11.726 Y10.681
X-11.762 Y10.64
X-11.795 Y10.599
X-11.848 Y10.521
X-11.871 Y10.481
X-11.892 Y10.442
X-11.927 Y10.362
X-11.942 Y10.322
X-11.955 Y10.281
X-11.975 Y10.202
X-11.982 Y10.163
X-11.988 Y10.123
X-11.994 Y10.043
X-11.995 Y10.003
Y9.963
X-11.988 Y9.884
X-11.976 Y9.804
X-11.967 Y9.764
X-11.956 Y9.724
X-11.955 Y9.719
X-11.929 Y9.642
X-11.913 Y9.603
X-11.895 Y9.565
X-11.875 Y9.525
X-11.852 Y9.485
X-11.798 Y9.406
X-11.795 Y9.401
X-11.764 Y9.363
X-11.73 Y9.324
X-11.69 Y9.283
X-11.65 Y9.246
X-11.636 Y9.234
X-11.596 Y9.203
X-11.556 Y9.175
X-11.516 Y9.149
X-11.476 Y9.126
X-11.396 Y9.087
X-11.356 Y9.071
X-11.317 Y9.057
X-11.237 Y9.033
X-11.197 Y9.025
X-11.158 Y9.017
X-11.078 Y9.008
X-11.038 Y9.006
X-10.998 Y9.005
X-10.918 Y9.008
X-10.839 Y9.018
X-10.799 Y9.025
X-10.759 Y9.034
X-10.679 Y9.058
X-10.642 Y9.072
X-10.604 Y9.087
X-10.52 Y9.128
X-10.48 Y9.152
X-10.44 Y9.177
X-10.4 Y9.206
X-10.36 Y9.237
X-10.35 Y9.246
X-10.309 Y9.284
X-10.268 Y9.326
X-10.233 Y9.366
X-10.202 Y9.406
X-10.201 Y9.407
X-10.148 Y9.486
X-10.125 Y9.525
X-10.105 Y9.565
X-10.087 Y9.605
X-10.07 Y9.645
X-10.044 Y9.724
X-10.042 Y9.732
X-10.032 Y9.77
X-10.023 Y9.808
X-10.012 Y9.884
X-10.005 Y9.963
Y10.003
X-10.006 Y10.043
X-10.012 Y10.123
X-10.018 Y10.163
X-10.025 Y10.202
X-10.042 Y10.268
X-10.056 Y10.315
X-10.073 Y10.362
X-10.108 Y10.442
X-10.129 Y10.481
X-10.152 Y10.521
X-10.201 Y10.593
X-10.235 Y10.637
X-10.274 Y10.681
X-10.317 Y10.724
X-10.36 Y10.763
X-10.413 Y10.804
X-10.44 Y10.822
X-10.466 Y10.84
X-10.52 Y10.872
X-10.584 Y10.903
X-10.6 Y10.911 Z-2.001 F200.
X-10.639 Y10.927 Z-2.004
X-10.679 Y10.942 Z-2.007
X-10.759 Y10.966 Z-2.013
X-10.799 Y10.975 Z-2.016
X-10.839 Y10.982 Z-2.019
X-10.918 Y10.992 Z-2.024
X-10.998 Y10.995 Z-2.03
X-11.038 Y10.994 Z-2.033
X-11.078 Y10.992 Z-2.035
X-11.158 Y10.983 Z-2.041
X-11.197 Y10.975 Z-2.044
X-11.237 Y10.967 Z-2.047
X-11.317 Y10.943 Z-2.053
X-11.357 Y10.929 Z-2.056
X-11.397 Y10.913 Z-2.059
X-11.476 Y10.874 Z-2.065
X-11.534 Y10.84 Z-2.069
X-11.585 Y10.806 Z-2.074
X-11.61 Y10.786 Z-2.076
X-11.636 Y10.766 Z-2.078
X-11.681 Y10.726 Z-2.082
X-11.726 Y10.681 Z-2.087
X-11.762 Y10.64 Z-2.091
X-11.795 Y10.599 Z-2.094
X-11.848 Y10.521 Z-2.101
X-11.871 Y10.481 Z-2.104
X-11.892 Y10.442 Z-2.107
X-11.927 Y10.362 Z-2.113
X-11.942 Y10.322 Z-2.116
X-11.955 Y10.281 Z-2.119
X-11.975 Y10.202 Z-2.125
X-11.982 Y10.163 Z-2.128
X-11.988 Y10.123 Z-2.131
X-11.994 Y10.043 Z-2.136
X-11.995 Y10.003 Z-2.139
Y9.963 Z-2.142
X-11.988 Y9.884 Z-2.147
X-11.976 Y9.804 Z-2.153
X-11.967 Y9.764 Z-2.156
X-11.956 Y9.724 Z-2.159
X-11.955 Y9.719
X-11.929 Y9.642 Z-2.165
X-11.913 Y9.603 Z-2.168
X-11.895 Y9.565 Z-2.171
X-11.875 Y9.525 Z-2.174
X-11.852 Y9.485 Z-2.177
X-11.798 Y9.406 Z-2.184
X-11.795 Y9.401
X-11.764 Y9.363 Z-2.188
X-11.73 Y9.324 Z-2.191
X-11.69 Y9.283 Z-2.195
X-11.65 Y9.246 Z-2.199
X-11.636 Y9.234 Z-2.2
X-11.596 Y9.203 Z-2.204
X-11.556 Y9.175 Z-2.207
X-11.516 Y9.149 Z-2.211
X-11.476 Y9.126 Z-2.214
X-11.396 Y9.087 Z-2.22
X-11.356 Y9.071 Z-2.223
X-11.317 Y9.057 Z-2.226
X-11.237 Y9.033 Z-2.232
X-11.197 Y9.025 Z-2.235
X-11.158 Y9.017 Z-2.238
X-11.078 Y9.008 Z-2.243
X-11.038 Y9.006 Z-2.246
X-10.998 Y9.005 Z-2.249
X-10.918 Y9.008 Z-2.254
X-10.839 Y9.018 Z-2.26
X-10.799 Y9.025 Z-2.263
X-10.759 Y9.034 Z-2.266
X-10.679 Y9.058 Z-2.271
X-10.642 Y9.072 Z-2.274
X-10.604 Y9.087 Z-2.277
X-10.52 Y9.128 Z-2.284
X-10.48 Y9.152 Z-2.287
X-10.44 Y9.177 Z-2.29
X-10.4 Y9.206 Z-2.294
X-10.36 Y9.237 Z-2.297
X-10.35 Y9.246 Z-2.298
X-10.309 Y9.284 Z-2.302
X-10.268 Y9.326 Z-2.306
X-10.233 Y9.366 Z-2.31
X-10.202 Y9.406 Z-2.313
X-10.201 Y9.407
X-10.148 Y9.486 Z-2.32
X-10.125 Y9.525 Z-2.323
X-10.105 Y9.565 Z-2.326
X-10.087 Y9.605 Z-2.329
X-10.07 Y9.645 Z-2.333
X-10.044 Y9.724 Z-2.338
X-10.042 Y9.732 Z-2.339
X-10.032 Y9.77 Z-2.342
X-10.023 Y9.808 Z-2.344
X-10.012 Y9.884 Z-2.35
X-10.005 Y9.963 Z-2.355
Y10.003 Z-2.358
X-10.006 Y10.043 Z-2.361
X-10.012 Y10.123 Z-2.367
X-10.018 Y10.163 Z-2.369
X-10.025 Y10.202 Z-2.372
X-10.042 Y10.268 Z-2.377
X-10.056 Y10.315 Z-2.38
X-10.073 Y10.362 Z-2.384
X-10.108 Y10.442 Z-2.39
X-10.129 Y10.481 Z-2.393
X-10.152 Y10.521 Z-2.396
X-10.201 Y10.593 Z-2.402
X-10.235 Y10.637 Z-2.406
X-10.274 Y10.681 Z-2.41
X-10.317 Y10.724 Z-2.415
X-10.36 Y10.763 Z-2.419
X-10.413 Y10.804 Z-2.423
X-10.44 Y10.822 Z-2.426
X-10.466 Y10.84 Z-2.428
X-10.52 Y10.872 Z-2.432
X-10.6 Y10.911 Z-2.438
X-10.639 Y10.927 Z-2.441
X-10.679 Y10.942 Z-2.444
X-10.759 Y10.966 Z-2.45
X-10.799 Y10.975 Z-2.453
X-10.839 Y10.982 Z-2.456
X-10.918 Y10.992 Z-2.462
X-10.998 Y10.995 Z-2.467
X-11.038 Y10.994 Z-2.47
X-11.078 Y10.992 Z-2.473
X-11.158 Y10.983 Z-2.478
X-11.197 Y10.975 Z-2.481
X-11.237 Y10.967 Z-2.484
X-11.317 Y10.943 Z-2.49
X-11.357 Y10.929 Z-2.493
X-11.397 Y10.913 Z-2.496
X-11.451 Y10.886 Z-2.5
X-11.476 Y10.874 F400.
X-11.534 Y10.84
X-11.585 Y10.806
X-11.61 Y10.786
X-11.636 Y10.766
X-11.681 Y10.726
X-11.726 Y10.681
X-11.762 Y10.64
X-11.795 Y10.599
X-11.848 Y10.521
X-11.871 Y10.481
X-11.892 Y10.442
X-11.927 Y10.362
X-11.942 Y10.322
X-11.955 Y10.281
X-11.975 Y10.202
X-11.982 Y10.163
X-11.988 Y10.123
X-11.994 Y10.043
X-11.995 Y10.003
Y9.963
X-11.988 Y9.884
X-11.976 Y9.804
X-11.967 Y9.764
X-11.956 Y9.724
X-11.955 Y9.719
X-11.929 Y9.642
X-11.913 Y9.603
X-11.895 Y9.565
X-11.875 Y9.525
X-11.852 Y9.485
X-11.798 Y9.406
X-11.795 Y9.401
X-11.764 Y9.363
X-11.73 Y9.324
X-11.69 Y9.283
X-11.65 Y9.246
X-11.636 Y9.234
X-11.596 Y9.203
X-11.556 Y9.175
X-11.516 Y9.149
X-11.476 Y9.126
X-11.396 Y9.087
X-11.356 Y9.071
X-11.317 Y9.057
X-11.237 Y9.033
X-11.197 Y9.025
X-11.158 Y9.017
X-11.078 Y9.008
X-11.038 Y9.006
X-10.998 Y9.005
X-10.918 Y9.008
X-10.839 Y9.018
X-10.799 Y9.025
X-10.759 Y9.034
X-10.679 Y9.058
X-10.642 Y9.072
X-10.604 Y9.087
X-10.52 Y9.128
X-10.48 Y9.152
X-10.44 Y9.177
X-10.4 Y9.206
X-10.36 Y9.237
X-10.35 Y9.246
X-10.309 Y9.284
X-10.268 Y9.326
X-10.233 Y9.366
X-10.202 Y9.406
X-10.201 Y9.407
X-10.148 Y9.486
X-10.125 Y9.525
X-10.105 Y9.565
X-10.087 Y9.605
X-10.07 Y9.645
X-10.044 Y9.724
X-10.042 Y9.732
X-10.032 Y9.77
X-10.023 Y9.808
X-10.012 Y9.884
X-10.005 Y9.963
Y10.003
X-10.006 Y10.043
X-10.012 Y10.123
X-10.018 Y10.163
X-10.025 Y10.202
X-10.042 Y10.268
X-10.056 Y10.315
X-10.073 Y10.362
X-10.108 Y10.442
X-10.129 Y10.481
X-10.152 Y10.521
X-10.201 Y10.593
X-10.235 Y10.637
X-10.274 Y10.681
X-10.317 Y10.724
X-10.36 Y10.763
X-10.413 Y10.804
X-10.44 Y10.822
X-10.466 Y10.84
X-10.52 Y10.872
X-10.584 Y10.903
X-10.6 Y10.911
X-10.639 Y10.927
X-10.679 Y10.942
X-10.759 Y10.966
X-10.799 Y10.975
X-10.839 Y10.982
X-10.918 Y10.992
X-10.998 Y10.995
X-11.038 Y10.994
X-11.078 Y10.992
X-11.158 Y10.983
X-11.197 Y10.975
X-11.237 Y10.967
X-11.317 Y10.943
X-11.357 Y10.929
X-11.397 Y10.913
X-11.451 Y10.886
X-11.476 Y10.874 Z-2.502 F200.
X-11.534 Y10.84 Z-2.507
X-11.585 Y10.806 Z-2.511
X-11.61 Y10.786 Z-2.513
X-11.636 Y10.766 Z-2.515
X-11.681 Y10.726 Z-2.52
X-11.726 Y10.681 Z-2.524
X-11.762 Y10.64 Z-2.528
X-11.795 Y10.599 Z-2.532
X-11.848 Y10.521 Z-2.538
X-11.871 Y10.481 Z-2.541
X-11.892 Y10.442 Z-2.545
X-11.927 Y10.362 Z-2.551
X-11.942 Y10.322 Z-2.554
X-11.955 Y10.281 Z-2.557
X-11.975 Y10.202 Z-2.562
X-11.982 Y10.163 Z-2.565
X-11.988 Y10.123 Z-2.568
X-11.994 Y10.043 Z-2.573
X-11.995 Y10.003 Z-2.576
Y9.963 Z-2.579
X-11.988 Y9.884 Z-2.585
X-11.976 Y9.804 Z-2.59
X-11.967 Y9.764 Z-2.593
X-11.956 Y9.724 Z-2.596
X-11.955 Y9.719
X-11.929 Y9.642 Z-2.602
X-11.913 Y9.603 Z-2.605
X-11.895 Y9.565 Z-2.608
X-11.875 Y9.525 Z-2.611
X-11.852 Y9.485 Z-2.614
X-11.798 Y9.406 Z-2.621
X-11.795 Y9.401
X-11.764 Y9.363 Z-2.625
X-11.73 Y9.324 Z-2.629
X-11.69 Y9.283 Z-2.633
X-11.65 Y9.246 Z-2.636
X-11.636 Y9.234 Z-2.638
X-11.596 Y9.203 Z-2.641
X-11.556 Y9.175 Z-2.645
X-11.516 Y9.149 Z-2.648
X-11.476 Y9.126 Z-2.651
X-11.396 Y9.087 Z-2.657
X-11.356 Y9.071 Z-2.66
X-11.317 Y9.057 Z-2.663
X-11.237 Y9.033 Z-2.669
X-11.197 Y9.025 Z-2.672
X-11.158 Y9.017 Z-2.675
X-11.078 Y9.008 Z-2.68
X-11.038 Y9.006 Z-2.683
X-10.998 Y9.005 Z-2.686
X-10.918 Y9.008 Z-2.692
X-10.839 Y9.018 Z-2.697
X-10.799 Y9.025 Z-2.7
X-10.759 Y9.034 Z-2.703
X-10.679 Y9.058 Z-2.709
X-10.642 Y9.072 Z-2.711
X-10.604 Y9.087 Z-2.714
X-10.52 Y9.128 Z-2.721
X-10.48 Y9.152 Z-2.724
X-10.44 Y9.177 Z-2.727
X-10.4 Y9.206 Z-2.731
X-10.36 Y9.237 Z-2.734
X-10.35 Y9.246 Z-2.735
X-10.309 Y9.284 Z-2.739
X-10.268 Y9.326 Z-2.743
X-10.233 Y9.366 Z-2.747
X-10.202 Y9.406 Z-2.751
X-10.201 Y9.407
X-10.148 Y9.486 Z-2.757
X-10.125 Y9.525 Z-2.761
X-10.105 Y9.565 Z-2.764
X-10.087 Y9.605 Z-2.767
X-10.07 Y9.645 Z-2.77
X-10.044 Y9.724 Z-2.776
X-10.042 Y9.732
X-10.032 Y9.77 Z-2.779
X-10.023 Y9.808 Z-2.782
X-10.012 Y9.884 Z-2.787
X-10.005 Y9.963 Z-2.793
Y10.003 Z-2.795
X-10.006 Y10.043 Z-2.798
X-10.012 Y10.123 Z-2.804
X-10.018 Y10.163 Z-2.807
X-10.025 Y10.202 Z-2.809
X-10.042 Y10.268 Z-2.814
X-10.056 Y10.315 Z-2.818
X-10.073 Y10.362 Z-2.821
X-10.108 Y10.442 Z-2.827
X-10.129 Y10.481 Z-2.83
X-10.152 Y10.521 Z-2.833
X-10.201 Y10.593 Z-2.84
X-10.235 Y10.637 Z-2.843
X-10.274 Y10.681 Z-2.848
X-10.317 Y10.724 Z-2.852
X-10.36 Y10.763 Z-2.856
X-10.413 Y10.804 Z-2.861
X-10.44 Y10.822 Z-2.863
X-10.466 Y10.84 Z-2.865
X-10.52 Y10.872 Z-2.869
X-10.6 Y10.911 Z-2.876
X-10.639 Y10.927 Z-2.879
X-10.679 Y10.942 Z-2.882
X-10.759 Y10.966 Z-2.887
X-10.799 Y10.975 Z-2.89
X-10.839 Y10.982 Z-2.893
X-10.918 Y10.992 Z-2.899
X-10.998 Y10.995 Z-2.904
X-11.038 Y10.994 Z-2.907
X-11.078 Y10.992 Z-2.91
X-11.158 Y10.983 Z-2.915
X-11.197 Y10.975 Z-2.918
X-11.237 Y10.967 Z-2.921
X-11.317 Y10.943 Z-2.927
X-11.357 Y10.929 Z-2.93
X-11.397 Y10.913 Z-2.933
X-11.476 Y10.874 Z-2.939
X-11.534 Y10.84 Z-2.944
X-11.585 Y10.806 Z-2.948
X-11.61 Y10.786 Z-2.95
X-11.636 Y10.766 Z-2.953
X-11.681 Y10.726 Z-2.957
X-11.726 Y10.681 Z-2.961
X-11.762 Y10.64 Z-2.965
X-11.795 Y10.599 Z-2.969
X-11.848 Y10.521 Z-2.975
X-11.871 Y10.481 Z-2.979
X-11.892 Y10.442 Z-2.982
X-11.927 Y10.362 Z-2.988
X-11.942 Y10.322 Z-2.991
X-11.955 Y10.281 Z-2.994
X-11.975 Y10.202 Z-2.999
X-11.976 Y10.195 Z-3.
X-11.982 Y10.163 F400.
X-11.988 Y10.123
X-11.994 Y10.043
X-11.995 Y10.003
Y9.963
X-11.988 Y9.884
X-11.976 Y9.804
X-11.967 Y9.764
X-11.956 Y9.724
X-11.955 Y9.719
X-11.929 Y9.642
X-11.913 Y9.603
X-11.895 Y9.565
X-11.875 Y9.525
X-11.852 Y9.485
X-11.798 Y9.406
X-11.795 Y9.401
X-11.764 Y9.363
X-11.73 Y9.324
X-11.69 Y9.283
X-11.65 Y9.246
X-11.636 Y9.234
X-11.596 Y9.203
X-11.556 Y9.175
X-11.516 Y9.149
X-11.476 Y9.126
X-11.396 Y9.087
X-11.356 Y9.071
X-11.317 Y9.057
X-11.237 Y9.033
X-11.197 Y9.025
X-11.158 Y9.017
X-11.078 Y9.008
X-11.038 Y9.006
X-10.998 Y9.005
X-10.918 Y9.008
X-10.839 Y9.018
X-10.799 Y9.025
X-10.759 Y9.034
X-10.679 Y9.058
X-10.642 Y9.072
X-10.604 Y9.087
X-10.52 Y9.128
X-10.48 Y9.152
X-10.44 Y9.177
X-10.4 Y9.206
X-10.36 Y9.237
X-10.35 Y9.246
X-10.309 Y9.284
X-10.268 Y9.326
X-10.233 Y9.366
X-10.202 Y9.406
X-10.201 Y9.407
X-10.148 Y9.486
X-10.125 Y9.525
X-10.105 Y9.565
X-10.087 Y9.605
X-10.07 Y9.645
X-10.044 Y9.724
X-10.042 Y9.732
X-10.032 Y9.77
X-10.023 Y9.808
X-10.012 Y9.884
X-10.005 Y9.963
Y10.003
X-10.006 Y10.043
X-10.012 Y10.123
X-10.018 Y10.163
X-10.025 Y10.202
X-10.042 Y10.268
X-10.056 Y10.315
X-10.073 Y10.362
X-10.108 Y10.442
X-10.129 Y10.481
X-10.152 Y10.521
X-10.201 Y10.593
X-10.235 Y10.637
X-10.274 Y10.681
X-10.317 Y10.724
X-10.36 Y10.763
X-10.413 Y10.804
X-10.44 Y10.822
X-10.466 Y10.84
X-10.52 Y10.872
X-10.6 Y10.911
X-10.639 Y10.927
X-10.679 Y10.942
X-10.759 Y10.966
X-10.799 Y10.975
X-10.839 Y10.982
X-10.918 Y10.992
X-10.998 Y10.995
X-11.038 Y10.994
X-11.078 Y10.992
X-11.158 Y10.983
X-11.197 Y10.975
X-11.237 Y10.967
X-11.317 Y10.943
X-11.357 Y10.929
X-11.397 Y10.913
X-11.451 Y10.886
X-11.476 Y10.874
X-11.534 Y10.84
X-11.585 Y10.806
X-11.61 Y10.786
X-11.636 Y10.766
X-11.681 Y10.726
X-11.726 Y10.681
X-11.762 Y10.64
X-11.795 Y10.599
X-11.848 Y10.521
X-11.871 Y10.481
X-11.892 Y10.442
X-11.927 Y10.362
X-11.942 Y10.322
X-11.955 Y10.281
X-11.975 Y10.202
X-11.976 Y10.195
X-11.982 Y10.163 Z-3.002 F200.
X-11.988 Y10.123 Z-3.005
X-11.994 Y10.043 Z-3.011
X-11.995 Y10.003 Z-3.013
Y9.963 Z-3.016
X-11.988 Y9.884 Z-3.022
X-11.976 Y9.804 Z-3.027
X-11.967 Y9.764 Z-3.03
X-11.956 Y9.724 Z-3.033
X-11.955 Y9.719 Z-3.034
X-11.929 Y9.642 Z-3.039
X-11.913 Y9.603 Z-3.042
X-11.895 Y9.565 Z-3.045
X-11.875 Y9.525 Z-3.048
X-11.852 Y9.485 Z-3.052
X-11.798 Y9.406 Z-3.058
X-11.795 Y9.401 Z-3.059
X-11.764 Y9.363 Z-3.062
X-11.73 Y9.324 Z-3.066
X-11.69 Y9.283 Z-3.07
X-11.65 Y9.246 Z-3.074
X-11.636 Y9.234 Z-3.075
X-11.596 Y9.203 Z-3.078
X-11.556 Y9.175 Z-3.082
X-11.516 Y9.149 Z-3.085
X-11.476 Y9.126 Z-3.088
X-11.396 Y9.087 Z-3.095
X-11.356 Y9.071 Z-3.098
X-11.317 Y9.057 Z-3.1
X-11.237 Y9.033 Z-3.106
X-11.197 Y9.025 Z-3.109
X-11.158 Y9.017 Z-3.112
X-11.078 Y9.008 Z-3.118
X-11.038 Y9.006 Z-3.12
X-10.998 Y9.005 Z-3.123
X-10.918 Y9.008 Z-3.129
X-10.839 Y9.018 Z-3.134
X-10.799 Y9.025 Z-3.137
X-10.759 Y9.034 Z-3.14
X-10.679 Y9.058 Z-3.146
X-10.642 Y9.072 Z-3.149
X-10.604 Y9.087 Z-3.151
X-10.52 Y9.128 Z-3.158
X-10.48 Y9.152 Z-3.161
X-10.44 Y9.177 Z-3.165
X-10.4 Y9.206 Z-3.168
X-10.36 Y9.237 Z-3.172
X-10.35 Y9.246
X-10.309 Y9.284 Z-3.176
X-10.268 Y9.326 Z-3.18
X-10.233 Y9.366 Z-3.184
X-10.202 Y9.406 Z-3.188
X-10.201 Y9.407
X-10.148 Y9.486 Z-3.195
X-10.125 Y9.525 Z-3.198
X-10.105 Y9.565 Z-3.201
X-10.087 Y9.605 Z-3.204
X-10.07 Y9.645 Z-3.207
X-10.044 Y9.724 Z-3.213
X-10.042 Y9.732
X-10.032 Y9.77 Z-3.216
X-10.023 Y9.808 Z-3.219
X-10.012 Y9.884 Z-3.224
X-10.005 Y9.963 Z-3.23
Y10.003 Z-3.233
X-10.006 Y10.043 Z-3.235
X-10.012 Y10.123 Z-3.241
X-10.018 Y10.163 Z-3.244
X-10.025 Y10.202 Z-3.247
X-10.042 Y10.268 Z-3.251
X-10.056 Y10.315 Z-3.255
X-10.073 Y10.362 Z-3.258
X-10.108 Y10.442 Z-3.264
X-10.129 Y10.481 Z-3.267
X-10.152 Y10.521 Z-3.271
X-10.201 Y10.593 Z-3.277
X-10.235 Y10.637 Z-3.281
X-10.274 Y10.681 Z-3.285
X-10.317 Y10.724 Z-3.289
X-10.36 Y10.763 Z-3.293
X-10.413 Y10.804 Z-3.298
X-10.44 Y10.822 Z-3.3
X-10.466 Y10.84 Z-3.302
X-10.52 Y10.872 Z-3.307
X-10.6 Y10.911 Z-3.313
X-10.639 Y10.927 Z-3.316
X-10.679 Y10.942 Z-3.319
X-10.759 Y10.966 Z-3.325
X-10.799 Y10.975 Z-3.327
X-10.839 Y10.982 Z-3.33
X-10.918 Y10.992 Z-3.336
X-10.998 Y10.995 Z-3.341
X-11.038 Y10.994 Z-3.344
X-11.078 Y10.992 Z-3.347
X-11.158 Y10.983 Z-3.353
X-11.197 Y10.975 Z-3.355
X-11.237 Y10.967 Z-3.358
X-11.317 Y10.943 Z-3.364
X-11.357 Y10.929 Z-3.367
X-11.397 Y10.913 Z-3.37
X-11.476 Y10.874 Z-3.376
X-11.534 Y10.84 Z-3.381
X-11.585 Y10.806 Z-3.385
X-11.61 Y10.786 Z-3.388
X-11.636 Y10.766 Z-3.39
X-11.681 Y10.726 Z-3.394
X-11.726 Y10.681 Z-3.398
X-11.762 Y10.64 Z-3.402
X-11.795 Y10.599 Z-3.406
X-11.848 Y10.521 Z-3.413
X-11.871 Y10.481 Z-3.416
X-11.892 Y10.442 Z-3.419
X-11.927 Y10.362 Z-3.425
X-11.942 Y10.322 Z-3.428
X-11.955 Y10.281 Z-3.431
X-11.975 Y10.202 Z-3.437
X-11.982 Y10.163 Z-3.439
X-11.988 Y10.123 Z-3.442
X-11.994 Y10.043 Z-3.448
X-11.995 Y10.003 Z-3.451
Y9.963 Z-3.453
X-11.988 Y9.884 Z-3.459
X-11.976 Y9.804 Z-3.465
X-11.967 Y9.764 Z-3.468
X-11.956 Y9.724 Z-3.47
X-11.955 Y9.719 Z-3.471
X-11.929 Y9.642 Z-3.477
X-11.913 Y9.603 Z-3.479
X-11.895 Y9.565 Z-3.482
X-11.875 Y9.525 Z-3.486
X-11.852 Y9.485 Z-3.489
X-11.798 Y9.406 Z-3.495
X-11.795 Y9.401 Z-3.496
X-11.764 Y9.363 Z-3.499
X-11.757 Y9.355 Z-3.5
X-11.73 Y9.324 F400.
X-11.69 Y9.283
X-11.65 Y9.246
X-11.636 Y9.234
X-11.596 Y9.203
X-11.556 Y9.175
X-11.516 Y9.149
X-11.476 Y9.126
X-11.396 Y9.087
X-11.356 Y9.071
X-11.317 Y9.057
X-11.237 Y9.033
X-11.197 Y9.025
X-11.158 Y9.017
X-11.078 Y9.008
X-11.038 Y9.006
X-10.998 Y9.005
X-10.918 Y9.008
X-10.839 Y9.018
X-10.799 Y9.025
X-10.759 Y9.034
X-10.679 Y9.058
X-10.642 Y9.072
X-10.604 Y9.087
X-10.52 Y9.128
X-10.48 Y9.152
X-10.44 Y9.177
X-10.4 Y9.206
X-10.36 Y9.237
X-10.35 Y9.246
X-10.309 Y9.284
X-10.268 Y9.326
X-10.233 Y9.366
X-10.202 Y9.406
X-10.201 Y9.407
X-10.148 Y9.486
X-10.125 Y9.525
X-10.105 Y9.565
X-10.087 Y9.605
X-10.07 Y9.645
X-10.044 Y9.724
X-10.042 Y9.732
X-10.032 Y9.77
X-10.023 Y9.808
X-10.012 Y9.884
X-10.005 Y9.963
Y10.003
X-10.006 Y10.043
X-10.012 Y10.123
X-10.018 Y10.163
X-10.025 Y10.202
X-10.042 Y10.268
X-10.056 Y10.315
X-10.073 Y10.362
X-10.108 Y10.442
X-10.129 Y10.481
X-10.152 Y10.521
X-10.201 Y10.593
X-10.235 Y10.637
X-10.274 Y10.681
X-10.317 Y10.724
X-10.36 Y10.763
X-10.413 Y10.804
X-10.44 Y10.822
X-10.466 Y10.84
X-10.52 Y10.872
X-10.6 Y10.911
X-10.639 Y10.927
X-10.679 Y10.942
X-10.759 Y10.966
X-10.799 Y10.975
X-10.839 Y10.982
X-10.918 Y10.992
X-10.998 Y10.995
X-11.038 Y10.994
X-11.078 Y10.992
X-11.158 Y10.983
X-11.197 Y10.975
X-11.237 Y10.967
X-11.317 Y10.943
X-11.357 Y10.929
X-11.397 Y10.913
X-11.476 Y10.874
X-11.534 Y10.84
X-11.585 Y10.806
X-11.61 Y10.786
X-11.636 Y10.766
X-11.681 Y10.726
X-11.726 Y10.681
X-11.762 Y10.64
X-11.795 Y10.599
X-11.848 Y10.521
X-11.871 Y10.481
X-11.892 Y10.442
X-11.927 Y10.362
X-11.942 Y10.322
X-11.955 Y10.281
X-11.975 Y10.202
X-11.982 Y10.163
X-11.988 Y10.123
X-11.994 Y10.043
X-11.995 Y10.003
Y9.963
X-11.988 Y9.884
X-11.976 Y9.804
X-11.967 Y9.764
X-11.956 Y9.724
X-11.955 Y9.719
X-11.929 Y9.642
X-11.913 Y9.603
X-11.895 Y9.565
X-11.875 Y9.525
X-11.852 Y9.485
X-11.798 Y9.406
X-11.795 Y9.401
X-11.764 Y9.363
X-11.757 Y9.355
X-11.73 Y9.324 Z-3.503 F200.
X-11.69 Y9.283 Z-3.507
X-11.65 Y9.246 Z-3.511
X-11.636 Y9.234 Z-3.512
X-11.596 Y9.203 Z-3.516
X-11.556 Y9.175 Z-3.519
X-11.516 Y9.149 Z-3.522
X-11.476 Y9.126 Z-3.525
X-11.396 Y9.087 Z-3.532
X-11.356 Y9.071 Z-3.535
X-11.317 Y9.057 Z-3.538
X-11.237 Y9.033 Z-3.543
X-11.197 Y9.025 Z-3.546
X-11.158 Y9.017 Z-3.549
X-11.078 Y9.008 Z-3.555
X-11.038 Y9.006 Z-3.558
X-10.998 Y9.005 Z-3.56
X-10.918 Y9.008 Z-3.566
X-10.839 Y9.018 Z-3.572
X-10.799 Y9.025 Z-3.574
X-10.759 Y9.034 Z-3.577
X-10.679 Y9.058 Z-3.583
X-10.642 Y9.072 Z-3.586
X-10.604 Y9.087 Z-3.589
X-10.52 Y9.128 Z-3.595
X-10.48 Y9.152 Z-3.598
X-10.44 Y9.177 Z-3.602
X-10.4 Y9.206 Z-3.605
X-10.36 Y9.237 Z-3.609
X-10.35 Y9.246 Z-3.61
X-10.309 Y9.284 Z-3.614
X-10.268 Y9.326 Z-3.618
X-10.233 Y9.366 Z-3.621
X-10.202 Y9.406 Z-3.625
X-10.201 Y9.407
X-10.148 Y9.486 Z-3.632
X-10.125 Y9.525 Z-3.635
X-10.105 Y9.565 Z-3.638
X-10.087 Y9.605 Z-3.641
X-10.07 Y9.645 Z-3.644
X-10.044 Y9.724 Z-3.65
X-10.042 Y9.732
X-10.032 Y9.77 Z-3.653
X-10.023 Y9.808 Z-3.656
X-10.012 Y9.884 Z-3.661
X-10.005 Y9.963 Z-3.667
Y10.003 Z-3.67
X-10.006 Y10.043 Z-3.672
X-10.012 Y10.123 Z-3.678
X-10.018 Y10.163 Z-3.681
X-10.025 Y10.202 Z-3.684
X-10.042 Y10.268 Z-3.688
X-10.056 Y10.315 Z-3.692
X-10.073 Y10.362 Z-3.695
X-10.108 Y10.442 Z-3.701
X-10.129 Y10.481 Z-3.705
X-10.152 Y10.521 Z-3.708
X-10.201 Y10.593 Z-3.714
X-10.235 Y10.637 Z-3.718
X-10.274 Y10.681 Z-3.722
X-10.317 Y10.724 Z-3.726
X-10.36 Y10.763 Z-3.73
X-10.413 Y10.804 Z-3.735
X-10.44 Y10.822 Z-3.737
X-10.466 Y10.84 Z-3.739
X-10.52 Y10.872 Z-3.744
X-10.6 Y10.911 Z-3.75
X-10.639 Y10.927 Z-3.753
X-10.679 Y10.942 Z-3.756
X-10.759 Y10.966 Z-3.762
X-10.799 Y10.975 Z-3.765
X-10.839 Y10.982 Z-3.767
X-10.918 Y10.992 Z-3.773
X-10.998 Y10.995 Z-3.779
X-11.038 Y10.994 Z-3.781
X-11.078 Y10.992 Z-3.784
X-11.158 Y10.983 Z-3.79
X-11.197 Y10.975 Z-3.793
X-11.237 Y10.967 Z-3.796
X-11.317 Y10.943 Z-3.801
X-11.357 Y10.929 Z-3.804
X-11.397 Y10.913 Z-3.807
X-11.476 Y10.874 Z-3.814
X-11.534 Y10.84 Z-3.818
X-11.585 Y10.806 Z-3.822
X-11.61 Y10.786 Z-3.825
X-11.636 Y10.766 Z-3.827
X-11.681 Y10.726 Z-3.831
X-11.726 Y10.681 Z-3.836
X-11.762 Y10.64 Z-3.84
X-11.795 Y10.599 Z-3.843
X-11.848 Y10.521 Z-3.85
X-11.871 Y10.481 Z-3.853
X-11.892 Y10.442 Z-3.856
X-11.927 Y10.362 Z-3.862
X-11.942 Y10.322 Z-3.865
X-11.955 Y10.281 Z-3.868
X-11.975 Y10.202 Z-3.874
X-11.982 Y10.163 Z-3.877
X-11.988 Y10.123 Z-3.879
X-11.994 Y10.043 Z-3.885
X-11.995 Y10.003 Z-3.888
Y9.963 Z-3.891
X-11.988 Y9.884 Z-3.896
X-11.976 Y9.804 Z-3.902
X-11.967 Y9.764 Z-3.905
X-11.956 Y9.724 Z-3.908
X-11.955 Y9.719
X-11.929 Y9.642 Z-3.914
X-11.913 Y9.603 Z-3.917
X-11.895 Y9.565 Z-3.92
X-11.875 Y9.525 Z-3.923
X-11.852 Y9.485 Z-3.926
X-11.798 Y9.406 Z-3.933
X-11.795 Y9.401
X-11.764 Y9.363 Z-3.936
X-11.73 Y9.324 Z-3.94
X-11.69 Y9.283 Z-3.944
X-11.65 Y9.246 Z-3.948
X-11.636 Y9.234 Z-3.949
X-11.596 Y9.203 Z-3.953
X-11.556 Y9.175 Z-3.956
X-11.516 Y9.149 Z-3.959
X-11.476 Y9.126 Z-3.963
X-11.396 Y9.087 Z-3.969
X-11.356 Y9.071 Z-3.972
X-11.317 Y9.057 Z-3.975
X-11.237 Y9.033 Z-3.981
X-11.197 Y9.025 Z-3.983
X-11.158 Y9.017 Z-3.986
X-11.078 Y9.008 Z-3.992
X-11.038 Y9.006 Z-3.995
X-10.998 Y9.005 Z-3.998
X-10.962 Y9.006 Z-4.
X-10.918 Y9.008 F400.
X-10.839 Y9.018
X-10.799 Y9.025
X-10.759 Y9.034
X-10.679 Y9.058
X-10.642 Y9.072
X-10.604 Y9.087
X-10.52 Y9.128
X-10.48 Y9.152
X-10.44 Y9.177
X-10.4 Y9.206
X-10.36 Y9.237
X-10.35 Y9.246
X-10.309 Y9.284
X-10.268 Y9.326
X-10.233 Y9.366
X-10.202 Y9.406
X-10.201 Y9.407
X-10.148 Y9.486
X-10.125 Y9.525
X-10.105 Y9.565
X-10.087 Y9.605
X-10.07 Y9.645
X-10.044 Y9.724
X-10.042 Y9.732
X-10.032 Y9.77
X-10.023 Y9.808
X-10.012 Y9.884
X-10.005 Y9.963
Y10.003
X-10.006 Y10.043
X-10.012 Y10.123
X-10.018 Y10.163
X-10.025 Y10.202
X-10.042 Y10.268
X-10.056 Y10.315
X-10.073 Y10.362
X-10.108 Y10.442
X-10.129 Y10.481
X-10.152 Y10.521
X-10.201 Y10.593
X-10.235 Y10.637
X-10.274 Y10.681
X-10.317 Y10.724
X-10.36 Y10.763
X-10.413 Y10.804
X-10.44 Y10.822
X-10.466 Y10.84
X-10.52 Y10.872
X-10.6 Y10.911
X-10.639 Y10.927
X-10.679 Y10.942
X-10.759 Y10.966
X-10.799 Y10.975
X-10.839 Y10.982
X-10.918 Y10.992
X-10.998 Y10.995
X-11.038 Y10.994
X-11.078 Y10.992
X-11.158 Y10.983
X-11.197 Y10.975
X-11.237 Y10.967
X-11.317 Y10.943
X-11.357 Y10.929
X-11.397 Y10.913
X-11.476 Y10.874
X-11.534 Y10.84
X-11.585 Y10.806
X-11.61 Y10.786
X-11.636 Y10.766
X-11.681 Y10.726
X-11.726 Y10.681
X-11.762 Y10.64
X-11.795 Y10.599
X-11.848 Y10.521
X-11.871 Y10.481
X-11.892 Y10.442
X-11.927 Y10.362
X-11.942 Y10.322
X-11.955 Y10.281
X-11.975 Y10.202
X-11.982 Y10.163
X-11.988 Y10.123
X-11.994 Y10.043
X-11.995 Y10.003
Y9.963
X-11.988 Y9.884
X-11.976 Y9.804
X-11.967 Y9.764
X-11.956 Y9.724
X-11.955 Y9.719
X-11.929 Y9.642
X-11.913 Y9.603
X-11.895 Y9.565
X-11.875 Y9.525
X-11.852 Y9.485
X-11.798 Y9.406
X-11.795 Y9.401
X-11.764 Y9.363
X-11.73 Y9.324
X-11.69 Y9.283
X-11.65 Y9.246
X-11.636 Y9.234
X-11.596 Y9.203
X-11.556 Y9.175
X-11.516 Y9.149
X-11.476 Y9.126
X-11.396 Y9.087
X-11.356 Y9.071
X-11.317 Y9.057
X-11.237 Y9.033
X-11.197 Y9.025
X-11.158 Y9.017
X-11.078 Y9.008
X-11.038 Y9.006
X-10.998 Y9.005
X-10.962 Y9.006
X-10.918 Y9.008 Z-4.003 F200.
X-10.839 Y9.018 Z-4.009
X-10.799 Y9.025 Z-4.012
X-10.759 Y9.034 Z-4.014
X-10.679 Y9.058 Z-4.02
X-10.642 Y9.072 Z-4.023
X-10.604 Y9.087 Z-4.026
X-10.52 Y9.128 Z-4.032
X-10.48 Y9.152 Z-4.036
X-10.44 Y9.177 Z-4.039
X-10.4 Y9.206 Z-4.042
X-10.36 Y9.237 Z-4.046
X-10.35 Y9.246 Z-4.047
X-10.309 Y9.284 Z-4.051
X-10.268 Y9.326 Z-4.055
X-10.233 Y9.366 Z-4.059
X-10.202 Y9.406 Z-4.062
X-10.201 Y9.407
X-10.148 Y9.486 Z-4.069
X-10.125 Y9.525 Z-4.072
X-10.105 Y9.565 Z-4.075
X-10.087 Y9.605 Z-4.078
X-10.07 Y9.645 Z-4.081
X-10.044 Y9.724 Z-4.087
X-10.042 Y9.732 Z-4.088
X-10.032 Y9.77 Z-4.09
X-10.023 Y9.808 Z-4.093
X-10.012 Y9.884 Z-4.099
X-10.005 Y9.963 Z-4.104
Y10.003 Z-4.107
X-10.006 Y10.043 Z-4.11
X-10.012 Y10.123 Z-4.115
X-10.018 Y10.163 Z-4.118
X-10.025 Y10.202 Z-4.121
X-10.042 Y10.268 Z-4.126
X-10.056 Y10.315 Z-4.129
X-10.073 Y10.362 Z-4.133
X-10.108 Y10.442 Z-4.139
X-10.129 Y10.481 Z-4.142
X-10.152 Y10.521 Z-4.145
X-10.201 Y10.593 Z-4.151
X-10.235 Y10.637 Z-4.155
X-10.274 Y10.681 Z-4.159
X-10.317 Y10.724 Z-4.163
X-10.36 Y10.763 Z-4.167
X-10.413 Y10.804 Z-4.172
X-10.44 Y10.822 Z-4.174
X-10.466 Y10.84 Z-4.177
X-10.52 Y10.872 Z-4.181
X-10.6 Y10.911 Z-4.187
X-10.639 Y10.927 Z-4.19
X-10.679 Y10.942 Z-4.193
X-10.759 Y10.966 Z-4.199
X-10.799 Y10.975 Z-4.202
X-10.839 Y10.982 Z-4.205
X-10.918 Y10.992 Z-4.21
X-10.998 Y10.995 Z-4.216
X-11.038 Y10.994 Z-4.219
X-11.078 Y10.992 Z-4.221
X-11.158 Y10.983 Z-4.227
X-11.197 Y10.975 Z-4.23
X-11.237 Y10.967 Z-4.233
X-11.317 Y10.943 Z-4.239
X-11.357 Y10.929 Z-4.241
X-11.397 Y10.913 Z-4.244
X-11.476 Y10.874 Z-4.251
X-11.534 Y10.84 Z-4.255
X-11.585 Y10.806 Z-4.26
X-11.61 Y10.786 Z-4.262
X-11.636 Y10.766 Z-4.264
X-11.681 Y10.726 Z-4.268
X-11.726 Y10.681 Z-4.273
X-11.762 Y10.64 Z-4.277
X-11.795 Y10.599 Z-4.28
X-11.848 Y10.521 Z-4.287
X-11.871 Y10.481 Z-4.29
X-11.892 Y10.442 Z-4.293
X-11.927 Y10.362 Z-4.299
X-11.942 Y10.322 Z-4.302
X-11.955 Y10.281 Z-4.305
X-11.975 Y10.202 Z-4.311
X-11.982 Y10.163 Z-4.314
X-11.988 Y10.123 Z-4.317
X-11.994 Y10.043 Z-4.322
X-11.995 Y10.003 Z-4.325
Y9.963 Z-4.328
X-11.988 Y9.884 Z-4.333
X-11.976 Y9.804 Z-4.339
X-11.967 Y9.764 Z-4.342
X-11.956 Y9.724 Z-4.345
X-11.955 Y9.719
X-11.929 Y9.642 Z-4.351
X-11.913 Y9.603 Z-4.354
X-11.895 Y9.565 Z-4.357
X-11.875 Y9.525 Z-4.36
X-11.852 Y9.485 Z-4.363
X-11.798 Y9.406 Z-4.37
X-11.795 Y9.401
X-11.764 Y9.363 Z-4.374
X-11.73 Y9.324 Z-4.377
X-11.69 Y9.283 Z-4.381
X-11.65 Y9.246 Z-4.385
X-11.636 Y9.234 Z-4.386
X-11.596 Y9.203 Z-4.39
X-11.556 Y9.175 Z-4.393
X-11.516 Y9.149 Z-4.397
X-11.476 Y9.126 Z-4.4
X-11.396 Y9.087 Z-4.406
X-11.356 Y9.071 Z-4.409
X-11.317 Y9.057 Z-4.412
X-11.237 Y9.033 Z-4.418
X-11.197 Y9.025 Z-4.421
X-11.158 Y9.017 Z-4.424
X-11.078 Y9.008 Z-4.429
X-11.038 Y9.006 Z-4.432
X-10.998 Y9.005 Z-4.435
X-10.918 Y9.008 Z-4.44
X-10.839 Y9.018 Z-4.446
X-10.799 Y9.025 Z-4.449
X-10.759 Y9.034 Z-4.452
X-10.679 Y9.058 Z-4.457
X-10.642 Y9.072 Z-4.46
X-10.604 Y9.087 Z-4.463
X-10.52 Y9.128 Z-4.47
X-10.48 Y9.152 Z-4.473
X-10.44 Y9.177 Z-4.476
X-10.4 Y9.206 Z-4.48
X-10.36 Y9.237 Z-4.483
X-10.35 Y9.246 Z-4.484
X-10.309 Y9.284 Z-4.488
X-10.268 Y9.326 Z-4.492
X-10.233 Y9.366 Z-4.496
X-10.202 Y9.406 Z-4.499
X-10.201 Y9.407
X-10.196 Y9.414 Z-4.5
X-10.148 Y9.486 F400.
X-10.125 Y9.525
X-10.105 Y9.565
X-10.087 Y9.605
X-10.07 Y9.645
X-10.044 Y9.724
X-10.042 Y9.732
X-10.032 Y9.77
X-10.023 Y9.808
X-10.012 Y9.884
X-10.005 Y9.963
Y10.003
X-10.006 Y10.043
X-10.012 Y10.123
X-10.018 Y10.163
X-10.025 Y10.202
X-10.042 Y10.268
X-10.056 Y10.315
X-10.073 Y10.362
X-10.108 Y10.442
X-10.129 Y10.481
X-10.152 Y10.521
X-10.201 Y10.593
X-10.235 Y10.637
X-10.274 Y10.681
X-10.317 Y10.724
X-10.36 Y10.763
X-10.413 Y10.804
X-10.44 Y10.822
X-10.466 Y10.84
X-10.52 Y10.872
X-10.6 Y10.911
X-10.639 Y10.927
X-10.679 Y10.942
X-10.759 Y10.966
X-10.799 Y10.975
X-10.839 Y10.982
X-10.918 Y10.992
X-10.998 Y10.995
X-11.038 Y10.994
X-11.078 Y10.992
X-11.158 Y10.983
X-11.197 Y10.975
X-11.237 Y10.967
X-11.317 Y10.943
X-11.357 Y10.929
X-11.397 Y10.913
X-11.476 Y10.874
X-11.534 Y10.84
X-11.585 Y10.806
X-11.61 Y10.786
X-11.636 Y10.766
X-11.681 Y10.726
X-11.726 Y10.681
X-11.762 Y10.64
X-11.795 Y10.599
X-11.848 Y10.521
X-11.871 Y10.481
X-11.892 Y10.442
X-11.927 Y10.362
X-11.942 Y10.322
X-11.955 Y10.281
X-11.975 Y10.202
X-11.982 Y10.163
X-11.988 Y10.123
X-11.994 Y10.043
X-11.995 Y10.003
Y9.963
X-11.988 Y9.884
X-11.976 Y9.804
X-11.967 Y9.764
X-11.956 Y9.724
X-11.955 Y9.719
X-11.929 Y9.642
X-11.913 Y9.603
X-11.895 Y9.565
X-11.875 Y9.525
X-11.852 Y9.485
X-11.798 Y9.406
X-11.795 Y9.401
X-11.764 Y9.363
X-11.73 Y9.324
X-11.69 Y9.283
X-11.65 Y9.246
X-11.636 Y9.234
X-11.596 Y9.203
X-11.556 Y9.175
X-11.516 Y9.149
X-11.476 Y9.126
X-11.396 Y9.087
X-11.356 Y9.071
X-11.317 Y9.057
X-11.237 Y9.033
X-11.197 Y9.025
X-11.158 Y9.017
X-11.078 Y9.008
X-11.038 Y9.006
X-10.998 Y9.005
X-10.918 Y9.008
X-10.839 Y9.018
X-10.799 Y9.025
X-10.759 Y9.034
X-10.679 Y9.058
X-10.642 Y9.072
X-10.604 Y9.087
X-10.52 Y9.128
X-10.48 Y9.152
X-10.44 Y9.177
X-10.4 Y9.206
X-10.36 Y9.237
X-10.35 Y9.246
X-10.309 Y9.284
X-10.268 Y9.326
X-10.233 Y9.366
X-10.202 Y9.406
X-10.201 Y9.407
X-10.196 Y9.414
X-10.148 Y9.486 Z-4.506 F200.
X-10.125 Y9.525 Z-4.509
X-10.105 Y9.565 Z-4.512
X-10.087 Y9.605 Z-4.515
X-10.07 Y9.645 Z-4.518
X-10.044 Y9.724 Z-4.524
X-10.042 Y9.732 Z-4.525
X-10.032 Y9.77 Z-4.528
X-10.023 Y9.808 Z-4.53
X-10.012 Y9.884 Z-4.536
X-10.005 Y9.963 Z-4.541
Y10.003 Z-4.544
X-10.006 Y10.043 Z-4.547
X-10.012 Y10.123 Z-4.552
X-10.018 Y10.163 Z-4.555
X-10.025 Y10.202 Z-4.558
X-10.042 Y10.268 Z-4.563
X-10.056 Y10.315 Z-4.566
X-10.073 Y10.362 Z-4.57
X-10.108 Y10.442 Z-4.576
X-10.129 Y10.481 Z-4.579
X-10.152 Y10.521 Z-4.582
