(__)
(T2  D=3.175 CR=0. - ZMIN=-8. - FLAT END MILL)
G90 G94 G91.1 G40 G49 G17
G21

(2D CONTOUR2)
M5
M9
T2
S5500 M3
G54
M8
G0 X8.254 Y-2.276
G43 Z15. H2
Z5.
G1 Z3. F762.
Z2.5
G3 X-8.254 Y2.276 Z1.561 R8.562 F351.
X8.254 Y-2.276 Z0.621 R8.562
X-8.254 Y2.276 Z-0.318 R8.562
X8.254 Y-2.276 Z-1.257 R8.562
X-5.137 Y6.85 Z-2. R8.562
X5.137 Y-6.85 R8.562
X-5.137 Y6.85 R8.562
X5.137 Y-6.85 Z-2.939 R8.563
X-5.137 Y6.85 Z-3.879 R8.563
X-7.423 Y4.267 Z-4. R8.563
X7.423 Y-4.267 R8.563
X-7.423 Y4.267 R8.563
X7.423 Y-4.267 Z-4.939 R8.563
X-7.423 Y4.267 Z-5.879 R8.563
X-8.505 Y0.992 Z-6. R8.563
X8.505 Y-0.992 R8.563
X-8.505 Y0.992 R8.563
X8.505 Y-0.992 Z-6.939 R8.562
X-8.505 Y0.992 Z-7.879 R8.562
X-8.206 Y-2.444 Z-8. R8.562
X8.206 Y2.444 R8.562
X-8.206 Y-2.444 R8.562
G0 Z15.

(2D CONTOUR3)
M8
G0 X3.652 Y18.225
Z15.
Z5.
G1 Z3. F762.
Z2.5
G2 X18.587 Y0. Z-2. R18.587 F351.
X-18.587 R18.587
X18.587 R18.587
X16.359 Y-8.825 Z-3. R18.588
X-16.359 Y8.825 R18.588
X16.359 Y-8.825 R18.588
G0 Z15.

(2D POCKET1)
M8
G0 X4.956 Y-12.113
Z15.
Z5.
G1 Z2.5 F351.
G2 X-7.852 Y-10.47 Z2.028 R13.088
X7.852 Y10.47 Z0.593 R13.087
X13.087 Y0. Z0.169 R13.087
Y-0.027 Z0.168 R13.088
X-7.852 Y-10.47 Z-0.843 R13.088
X-10.917 Y-7.218 Z-1. R13.088
X10.917 Y7.218 R13.087
X13.087 Y0. R13.087
Y-0.027 R13.088
X-7.852 Y-10.47 R13.088
X-10.917 Y-7.218 R13.088
G1 X-11.421 Y-7.55 Z-0.94
G0 Z5.
X-14.153 Y-6.101
G1 Z2.5 F351.
G3 X-9.248 Y-12.33 Z2.22 R15.413
X9.248 Y12.33 Z0.529 R15.413
X-9.248 Z-0.164 R15.413
X-9.269 Y12.314 Z-0.165 R15.413
X-12.483 Y-9.04 Z-1. R15.413
X-9.248 Y-12.33 R15.413
X9.248 Y12.33 R15.413
X-9.248 R15.413
X-9.269 Y12.314 R15.413
X-12.483 Y-9.04 R15.413
G1 X-11.994 Y-8.686 Z-0.94
G0 Z15.

(2D CONTOUR4)
M8
G0 X-8.361 Y-5.324
Z15.
Z5.
G1 Z3. F762.
Z2.5
G3 X9.913 Y0. Z-2. R9.913 F351.
X-9.913 R9.913
X9.913 R9.913
X8.334 Y5.367 Z-3. R9.912
X-8.334 Y-5.367 R9.912
X8.334 Y5.367 R9.912
G0 Z15.

(2D CONTOUR5)
M8
G0 X6.17 Y-5.937
Z15.
Z5.
G1 Z3. F762.
Z2.5
G3 X-5.137 Y6.85 Z-2. R8.562 F351.
X5.137 Y-6.85 R8.562
X-5.137 Y6.85 R8.562
X-7.895 Y-3.314 Z-4. R8.562
X7.895 Y3.314 R8.562
X-7.895 Y-3.314 R8.562
X1.29 Y-8.465 Z-6. R8.563
X-1.29 Y8.465 R8.563
X1.29 Y-8.465 R8.563
X8.524 Y-0.811 Z-8. R8.562
X-8.524 Y0.811 R8.562
X8.524 Y-0.811 R8.562
G0 Z15.

(2D CONTOUR6)
M8
G0 X5.716 Y19.101
Z15.
Z5.
G1 Z3. F762.
Z2.5
G2 X19.938 Y0. Z-2. R19.938 F351.
X-19.938 R19.938
X19.938 R19.938
X10.948 Y-16.663 Z-4. R19.938
X-10.948 Y16.663 R19.938
X10.948 Y-16.663 R19.938
X-7.914 Y-18.3 Z-6. R19.937
X7.914 Y18.3 R19.937
X-7.914 Y-18.3 R19.937
X-19.639 Y-3.435 Z-8. R19.937
X19.639 Y3.435 R19.937
X-19.639 Y-3.435 R19.937
G0 Z15.

M9
M30
