(__)
(T1  D=3. CR=0. - ZMIN=-2.7 - FLAT END MILL)
G90 G94 G91.1 G40 G49 G17
G21

(DRILL1)
M5
M9
T1
S10000 M3
G54
M8
G0 X-62.3 Y-97.55
G43 Z15. H1
Z6.5
G98 G73 X-62.3 Y-97.55 Z-2. R6.5 Q0.75 F80.
Y-56.55
X-74. Y-25.55
Y21.45
X-62. Y33.45
Y51.45
X-4.
Y33.45
X13. Y21.45
X23. Y32.45
X60.
X72.75 Y-44.865
X60. Y-31.55
X13. Y-25.55
X23. Y-31.55
X21.25 Y-44.865
X-6.7 Y-56.55
Y-97.55
X21.25 Y-113.235
X72.75
G80
Z15.

(DRILL2)
M8
G0 X-6.7 Y-97.55
Z15.
Z5.
X-7.873 Y-98.402
G1 Z0. F900.
G3 X-5.527 Y-96.698 Z-0.25 R1.45
X-7.873 Y-98.402 Z-0.5 R1.45
X-5.527 Y-96.698 Z-0.75 R1.45
X-7.873 Y-98.402 Z-1. R1.45
X-5.527 Y-96.698 Z-1.25 R1.45
X-7.873 Y-98.402 Z-1.5 R1.45
X-5.527 Y-96.698 Z-1.75 R1.45
X-7.873 Y-98.402 Z-2. R1.45
X-5.527 Y-96.698 Z-2.25 R1.45
X-7.873 Y-98.402 Z-2.5 R1.45
X-5.25 Y-97.55 Z-2.7 R1.45
X-8.15 R1.45
X-5.25 R1.45
X-6.7 R0.725
G0 Z5.
X-7.873 Y-57.402
G1 Z0. F900.
G3 X-5.527 Y-55.698 Z-0.25 R1.45
X-7.873 Y-57.402 Z-0.5 R1.45
X-5.527 Y-55.698 Z-0.75 R1.45
X-7.873 Y-57.402 Z-1. R1.45
X-5.527 Y-55.698 Z-1.25 R1.45
X-7.873 Y-57.402 Z-1.5 R1.45
X-5.527 Y-55.698 Z-1.75 R1.45
X-7.873 Y-57.402 Z-2. R1.45
X-5.527 Y-55.698 Z-2.25 R1.45
X-7.873 Y-57.402 Z-2.5 R1.45
X-5.25 Y-56.55 Z-2.7 R1.45
X-8.15 R1.45
X-5.25 R1.45
X-6.7 R0.725
G0 Z5.
X-63.473 Y-57.402
G1 Z0. F900.
G3 X-61.127 Y-55.698 Z-0.25 R1.45
X-63.473 Y-57.402 Z-0.5 R1.45
X-61.127 Y-55.698 Z-0.75 R1.45
X-63.473 Y-57.402 Z-1. R1.45
X-61.127 Y-55.698 Z-1.25 R1.45
X-63.473 Y-57.402 Z-1.5 R1.45
X-61.127 Y-55.698 Z-1.75 R1.45
X-63.473 Y-57.402 Z-2. R1.45
X-61.127 Y-55.698 Z-2.25 R1.45
X-63.473 Y-57.402 Z-2.5 R1.45
X-60.85 Y-56.55 Z-2.7 R1.45
X-63.75 R1.45
X-60.85 R1.45
X-62.3 R0.725
G0 Z5.
X-63.473 Y-98.402
G1 Z0. F900.
G3 X-61.127 Y-96.698 Z-0.25 R1.45
X-63.473 Y-98.402 Z-0.5 R1.45
X-61.127 Y-96.698 Z-0.75 R1.45
X-63.473 Y-98.402 Z-1. R1.45
X-61.127 Y-96.698 Z-1.25 R1.45
X-63.473 Y-98.402 Z-1.5 R1.45
X-61.127 Y-96.698 Z-1.75 R1.45
X-63.473 Y-98.402 Z-2. R1.45
X-61.127 Y-96.698 Z-2.25 R1.45
X-63.473 Y-98.402 Z-2.5 R1.45
X-60.85 Y-97.55 Z-2.7 R1.45
X-63.75 R1.45
X-60.85 R1.45
X-62.3 R0.725
G0 Z5.
Z15.

M9
M30
