O0001
(This Post Processor is distributed on an "AS IS" BASIS, )
(WITHOUT WARRANTIES OR CONDITIONS OF ANY KIND, either express or implied. )
N1 G21
N2 (3MM CRB 2FL 12 LOC)
N3 G91 G28 X0 Y0 Z0
N4 T14 M06
N5 S10000 M03
N6 G90 G00 X-.5 Y0
N7 G43 Z2.5 H14 M08
N8 G17 G01 X.5 F400.
N9 G03 X-1.5 Z2. I-1. J0
N10 X.5 Z1.5 I1. J0
N11 X-1.5 Z1. I-1. J0
N12 X.5 Z.5 I1. J0
N13 X-1.5 Z0 I-1. J0
N14 X.5 Z-.5 I1. J0
N15 X-1.5 Z-1. I-1. J0
N16 X.5 Z-1.5 I1. J0
N17 X-1.5 Z-2. I-1. J0
N18 G01 X-.5
N19 G03 X.5 I.5 J0
N20 G01 Y2.
N21 G03 X-.5 I-.5 J0
N22 G01 Y0
N23 X-1.7
N24 G03 X1.7 I1.7 J0
N25 G01 Y2.
N26 G03 X-1.7 I-1.7 J0
N27 G01 Y0
N28 X-2.9
N29 G03 X2.9 I2.9 J0
N30 G01 Y2.
N31 G03 X-2.9 I-2.9 J0
N32 G01 Y0
N33 X-4.1
N34 G03 X4.1 I4.1 J0
N35 G01 Y2.
N36 G03 X-4.1 I-4.1 J0
N37 G01 Y0
N38 X-5.3
N39 G03 X5.3 I5.3 J0
N40 G01 Y2.
N41 G03 X-5.3 I-5.3 J0
N42 G01 Y0
N43 X-6.5
N44 G03 X6.5 I6.5 J0
N45 G01 Y2.
N46 G03 X-6.5 I-6.5 J0
N47 G01 Y0
N48 X-7.7
N49 G03 X7.7 I7.7 J0
N50 G01 Y2.
N51 G03 X-7.7 I-7.7 J0
N52 G01 Y0
N53 X-8.9
N54 G03 X8.9 I8.9 J0
N55 G01 Y2.
N56 G03 X-8.9 I-8.9 J0
N57 G01 Y0
N58 X-10.1
N59 G03 X10.1 I10.1 J0
N60 G01 Y2.
N61 G03 X-10.1 I-10.1 J0
N62 G01 Y0
N63 X-11.3
N64 G03 X11.3 I11.3 J0
N65 G01 Y2.
N66 G03 X-11.3 I-11.3 J0
N67 G01 Y0
N68 X-12.5
N69 G03 X12.5 I12.5 J0
N70 G01 Y2.
N71 G03 X-12.5 I-12.5 J0
N72 G01 Y0
N73 X-13.7
N74 G03 X13.7 I13.7 J0
N75 G01 Y2.
N76 G03 X-13.7 I-13.7 J0
N77 G01 Y0
N78 X-14.9
N79 G03 X14.9 I14.9 J0
N80 G01 Y2.
N81 G03 X-14.9 I-14.9 J0
N82 G01 Y0
N83 X-16.1
N84 G03 X16.1 I16.1 J0
N85 G01 Y2.
N86 G03 X-16.1 I-16.1 J0
N87 G01 Y0
N88 X-17.3
N89 G03 X17.3 I17.3 J0
N90 G01 Y2.
N91 G03 X-17.3 I-17.3 J0
N92 G01 Y0
N93 G03 X17.3 I17.3 J0
N94 G01 Y2.
N95 G03 X-17.3 I-17.3 J0
N96 G01 Y0
N97 G00 Z2.5
N98 Z5.
N99 X-23.92 Y23.57
N100 Z2.5
N101 G01 X-23.42 F400.
N102 G03 X-24.42 Z2. I-.5 J0
N103 X-23.42 Z1.5 I.5 J0
N104 X-24.42 Z1. I-.5 J0
N105 X-23.42 Z.5 I.5 J0
N106 X-24.42 Z0 I-.5 J0
N107 X-23.42 Z-.5 I.5 J0
N108 X-24.42 Z-1. I-.5 J0
N109 X-23.42 Z-1.5 I.5 J0
N110 X-24.42 Z-2. I-.5 J0
N111 X-23.42 Z-2.5 I.5 J0
N112 X-24.42 Z-3. I-.5 J0
N113 X-22.72 I.85 J0
N114 G01 Y25.64
N115 G03 X-24.42 I-.85 J0
N116 G01 Y23.57
N117 G03 X-22.72 I.85 J0
N118 G01 Y25.64
N119 G03 X-24.42 I-.85 J0
N120 G01 Y23.57
N121 G00 Z2.5
N122 X-23.92
N123 Z-.5
N124 G01 X-23.42
N125 G03 X-24.42 Z-1. I-.5 J0
N126 X-23.42 Z-1.5 I.5 J0
N127 X-24.42 Z-2. I-.5 J0
N128 X-23.42 Z-2.5 I.5 J0
N129 X-24.42 Z-3. I-.5 J0
N130 X-23.42 Z-3.5 I.5 J0
N131 X-24.42 Z-4. I-.5 J0
N132 X-23.42 Z-4.5 I.5 J0
N133 X-24.42 Z-5. I-.5 J0
N134 X-22.72 I.85 J0
N135 G01 Y25.64
N136 G03 X-24.42 I-.85 J0
N137 G01 Y23.57
N138 G03 X-22.72 I.85 J0
N139 G01 Y25.64
N140 G03 X-24.42 I-.85 J0
N141 G01 Y23.57
N142 G00 Z2.5
N143 Z5.
N144 X23.22
N145 Z2.5
N146 G01 X23.72
N147 G03 X22.72 Z2. I-.5 J0
N148 X23.72 Z1.5 I.5 J0
N149 X22.72 Z1. I-.5 J0
N150 X23.72 Z.5 I.5 J0
N151 X22.72 Z0 I-.5 J0
N152 X23.72 Z-.5 I.5 J0
N153 X22.72 Z-1. I-.5 J0
N154 X23.72 Z-1.5 I.5 J0
N155 X22.72 Z-2. I-.5 J0
N156 X23.72 Z-2.5 I.5 J0
N157 X22.72 Z-3. I-.5 J0
N158 X24.42 I.85 J0
N159 G01 Y25.64
N160 G03 X22.72 I-.85 J0
N161 G01 Y23.57
N162 G03 X24.42 I.85 J0
N163 G01 Y25.64
N164 G03 X22.72 I-.85 J0
N165 G01 Y23.57
N166 G00 Z2.5
N167 X23.22
N168 Z-.5
N169 G01 X23.72
N170 G03 X22.72 Z-1. I-.5 J0
N171 X23.72 Z-1.5 I.5 J0
N172 X22.72 Z-2. I-.5 J0
N173 X23.72 Z-2.5 I.5 J0
N174 X22.72 Z-3. I-.5 J0
N175 X23.72 Z-3.5 I.5 J0
N176 X22.72 Z-4. I-.5 J0
N177 X23.72 Z-4.5 I.5 J0
N178 X22.72 Z-5. I-.5 J0
N179 X24.42 I.85 J0
N180 G01 Y25.64
N181 G03 X22.72 I-.85 J0
N182 G01 Y23.57
N183 G03 X24.42 I.85 J0
N184 G01 Y25.64
N185 G03 X22.72 I-.85 J0
N186 G01 Y23.57
N187 G00 Z2.5
N188 Z5.
N189 X23.22 Y-23.57
N190 Z2.5
N191 G01 X23.72
N192 G03 X22.72 Z2. I-.5 J0
N193 X23.72 Z1.5 I.5 J0
N194 X22.72 Z1. I-.5 J0
N195 X23.72 Z.5 I.5 J0
N196 X22.72 Z0 I-.5 J0
N197 X23.72 Z-.5 I.5 J0
N198 X22.72 Z-1. I-.5 J0
N199 X23.72 Z-1.5 I.5 J0
N200 X22.72 Z-2. I-.5 J0
N201 X23.72 Z-2.5 I.5 J0
N202 X22.72 Z-3. I-.5 J0
N203 X24.42 I.85 J0
N204 G01 Y-21.5
N205 G03 X22.72 I-.85 J0
N206 G01 Y-23.57
N207 G03 X24.42 I.85 J0
N208 G01 Y-21.5
N209 G03 X22.72 I-.85 J0
N210 G01 Y-23.57
N211 G00 Z2.5
N212 X23.22
N213 Z-.5
N214 G01 X23.72
N215 G03 X22.72 Z-1. I-.5 J0
N216 X23.72 Z-1.5 I.5 J0
N217 X22.72 Z-2. I-.5 J0
N218 X23.72 Z-2.5 I.5 J0
N219 X22.72 Z-3. I-.5 J0
N220 X23.72 Z-3.5 I.5 J0
N221 X22.72 Z-4. I-.5 J0
N222 X23.72 Z-4.5 I.5 J0
N223 X22.72 Z-5. I-.5 J0
N224 X24.42 I.85 J0
N225 G01 Y-21.5
N226 G03 X22.72 I-.85 J0
N227 G01 Y-23.57
N228 G03 X24.42 I.85 J0
N229 G01 Y-21.5
N230 G03 X22.72 I-.85 J0
N231 G01 Y-23.57
N232 G00 Z2.5
N233 Z5.
N234 X-23.92
N235 Z2.5
N236 G01 X-23.42
N237 G03 X-24.42 Z2. I-.5 J0
N238 X-23.42 Z1.5 I.5 J0
N239 X-24.42 Z1. I-.5 J0
N240 X-23.42 Z.5 I.5 J0
N241 X-24.42 Z0 I-.5 J0
N242 X-23.42 Z-.5 I.5 J0
N243 X-24.42 Z-1. I-.5 J0
N244 X-23.42 Z-1.5 I.5 J0
N245 X-24.42 Z-2. I-.5 J0
N246 X-23.42 Z-2.5 I.5 J0
N247 X-24.42 Z-3. I-.5 J0
N248 X-22.72 I.85 J0
N249 G01 Y-21.5
N250 G03 X-24.42 I-.85 J0
N251 G01 Y-23.57
N252 G03 X-22.72 I.85 J0
N253 G01 Y-21.5
N254 G03 X-24.42 I-.85 J0
N255 G01 Y-23.57
N256 G00 Z2.5
N257 X-23.92
N258 Z-.5
N259 G01 X-23.42
N260 G03 X-24.42 Z-1. I-.5 J0
N261 X-23.42 Z-1.5 I.5 J0
N262 X-24.42 Z-2. I-.5 J0
N263 X-23.42 Z-2.5 I.5 J0
N264 X-24.42 Z-3. I-.5 J0
N265 X-23.42 Z-3.5 I.5 J0
N266 X-24.42 Z-4. I-.5 J0
N267 X-23.42 Z-4.5 I.5 J0
N268 X-24.42 Z-5. I-.5 J0
N269 X-22.72 I.85 J0
N270 G01 Y-21.5
N271 G03 X-24.42 I-.85 J0
N272 G01 Y-23.57
N273 G03 X-22.72 I.85 J0
N274 G01 Y-21.5
N275 G03 X-24.42 I-.85 J0
N276 G01 Y-23.57
N277 G00 Z2.5
N278 Z5.
N279 Z25.
N280 S12000
N281 X-15.445 Y3.805
N282 Z3.
N283 G01 X-17.031 Y5.023 F1554.48
N284 G03 X-13.859 Y2.586 Z2. I1.586 J-1.219
N285 X-17.031 Y5.023 Z1. I-1.586 J1.219
N286 X-13.859 Y2.586 Z0 I1.586 J-1.219
N287 X-17.031 Y5.023 Z-1. I-1.586 J1.219
N288 X-16.664 Y2.219 Z-1.5 I1.586 J-1.219
N289 G01 X-16.359 Y2.615
N290 G41 D34 X-17.462 Y1.512
N291 G03 X-17.55 Y1.3 I.212 J-.212
N292 G01 Y0 F2072.64
N293 G03 X17.55 I17.55 J0
N294 G01 Y2.
N295 G03 X-17.55 I-17.55 J0
N296 G01 Y.7
N297 G03 X-17.462 Y.488 I.3 J0
N298 G40 G01 X-16.359 Y-.615
N299 G00 Z3.
N300 X-15.445 Y3.805
N301 Z1.5
N302 G01 X-13.859 Y2.586 F1554.48
N303 G03 X-17.031 Y5.023 Z.5 I-1.586 J1.219
N304 X-13.859 Y2.586 Z-.5 I1.586 J-1.219
N305 X-17.031 Y5.023 Z-1.5 I-1.586 J1.219
N306 X-16.664 Y2.219 Z-2. I1.586 J-1.219
N307 G01 X-16.359 Y2.615
N308 G41 D34 X-17.462 Y1.512
N309 G03 X-17.55 Y1.3 I.212 J-.212
N310 G01 Y0 F2072.64
N311 G03 X17.55 I17.55 J0
N312 G01 Y2.
N313 G03 X-17.55 I-17.55 J0
N314 G01 Y.7
N315 G03 X-17.462 Y.488 I.3 J0
N316 G40 G01 X-16.359 Y-.615
N317 G00 Z3.
N318 Z25.
N319 S10000
N320 X-23.479 Y26.22
N321 Z5.
N322 Z3.
N323 G01 Z-3. F400.
N324 G41 D34 X-24.582 Y25.117
N325 G03 X-24.67 Y24.905 I.212 J-.212
N326 G01 Y23.57
N327 G03 X-22.47 I1.1 J0
N328 G01 Y25.64
N329 G03 X-24.67 I-1.1 J0
N330 G01 Y24.305
N331 G03 X-24.582 Y24.093 I.3 J0
N332 G40 G01 X-23.479 Y22.99
N333 G00 Z3.
N334 Y26.22
N335 Z0
N336 G01 Z-5.
N337 G41 D34 X-24.582 Y25.117
N338 G03 X-24.67 Y24.905 I.212 J-.212
N339 G01 Y23.57
N340 G03 X-22.47 I1.1 J0
N341 G01 Y25.64
N342 G03 X-24.67 I-1.1 J0
N343 G01 Y24.305
N344 G03 X-24.582 Y24.093 I.3 J0
N345 G40 G01 X-23.479 Y22.99
N346 G00 Z3.
N347 Z5.
N348 X23.661 Y26.22
N349 Z3.
N350 G01 Z-3.
N351 G41 D34 X22.558 Y25.117
N352 G03 X22.47 Y24.905 I.212 J-.212
N353 G01 Y23.57
N354 G03 X24.67 I1.1 J0
N355 G01 Y25.64
N356 G03 X22.47 I-1.1 J0
N357 G01 Y24.305
N358 G03 X22.558 Y24.093 I.3 J0
N359 G40 G01 X23.661 Y22.99
N360 G00 Z3.
N361 Y26.22
N362 Z0
N363 G01 Z-5.
N364 G41 D34 X22.558 Y25.117
N365 G03 X22.47 Y24.905 I.212 J-.212
N366 G01 Y23.57
N367 G03 X24.67 I1.1 J0
N368 G01 Y25.64
N369 G03 X22.47 I-1.1 J0
N370 G01 Y24.305
N371 G03 X22.558 Y24.093 I.3 J0
N372 G40 G01 X23.661 Y22.99
N373 G00 Z3.
N374 Z5.
N375 Y-20.92
N376 Z3.
N377 G01 Z-3.
N378 G41 D34 X22.558 Y-22.023
N379 G03 X22.47 Y-22.235 I.212 J-.212
N380 G01 Y-23.57
N381 G03 X24.67 I1.1 J0
N382 G01 Y-21.5
N383 G03 X22.47 I-1.1 J0
N384 G01 Y-22.835
N385 G03 X22.558 Y-23.047 I.3 J0
N386 G40 G01 X23.661 Y-24.15
N387 G00 Z3.
N388 Y-20.92
N389 Z0
N390 G01 Z-5.
N391 G41 D34 X22.558 Y-22.023
N392 G03 X22.47 Y-22.235 I.212 J-.212
N393 G01 Y-23.57
N394 G03 X24.67 I1.1 J0
N395 G01 Y-21.5
N396 G03 X22.47 I-1.1 J0
N397 G01 Y-22.835
N398 G03 X22.558 Y-23.047 I.3 J0
N399 G40 G01 X23.661 Y-24.15
N400 G00 Z3.
N401 Z5.
N402 X-23.479 Y-20.92
N403 Z3.
N404 G01 Z-3.
N405 G41 D34 X-24.582 Y-22.023
N406 G03 X-24.67 Y-22.235 I.212 J-.212
N407 G01 Y-23.57
N408 G03 X-22.47 I1.1 J0
N409 G01 Y-21.5
N410 G03 X-24.67 I-1.1 J0
N411 G01 Y-22.835
N412 G03 X-24.582 Y-23.047 I.3 J0
N413 G40 G01 X-23.479 Y-24.15
N414 G00 Z3.
N415 Y-20.92
N416 Z0
N417 G01 Z-5.
N418 G41 D34 X-24.582 Y-22.023
N419 G03 X-24.67 Y-22.235 I.212 J-.212
N420 G01 Y-23.57
N421 G03 X-22.47 I1.1 J0
N422 G01 Y-21.5
N423 G03 X-24.67 I-1.1 J0
N424 G01 Y-22.835
N425 G03 X-24.582 Y-23.047 I.3 J0
N426 G40 G01 X-23.479 Y-24.15
N427 G00 Z3.
N428 Z5. M09
N429 G91 G28 Z0
N430 G28 X0 Y0
N431 M30
