O0001
(This Post Processor is distributed on an "AS IS" BASIS, )
(WITHOUT WARRANTIES OR CONDITIONS OF ANY KIND, either express or implied. )
N1 G21
N2 (3MM CRB 2FL 12 LOC)
N3 G91 G28 X0 Y0 Z0
N4 T14 M06
N5 S10000 M03
N6 G90 G54 G00 X-.5 Y0
N7 G43 Z2.5 H14 M08
N8 G17 G01 X.5 F400.
N9 G03 X-1.5 Z2. I-1. J0
N10 X.5 Z1.5 I1. J0
N11 X-1.5 Z1. I-1. J0
N12 X.5 Z.5 I1. J0
N13 X-1.5 Z0 I-1. J0
N14 X.5 Z-.5 I1. J0
N15 X-1.5 Z-1. I-1. J0
N16 X.5 Z-1.5 I1. J0
N17 X-1.5 Z-2. I-1. J0
N18 G01 X-.5
N19 G03 X.5 I.5 J0
N20 G01 Y3.
N21 G03 X-.5 I-.5 J0
N22 G01 Y0
N23 X-1.7
N24 G03 X1.7 I1.7 J0
N25 G01 Y3.
N26 G03 X-1.7 I-1.7 J0
N27 G01 Y0
N28 X-2.9
N29 G03 X2.9 I2.9 J0
N30 G01 Y3.
N31 G03 X-2.9 I-2.9 J0
N32 G01 Y0
N33 X-4.1
N34 G03 X4.1 I4.1 J0
N35 G01 Y3.
N36 G03 X-4.1 I-4.1 J0
N37 G01 Y0
N38 X-5.3
N39 G03 X5.3 I5.3 J0
N40 G01 Y3.
N41 G03 X-5.3 I-5.3 J0
N42 G01 Y0
N43 X-6.5
N44 G03 X6.5 I6.5 J0
N45 G01 Y3.
N46 G03 X-6.5 I-6.5 J0
N47 G01 Y0
N48 X-7.7
N49 G03 X7.7 I7.7 J0
N50 G01 Y3.
N51 G03 X-7.7 I-7.7 J0
N52 G01 Y0
N53 X-8.9
N54 G03 X8.9 I8.9 J0
N55 G01 Y3.
N56 G03 X-8.9 I-8.9 J0
N57 G01 Y0
N58 X-10.1
N59 G03 X10.1 I10.1 J0
N60 G01 Y3.
N61 G03 X-10.1 I-10.1 J0
N62 G01 Y0
N63 X-11.3
N64 G03 X11.3 I11.3 J0
N65 G01 Y3.
N66 G03 X-11.3 I-11.3 J0
N67 G01 Y0
N68 X-12.5
N69 G03 X12.5 I12.5 J0
N70 G01 Y3.
N71 G03 X-12.5 I-12.5 J0
N72 G01 Y0
N73 X-13.7
N74 G03 X13.7 I13.7 J0
N75 G01 Y3.
N76 G03 X-13.7 I-13.7 J0
N77 G01 Y0
N78 X-14.9
N79 G03 X14.9 I14.9 J0
N80 G01 Y3.
N81 G03 X-14.9 I-14.9 J0
N82 G01 Y0
N83 X-16.1
N84 G03 X16.1 I16.1 J0
N85 G01 Y3.
N86 G03 X-16.1 I-16.1 J0
N87 G01 Y0
N88 X-17.3
N89 G03 X17.3 I17.3 J0
N90 G01 Y3.
N91 G03 X-17.3 I-17.3 J0
N92 G01 Y0
N93 G03 X17.3 I17.3 J0
N94 G01 Y3.
N95 G03 X-17.3 I-17.3 J0
N96 G01 Y0
N97 G00 Z2.5
N98 Z5.
N99 Z25.
N100 S12000
N101 X-23.57 Y-22.82
N102 Z2.5
N103 G01 Z.25 F2.
N104 G03 X-24.252 Y-23.882 Z.174 I0 J-.75 F.333
N105 X-23.57 Y-24.32 Z.131 I.682 J.312
N106 X-22.82 Y-23.57 Z.071 I0 J.75
N107 X-23.57 Y-22.82 Z.011 I-.75 J0
N108 X-24.252 Y-23.882 Z-.065 I0 J-.75
N109 X-23.57 Y-24.32 Z-.108 I.682 J.312
N110 X-22.82 Y-23.57 Z-.168 I0 J.75
N111 X-23.57 Y-22.82 Z-.227 I-.75 J0
N112 X-24.252 Y-23.882 Z-.303 I0 J-.75
N113 X-23.57 Y-24.32 Z-.347 I.682 J.312
N114 X-22.82 Y-23.57 Z-.406 I0 J.75
N115 X-23.57 Y-22.82 Z-.466 I-.75 J0
N116 X-24.252 Y-23.882 Z-.542 I0 J-.75
N117 X-23.57 Y-24.32 Z-.585 I.682 J.312
N118 X-22.82 Y-23.57 Z-.645 I0 J.75
N119 X-23.57 Y-22.82 Z-.705 I-.75 J0
N120 X-24.252 Y-23.882 Z-.781 I0 J-.75
N121 X-23.57 Y-24.32 Z-.824 I.682 J.312
N122 X-22.82 Y-23.57 Z-.884 I0 J.75
N123 X-23.57 Y-22.82 Z-.943 I-.75 J0
N124 X-24.252 Y-23.882 Z-1.019 I0 J-.75
N125 X-23.57 Y-24.32 Z-1.063 I.682 J.312
N126 X-22.82 Y-23.57 Z-1.122 I0 J.75
N127 X-23.57 Y-22.82 Z-1.182 I-.75 J0
N128 X-24.252 Y-23.882 Z-1.258 I0 J-.75
N129 X-23.57 Y-24.32 Z-1.301 I.682 J.312 F.667
N130 X-22.82 Y-23.57 Z-1.361 I0 J.75
N131 X-23.57 Y-22.82 Z-1.42 I-.75 J0
N132 X-24.252 Y-23.882 Z-1.496 I0 J-.75
N133 X-23.57 Y-24.32 Z-1.54 I.682 J.312
N134 X-22.82 Y-23.57 Z-1.599 I0 J.75
N135 X-23.57 Y-22.82 Z-1.659 I-.75 J0
N136 X-24.252 Y-23.882 Z-1.735 I0 J-.75
N137 X-23.57 Y-24.32 Z-1.778 I.682 J.312
N138 X-22.82 Y-23.57 Z-1.838 I0 J.75
N139 X-23.57 Y-22.82 Z-1.898 I-.75 J0
N140 X-24.252 Y-23.882 Z-1.974 I0 J-.75
N141 X-23.57 Y-24.32 Z-2.017 I.682 J.312
N142 X-22.82 Y-23.57 Z-2.077 I0 J.75
N143 X-23.57 Y-22.82 Z-2.136 I-.75 J0
N144 X-24.252 Y-23.882 Z-2.212 I0 J-.75
N145 X-23.57 Y-24.32 Z-2.256 I.682 J.312
N146 X-22.82 Y-23.57 Z-2.315 I0 J.75
N147 X-23.57 Y-22.82 Z-2.375 I-.75 J0
N148 X-24.252 Y-23.882 Z-2.451 I0 J-.75
N149 X-23.57 Y-24.32 Z-2.494 I.682 J.312
N150 X-22.82 Y-23.57 Z-2.554 I0 J.75
N151 X-23.57 Y-22.82 Z-2.614 I-.75 J0
N152 X-24.252 Y-23.882 Z-2.69 I0 J-.75
N153 X-23.57 Y-24.32 Z-2.733 I.682 J.312
N154 X-22.82 Y-23.57 Z-2.793 I0 J.75
N155 X-23.57 Y-22.82 Z-2.852 I-.75 J0
N156 X-24.252 Y-23.882 Z-2.928 I0 J-.75
N157 X-23.57 Y-24.32 Z-2.972 I.682 J.312
N158 X-22.82 Y-23.57 Z-3.031 I0 J.75
N159 X-23.57 Y-22.82 Z-3.091 I-.75 J0
N160 X-24.252 Y-23.882 Z-3.167 I0 J-.75
N161 X-23.57 Y-24.32 Z-3.21 I.682 J.312
N162 X-22.82 Y-23.57 Z-3.27 I0 J.75
N163 X-23.57 Y-22.82 Z-3.33 I-.75 J0
N164 X-24.252 Y-23.882 Z-3.406 I0 J-.75
N165 X-23.57 Y-24.32 Z-3.449 I.682 J.312
N166 X-22.82 Y-23.57 Z-3.509 I0 J.75
N167 X-23.57 Y-22.82 Z-3.568 I-.75 J0
N168 X-24.252 Y-23.882 Z-3.644 I0 J-.75
N169 X-23.57 Y-24.32 Z-3.687 I.682 J.312
N170 X-22.82 Y-23.57 Z-3.747 I0 J.75
N171 X-23.57 Y-22.82 Z-3.807 I-.75 J0
N172 X-24.252 Y-23.882 Z-3.883 I0 J-.75
N173 X-23.57 Y-24.32 Z-3.926 I.682 J.312
N174 X-22.82 Y-23.57 Z-3.986 I0 J.75
N175 X-23.57 Y-22.82 Z-4.045 I-.75 J0
N176 X-24.252 Y-23.882 Z-4.121 I0 J-.75
N177 X-23.57 Y-24.32 Z-4.165 I.682 J.312
N178 X-22.82 Y-23.57 Z-4.224 I0 J.75
N179 X-23.57 Y-22.82 Z-4.284 I-.75 J0
N180 X-24.252 Y-23.882 Z-4.36 I0 J-.75
N181 X-23.57 Y-24.32 Z-4.403 I.682 J.312
N182 X-22.82 Y-23.57 Z-4.463 I0 J.75
N183 X-23.57 Y-22.82 Z-4.523 I-.75 J0
N184 X-24.252 Y-23.882 Z-4.599 I0 J-.75
N185 X-23.57 Y-24.32 Z-4.642 I.682 J.312
N186 X-22.82 Y-23.57 Z-4.702 I0 J.75
N187 X-23.57 Y-22.82 Z-4.761 I-.75 J0
N188 X-24.252 Y-23.882 Z-4.837 I0 J-.75
N189 X-23.57 Y-24.32 Z-4.881 I.682 J.312
N190 X-22.82 Y-23.57 Z-4.94 I0 J.75
N191 X-23.57 Y-22.82 Z-5. I-.75 J0
N192 X-24.252 Y-23.882 I0 J-.75
N193 X-23.57 Y-24.32 I.682 J.312
N194 X-22.82 Y-23.57 I0 J.75
N195 X-23.57 Y-22.82 I-.75 J0
N196 X-24.388 Y-23.594 I-.043 J-.774 F421.839
N197 X-23.57 Y-24.452 I.859 J0 F450.926
N198 X-22.895 Y-24.19 I.042 J.892 F462.101
N199 X-22.622 Y-23.514 I-.664 J.662 F476.46
N200 X-23.626 Y-22.622 I-.948 J-.056 F480.196
N201 X-24.518 Y-23.626 I.056 J-.948
N202 X-23.542 Y-24.52 I.948 J.056
N203 X-22.62 Y-23.57 I-.028 J.95
N204 G01 Y-23.066 F1238.4
N205 G03 X-23.57 Y-22.116 I-.95 J0 F480.196
N206 X-24.52 Y-23.066 I0 J-.95
N207 G01 Y-23.514 F1238.4
N208 G03 X-23.57 Y-24.266 I.773 J0
N209 X-22.62 Y-23.066 I-.283 J1.2
N210 G01 Y-22.579
N211 G03 X-23.57 Y-21.629 I-.95 J0 F480.196
N212 X-24.52 Y-22.579 I0 J-.95
N213 G01 Y-23.066 F1238.4
N214 G03 X-24.09 Y-23.362 Z-4.87 I.317 J0
N215 G01 X-23.565 Y-23.16 Z-4.75 F16500.
N216 X-22.823 Y-22.874 Z-4.919
N217 G03 X-22.62 Y-22.579 Z-5. I-.114 J.296 F1238.4
N218 G01 Y-22.092
N219 G03 X-23.57 Y-21.142 I-.95 J0 F480.196
N220 X-24.52 Y-22.092 I0 J-.95
N221 G01 Y-22.579 F1238.4
N222 G03 X-24.09 Y-22.874 Z-4.87 I.317 J0
N223 G01 X-23.565 Y-22.673 Z-4.75 F16500.
N224 X-22.823 Y-22.388 Z-4.919
N225 G03 X-22.62 Y-22.092 Z-5. I-.114 J.296 F1238.4
N226 G01 Y-21.581
N227 G03 X-23.57 Y-20.631 I-.95 J0 F480.196
N228 X-24.52 Y-21.581 I0 J-.95
N229 G01 Y-22.092 F1238.4
N230 G03 X-24.085 Y-22.386 Z-4.869 I.317 J0
N231 G01 X-23.564 Y-22.176 Z-4.75 F16500.
N232 X-22.818 Y-21.874 Z-4.92
N233 G03 X-22.62 Y-21.581 Z-5. I-.119 J.294 F1238.4
N234 G01 Y-21.091
N235 G03 X-23.57 Y-20.141 I-.95 J0 F480.196
N236 X-24.52 Y-21.091 I0 J-.95
N237 G01 Y-21.581 F1238.4
N238 G03 X-24.089 Y-21.876 Z-4.869 I.317 J0
N239 G01 X-23.565 Y-21.673 Z-4.75 F16500.
N240 X-22.822 Y-21.387 Z-4.919
N241 G03 X-22.62 Y-21.091 Z-5. I-.114 J.295 F1238.4
N242 G01 Y-20.57
N243 G03 X-23.57 Y-19.62 I-.95 J0 F480.196
N244 X-24.52 Y-20.57 I0 J-.95
N245 G01 Y-21.091 F1238.4
N246 G03 X-24.203 Y-21.408 Z-4.75 I.317 J0
N247 G00 Z25.
N248 X-23.57 Y24.32
N249 Z2.5
N250 G01 Z.25 F2.
N251 G03 X-24.252 Y23.258 Z.174 I0 J-.75 F.333
N252 X-23.57 Y22.82 Z.131 I.682 J.312
N253 X-22.82 Y23.57 Z.071 I0 J.75
N254 X-23.57 Y24.32 Z.011 I-.75 J0
N255 X-24.252 Y23.258 Z-.065 I0 J-.75
N256 X-23.57 Y22.82 Z-.108 I.682 J.312
N257 X-22.82 Y23.57 Z-.168 I0 J.75
N258 X-23.57 Y24.32 Z-.227 I-.75 J0
N259 X-24.252 Y23.258 Z-.303 I0 J-.75
N260 X-23.57 Y22.82 Z-.347 I.682 J.312
N261 X-22.82 Y23.57 Z-.406 I0 J.75
N262 X-23.57 Y24.32 Z-.466 I-.75 J0
N263 X-24.252 Y23.258 Z-.542 I0 J-.75
N264 X-23.57 Y22.82 Z-.585 I.682 J.312
N265 X-22.82 Y23.57 Z-.645 I0 J.75
N266 X-23.57 Y24.32 Z-.705 I-.75 J0
N267 X-24.252 Y23.258 Z-.781 I0 J-.75
N268 X-23.57 Y22.82 Z-.824 I.682 J.312
N269 X-22.82 Y23.57 Z-.884 I0 J.75
N270 X-23.57 Y24.32 Z-.943 I-.75 J0
N271 X-24.252 Y23.258 Z-1.019 I0 J-.75
N272 X-23.57 Y22.82 Z-1.063 I.682 J.312
N273 X-22.82 Y23.57 Z-1.122 I0 J.75
N274 X-23.57 Y24.32 Z-1.182 I-.75 J0
N275 X-24.252 Y23.258 Z-1.258 I0 J-.75
N276 X-23.57 Y22.82 Z-1.301 I.682 J.312 F.667
N277 X-22.82 Y23.57 Z-1.361 I0 J.75
N278 X-23.57 Y24.32 Z-1.42 I-.75 J0
N279 X-24.252 Y23.258 Z-1.496 I0 J-.75
N280 X-23.57 Y22.82 Z-1.54 I.682 J.312
N281 X-22.82 Y23.57 Z-1.599 I0 J.75
N282 X-23.57 Y24.32 Z-1.659 I-.75 J0
N283 X-24.252 Y23.258 Z-1.735 I0 J-.75
N284 X-23.57 Y22.82 Z-1.778 I.682 J.312
N285 X-22.82 Y23.57 Z-1.838 I0 J.75
N286 X-23.57 Y24.32 Z-1.898 I-.75 J0
N287 X-24.252 Y23.258 Z-1.974 I0 J-.75
N288 X-23.57 Y22.82 Z-2.017 I.682 J.312
N289 X-22.82 Y23.57 Z-2.077 I0 J.75
N290 X-23.57 Y24.32 Z-2.136 I-.75 J0
N291 X-24.252 Y23.258 Z-2.212 I0 J-.75
N292 X-23.57 Y22.82 Z-2.256 I.682 J.312
N293 X-22.82 Y23.57 Z-2.315 I0 J.75
N294 X-23.57 Y24.32 Z-2.375 I-.75 J0
N295 X-24.252 Y23.258 Z-2.451 I0 J-.75
N296 X-23.57 Y22.82 Z-2.494 I.682 J.312
N297 X-22.82 Y23.57 Z-2.554 I0 J.75
N298 X-23.57 Y24.32 Z-2.614 I-.75 J0
N299 X-24.252 Y23.258 Z-2.69 I0 J-.75
N300 X-23.57 Y22.82 Z-2.733 I.682 J.312
N301 X-22.82 Y23.57 Z-2.793 I0 J.75
N302 X-23.57 Y24.32 Z-2.852 I-.75 J0
N303 X-24.252 Y23.258 Z-2.928 I0 J-.75
N304 X-23.57 Y22.82 Z-2.972 I.682 J.312
N305 X-22.82 Y23.57 Z-3.031 I0 J.75
N306 X-23.57 Y24.32 Z-3.091 I-.75 J0
N307 X-24.252 Y23.258 Z-3.167 I0 J-.75
N308 X-23.57 Y22.82 Z-3.21 I.682 J.312
N309 X-22.82 Y23.57 Z-3.27 I0 J.75
N310 X-23.57 Y24.32 Z-3.33 I-.75 J0
N311 X-24.252 Y23.258 Z-3.406 I0 J-.75
N312 X-23.57 Y22.82 Z-3.449 I.682 J.312
N313 X-22.82 Y23.57 Z-3.509 I0 J.75
N314 X-23.57 Y24.32 Z-3.568 I-.75 J0
N315 X-24.252 Y23.258 Z-3.644 I0 J-.75
N316 X-23.57 Y22.82 Z-3.688 I.682 J.312
N317 X-22.82 Y23.57 Z-3.747 I0 J.75
N318 X-23.57 Y24.32 Z-3.807 I-.75 J0
N319 X-24.252 Y23.258 Z-3.883 I0 J-.75
N320 X-23.57 Y22.82 Z-3.926 I.682 J.312
N321 X-22.82 Y23.57 Z-3.986 I0 J.75
N322 X-23.57 Y24.32 Z-4.045 I-.75 J0
N323 X-24.252 Y23.258 Z-4.121 I0 J-.75
N324 X-23.57 Y22.82 Z-4.165 I.682 J.312
N325 X-22.82 Y23.57 Z-4.224 I0 J.75
N326 X-23.57 Y24.32 Z-4.284 I-.75 J0
N327 X-24.252 Y23.258 Z-4.36 I0 J-.75
N328 X-23.57 Y22.82 Z-4.403 I.682 J.312
N329 X-22.82 Y23.57 Z-4.463 I0 J.75
N330 X-23.57 Y24.32 Z-4.523 I-.75 J0
N331 X-24.252 Y23.258 Z-4.599 I0 J-.75
N332 X-23.57 Y22.82 Z-4.642 I.682 J.312
N333 X-22.82 Y23.57 Z-4.702 I0 J.75
N334 X-23.57 Y24.32 Z-4.761 I-.75 J0
N335 X-24.252 Y23.258 Z-4.837 I0 J-.75
N336 X-23.57 Y22.82 Z-4.881 I.682 J.312
N337 X-22.82 Y23.57 Z-4.94 I0 J.75
N338 X-23.57 Y24.32 Z-5. I-.75 J0
N339 X-24.252 Y23.258 I0 J-.75
N340 X-23.57 Y22.82 I.682 J.312
N341 X-22.82 Y23.57 I0 J.75
N342 X-23.57 Y24.32 I-.75 J0
N343 X-24.388 Y23.546 I-.043 J-.774 F421.839
N344 X-23.57 Y22.688 I.859 J0 F450.926
N345 X-22.895 Y22.95 I.042 J.892 F462.101
N346 X-22.622 Y23.626 I-.664 J.662 F476.46
N347 X-23.626 Y24.518 I-.948 J-.056 F480.196
N348 X-24.518 Y23.514 I.056 J-.948
N349 X-23.542 Y22.62 I.948 J.056
N350 X-22.62 Y23.57 I-.028 J.95
N351 G01 Y24.074 F1238.4
N352 G03 X-23.57 Y25.024 I-.95 J0 F480.196
N353 X-24.52 Y24.074 I0 J-.95
N354 G01 Y23.626 F1238.4
N355 G03 X-23.57 Y22.874 I.773 J0
N356 X-22.62 Y24.074 I-.283 J1.2
N357 G01 Y24.561
N358 G03 X-23.57 Y25.511 I-.95 J0 F480.196
N359 X-24.52 Y24.561 I0 J-.95
N360 G01 Y24.074 F1238.4
N361 G03 X-24.09 Y23.778 Z-4.87 I.317 J0
N362 G01 X-23.565 Y23.98 Z-4.75 F16500.
N363 X-22.823 Y24.266 Z-4.919
N364 G03 X-22.62 Y24.561 Z-5. I-.114 J.296 F1238.4
N365 G01 Y25.048
N366 G03 X-23.57 Y25.998 I-.95 J0 F480.196
N367 X-24.52 Y25.048 I0 J-.95
N368 G01 Y24.561 F1238.4
N369 G03 X-24.09 Y24.266 Z-4.87 I.317 J0
N370 G01 X-23.565 Y24.467 Z-4.75 F16500.
N371 X-22.823 Y24.752 Z-4.919
N372 G03 X-22.62 Y25.048 Z-5. I-.114 J.296 F1238.4
N373 G01 Y25.559
N374 G03 X-23.57 Y26.509 I-.95 J0 F480.196
N375 X-24.52 Y25.559 I0 J-.95
N376 G01 Y25.048 F1238.4
N377 G03 X-24.085 Y24.754 Z-4.869 I.317 J0
N378 G01 X-23.564 Y24.964 Z-4.75 F16500.
N379 X-22.818 Y25.266 Z-4.92
N380 G03 X-22.62 Y25.559 Z-5. I-.119 J.294 F1238.4
N381 G01 Y26.049
N382 G03 X-23.57 Y26.999 I-.95 J0 F480.196
N383 X-24.52 Y26.049 I0 J-.95
N384 G01 Y25.559 F1238.4
N385 G03 X-24.089 Y25.264 Z-4.869 I.317 J0
N386 G01 X-23.565 Y25.467 Z-4.75 F16500.
N387 X-22.822 Y25.753 Z-4.919
N388 G03 X-22.62 Y26.049 Z-5. I-.114 J.295 F1238.4
N389 G01 Y26.57
N390 G03 X-23.57 Y27.52 I-.95 J0 F480.196
N391 X-24.52 Y26.57 I0 J-.95
N392 G01 Y26.049 F1238.4
N393 G03 X-24.203 Y25.732 Z-4.75 I.317 J0
N394 G00 Z25.
N395 X23.57 Y25.82
N396 Z2.5
N397 G01 Z.25 F2.
N398 G03 X24.252 Y26.882 Z.174 I0 J.75 F.333
N399 X23.57 Y27.32 Z.131 I-.682 J-.312
N400 X22.82 Y26.57 Z.071 I0 J-.75
N401 X23.57 Y25.82 Z.011 I.75 J0
N402 X24.252 Y26.882 Z-.065 I0 J.75
N403 X23.57 Y27.32 Z-.108 I-.682 J-.312
N404 X22.82 Y26.57 Z-.168 I0 J-.75
N405 X23.57 Y25.82 Z-.227 I.75 J0
N406 X24.252 Y26.882 Z-.303 I0 J.75
N407 X23.57 Y27.32 Z-.347 I-.682 J-.312
N408 X22.82 Y26.57 Z-.406 I0 J-.75
N409 X23.57 Y25.82 Z-.466 I.75 J0
N410 X24.252 Y26.882 Z-.542 I0 J.75
N411 X23.57 Y27.32 Z-.585 I-.682 J-.312
N412 X22.82 Y26.57 Z-.645 I0 J-.75
N413 X23.57 Y25.82 Z-.705 I.75 J0
N414 X24.252 Y26.882 Z-.781 I0 J.75
N415 X23.57 Y27.32 Z-.824 I-.682 J-.312
N416 X22.82 Y26.57 Z-.884 I0 J-.75
N417 X23.57 Y25.82 Z-.943 I.75 J0
N418 X24.252 Y26.882 Z-1.019 I0 J.75
N419 X23.57 Y27.32 Z-1.063 I-.682 J-.312
N420 X22.82 Y26.57 Z-1.122 I0 J-.75
N421 X23.57 Y25.82 Z-1.182 I.75 J0
N422 X24.252 Y26.882 Z-1.258 I0 J.75
N423 X23.57 Y27.32 Z-1.301 I-.682 J-.312 F.667
N424 X22.82 Y26.57 Z-1.361 I0 J-.75
N425 X23.57 Y25.82 Z-1.42 I.75 J0
N426 X24.252 Y26.882 Z-1.496 I0 J.75
N427 X23.57 Y27.32 Z-1.54 I-.682 J-.312
N428 X22.82 Y26.57 Z-1.599 I0 J-.75
N429 X23.57 Y25.82 Z-1.659 I.75 J0
N430 X24.252 Y26.882 Z-1.735 I0 J.75
N431 X23.57 Y27.32 Z-1.778 I-.682 J-.312
N432 X22.82 Y26.57 Z-1.838 I0 J-.75
N433 X23.57 Y25.82 Z-1.898 I.75 J0
N434 X24.252 Y26.882 Z-1.974 I0 J.75
N435 X23.57 Y27.32 Z-2.017 I-.682 J-.312
N436 X22.82 Y26.57 Z-2.077 I0 J-.75
N437 X23.57 Y25.82 Z-2.136 I.75 J0
N438 X24.252 Y26.882 Z-2.212 I0 J.75
N439 X23.57 Y27.32 Z-2.256 I-.682 J-.312
N440 X22.82 Y26.57 Z-2.315 I0 J-.75
N441 X23.57 Y25.82 Z-2.375 I.75 J0
N442 X24.252 Y26.882 Z-2.451 I0 J.75
N443 X23.57 Y27.32 Z-2.494 I-.682 J-.312
N444 X22.82 Y26.57 Z-2.554 I0 J-.75
N445 X23.57 Y25.82 Z-2.614 I.75 J0
N446 X24.252 Y26.882 Z-2.69 I0 J.75
N447 X23.57 Y27.32 Z-2.733 I-.682 J-.312
N448 X22.82 Y26.57 Z-2.793 I0 J-.75
N449 X23.57 Y25.82 Z-2.852 I.75 J0
N450 X24.252 Y26.882 Z-2.928 I0 J.75
N451 X23.57 Y27.32 Z-2.972 I-.682 J-.312
N452 X22.82 Y26.57 Z-3.031 I0 J-.75
N453 X23.57 Y25.82 Z-3.091 I.75 J0
N454 X24.252 Y26.882 Z-3.167 I0 J.75
N455 X23.57 Y27.32 Z-3.21 I-.682 J-.312
N456 X22.82 Y26.57 Z-3.27 I0 J-.75
N457 X23.57 Y25.82 Z-3.33 I.75 J0
N458 X24.252 Y26.882 Z-3.406 I0 J.75
N459 X23.57 Y27.32 Z-3.449 I-.682 J-.312
N460 X22.82 Y26.57 Z-3.509 I0 J-.75
N461 X23.57 Y25.82 Z-3.568 I.75 J0
N462 X24.252 Y26.882 Z-3.644 I0 J.75
N463 X23.57 Y27.32 Z-3.687 I-.682 J-.312
N464 X22.82 Y26.57 Z-3.747 I0 J-.75
N465 X23.57 Y25.82 Z-3.807 I.75 J0
N466 X24.252 Y26.882 Z-3.883 I0 J.75
N467 X23.57 Y27.32 Z-3.926 I-.682 J-.312
N468 X22.82 Y26.57 Z-3.986 I0 J-.75
N469 X23.57 Y25.82 Z-4.045 I.75 J0
N470 X24.252 Y26.882 Z-4.121 I0 J.75
N471 X23.57 Y27.32 Z-4.165 I-.682 J-.312
N472 X22.82 Y26.57 Z-4.224 I0 J-.75
N473 X23.57 Y25.82 Z-4.284 I.75 J0
N474 X24.252 Y26.882 Z-4.36 I0 J.75
N475 X23.57 Y27.32 Z-4.403 I-.682 J-.312
N476 X22.82 Y26.57 Z-4.463 I0 J-.75
N477 X23.57 Y25.82 Z-4.523 I.75 J0
N478 X24.252 Y26.882 Z-4.599 I0 J.75
N479 X23.57 Y27.32 Z-4.642 I-.682 J-.312
N480 X22.82 Y26.57 Z-4.702 I0 J-.75
N481 X23.57 Y25.82 Z-4.761 I.75 J0
N482 X24.252 Y26.882 Z-4.837 I0 J.75
N483 X23.57 Y27.32 Z-4.881 I-.682 J-.312
N484 X22.82 Y26.57 Z-4.94 I0 J-.75
N485 X23.57 Y25.82 Z-5. I.75 J0
N486 X24.252 Y26.882 I0 J.75
N487 X23.57 Y27.32 I-.682 J-.312
N488 X22.82 Y26.57 I0 J-.75
N489 X23.57 Y25.82 I.75 J0
N490 X24.388 Y26.594 I.043 J.774 F421.839
N491 X23.57 Y27.452 I-.859 J0 F450.926
N492 X22.895 Y27.19 I-.042 J-.892 F462.101
N493 X22.622 Y26.514 I.664 J-.662 F476.46
N494 X23.626 Y25.622 I.948 J.056 F480.196
N495 X24.518 Y26.626 I-.056 J.948
N496 X23.542 Y27.52 I-.948 J-.056
N497 X22.62 Y26.57 I.028 J-.95
N498 G01 Y26.066 F1238.4
N499 G03 X23.57 Y25.116 I.95 J0 F480.196
N500 X24.52 Y26.066 I0 J.95
N501 G01 Y26.514 F1238.4
N502 G03 X23.57 Y27.266 I-.773 J0
N503 X22.62 Y26.066 I.283 J-1.2
N504 G01 Y25.579
N505 G03 X23.57 Y24.629 I.95 J0 F480.196
N506 X24.52 Y25.579 I0 J.95
N507 G01 Y26.066 F1238.4
N508 G03 X24.09 Y26.362 Z-4.87 I-.317 J0
N509 G01 X23.565 Y26.16 Z-4.75 F16500.
N510 X22.823 Y25.874 Z-4.919
N511 G03 X22.62 Y25.579 Z-5. I.114 J-.296 F1238.4
N512 G01 Y25.092
N513 G03 X23.57 Y24.142 I.95 J0 F480.196
N514 X24.52 Y25.092 I0 J.95
N515 G01 Y25.579 F1238.4
N516 G03 X24.09 Y25.874 Z-4.87 I-.317 J0
N517 G01 X23.565 Y25.673 Z-4.75 F16500.
N518 X22.823 Y25.388 Z-4.919
N519 G03 X22.62 Y25.092 Z-5. I.114 J-.296 F1238.4
N520 G01 Y24.581
N521 G03 X23.57 Y23.631 I.95 J0 F480.196
N522 X24.52 Y24.581 I0 J.95
N523 G01 Y25.092 F1238.4
N524 G03 X24.085 Y25.386 Z-4.869 I-.317 J0
N525 G01 X23.564 Y25.176 Z-4.75 F16500.
N526 X22.818 Y24.874 Z-4.92
N527 G03 X22.62 Y24.581 Z-5. I.119 J-.294 F1238.4
N528 G01 Y24.091
N529 G03 X23.57 Y23.141 I.95 J0 F480.196
N530 X24.52 Y24.091 I0 J.95
N531 G01 Y24.581 F1238.4
N532 G03 X24.089 Y24.876 Z-4.869 I-.317 J0
N533 G01 X23.565 Y24.673 Z-4.75 F16500.
N534 X22.822 Y24.387 Z-4.919
N535 G03 X22.62 Y24.091 Z-5. I.114 J-.295 F1238.4
N536 G01 Y23.57
N537 G03 X23.57 Y22.62 I.95 J0 F480.196
N538 X24.52 Y23.57 I0 J.95
N539 G01 Y24.091 F1238.4
N540 G03 X24.203 Y24.408 Z-4.75 I-.317 J0
N541 G00 Z25.
N542 X23.57 Y-21.32
N543 Z2.5
N544 G01 Z.25 F2.
N545 G03 X24.252 Y-20.258 Z.174 I0 J.75 F.333
N546 X23.57 Y-19.82 Z.131 I-.682 J-.312
N547 X22.82 Y-20.57 Z.071 I0 J-.75
N548 X23.57 Y-21.32 Z.011 I.75 J0
N549 X24.252 Y-20.258 Z-.065 I0 J.75
N550 X23.57 Y-19.82 Z-.108 I-.682 J-.312
N551 X22.82 Y-20.57 Z-.168 I0 J-.75
N552 X23.57 Y-21.32 Z-.227 I.75 J0
N553 X24.252 Y-20.258 Z-.303 I0 J.75
N554 X23.57 Y-19.82 Z-.347 I-.682 J-.312
N555 X22.82 Y-20.57 Z-.406 I0 J-.75
N556 X23.57 Y-21.32 Z-.466 I.75 J0
N557 X24.252 Y-20.258 Z-.542 I0 J.75
N558 X23.57 Y-19.82 Z-.585 I-.682 J-.312
N559 X22.82 Y-20.57 Z-.645 I0 J-.75
N560 X23.57 Y-21.32 Z-.705 I.75 J0
N561 X24.252 Y-20.258 Z-.781 I0 J.75
N562 X23.57 Y-19.82 Z-.824 I-.682 J-.312
N563 X22.82 Y-20.57 Z-.884 I0 J-.75
N564 X23.57 Y-21.32 Z-.943 I.75 J0
N565 X24.252 Y-20.258 Z-1.019 I0 J.75
N566 X23.57 Y-19.82 Z-1.063 I-.682 J-.312
N567 X22.82 Y-20.57 Z-1.122 I0 J-.75
N568 X23.57 Y-21.32 Z-1.182 I.75 J0
N569 X24.252 Y-20.258 Z-1.258 I0 J.75
N570 X23.57 Y-19.82 Z-1.301 I-.682 J-.312 F.667
N571 X22.82 Y-20.57 Z-1.361 I0 J-.75
N572 X23.57 Y-21.32 Z-1.42 I.75 J0
N573 X24.252 Y-20.258 Z-1.496 I0 J.75
N574 X23.57 Y-19.82 Z-1.54 I-.682 J-.312
N575 X22.82 Y-20.57 Z-1.599 I0 J-.75
N576 X23.57 Y-21.32 Z-1.659 I.75 J0
N577 X24.252 Y-20.258 Z-1.735 I0 J.75
N578 X23.57 Y-19.82 Z-1.778 I-.682 J-.312
N579 X22.82 Y-20.57 Z-1.838 I0 J-.75
N580 X23.57 Y-21.32 Z-1.898 I.75 J0
N581 X24.252 Y-20.258 Z-1.974 I0 J.75
N582 X23.57 Y-19.82 Z-2.017 I-.682 J-.312
N583 X22.82 Y-20.57 Z-2.077 I0 J-.75
N584 X23.57 Y-21.32 Z-2.136 I.75 J0
N585 X24.252 Y-20.258 Z-2.212 I0 J.75
N586 X23.57 Y-19.82 Z-2.256 I-.682 J-.312
N587 X22.82 Y-20.57 Z-2.315 I0 J-.75
N588 X23.57 Y-21.32 Z-2.375 I.75 J0
N589 X24.252 Y-20.258 Z-2.451 I0 J.75
N590 X23.57 Y-19.82 Z-2.494 I-.682 J-.312
N591 X22.82 Y-20.57 Z-2.554 I0 J-.75
N592 X23.57 Y-21.32 Z-2.614 I.75 J0
N593 X24.252 Y-20.258 Z-2.69 I0 J.75
N594 X23.57 Y-19.82 Z-2.733 I-.682 J-.312
N595 X22.82 Y-20.57 Z-2.793 I0 J-.75
N596 X23.57 Y-21.32 Z-2.852 I.75 J0
N597 X24.252 Y-20.258 Z-2.928 I0 J.75
N598 X23.57 Y-19.82 Z-2.972 I-.682 J-.312
N599 X22.82 Y-20.57 Z-3.031 I0 J-.75
N600 X23.57 Y-21.32 Z-3.091 I.75 J0
N601 X24.252 Y-20.258 Z-3.167 I0 J.75
N602 X23.57 Y-19.82 Z-3.21 I-.682 J-.312
N603 X22.82 Y-20.57 Z-3.27 I0 J-.75
N604 X23.57 Y-21.32 Z-3.33 I.75 J0
N605 X24.252 Y-20.258 Z-3.406 I0 J.75
N606 X23.57 Y-19.82 Z-3.449 I-.682 J-.312
N607 X22.82 Y-20.57 Z-3.509 I0 J-.75
N608 X23.57 Y-21.32 Z-3.568 I.75 J0
N609 X24.252 Y-20.258 Z-3.644 I0 J.75
N610 X23.57 Y-19.82 Z-3.687 I-.682 J-.312
N611 X22.82 Y-20.57 Z-3.747 I0 J-.75
N612 X23.57 Y-21.32 Z-3.807 I.75 J0
N613 X24.252 Y-20.258 Z-3.883 I0 J.75
N614 X23.57 Y-19.82 Z-3.926 I-.682 J-.312
N615 X22.82 Y-20.57 Z-3.986 I0 J-.75
N616 X23.57 Y-21.32 Z-4.045 I.75 J0
N617 X24.252 Y-20.258 Z-4.121 I0 J.75
N618 X23.57 Y-19.82 Z-4.165 I-.682 J-.312
N619 X22.82 Y-20.57 Z-4.224 I0 J-.75
N620 X23.57 Y-21.32 Z-4.284 I.75 J0
N621 X24.252 Y-20.258 Z-4.36 I0 J.75
N622 X23.57 Y-19.82 Z-4.403 I-.682 J-.312
N623 X22.82 Y-20.57 Z-4.463 I0 J-.75
N624 X23.57 Y-21.32 Z-4.523 I.75 J0
N625 X24.252 Y-20.258 Z-4.599 I0 J.75
N626 X23.57 Y-19.82 Z-4.642 I-.682 J-.312
N627 X22.82 Y-20.57 Z-4.702 I0 J-.75
N628 X23.57 Y-21.32 Z-4.761 I.75 J0
N629 X24.252 Y-20.258 Z-4.837 I0 J.75
N630 X23.57 Y-19.82 Z-4.881 I-.682 J-.312
N631 X22.82 Y-20.57 Z-4.94 I0 J-.75
N632 X23.57 Y-21.32 Z-5. I.75 J0
N633 X24.252 Y-20.258 I0 J.75
N634 X23.57 Y-19.82 I-.682 J-.312
N635 X22.82 Y-20.57 I0 J-.75
N636 X23.57 Y-21.32 I.75 J0
N637 X24.388 Y-20.546 I.043 J.774 F421.839
N638 X23.57 Y-19.688 I-.859 J0 F450.926
N639 X22.895 Y-19.95 I-.042 J-.892 F462.101
N640 X22.622 Y-20.626 I.664 J-.662 F476.46
N641 X23.626 Y-21.518 I.948 J.056 F480.196
N642 X24.518 Y-20.514 I-.056 J.948
N643 X23.542 Y-19.62 I-.948 J-.056
N644 X22.62 Y-20.57 I.028 J-.95
N645 G01 Y-21.074 F1238.4
N646 G03 X23.57 Y-22.024 I.95 J0 F480.196
N647 X24.52 Y-21.074 I0 J.95
N648 G01 Y-20.626 F1238.4
N649 G03 X23.57 Y-19.874 I-.773 J0
N650 X22.62 Y-21.074 I.283 J-1.2
N651 G01 Y-21.561
N652 G03 X23.57 Y-22.511 I.95 J0 F480.196
N653 X24.52 Y-21.561 I0 J.95
N654 G01 Y-21.074 F1238.4
N655 G03 X24.09 Y-20.778 Z-4.87 I-.317 J0
N656 G01 X23.565 Y-20.98 Z-4.75 F16500.
N657 X22.823 Y-21.266 Z-4.919
N658 G03 X22.62 Y-21.561 Z-5. I.114 J-.296 F1238.4
N659 G01 Y-22.048
N660 G03 X23.57 Y-22.998 I.95 J0 F480.196
N661 X24.52 Y-22.048 I0 J.95
N662 G01 Y-21.561 F1238.4
N663 G03 X24.09 Y-21.266 Z-4.87 I-.317 J0
N664 G01 X23.565 Y-21.467 Z-4.75 F16500.
N665 X22.823 Y-21.752 Z-4.919
N666 G03 X22.62 Y-22.048 Z-5. I.114 J-.296 F1238.4
N667 G01 Y-22.559
N668 G03 X23.57 Y-23.509 I.95 J0 F480.196
N669 X24.52 Y-22.559 I0 J.95
N670 G01 Y-22.048 F1238.4
N671 G03 X24.085 Y-21.754 Z-4.869 I-.317 J0
N672 G01 X23.564 Y-21.964 Z-4.75 F16500.
N673 X22.818 Y-22.266 Z-4.92
N674 G03 X22.62 Y-22.559 Z-5. I.119 J-.294 F1238.4
N675 G01 Y-23.049
N676 G03 X23.57 Y-23.999 I.95 J0 F480.196
N677 X24.52 Y-23.049 I0 J.95
N678 G01 Y-22.559 F1238.4
N679 G03 X24.089 Y-22.264 Z-4.869 I-.317 J0
N680 G01 X23.565 Y-22.467 Z-4.75 F16500.
N681 X22.822 Y-22.753 Z-4.919
N682 G03 X22.62 Y-23.049 Z-5. I.114 J-.295 F1238.4
N683 G01 Y-23.57
N684 G03 X23.57 Y-24.52 I.95 J0 F480.196
N685 X24.52 Y-23.57 I0 J.95
N686 G01 Y-23.049 F1238.4
N687 G03 X24.203 Y-22.732 Z-4.75 I-.317 J0
N688 G00 Z25.
N689 X-15.492 Y4.339
N690 Z3.
N691 G01 X-14.336 Y5.972 F1234.44
N692 G03 X-16.648 Y2.707 Z2. I-1.156 J-1.632
N693 X-14.336 Y5.972 Z1. I1.156 J1.632
N694 X-16.648 Y2.707 Z0 I-1.156 J-1.632
N695 X-14.336 Y5.972 Z-1. I1.156 J1.632
N696 X-16.648 Y2.707 Z-2. I-1.156 J-1.632
N697 G01 X-16.359 Y3.115
N698 G41 D34 X-17.462 Y2.012
N699 G03 X-17.55 Y1.8 I.212 J-.212
N700 G01 Y0 F1645.92
N701 G03 X17.55 I17.55 J0
N702 G01 Y3.
N703 G03 X-17.55 I-17.55 J0
N704 G01 Y1.2
N705 G03 X-17.462 Y.988 I.3 J0
N706 G40 G01 X-16.359 Y-.115
N707 G00 Z3.
N708 Z25.
N709 S10000
N710 X-23.479 Y26.685
N711 Z5.
N712 Z3.
N713 G01 Z-5. F400.
N714 G41 D34 X-24.582 Y25.582
N715 G03 X-24.67 Y25.37 I.212 J-.212
N716 G01 Y23.57
N717 G03 X-22.47 I1.1 J0
N718 G01 Y26.57
N719 G03 X-24.67 I-1.1 J0
N720 G01 Y24.77
N721 G03 X-24.582 Y24.558 I.3 J0
N722 G40 G01 X-23.479 Y23.455
N723 G00 Z3.
N724 Z5.
N725 X23.661 Y26.685
N726 Z3.
N727 G01 Z-5.
N728 G41 D34 X22.558 Y25.582
N729 G03 X22.47 Y25.37 I.212 J-.212
N730 G01 Y23.57
N731 G03 X24.67 I1.1 J0
N732 G01 Y26.57
N733 G03 X22.47 I-1.1 J0
N734 G01 Y24.77
N735 G03 X22.558 Y24.558 I.3 J0
N736 G40 G01 X23.661 Y23.455
N737 G00 Z3.
N738 Z5.
N739 Y-20.455
N740 Z3.
N741 G01 Z-5.
N742 G41 D34 X22.558 Y-21.558
N743 G03 X22.47 Y-21.77 I.212 J-.212
N744 G01 Y-23.57
N745 G03 X24.67 I1.1 J0
N746 G01 Y-20.57
N747 G03 X22.47 I-1.1 J0
N748 G01 Y-22.37
N749 G03 X22.558 Y-22.582 I.3 J0
N750 G40 G01 X23.661 Y-23.685
N751 G00 Z3.
N752 Z5.
N753 X-23.479 Y-20.455
N754 Z3.
N755 G01 Z-5.
N756 G41 D34 X-24.582 Y-21.558
N757 G03 X-24.67 Y-21.77 I.212 J-.212
N758 G01 Y-23.57
N759 G03 X-22.47 I1.1 J0
N760 G01 Y-20.57
N761 G03 X-24.67 I-1.1 J0
N762 G01 Y-22.37
N763 G03 X-24.582 Y-22.582 I.3 J0
N764 G40 G01 X-23.479 Y-23.685
N765 G00 Z3.
N766 Z5. M09
N767 G91 G28 Z0
N768 G28 X0 Y0
N769 M30
