O0001
(This Post Processor is distributed on an "AS IS" BASIS, )
(WITHOUT WARRANTIES OR CONDITIONS OF ANY KIND, either express or implied. )
N1 G21
N2 (3MM CRB 2FL 12 LOC)
N3 G91 G28 X0 Y0 Z0
N4 T14 M06
N5 S10000 M03
N6 G90 G54 G00 X-.5 Y0
N7 G43 Z2.5 H14 M08
N8 G17 G01 X.5 F400.
N9 G03 X-1.5 Z2. I-1. J0
N10 X.5 Z1.5 I1. J0
N11 X-1.5 Z1. I-1. J0
N12 X.5 Z.5 I1. J0
N13 X-1.5 Z0 I-1. J0
N14 X.5 Z-.5 I1. J0
N15 X-1.5 Z-1. I-1. J0
N16 X.5 Z-1.5 I1. J0
N17 X-1.5 Z-2. I-1. J0
N18 G01 X-.5
N19 G03 X.5 I.5 J0
N20 G01 Y3.
N21 G03 X-.5 I-.5 J0
N22 G01 Y0
N23 X-1.7
N24 G03 X1.7 I1.7 J0
N25 G01 Y3.
N26 G03 X-1.7 I-1.7 J0
N27 G01 Y0
N28 X-2.9
N29 G03 X2.9 I2.9 J0
N30 G01 Y3.
N31 G03 X-2.9 I-2.9 J0
N32 G01 Y0
N33 X-4.1
N34 G03 X4.1 I4.1 J0
N35 G01 Y3.
N36 G03 X-4.1 I-4.1 J0
N37 G01 Y0
N38 X-5.3
N39 G03 X5.3 I5.3 J0
N40 G01 Y3.
N41 G03 X-5.3 I-5.3 J0
N42 G01 Y0
N43 X-6.5
N44 G03 X6.5 I6.5 J0
N45 G01 Y3.
N46 G03 X-6.5 I-6.5 J0
N47 G01 Y0
N48 X-7.7
N49 G03 X7.7 I7.7 J0
N50 G01 Y3.
N51 G03 X-7.7 I-7.7 J0
N52 G01 Y0
N53 X-8.9
N54 G03 X8.9 I8.9 J0
N55 G01 Y3.
N56 G03 X-8.9 I-8.9 J0
N57 G01 Y0
N58 X-10.1
N59 G03 X10.1 I10.1 J0
N60 G01 Y3.
N61 G03 X-10.1 I-10.1 J0
N62 G01 Y0
N63 X-11.3
N64 G03 X11.3 I11.3 J0
N65 G01 Y3.
N66 G03 X-11.3 I-11.3 J0
N67 G01 Y0
N68 X-12.5
N69 G03 X12.5 I12.5 J0
N70 G01 Y3.
N71 G03 X-12.5 I-12.5 J0
N72 G01 Y0
N73 X-13.7
N74 G03 X13.7 I13.7 J0
N75 G01 Y3.
N76 G03 X-13.7 I-13.7 J0
N77 G01 Y0
N78 X-14.9
N79 G03 X14.9 I14.9 J0
N80 G01 Y3.
N81 G03 X-14.9 I-14.9 J0
N82 G01 Y0
N83 X-16.1
N84 G03 X16.1 I16.1 J0
N85 G01 Y3.
N86 G03 X-16.1 I-16.1 J0
N87 G01 Y0
N88 X-17.3
N89 G03 X17.3 I17.3 J0
N90 G01 Y3.
N91 G03 X-17.3 I-17.3 J0
N92 G01 Y0
N93 G03 X17.3 I17.3 J0
N94 G01 Y3.
N95 G03 X-17.3 I-17.3 J0
N96 G01 Y0
N97 G00 Z2.5
N98 Z5.
N99 Z25.
N100 S12000
N101 X-23.57 Y-22.82
N102 Z.25
N103 G03 X-24.252 Y-23.882 Z.121 I0 J-.75 F53.333
N104 X-23.57 Y-24.32 Z.048 I.682 J.312
N105 X-22.82 Y-23.57 Z-.053 I0 J.75
N106 X-23.57 Y-22.82 Z-.154 I-.75 J0
N107 X-24.252 Y-23.882 Z-.282 I0 J-.75
N108 X-23.57 Y-24.32 Z-.356 I.682 J.312
N109 X-22.82 Y-23.57 Z-.457 I0 J.75
N110 X-23.57 Y-22.82 Z-.558 I-.75 J0
N111 X-24.252 Y-23.882 Z-.686 I0 J-.75
N112 X-23.57 Y-24.32 Z-.76 I.682 J.312
N113 X-22.82 Y-23.57 Z-.861 I0 J.75
N114 X-23.57 Y-22.82 Z-.962 I-.75 J0
N115 X-24.252 Y-23.882 Z-1.09 I0 J-.75
N116 X-23.57 Y-24.32 Z-1.163 I.682 J.312
N117 X-22.82 Y-23.57 Z-1.264 I0 J.75
N118 X-23.57 Y-22.82 Z-1.365 I-.75 J0 F106.667
N119 X-24.252 Y-23.882 Z-1.494 I0 J-.75
N120 X-23.57 Y-24.32 Z-1.567 I.682 J.312
N121 X-22.82 Y-23.57 Z-1.668 I0 J.75
N122 X-23.57 Y-22.82 Z-1.769 I-.75 J0
N123 X-24.252 Y-23.882 Z-1.898 I0 J-.75
N124 X-23.57 Y-24.32 Z-1.971 I.682 J.312
N125 X-22.82 Y-23.57 Z-2.072 I0 J.75
N126 X-23.57 Y-22.82 Z-2.173 I-.75 J0
N127 X-24.252 Y-23.882 Z-2.302 I0 J-.75
N128 X-23.57 Y-24.32 Z-2.375 I.682 J.312
N129 X-22.82 Y-23.57 Z-2.476 I0 J.75
N130 X-23.57 Y-22.82 Z-2.577 I-.75 J0
N131 X-24.252 Y-23.882 Z-2.705 I0 J-.75
N132 X-23.57 Y-24.32 Z-2.779 I.682 J.312
N133 X-22.82 Y-23.57 Z-2.88 I0 J.75
N134 X-23.57 Y-22.82 Z-2.981 I-.75 J0
N135 X-24.252 Y-23.882 Z-3.109 I0 J-.75
N136 X-23.57 Y-24.32 Z-3.183 I.682 J.312
N137 X-22.82 Y-23.57 Z-3.284 I0 J.75
N138 X-23.57 Y-22.82 Z-3.385 I-.75 J0
N139 X-24.252 Y-23.882 Z-3.513 I0 J-.75
N140 X-23.57 Y-24.32 Z-3.587 I.682 J.312
N141 X-22.82 Y-23.57 Z-3.688 I0 J.75
N142 X-23.57 Y-22.82 Z-3.788 I-.75 J0
N143 X-24.252 Y-23.882 Z-3.917 I0 J-.75
N144 X-23.57 Y-24.32 Z-3.99 I.682 J.312
N145 X-22.82 Y-23.57 Z-4.091 I0 J.75
N146 X-23.57 Y-22.82 Z-4.192 I-.75 J0
N147 X-24.252 Y-23.882 Z-4.321 I0 J-.75
N148 X-23.57 Y-24.32 Z-4.394 I.682 J.312
N149 X-22.82 Y-23.57 Z-4.495 I0 J.75
N150 X-23.57 Y-22.82 Z-4.596 I-.75 J0
N151 X-24.252 Y-23.882 Z-4.725 I0 J-.75
N152 X-23.57 Y-24.32 Z-4.798 I.682 J.312
N153 X-22.82 Y-23.57 Z-4.899 I0 J.75
N154 X-23.57 Y-22.82 Z-5. I-.75 J0
N155 X-24.252 Y-23.882 I0 J-.75
N156 X-23.57 Y-24.32 I.682 J.312
N157 X-22.82 Y-23.57 I0 J.75
N158 X-23.57 Y-22.82 I-.75 J0
N159 X-24.388 Y-23.594 I-.043 J-.774 F136.253
N160 X-23.57 Y-24.452 I.859 J0 F145.648
N161 X-22.895 Y-24.19 I.042 J.892 F149.257
N162 X-22.622 Y-23.514 I-.664 J.662 F153.895
N163 X-23.626 Y-22.622 I-.948 J-.056 F155.102
N164 X-24.518 Y-23.626 I.056 J-.948
N165 X-23.542 Y-24.52 I.948 J.056
N166 X-22.62 Y-23.57 I-.028 J.95
N167 G01 Y-23.066 F400.
N168 G03 X-23.57 Y-22.116 I-.95 J0 F155.102
N169 X-24.52 Y-23.066 I0 J-.95
N170 G01 Y-23.514 F400.
N171 G03 X-23.57 Y-24.266 I.773 J0
N172 X-22.62 Y-23.066 I-.283 J1.2
N173 G01 Y-22.579
N174 G03 X-23.57 Y-21.629 I-.95 J0 F155.102
N175 X-24.52 Y-22.579 I0 J-.95
N176 G01 Y-23.066 F400.
N177 G03 X-24.09 Y-23.362 Z-4.87 I.317 J0
N178 G01 X-23.565 Y-23.16 Z-4.75 F16500.
N179 X-22.823 Y-22.874 Z-4.919
N180 G03 X-22.62 Y-22.579 Z-5. I-.114 J.296 F400.
N181 G01 Y-22.092
N182 G03 X-23.57 Y-21.142 I-.95 J0 F155.102
N183 X-24.52 Y-22.092 I0 J-.95
N184 G01 Y-22.579 F400.
N185 G03 X-24.09 Y-22.874 Z-4.87 I.317 J0
N186 G01 X-23.565 Y-22.673 Z-4.75 F16500.
N187 X-22.823 Y-22.388 Z-4.919
N188 G03 X-22.62 Y-22.092 Z-5. I-.114 J.296 F400.
N189 G01 Y-21.581
N190 G03 X-23.57 Y-20.631 I-.95 J0 F155.102
N191 X-24.52 Y-21.581 I0 J-.95
N192 G01 Y-22.092 F400.
N193 G03 X-24.085 Y-22.386 Z-4.869 I.317 J0
N194 G01 X-23.564 Y-22.176 Z-4.75 F16500.
N195 X-22.818 Y-21.874 Z-4.92
N196 G03 X-22.62 Y-21.581 Z-5. I-.119 J.294 F400.
N197 G01 Y-21.091
N198 G03 X-23.57 Y-20.141 I-.95 J0 F155.102
N199 X-24.52 Y-21.091 I0 J-.95
N200 G01 Y-21.581 F400.
N201 G03 X-24.089 Y-21.876 Z-4.869 I.317 J0
N202 G01 X-23.565 Y-21.673 Z-4.75 F16500.
N203 X-22.822 Y-21.387 Z-4.919
N204 G03 X-22.62 Y-21.091 Z-5. I-.114 J.295 F400.
N205 G01 Y-20.57
N206 G03 X-23.57 Y-19.62 I-.95 J0 F155.102
N207 X-24.52 Y-20.57 I0 J-.95
N208 G01 Y-21.091 F400.
N209 G03 X-24.203 Y-21.408 Z-4.75 I.317 J0
N210 G00 Z25.
N211 X-23.57 Y24.32
N212 Z.25
N213 G03 X-24.252 Y23.258 Z.121 I0 J-.75 F53.333
N214 X-23.57 Y22.82 Z.048 I.682 J.312
N215 X-22.82 Y23.57 Z-.053 I0 J.75
N216 X-23.57 Y24.32 Z-.154 I-.75 J0
N217 X-24.252 Y23.258 Z-.282 I0 J-.75
N218 X-23.57 Y22.82 Z-.356 I.682 J.312
N219 X-22.82 Y23.57 Z-.457 I0 J.75
N220 X-23.57 Y24.32 Z-.558 I-.75 J0
N221 X-24.252 Y23.258 Z-.686 I0 J-.75
N222 X-23.57 Y22.82 Z-.76 I.682 J.312
N223 X-22.82 Y23.57 Z-.861 I0 J.75
N224 X-23.57 Y24.32 Z-.962 I-.75 J0
N225 X-24.252 Y23.258 Z-1.09 I0 J-.75
N226 X-23.57 Y22.82 Z-1.163 I.682 J.312
N227 X-22.82 Y23.57 Z-1.264 I0 J.75
N228 X-23.57 Y24.32 Z-1.365 I-.75 J0 F106.667
N229 X-24.252 Y23.258 Z-1.494 I0 J-.75
N230 X-23.57 Y22.82 Z-1.567 I.682 J.312
N231 X-22.82 Y23.57 Z-1.668 I0 J.75
N232 X-23.57 Y24.32 Z-1.769 I-.75 J0
N233 X-24.252 Y23.258 Z-1.898 I0 J-.75
N234 X-23.57 Y22.82 Z-1.971 I.682 J.312
N235 X-22.82 Y23.57 Z-2.072 I0 J.75
N236 X-23.57 Y24.32 Z-2.173 I-.75 J0
N237 X-24.252 Y23.258 Z-2.302 I0 J-.75
N238 X-23.57 Y22.82 Z-2.375 I.682 J.312
N239 X-22.82 Y23.57 Z-2.476 I0 J.75
N240 X-23.57 Y24.32 Z-2.577 I-.75 J0
N241 X-24.252 Y23.258 Z-2.705 I0 J-.75
N242 X-23.57 Y22.82 Z-2.779 I.682 J.312
N243 X-22.82 Y23.57 Z-2.88 I0 J.75
N244 X-23.57 Y24.32 Z-2.981 I-.75 J0
N245 X-24.252 Y23.258 Z-3.109 I0 J-.75
N246 X-23.57 Y22.82 Z-3.183 I.682 J.312
N247 X-22.82 Y23.57 Z-3.284 I0 J.75
N248 X-23.57 Y24.32 Z-3.385 I-.75 J0
N249 X-24.252 Y23.258 Z-3.513 I0 J-.75
N250 X-23.57 Y22.82 Z-3.587 I.682 J.312
N251 X-22.82 Y23.57 Z-3.688 I0 J.75
N252 X-23.57 Y24.32 Z-3.788 I-.75 J0
N253 X-24.252 Y23.258 Z-3.917 I0 J-.75
N254 X-23.57 Y22.82 Z-3.99 I.682 J.312
N255 X-22.82 Y23.57 Z-4.091 I0 J.75
N256 X-23.57 Y24.32 Z-4.192 I-.75 J0
N257 X-24.252 Y23.258 Z-4.321 I0 J-.75
N258 X-23.57 Y22.82 Z-4.394 I.682 J.312
N259 X-22.82 Y23.57 Z-4.495 I0 J.75
N260 X-23.57 Y24.32 Z-4.596 I-.75 J0
N261 X-24.252 Y23.258 Z-4.725 I0 J-.75
N262 X-23.57 Y22.82 Z-4.798 I.682 J.312
N263 X-22.82 Y23.57 Z-4.899 I0 J.75
N264 X-23.57 Y24.32 Z-5. I-.75 J0
N265 X-24.252 Y23.258 I0 J-.75
N266 X-23.57 Y22.82 I.682 J.312
N267 X-22.82 Y23.57 I0 J.75
N268 X-23.57 Y24.32 I-.75 J0
N269 X-24.388 Y23.546 I-.043 J-.774 F136.253
N270 X-23.57 Y22.688 I.859 J0 F145.648
N271 X-22.895 Y22.95 I.042 J.892 F149.257
N272 X-22.622 Y23.626 I-.664 J.662 F153.895
N273 X-23.626 Y24.518 I-.948 J-.056 F155.102
N274 X-24.518 Y23.514 I.056 J-.948
N275 X-23.542 Y22.62 I.948 J.056
N276 X-22.62 Y23.57 I-.028 J.95
N277 G01 Y24.074 F400.
N278 G03 X-23.57 Y25.024 I-.95 J0 F155.102
N279 X-24.52 Y24.074 I0 J-.95
N280 G01 Y23.626 F400.
N281 G03 X-23.57 Y22.874 I.773 J0
N282 X-22.62 Y24.074 I-.283 J1.2
N283 G01 Y24.561
N284 G03 X-23.57 Y25.511 I-.95 J0 F155.102
N285 X-24.52 Y24.561 I0 J-.95
N286 G01 Y24.074 F400.
N287 G03 X-24.09 Y23.778 Z-4.87 I.317 J0
N288 G01 X-23.565 Y23.98 Z-4.75 F16500.
N289 X-22.823 Y24.266 Z-4.919
N290 G03 X-22.62 Y24.561 Z-5. I-.114 J.296 F400.
N291 G01 Y25.048
N292 G03 X-23.57 Y25.998 I-.95 J0 F155.102
N293 X-24.52 Y25.048 I0 J-.95
N294 G01 Y24.561 F400.
N295 G03 X-24.09 Y24.266 Z-4.87 I.317 J0
N296 G01 X-23.565 Y24.467 Z-4.75 F16500.
N297 X-22.823 Y24.752 Z-4.919
N298 G03 X-22.62 Y25.048 Z-5. I-.114 J.296 F400.
N299 G01 Y25.559
N300 G03 X-23.57 Y26.509 I-.95 J0 F155.102
N301 X-24.52 Y25.559 I0 J-.95
N302 G01 Y25.048 F400.
N303 G03 X-24.085 Y24.754 Z-4.869 I.317 J0
N304 G01 X-23.564 Y24.964 Z-4.75 F16500.
N305 X-22.818 Y25.266 Z-4.92
N306 G03 X-22.62 Y25.559 Z-5. I-.119 J.294 F400.
N307 G01 Y26.049
N308 G03 X-23.57 Y26.999 I-.95 J0 F155.102
N309 X-24.52 Y26.049 I0 J-.95
N310 G01 Y25.559 F400.
N311 G03 X-24.089 Y25.264 Z-4.869 I.317 J0
N312 G01 X-23.565 Y25.467 Z-4.75 F16500.
N313 X-22.822 Y25.753 Z-4.919
N314 G03 X-22.62 Y26.049 Z-5. I-.114 J.295 F400.
N315 G01 Y26.57
N316 G03 X-23.57 Y27.52 I-.95 J0 F155.102
N317 X-24.52 Y26.57 I0 J-.95
N318 G01 Y26.049 F400.
N319 G03 X-24.203 Y25.732 Z-4.75 I.317 J0
N320 G00 Z25.
N321 X23.57 Y25.82
N322 Z.25
N323 G03 X24.252 Y26.882 Z.121 I0 J.75 F53.333
N324 X23.57 Y27.32 Z.048 I-.682 J-.312
N325 X22.82 Y26.57 Z-.053 I0 J-.75
N326 X23.57 Y25.82 Z-.154 I.75 J0
N327 X24.252 Y26.882 Z-.282 I0 J.75
N328 X23.57 Y27.32 Z-.356 I-.682 J-.312
N329 X22.82 Y26.57 Z-.457 I0 J-.75
N330 X23.57 Y25.82 Z-.558 I.75 J0
N331 X24.252 Y26.882 Z-.686 I0 J.75
N332 X23.57 Y27.32 Z-.76 I-.682 J-.312
N333 X22.82 Y26.57 Z-.861 I0 J-.75
N334 X23.57 Y25.82 Z-.962 I.75 J0
N335 X24.252 Y26.882 Z-1.09 I0 J.75
N336 X23.57 Y27.32 Z-1.163 I-.682 J-.312
N337 X22.82 Y26.57 Z-1.264 I0 J-.75
N338 X23.57 Y25.82 Z-1.365 I.75 J0 F106.667
N339 X24.252 Y26.882 Z-1.494 I0 J.75
N340 X23.57 Y27.32 Z-1.567 I-.682 J-.312
N341 X22.82 Y26.57 Z-1.668 I0 J-.75
N342 X23.57 Y25.82 Z-1.769 I.75 J0
N343 X24.252 Y26.882 Z-1.898 I0 J.75
N344 X23.57 Y27.32 Z-1.971 I-.682 J-.312
N345 X22.82 Y26.57 Z-2.072 I0 J-.75
N346 X23.57 Y25.82 Z-2.173 I.75 J0
N347 X24.252 Y26.882 Z-2.302 I0 J.75
N348 X23.57 Y27.32 Z-2.375 I-.682 J-.312
N349 X22.82 Y26.57 Z-2.476 I0 J-.75
N350 X23.57 Y25.82 Z-2.577 I.75 J0
N351 X24.252 Y26.882 Z-2.705 I0 J.75
N352 X23.57 Y27.32 Z-2.779 I-.682 J-.312
N353 X22.82 Y26.57 Z-2.88 I0 J-.75
N354 X23.57 Y25.82 Z-2.981 I.75 J0
N355 X24.252 Y26.882 Z-3.109 I0 J.75
N356 X23.57 Y27.32 Z-3.183 I-.682 J-.312
N357 X22.82 Y26.57 Z-3.284 I0 J-.75
N358 X23.57 Y25.82 Z-3.385 I.75 J0
N359 X24.252 Y26.882 Z-3.513 I0 J.75
N360 X23.57 Y27.32 Z-3.587 I-.682 J-.312
N361 X22.82 Y26.57 Z-3.688 I0 J-.75
N362 X23.57 Y25.82 Z-3.788 I.75 J0
N363 X24.252 Y26.882 Z-3.917 I0 J.75
N364 X23.57 Y27.32 Z-3.99 I-.682 J-.312
N365 X22.82 Y26.57 Z-4.091 I0 J-.75
N366 X23.57 Y25.82 Z-4.192 I.75 J0
N367 X24.252 Y26.882 Z-4.321 I0 J.75
N368 X23.57 Y27.32 Z-4.394 I-.682 J-.312
N369 X22.82 Y26.57 Z-4.495 I0 J-.75
N370 X23.57 Y25.82 Z-4.596 I.75 J0
N371 X24.252 Y26.882 Z-4.725 I0 J.75
N372 X23.57 Y27.32 Z-4.798 I-.682 J-.312
N373 X22.82 Y26.57 Z-4.899 I0 J-.75
N374 X23.57 Y25.82 Z-5. I.75 J0
N375 X24.252 Y26.882 I0 J.75
N376 X23.57 Y27.32 I-.682 J-.312
N377 X22.82 Y26.57 I0 J-.75
N378 X23.57 Y25.82 I.75 J0
N379 X24.388 Y26.594 I.043 J.774 F136.253
N380 X23.57 Y27.452 I-.859 J0 F145.648
N381 X22.895 Y27.19 I-.042 J-.892 F149.257
N382 X22.622 Y26.514 I.664 J-.662 F153.895
N383 X23.626 Y25.622 I.948 J.056 F155.102
N384 X24.518 Y26.626 I-.056 J.948
N385 X23.542 Y27.52 I-.948 J-.056
N386 X22.62 Y26.57 I.028 J-.95
N387 G01 Y26.066 F400.
N388 G03 X23.57 Y25.116 I.95 J0 F155.102
N389 X24.52 Y26.066 I0 J.95
N390 G01 Y26.514 F400.
N391 G03 X23.57 Y27.266 I-.773 J0
N392 X22.62 Y26.066 I.283 J-1.2
N393 G01 Y25.579
N394 G03 X23.57 Y24.629 I.95 J0 F155.102
N395 X24.52 Y25.579 I0 J.95
N396 G01 Y26.066 F400.
N397 G03 X24.09 Y26.362 Z-4.87 I-.317 J0
N398 G01 X23.565 Y26.16 Z-4.75 F16500.
N399 X22.823 Y25.874 Z-4.919
N400 G03 X22.62 Y25.579 Z-5. I.114 J-.296 F400.
N401 G01 Y25.092
N402 G03 X23.57 Y24.142 I.95 J0 F155.102
N403 X24.52 Y25.092 I0 J.95
N404 G01 Y25.579 F400.
N405 G03 X24.09 Y25.874 Z-4.87 I-.317 J0
N406 G01 X23.565 Y25.673 Z-4.75 F16500.
N407 X22.823 Y25.388 Z-4.919
N408 G03 X22.62 Y25.092 Z-5. I.114 J-.296 F400.
N409 G01 Y24.581
N410 G03 X23.57 Y23.631 I.95 J0 F155.102
N411 X24.52 Y24.581 I0 J.95
N412 G01 Y25.092 F400.
N413 G03 X24.085 Y25.386 Z-4.869 I-.317 J0
N414 G01 X23.564 Y25.176 Z-4.75 F16500.
N415 X22.818 Y24.874 Z-4.92
N416 G03 X22.62 Y24.581 Z-5. I.119 J-.294 F400.
N417 G01 Y24.091
N418 G03 X23.57 Y23.141 I.95 J0 F155.102
N419 X24.52 Y24.091 I0 J.95
N420 G01 Y24.581 F400.
N421 G03 X24.089 Y24.876 Z-4.869 I-.317 J0
N422 G01 X23.565 Y24.673 Z-4.75 F16500.
N423 X22.822 Y24.387 Z-4.919
N424 G03 X22.62 Y24.091 Z-5. I.114 J-.295 F400.
N425 G01 Y23.57
N426 G03 X23.57 Y22.62 I.95 J0 F155.102
N427 X24.52 Y23.57 I0 J.95
N428 G01 Y24.091 F400.
N429 G03 X24.203 Y24.408 Z-4.75 I-.317 J0
N430 G00 Z25.
N431 X23.57 Y-21.32
N432 Z.25
N433 G03 X24.252 Y-20.258 Z.121 I0 J.75 F53.333
N434 X23.57 Y-19.82 Z.048 I-.682 J-.312
N435 X22.82 Y-20.57 Z-.053 I0 J-.75
N436 X23.57 Y-21.32 Z-.154 I.75 J0
N437 X24.252 Y-20.258 Z-.282 I0 J.75
N438 X23.57 Y-19.82 Z-.356 I-.682 J-.312
N439 X22.82 Y-20.57 Z-.457 I0 J-.75
N440 X23.57 Y-21.32 Z-.558 I.75 J0
N441 X24.252 Y-20.258 Z-.686 I0 J.75
N442 X23.57 Y-19.82 Z-.76 I-.682 J-.312
N443 X22.82 Y-20.57 Z-.861 I0 J-.75
N444 X23.57 Y-21.32 Z-.962 I.75 J0
N445 X24.252 Y-20.258 Z-1.09 I0 J.75
N446 X23.57 Y-19.82 Z-1.163 I-.682 J-.312
N447 X22.82 Y-20.57 Z-1.264 I0 J-.75
N448 X23.57 Y-21.32 Z-1.365 I.75 J0 F106.667
N449 X24.252 Y-20.258 Z-1.494 I0 J.75
N450 X23.57 Y-19.82 Z-1.567 I-.682 J-.312
N451 X22.82 Y-20.57 Z-1.668 I0 J-.75
N452 X23.57 Y-21.32 Z-1.769 I.75 J0
N453 X24.252 Y-20.258 Z-1.898 I0 J.75
N454 X23.57 Y-19.82 Z-1.971 I-.682 J-.312
N455 X22.82 Y-20.57 Z-2.072 I0 J-.75
N456 X23.57 Y-21.32 Z-2.173 I.75 J0
N457 X24.252 Y-20.258 Z-2.302 I0 J.75
N458 X23.57 Y-19.82 Z-2.375 I-.682 J-.312
N459 X22.82 Y-20.57 Z-2.476 I0 J-.75
N460 X23.57 Y-21.32 Z-2.577 I.75 J0
N461 X24.252 Y-20.258 Z-2.705 I0 J.75
N462 X23.57 Y-19.82 Z-2.779 I-.682 J-.312
N463 X22.82 Y-20.57 Z-2.88 I0 J-.75
N464 X23.57 Y-21.32 Z-2.981 I.75 J0
N465 X24.252 Y-20.258 Z-3.109 I0 J.75
N466 X23.57 Y-19.82 Z-3.183 I-.682 J-.312
N467 X22.82 Y-20.57 Z-3.284 I0 J-.75
N468 X23.57 Y-21.32 Z-3.385 I.75 J0
N469 X24.252 Y-20.258 Z-3.513 I0 J.75
N470 X23.57 Y-19.82 Z-3.587 I-.682 J-.312
N471 X22.82 Y-20.57 Z-3.688 I0 J-.75
N472 X23.57 Y-21.32 Z-3.788 I.75 J0
N473 X24.252 Y-20.258 Z-3.917 I0 J.75
N474 X23.57 Y-19.82 Z-3.99 I-.682 J-.312
N475 X22.82 Y-20.57 Z-4.091 I0 J-.75
N476 X23.57 Y-21.32 Z-4.192 I.75 J0
N477 X24.252 Y-20.258 Z-4.321 I0 J.75
N478 X23.57 Y-19.82 Z-4.394 I-.682 J-.312
N479 X22.82 Y-20.57 Z-4.495 I0 J-.75
N480 X23.57 Y-21.32 Z-4.596 I.75 J0
N481 X24.252 Y-20.258 Z-4.725 I0 J.75
N482 X23.57 Y-19.82 Z-4.798 I-.682 J-.312
N483 X22.82 Y-20.57 Z-4.899 I0 J-.75
N484 X23.57 Y-21.32 Z-5. I.75 J0
N485 X24.252 Y-20.258 I0 J.75
N486 X23.57 Y-19.82 I-.682 J-.312
N487 X22.82 Y-20.57 I0 J-.75
N488 X23.57 Y-21.32 I.75 J0
N489 X24.388 Y-20.546 I.043 J.774 F136.253
N490 X23.57 Y-19.688 I-.859 J0 F145.648
N491 X22.895 Y-19.95 I-.042 J-.892 F149.257
N492 X22.622 Y-20.626 I.664 J-.662 F153.895
N493 X23.626 Y-21.518 I.948 J.056 F155.102
N494 X24.518 Y-20.514 I-.056 J.948
N495 X23.542 Y-19.62 I-.948 J-.056
N496 X22.62 Y-20.57 I.028 J-.95
N497 G01 Y-21.074 F400.
N498 G03 X23.57 Y-22.024 I.95 J0 F155.102
N499 X24.52 Y-21.074 I0 J.95
N500 G01 Y-20.626 F400.
N501 G03 X23.57 Y-19.874 I-.773 J0
N502 X22.62 Y-21.074 I.283 J-1.2
N503 G01 Y-21.561
N504 G03 X23.57 Y-22.511 I.95 J0 F155.102
N505 X24.52 Y-21.561 I0 J.95
N506 G01 Y-21.074 F400.
N507 G03 X24.09 Y-20.778 Z-4.87 I-.317 J0
N508 G01 X23.565 Y-20.98 Z-4.75 F16500.
N509 X22.823 Y-21.266 Z-4.919
N510 G03 X22.62 Y-21.561 Z-5. I.114 J-.296 F400.
N511 G01 Y-22.048
N512 G03 X23.57 Y-22.998 I.95 J0 F155.102
N513 X24.52 Y-22.048 I0 J.95
N514 G01 Y-21.561 F400.
N515 G03 X24.09 Y-21.266 Z-4.87 I-.317 J0
N516 G01 X23.565 Y-21.467 Z-4.75 F16500.
N517 X22.823 Y-21.752 Z-4.919
N518 G03 X22.62 Y-22.048 Z-5. I.114 J-.296 F400.
N519 G01 Y-22.559
N520 G03 X23.57 Y-23.509 I.95 J0 F155.102
N521 X24.52 Y-22.559 I0 J.95
N522 G01 Y-22.048 F400.
N523 G03 X24.085 Y-21.754 Z-4.869 I-.317 J0
N524 G01 X23.564 Y-21.964 Z-4.75 F16500.
N525 X22.818 Y-22.266 Z-4.92
N526 G03 X22.62 Y-22.559 Z-5. I.119 J-.294 F400.
N527 G01 Y-23.049
N528 G03 X23.57 Y-23.999 I.95 J0 F155.102
N529 X24.52 Y-23.049 I0 J.95
N530 G01 Y-22.559 F400.
N531 G03 X24.089 Y-22.264 Z-4.869 I-.317 J0
N532 G01 X23.565 Y-22.467 Z-4.75 F16500.
N533 X22.822 Y-22.753 Z-4.919
N534 G03 X22.62 Y-23.049 Z-5. I.114 J-.295 F400.
N535 G01 Y-23.57
N536 G03 X23.57 Y-24.52 I.95 J0 F155.102
N537 X24.52 Y-23.57 I0 J.95
N538 G01 Y-23.049 F400.
N539 G03 X24.203 Y-22.732 Z-4.75 I-.317 J0
N540 G00 Z25.
N541 X-15.492 Y4.339
N542 Z3.
N543 G01 X-14.336 Y5.972 F1234.44
N544 G03 X-16.648 Y2.707 Z2. I-1.156 J-1.632
N545 X-14.336 Y5.972 Z1. I1.156 J1.632
N546 X-16.648 Y2.707 Z0 I-1.156 J-1.632
N547 X-14.336 Y5.972 Z-1. I1.156 J1.632
N548 X-16.648 Y2.707 Z-2. I-1.156 J-1.632
N549 G01 X-16.359 Y3.115
N550 G41 D34 X-17.462 Y2.012
N551 G03 X-17.55 Y1.8 I.212 J-.212
N552 G01 Y0 F1645.92
N553 G03 X17.55 I17.55 J0
N554 G01 Y3.
N555 G03 X-17.55 I-17.55 J0
N556 G01 Y1.2
N557 G03 X-17.462 Y.988 I.3 J0
N558 G40 G01 X-16.359 Y-.115
N559 G00 Z3.
N560 Z25.
N561 S10000
N562 X-23.479 Y26.685
N563 Z5.
N564 Z3.
N565 G01 Z-5. F400.
N566 G41 D34 X-24.582 Y25.582
N567 G03 X-24.67 Y25.37 I.212 J-.212
N568 G01 Y23.57
N569 G03 X-22.47 I1.1 J0
N570 G01 Y26.57
N571 G03 X-24.67 I-1.1 J0
N572 G01 Y24.77
N573 G03 X-24.582 Y24.558 I.3 J0
N574 G40 G01 X-23.479 Y23.455
N575 G00 Z3.
N576 Z5.
N577 X23.661 Y26.685
N578 Z3.
N579 G01 Z-5.
N580 G41 D34 X22.558 Y25.582
N581 G03 X22.47 Y25.37 I.212 J-.212
N582 G01 Y23.57
N583 G03 X24.67 I1.1 J0
N584 G01 Y26.57
N585 G03 X22.47 I-1.1 J0
N586 G01 Y24.77
N587 G03 X22.558 Y24.558 I.3 J0
N588 G40 G01 X23.661 Y23.455
N589 G00 Z3.
N590 Z5.
N591 Y-20.455
N592 Z3.
N593 G01 Z-5.
N594 G41 D34 X22.558 Y-21.558
N595 G03 X22.47 Y-21.77 I.212 J-.212
N596 G01 Y-23.57
N597 G03 X24.67 I1.1 J0
N598 G01 Y-20.57
N599 G03 X22.47 I-1.1 J0
N600 G01 Y-22.37
N601 G03 X22.558 Y-22.582 I.3 J0
N602 G40 G01 X23.661 Y-23.685
N603 G00 Z3.
N604 Z5.
N605 X-23.479 Y-20.455
N606 Z3.
N607 G01 Z-5.
N608 G41 D34 X-24.582 Y-21.558
N609 G03 X-24.67 Y-21.77 I.212 J-.212
N610 G01 Y-23.57
N611 G03 X-22.47 I1.1 J0
N612 G01 Y-20.57
N613 G03 X-24.67 I-1.1 J0
N614 G01 Y-22.37
N615 G03 X-24.582 Y-22.582 I.3 J0
N616 G40 G01 X-23.479 Y-23.685
N617 G00 Z3.
N618 Z5. M09
N619 G91 G28 Z0
N620 G28 X0 Y0
N621 M30
