(__)
(T1  D=3.175 CR=0. - ZMIN=-8. - FLAT END MILL)
G90 G94 G91.1 G40 G49 G17
G21

(DRILL1)
M5
M9
T1
S9170 M3
G54
M8
G0 X16.5 Y0.
G43 Z15. H1
Z5.
G98 G81 X16.5 Y0. Z-8. R-3. F762.
X0. Y16.5
X-16.5 Y0.
X0. Y-16.5
G80
Z15.

(2D CONTOUR1)
M8
G0 X0.649 Y-10.843
Z15.
Z5.
G1 Z3. F762.
Z2.5
G3 X-0.649 Y10.843 Z1.308 R10.862 F465.
X0.649 Y-10.843 Z0.117 R10.862
X-0.649 Y10.843 Z-1.075 R10.862
X-6.517 Y-8.69 Z-2. R10.862
X6.517 Y8.69 R10.862
X-6.517 Y-8.69 R10.862
X6.518 Y8.69 Z-3.192 R10.863
X-10.825 Y0.905 Z-4. R10.863
X10.825 Y-0.905 R10.863
X-10.825 Y0.905 R10.863
X10.825 Y-0.905 Z-5.192 R10.863
X-4.984 Y9.651 Z-6. R10.863
X4.984 Y-9.651 R10.863
X-4.984 Y9.651 R10.863
X4.984 Y-9.651 Z-7.192 R10.863
X5.529 Y9.35 Z-8. R10.863
X-5.529 Y-9.35 R10.863
X5.529 Y9.35 R10.863
G0 Z15.

(2D POCKET1)
M8
G0 X-4.524 Y-18.063
Z15.
Z5.
G1 Z2.5 F465.
G3 X15.39 Y-10.483 Z-1.5 R18.621
X-11.173 Y14.897 R18.621
X-11.207 Y14.871 R18.621
X-11.173 Y-14.897 R18.621
X15.39 Y-10.483 R18.621
G1 X14.974 Y-10.199 Z-1.45
G0 Z5.
X11.403 Y11.348
G1 Z2.5 F465.
G2 X13.027 Y-9.44 Z-1.5 R16.088
X-9.653 Y-12.87 R16.087
X-9.693 Y-12.839 R16.088
X-9.653 Y12.87 R16.088
X13.027 Y-9.44 R16.088
G1 X13.434 Y-9.735 Z-1.45
G0 Z15.

(2D CONTOUR2)
M8
G0 X1.706 Y-10.728
Z15.
Z5.
G1 Z2.5 F762.
G3 X-1.706 Y10.728 Z-3.517 R10.862 F465.
X-6.517 Y-8.69 Z-8. R10.862
X6.517 Y8.69 R10.862
X-6.517 Y-8.69 R10.862
X6.517 Y8.69 R10.862
X-6.517 Y-8.69 R10.862
G0 Z15.

(2D CONTOUR3)
M8
G0 X-20.076 Y8.486
Z15.
Z5.
G1 Z3. F762.
Z2.5
G2 X0. Y21.796 Z-2. R21.796 F465.
Y-21.796 R21.796
Y21.796 R21.796
X18.216 Y11.969 Z-4. R21.796
X-18.216 Y-11.969 R21.796
X18.216 Y11.969 R21.796
X20.006 Y-8.651 Z-6. R21.796
X-20.006 Y8.651 R21.796
X20.006 Y-8.651 R21.796
X3.755 Y-21.47 Z-8. R21.796
X-3.755 Y21.47 R21.796
X3.755 Y-21.47 R21.796
G0 Z15.

M9
M30
