(__)
(T1  D=3.175 CR=0. - ZMIN=-20. - FLAT END MILL)
G90 G94 G91.1 G40 G49 G17
G21

(2D CONTOUR1)
M5
M9
T1
S9170 M3
G54
M8
G0 X0.482 Y10.802
G43 Z15. H1
Z5.
G1 Z3. F762.
Z2.5
G3 X-0.482 Y-10.802 Z-0.472 R10.813 F465.
X10.813 Y0. Z-2. R10.813
X-10.813 R10.813
X10.813 R10.813
X-5.591 Y9.255 Z-4. R10.812
X5.591 Y-9.255 R10.812
X-5.591 Y9.255 R10.812
X-5.031 Y-9.571 Z-6. R10.812
X5.031 Y9.571 R10.812
X-5.031 Y-9.571 R10.812
X10.793 Y0.643 Z-8. R10.813
X-10.793 Y-0.643 R10.813
X10.793 Y0.643 R10.813
X-6.131 Y8.906 Z-10. R10.813
X6.131 Y-8.906 R10.813
X-6.131 Y8.906 R10.813
X-4.453 Y-9.853 Z-12. R10.812
X4.453 Y9.853 R10.812
X-4.453 Y-9.853 R10.812
X10.736 Y1.284 Z-14. R10.813
X-10.736 Y-1.284 R10.813
X10.736 Y1.284 R10.813
X-6.488 Y8.65 Z-15.982 R10.812
X-6.65 Y8.526 Z-16. R10.813
X6.65 Y-8.526 R10.813
X-6.65 Y8.526 R10.813
X-3.859 Y-10.101 Z-18. R10.813
X3.859 Y10.101 R10.813
X-3.859 Y-10.101 R10.813
X10.641 Y1.92 Z-20. R10.812
X-10.641 Y-1.92 R10.812
X10.641 Y1.92 R10.812
G0 Z15.

(2D POCKET1)
M8
G0 X-8.35 Y11.47
Z15.
Z5.
G1 Z2.5 F465.
G2 X14.188 Y0. Z1.41 R14.188
X-14.188 Z-0.146 R14.188
X-8.512 Y11.35 Z-0.606 R14.188
X-8.49 Y11.367 Z-0.607 R14.188
X14.188 Y0. Z-1.703 R14.188
X11.712 Y-8.007 Z-2. R14.187
X-11.712 Y8.007 R14.188
X-8.512 Y11.35 R14.188
X-8.49 Y11.367 R14.188
X14.188 Y0. R14.188
X11.712 Y-8.007 R14.187
G3 X11.76 Y-8.281 R0.2
G1 X12.792 Y-9.031
G3 X13.074 Y-8.982 R0.2
X-9.517 Y12.69 R15.862
X-9.54 Y12.673 R15.863
X-9.517 Y-12.69 R15.863
X13.074 Y-8.982 R15.862
X13.101 Y-8.714 R0.279
G1 X12.821 Y-8.06
G2 X12.839 Y-7.805 R0.279
G3 X-7.027 Y13.28 R15.024
G2 X-7.283 Y13.277 R0.279
G1 X-7.92 Y13.596
G3 X-8.189 Y13.585 R0.279
X-9.517 Y12.69 Z-2.056 R15.862
X-9.54 Y12.673 Z-2.057 R15.863
X-9.517 Y-12.69 Z-3.083 R15.863
X13.445 Y-8.418 Z-4. R15.863
X-9.517 Y12.69 R15.862
X-9.54 Y12.673 R15.863
X-9.517 Y-12.69 R15.863
X13.445 Y-8.418 R15.863
X13.383 Y-8.143 R0.2
G1 X12.308 Y-7.457
G3 X12.031 Y-7.52 R0.2
G2 X-12.031 Y7.52 R14.188
X-8.512 Y11.35 R14.188
X-8.49 Y11.367 R14.188
X14.188 Y0. R14.188
X12.031 Y-7.52 R14.188
X-12.031 Y7.52 Z-5.556 R14.188
X-8.512 Y11.35 Z-5.739 R14.188
X-8.49 Y11.367 Z-5.74 R14.188
X-1.655 Y14.091 Z-6. R14.188
X14.188 Y0. R14.188
X-14.188 R14.188
X-8.512 Y11.35 R14.188
X-8.49 Y11.367 R14.188
X-1.655 Y14.091 R14.188
G3 X-1.48 Y14.315 R0.2
G1 X-1.644 Y15.579
G3 X-1.866 Y15.752 R0.2
X-9.517 Y12.69 R15.862
X-9.54 Y12.673 R15.863
X-9.517 Y-12.69 R15.863
X9.518 Y12.69 R15.862
X-1.866 Y15.752 R15.862
G1 X-8.189 Y13.585
G3 X-9.517 Y12.69 Z-6.056 R15.862
X-9.54 Y12.673 Z-6.057 R15.863
X-9.517 Y-12.69 Z-7.083 R15.863
X13.445 Y-8.418 Z-8. R15.863
X-9.517 Y12.69 R15.862
X-9.54 Y12.673 R15.863
X-9.517 Y-12.69 R15.863
X13.445 Y-8.418 R15.863
X13.383 Y-8.143 R0.2
G1 X12.308 Y-7.457
G3 X12.031 Y-7.52 R0.2
G2 X-12.031 Y7.52 R14.188
X-8.512 Y11.35 R14.188
X-8.49 Y11.367 R14.188
X14.188 Y0. R14.188
X12.031 Y-7.52 R14.188
X-12.031 Y7.52 Z-9.556 R14.188
X-8.512 Y11.35 Z-9.739 R14.188
X-8.49 Y11.367 Z-9.74 R14.188
X-1.655 Y14.091 Z-10. R14.188
X14.188 Y0. R14.188
X-14.188 R14.188
X-8.512 Y11.35 R14.188
X-8.49 Y11.367 R14.188
X-1.655 Y14.091 R14.188
G3 X-1.48 Y14.315 R0.2
G1 X-1.644 Y15.579
G3 X-1.866 Y15.752 R0.2
X-9.517 Y12.69 R15.862
X-9.54 Y12.673 R15.863
X-9.517 Y-12.69 R15.863
X9.518 Y12.69 R15.862
X-1.866 Y15.752 R15.862
G1 X-1.795 Y15.153 Z-9.94
G0 Z15.

(2D CONTOUR2)
M8
G0 X9.442 Y-5.47
Z15.
Z5.
G1 Z2.5 F762.
G3 X-9.442 Y5.47 Z-0.499 R10.913 F465.
X9.442 Y-5.47 Z-3.499 R10.913
X10.913 Y0. Z-4. R10.913
X-10.913 R10.913
X10.913 R10.913
X-10.912 Z-6.999 R10.912
X-5.448 Y-9.456 Z-8. R10.912
X5.448 Y9.456 R10.912
X-5.448 Y-9.456 R10.912
X5.448 Y9.456 Z-10.999 R10.912
X-5.474 Y9.44 Z-12. R10.912
X5.474 Y-9.44 R10.912
X-5.474 Y9.44 R10.912
X5.474 Y-9.44 Z-14.999 R10.913
X10.913 Y0. Z-15.997 R10.913
X10.912 Y0.03 Z-16. R10.912
X-10.912 Y-0.03 R10.912
X10.912 Y0.03 R10.912
G1 Z-13.5
X9.442 Y-5.47
G3 X-9.442 Y5.47 Z-16.499 R10.913
X9.442 Y-5.47 Z-19.499 R10.913
X10.913 Y0. Z-20. R10.913
X-10.913 R10.913
X10.913 R10.913
G0 Z15.

(2D CONTOUR3)
M8
G0 X-0.926 Y15.936
Z15.
Z5.
G1 Z2.5 F762.
G3 X0.926 Y-15.936 Z-1.887 R15.962 F465.
X15.962 Y0. Z-4. R15.962
X-15.962 R15.962
X15.962 R15.962
X-15.352 Y4.371 Z-8. R15.963
X15.352 Y-4.371 R15.963
X-15.352 Y4.371 R15.963
X-6.451 Y-14.601 Z-10. R15.962
X6.451 Y14.601 R15.962
X-6.451 Y-14.601 R15.962
G0 Z15.

(2D CONTOUR4)
M8
G0 X5.707 Y-28.522
Z15.
Z5.
G1 Z3. F762.
Z2.5
G2 X-29.087 Y0. Z-2. R29.087 F465.
X29.087 R29.087
X-29.087 R29.087
X-17.452 Y23.27 Z-3.874 R29.088
X-15.973 Y24.31 Z-4. R29.087
X15.973 Y-24.31 R29.087
X-15.973 Y24.31 R29.087
X11.545 Y26.698 Z-6. R29.087
X-11.545 Y-26.698 R29.087
X11.545 Y26.698 R29.087
X28.653 Y5.012 Z-8. R29.087
X-28.653 Y-5.012 R29.087
X28.653 Y5.012 R29.087
X19.922 Y-21.194 Z-10. R29.088
X-19.922 Y21.194 R29.088
X19.922 Y-21.194 R29.088
X-6.773 Y-28.288 Z-12. R29.088
X6.773 Y28.288 R29.088
X-6.773 Y-28.288 R29.088
X-27.361 Y-9.873 Z-14. R29.088
X27.361 Y9.873 R29.088
X-27.361 Y-9.873 R29.088
X-23.276 Y17.445 Z-16. R29.088
X23.276 Y-17.445 R29.088
X-23.276 Y17.445 R29.088
X1.798 Y29.032 Z-18. R29.087
X-1.798 Y-29.032 R29.087
X1.798 Y29.032 R29.087
X25.25 Y14.44 Z-20. R29.088
X-25.25 Y-14.44 R29.088
X25.25 Y14.44 R29.088
G0 Z15.

M9
M30
