(_)
(T1  D=3.175 CR=0. - ZMIN=-20. - FLAT END MILL)
G90 G94 G91.1 G40 G49 G17
G21

(DRILL1)
M5
M9
T1
S5500 M3
G54
M8
G0 X57. Y9.5
G43 Z15. H1
Z5.
G98 G73 X57. Y9.5 Z-20. R5. Q0.794 F762.
G80
Y-9.5 Z5.
G73 X57. Y-9.5 Z-12. R5. Q0.794 F762.
X17.
G80
Y9.5 Z5.
G73 X17. Y9.5 Z-20. R5. Q0.794 F762.
X-17.
G80
Y-9.5 Z5.
G73 X-17. Y-9.5 Z-12. R5. Q0.794 F762.
X-57.
G80
Y9.5 Z5.
G73 X-57. Y9.5 Z-20. R5. Q0.794 F762.
G80
Z15.

(2D POCKET1)
M8
G0 X-5.62 Y-5.025
Z15.
Z5.
G1 Z2.5 F351.
G3 X-7.887 Y-3.036 Z1.665 R1.508
X-5.62 Y-5.025 Z0.829 R1.508
X-7.887 Y-3.036 Z-0.006 R1.508
X-5.62 Y-5.025 Z-0.842 R1.508
X-7.887 Y-3.036 Z-1.677 R1.508
X-8.081 Y-4.746 Z-2. R1.508
G2 X-7.313 Y-6.619 R9.688
G3 X-7.106 Y-6.589 R0.106
G1 Y-3.926
G3 X-7.426 Y-3.606 R0.319
G1 X-7.563
G3 X-7.848 Y-3.787 R0.315
G2 X-7.973 Y-4.045 R11.943
X-8.105 Y-4.298 R7.942
G3 Y-4.702 R0.422
G2 X-8.081 Y-4.746 R9.688
X-8.195 Y-5.741 R0.877
G3 X-8.398 Y-6.722 R1.011
G2 X-8.211 Y-7.381 R9.322
X-7.98 Y-10.147 R8.874
G3 X-7.692 Y-10.457 R0.289
X-6.692 Y-10.31 R3.489
X-6.088 Y-9.5 R0.846
G1 Y-3.5
G3 X-6.894 Y-2.606 R0.899
X-8.095 Y-2.543 R11.539
X-8.619 Y-2.898 R0.565
G2 X-8.917 Y-3.555 R7.995
X-9.265 Y-4.185 R10.467
G3 Y-4.815 R0.613
G2 X-8.398 Y-6.722 R9.322
X-9.196 Y-9.07 R2.073
G3 X-10.611 Y-11.107 R3.51
G2 X-11.365 Y-12.913 R6.588
G1 X-7.
G3 X-3.588 Y-9.5 R3.412
G1 Y-3.5
G3 X-7. Y-0.087 R3.413
G1 X-10.439
G2 X-12.711 Y-4.5 R6.588
X-10.413 Y-9.5 R6.588
X-10.611 Y-11.107 R6.588
G3 X-10.228 Y-11.219 R0.2
G1 X-7.527 Y-3.209
G3 X-7.864 Y-3.01 R0.2
X-5.644 Y-5.052 Z-2.835 R1.508
X-7.864 Y-3.01 Z-3.671 R1.508
X-8.081 Y-4.746 Z-4. R1.508
G2 X-7.313 Y-6.619 R9.688
G3 X-7.106 Y-6.589 R0.106
G1 Y-3.926
G3 X-7.426 Y-3.606 R0.319
G1 X-7.563
G3 X-7.848 Y-3.787 R0.315
G2 X-7.973 Y-4.045 R11.943
X-8.105 Y-4.298 R7.942
G3 Y-4.702 R0.422
G2 X-8.081 Y-4.746 R9.688
X-8.195 Y-5.741 R0.877
G3 X-8.398 Y-6.722 R1.011
G2 X-8.211 Y-7.381 R9.322
X-7.98 Y-10.147 R8.874
G3 X-7.692 Y-10.457 R0.289
X-6.692 Y-10.31 R3.489
X-6.088 Y-9.5 R0.846
G1 Y-3.5
G3 X-6.894 Y-2.606 R0.899
X-8.095 Y-2.543 R11.539
X-8.619 Y-2.898 R0.565
G2 X-8.917 Y-3.555 R7.995
X-9.265 Y-4.185 R10.467
G3 Y-4.815 R0.613
G2 X-8.398 Y-6.722 R9.322
X-9.196 Y-9.07 R2.073
G3 X-10.611 Y-11.107 R3.51
G2 X-11.365 Y-12.913 R6.588
G1 X-7.
G3 X-3.588 Y-9.5 R3.412
G1 Y-3.5
G3 X-7. Y-0.087 R3.413
G1 X-10.439
G2 X-12.711 Y-4.5 R6.588
X-10.413 Y-9.5 R6.588
X-10.611 Y-11.107 R6.588
G3 X-10.228 Y-11.219 R0.2
G1 X-7.527 Y-3.209
G3 X-7.864 Y-3.01 R0.2
X-5.644 Y-5.052 Z-4.835 R1.508
X-7.864 Y-3.01 Z-5.671 R1.508
X-8.081 Y-4.746 Z-6. R1.508
G2 X-7.313 Y-6.619 R9.688
G3 X-7.106 Y-6.589 R0.106
G1 Y-3.926
G3 X-7.426 Y-3.606 R0.319
G1 X-7.563
G3 X-7.848 Y-3.787 R0.315
G2 X-7.973 Y-4.045 R11.943
X-8.105 Y-4.298 R7.942
G3 Y-4.702 R0.422
G2 X-8.081 Y-4.746 R9.688
X-8.195 Y-5.741 R0.877
G3 X-8.398 Y-6.722 R1.011
G2 X-8.211 Y-7.381 R9.322
X-7.98 Y-10.147 R8.874
G3 X-7.692 Y-10.457 R0.289
X-6.692 Y-10.31 R3.489
X-6.088 Y-9.5 R0.846
G1 Y-3.5
G3 X-6.894 Y-2.606 R0.899
X-8.095 Y-2.543 R11.539
X-8.619 Y-2.898 R0.565
G2 X-8.917 Y-3.555 R7.995
X-9.265 Y-4.185 R10.467
G3 Y-4.815 R0.613
G2 X-8.398 Y-6.722 R9.322
X-9.196 Y-9.07 R2.073
G3 X-10.611 Y-11.107 R3.51
G2 X-11.365 Y-12.913 R6.588
G1 X-7.
G3 X-3.588 Y-9.5 R3.412
G1 Y-3.5
G3 X-7. Y-0.087 R3.413
G1 X-10.439
G2 X-12.711 Y-4.5 R6.588
X-10.413 Y-9.5 R6.588
X-10.611 Y-11.107 R6.588
G3 X-10.228 Y-11.219 R0.2
G1 X-7.527 Y-3.209
G3 X-7.864 Y-3.01 R0.2
X-5.644 Y-5.052 Z-6.835 R1.508
X-7.864 Y-3.01 Z-7.671 R1.508
X-8.081 Y-4.746 Z-8. R1.508
G2 X-7.313 Y-6.619 R9.688
G3 X-7.106 Y-6.589 R0.106
G1 Y-3.926
G3 X-7.426 Y-3.606 R0.319
G1 X-7.563
G3 X-7.848 Y-3.787 R0.315
G2 X-7.973 Y-4.045 R11.943
X-8.105 Y-4.298 R7.942
G3 Y-4.702 R0.422
G2 X-8.081 Y-4.746 R9.688
X-8.195 Y-5.741 R0.877
G3 X-8.398 Y-6.722 R1.011
G2 X-8.211 Y-7.381 R9.322
X-7.98 Y-10.147 R8.874
G3 X-7.692 Y-10.457 R0.289
X-6.692 Y-10.31 R3.489
X-6.088 Y-9.5 R0.846
G1 Y-3.5
G3 X-6.894 Y-2.606 R0.899
X-8.095 Y-2.543 R11.539
X-8.619 Y-2.898 R0.565
G2 X-8.917 Y-3.555 R7.995
X-9.265 Y-4.185 R10.467
G3 Y-4.815 R0.613
G2 X-8.398 Y-6.722 R9.322
X-9.196 Y-9.07 R2.073
G3 X-10.611 Y-11.107 R3.51
G2 X-11.365 Y-12.913 R6.588
G1 X-7.
G3 X-3.588 Y-9.5 R3.412
G1 Y-3.5
G3 X-7. Y-0.087 R3.413
G1 X-10.439
G2 X-12.711 Y-4.5 R6.588
X-10.413 Y-9.5 R6.588
X-10.611 Y-11.107 R6.588
G3 X-10.228 Y-11.219 R0.2
G1 X-7.527 Y-3.209
G3 X-7.864 Y-3.01 R0.2
X-5.644 Y-5.052 Z-8.835 R1.508
X-7.864 Y-3.01 Z-9.671 R1.508
X-8.081 Y-4.746 Z-10. R1.508
G2 X-7.313 Y-6.619 R9.688
G3 X-7.106 Y-6.589 R0.106
G1 Y-3.926
G3 X-7.426 Y-3.606 R0.319
G1 X-7.563
G3 X-7.848 Y-3.787 R0.315
G2 X-7.973 Y-4.045 R11.943
X-8.105 Y-4.298 R7.942
G3 Y-4.702 R0.422
G2 X-8.081 Y-4.746 R9.688
X-8.195 Y-5.741 R0.877
G3 X-8.398 Y-6.722 R1.011
G2 X-8.211 Y-7.381 R9.322
X-7.98 Y-10.147 R8.874
G3 X-7.692 Y-10.457 R0.289
X-6.692 Y-10.31 R3.489
X-6.088 Y-9.5 R0.846
G1 Y-3.5
G3 X-6.894 Y-2.606 R0.899
X-8.095 Y-2.543 R11.539
X-8.619 Y-2.898 R0.565
G2 X-8.917 Y-3.555 R7.995
X-9.265 Y-4.185 R10.467
G3 Y-4.815 R0.613
G2 X-8.398 Y-6.722 R9.322
X-9.196 Y-9.07 R2.073
G3 X-10.611 Y-11.107 R3.51
G2 X-11.365 Y-12.913 R6.588
G1 X-7.
G3 X-3.588 Y-9.5 R3.412
G1 Y-3.5
G3 X-7. Y-0.087 R3.413
G1 X-10.439
G2 X-12.711 Y-4.5 R6.588
X-10.413 Y-9.5 R6.588
X-10.611 Y-11.107 R6.588
G3 X-10.228 Y-11.219 R0.2
G1 X-7.527 Y-3.209
G3 X-7.864 Y-3.01 R0.2
X-5.644 Y-5.052 Z-10.835 R1.508
X-7.864 Y-3.01 Z-11.671 R1.508
X-8.081 Y-4.746 Z-12. R1.508
G2 X-7.313 Y-6.619 R9.688
G3 X-7.106 Y-6.589 R0.106
G1 Y-3.926
G3 X-7.426 Y-3.606 R0.319
G1 X-7.563
G3 X-7.848 Y-3.787 R0.315
G2 X-7.973 Y-4.045 R11.943
X-8.105 Y-4.298 R7.942
G3 Y-4.702 R0.422
G2 X-8.081 Y-4.746 R9.688
X-8.195 Y-5.741 R0.877
G3 X-8.398 Y-6.722 R1.011
G2 X-8.211 Y-7.381 R9.322
X-7.98 Y-10.147 R8.874
G3 X-7.692 Y-10.457 R0.289
X-6.692 Y-10.31 R3.489
X-6.088 Y-9.5 R0.846
G1 Y-3.5
G3 X-6.894 Y-2.606 R0.899
X-8.095 Y-2.543 R11.539
X-8.619 Y-2.898 R0.565
G2 X-8.917 Y-3.555 R7.995
X-9.265 Y-4.185 R10.467
G3 Y-4.815 R0.613
G2 X-8.398 Y-6.722 R9.322
X-9.196 Y-9.07 R2.073
G3 X-10.611 Y-11.107 R3.51
G2 X-11.365 Y-12.913 R6.588
G1 X-7.
G3 X-3.588 Y-9.5 R3.412
G1 Y-3.5
G3 X-7. Y-0.087 R3.413
G1 X-10.439
G2 X-12.711 Y-4.5 R6.588
X-10.413 Y-9.5 R6.588
X-10.611 Y-11.107 R6.588
G1 X-10.026 Y-11.254 Z-11.94
G0 Z5.
X5.621 Y-3.972
G1 Z2.5 F351.
G3 X7.886 Y-5.964 Z1.665 R1.508
X5.621 Y-3.972 Z0.829 R1.508
X7.886 Y-5.964 Z-0.006 R1.508
X5.621 Y-3.972 Z-0.842 R1.508
X7.886 Y-5.964 Z-1.677 R1.508
X8.082 Y-4.255 Z-2. R1.508
G2 X7.973 Y-4.045 R7.942
X7.848 Y-3.787 R11.943
G3 X7.563 Y-3.606 R0.315
G1 X7.422
G3 X7.106 Y-3.922 R0.315
G1 Y-6.589
G3 X7.313 Y-6.619 R0.106
G2 X8.105 Y-4.702 R10.058
G3 Y-4.298 R0.422
G2 X8.082 Y-4.255 R7.942
X8.335 Y-3.404 R0.63
G3 X8.118 Y-2.543 R0.458
G1 X8.115
G3 X6.903 Y-2.602 R12.525
X6.088 Y-3.5 R0.902
G1 Y-9.5
G3 X6.692 Y-10.31 R0.846
X7.692 Y-10.457 R3.489
X7.98 Y-10.147 R0.289
G2 X8.211 Y-7.381 R8.874
X9.265 Y-4.815 R9.322
G3 Y-4.185 R0.613
G2 X8.913 Y-3.546 R10.326
X8.612 Y-2.881 R8.204
G3 X8.118 Y-2.543 R0.536
G2 X6.546 Y-1.443 R1.687
G3 X4.68 Y-0.997 R1.154
X3.588 Y-3.5 R3.412
G1 Y-9.5
G3 X7. Y-12.913 R3.413
G1 X11.365
G2 X10.413 Y-9.5 R6.588
X12.711 Y-4.5 R6.588
X10.439 Y-0.087 R6.588
G1 X7.
G3 X4.68 Y-0.997 R3.412
X4.646 Y-1.249 R0.2
G1 X7.545 Y-5.96
G3 X7.862 Y-5.991 R0.2
X5.644 Y-3.946 Z-2.835 R1.508
X7.862 Y-5.991 Z-3.671 R1.508
X8.082 Y-4.255 Z-4. R1.508
G2 X7.973 Y-4.045 R7.942
X7.848 Y-3.787 R11.943
G3 X7.563 Y-3.606 R0.315
G1 X7.422
G3 X7.106 Y-3.922 R0.315
G1 Y-6.589
G3 X7.313 Y-6.619 R0.106
G2 X8.105 Y-4.702 R10.058
G3 Y-4.298 R0.422
G2 X8.082 Y-4.255 R7.942
X8.335 Y-3.404 R0.63
G3 X8.118 Y-2.543 R0.458
G1 X8.115
G3 X6.903 Y-2.602 R12.525
X6.088 Y-3.5 R0.902
G1 Y-9.5
G3 X6.692 Y-10.31 R0.846
X7.692 Y-10.457 R3.489
X7.98 Y-10.147 R0.289
G2 X8.211 Y-7.381 R8.874
X9.265 Y-4.815 R9.322
G3 Y-4.185 R0.613
G2 X8.913 Y-3.546 R10.326
X8.612 Y-2.881 R8.204
G3 X8.118 Y-2.543 R0.536
G2 X6.546 Y-1.443 R1.687
G3 X4.68 Y-0.997 R1.154
X3.588 Y-3.5 R3.412
G1 Y-9.5
G3 X7. Y-12.913 R3.413
G1 X11.365
G2 X10.413 Y-9.5 R6.588
X12.711 Y-4.5 R6.588
X10.439 Y-0.087 R6.588
G1 X7.
G3 X4.68 Y-0.997 R3.412
X4.646 Y-1.249 R0.2
G1 X7.545 Y-5.96
G3 X7.862 Y-5.991 R0.2
X5.644 Y-3.946 Z-4.835 R1.508
X7.862 Y-5.991 Z-5.671 R1.508
X8.082 Y-4.255 Z-6. R1.508
G2 X7.973 Y-4.045 R7.942
X7.848 Y-3.787 R11.943
G3 X7.563 Y-3.606 R0.315
G1 X7.422
G3 X7.106 Y-3.922 R0.315
G1 Y-6.589
G3 X7.313 Y-6.619 R0.106
G2 X8.105 Y-4.702 R10.058
G3 Y-4.298 R0.422
G2 X8.082 Y-4.255 R7.942
X8.335 Y-3.404 R0.63
G3 X8.118 Y-2.543 R0.458
G1 X8.115
G3 X6.903 Y-2.602 R12.525
X6.088 Y-3.5 R0.902
G1 Y-9.5
G3 X6.692 Y-10.31 R0.846
X7.692 Y-10.457 R3.489
X7.98 Y-10.147 R0.289
G2 X8.211 Y-7.381 R8.874
X9.265 Y-4.815 R9.322
G3 Y-4.185 R0.613
G2 X8.913 Y-3.546 R10.326
X8.612 Y-2.881 R8.204
G3 X8.118 Y-2.543 R0.536
G2 X6.546 Y-1.443 R1.687
G3 X4.68 Y-0.997 R1.154
X3.588 Y-3.5 R3.412
G1 Y-9.5
G3 X7. Y-12.913 R3.413
G1 X11.365
G2 X10.413 Y-9.5 R6.588
X12.711 Y-4.5 R6.588
X10.439 Y-0.087 R6.588
G1 X7.
G3 X4.68 Y-0.997 R3.412
X4.646 Y-1.249 R0.2
G1 X7.545 Y-5.96
G3 X7.862 Y-5.991 R0.2
X5.644 Y-3.946 Z-6.835 R1.508
X7.862 Y-5.991 Z-7.671 R1.508
X8.082 Y-4.255 Z-8. R1.508
G2 X7.973 Y-4.045 R7.942
X7.848 Y-3.787 R11.943
G3 X7.563 Y-3.606 R0.315
G1 X7.422
G3 X7.106 Y-3.922 R0.315
G1 Y-6.589
G3 X7.313 Y-6.619 R0.106
G2 X8.105 Y-4.702 R10.058
G3 Y-4.298 R0.422
G2 X8.082 Y-4.255 R7.942
X8.335 Y-3.404 R0.63
G3 X8.118 Y-2.543 R0.458
G1 X8.115
G3 X6.903 Y-2.602 R12.525
X6.088 Y-3.5 R0.902
G1 Y-9.5
G3 X6.692 Y-10.31 R0.846
X7.692 Y-10.457 R3.489
X7.98 Y-10.147 R0.289
G2 X8.211 Y-7.381 R8.874
X9.265 Y-4.815 R9.322
G3 Y-4.185 R0.613
G2 X8.913 Y-3.546 R10.326
X8.612 Y-2.881 R8.204
G3 X8.118 Y-2.543 R0.536
G2 X6.546 Y-1.443 R1.687
G3 X4.68 Y-0.997 R1.154
X3.588 Y-3.5 R3.412
G1 Y-9.5
G3 X7. Y-12.913 R3.413
G1 X11.365
G2 X10.413 Y-9.5 R6.588
X12.711 Y-4.5 R6.588
X10.439 Y-0.087 R6.588
G1 X7.
G3 X4.68 Y-0.997 R3.412
X4.646 Y-1.249 R0.2
G1 X7.545 Y-5.96
G3 X7.862 Y-5.991 R0.2
X5.644 Y-3.946 Z-8.835 R1.508
X7.862 Y-5.991 Z-9.671 R1.508
X8.082 Y-4.255 Z-10. R1.508
G2 X7.973 Y-4.045 R7.942
X7.848 Y-3.787 R11.943
G3 X7.563 Y-3.606 R0.315
G1 X7.422
G3 X7.106 Y-3.922 R0.315
G1 Y-6.589
G3 X7.313 Y-6.619 R0.106
G2 X8.105 Y-4.702 R10.058
G3 Y-4.298 R0.422
G2 X8.082 Y-4.255 R7.942
X8.335 Y-3.404 R0.63
G3 X8.118 Y-2.543 R0.458
G1 X8.115
G3 X6.903 Y-2.602 R12.525
X6.088 Y-3.5 R0.902
G1 Y-9.5
G3 X6.692 Y-10.31 R0.846
X7.692 Y-10.457 R3.489
X7.98 Y-10.147 R0.289
G2 X8.211 Y-7.381 R8.874
X9.265 Y-4.815 R9.322
G3 Y-4.185 R0.613
G2 X8.913 Y-3.546 R10.326
X8.612 Y-2.881 R8.204
G3 X8.118 Y-2.543 R0.536
G2 X6.546 Y-1.443 R1.687
G3 X4.68 Y-0.997 R1.154
X3.588 Y-3.5 R3.412
G1 Y-9.5
G3 X7. Y-12.913 R3.413
G1 X11.365
G2 X10.413 Y-9.5 R6.588
X12.711 Y-4.5 R6.588
X10.439 Y-0.087 R6.588
G1 X7.
G3 X4.68 Y-0.997 R3.412
X4.646 Y-1.249 R0.2
G1 X7.545 Y-5.96
G3 X7.862 Y-5.991 R0.2
X5.644 Y-3.946 Z-10.835 R1.508
X7.862 Y-5.991 Z-11.671 R1.508
X8.082 Y-4.255 Z-12. R1.508
G2 X7.973 Y-4.045 R7.942
X7.848 Y-3.787 R11.943
G3 X7.563 Y-3.606 R0.315
G1 X7.422
G3 X7.106 Y-3.922 R0.315
G1 Y-6.589
G3 X7.313 Y-6.619 R0.106
G2 X8.105 Y-4.702 R10.058
G3 Y-4.298 R0.422
G2 X8.082 Y-4.255 R7.942
X8.335 Y-3.404 R0.63
G3 X8.118 Y-2.543 R0.458
G1 X8.115
G3 X6.903 Y-2.602 R12.525
X6.088 Y-3.5 R0.902
G1 Y-9.5
G3 X6.692 Y-10.31 R0.846
X7.692 Y-10.457 R3.489
X7.98 Y-10.147 R0.289
G2 X8.211 Y-7.381 R8.874
X9.265 Y-4.815 R9.322
G3 Y-4.185 R0.613
G2 X8.913 Y-3.546 R10.326
X8.612 Y-2.881 R8.204
G3 X8.118 Y-2.543 R0.536
G2 X6.546 Y-1.443 R1.687
G3 X4.68 Y-0.997 R1.154
X3.588 Y-3.5 R3.412
G1 Y-9.5
G3 X7. Y-12.913 R3.413
G1 X11.365
G2 X10.413 Y-9.5 R6.588
X12.711 Y-4.5 R6.588
X10.439 Y-0.087 R6.588
G1 X7.
G3 X4.68 Y-0.997 R3.412
G1 X5.09 Y-1.44 Z-11.94
G0 Z5.
X68.38 Y-5.025
G1 Z2.5 F351.
G3 X66.113 Y-3.036 Z1.665 R1.508
X68.38 Y-5.025 Z0.829 R1.508
X66.113 Y-3.036 Z-0.006 R1.508
X68.38 Y-5.025 Z-0.842 R1.508
X66.113 Y-3.036 Z-1.677 R1.508
X65.919 Y-4.746 Z-2. R1.508
G2 X66.687 Y-6.619 R9.688
G3 X66.894 Y-6.589 R0.106
G1 Y-3.926
G3 X66.574 Y-3.606 R0.319
G1 X66.437
G3 X66.152 Y-3.787 R0.315
G2 X66.027 Y-4.045 R11.943
X65.895 Y-4.298 R7.942
G3 Y-4.702 R0.422
G2 X65.919 Y-4.746 R9.688
X65.805 Y-5.741 R0.877
G3 X65.602 Y-6.722 R1.011
G2 X65.789 Y-7.381 R9.322
X66.02 Y-10.147 R8.874
G3 X66.308 Y-10.457 R0.289
X67.308 Y-10.31 R3.489
X67.912 Y-9.5 R0.846
G1 Y-3.5
G3 X67.097 Y-2.602 R0.902
X65.885 Y-2.543 R12.525
X65.388 Y-2.881 R0.536
G2 X65.087 Y-3.546 R8.204
X64.735 Y-4.185 R10.326
G3 Y-4.815 R0.613
G2 X65.602 Y-6.722 R9.322
X64.804 Y-9.07 R2.073
G3 X63.389 Y-11.107 R3.51
G2 X62.635 Y-12.913 R6.588
G1 X67.
G3 X70.412 Y-9.5 R3.412
G1 Y-3.5
G3 X67. Y-0.087 R3.413
G1 X63.561
G2 X61.289 Y-4.5 R6.588
X63.588 Y-9.45 R6.588
Y-9.5 R6.588
X63.389 Y-11.107 R6.588
G3 X63.772 Y-11.219 R0.2
G1 X66.473 Y-3.209
G3 X66.136 Y-3.01 R0.2
X68.356 Y-5.052 Z-2.835 R1.508
X66.136 Y-3.01 Z-3.671 R1.508
X65.919 Y-4.746 Z-4. R1.508
G2 X66.687 Y-6.619 R9.688
G3 X66.894 Y-6.589 R0.106
G1 Y-3.926
G3 X66.574 Y-3.606 R0.319
G1 X66.437
G3 X66.152 Y-3.787 R0.315
G2 X66.027 Y-4.045 R11.943
X65.895 Y-4.298 R7.942
G3 Y-4.702 R0.422
G2 X65.919 Y-4.746 R9.688
X65.805 Y-5.741 R0.877
G3 X65.602 Y-6.722 R1.011
G2 X65.789 Y-7.381 R9.322
X66.02 Y-10.147 R8.874
G3 X66.308 Y-10.457 R0.289
X67.308 Y-10.31 R3.489
X67.912 Y-9.5 R0.846
G1 Y-3.5
G3 X67.097 Y-2.602 R0.902
X65.885 Y-2.543 R12.525
X65.388 Y-2.881 R0.536
G2 X65.087 Y-3.546 R8.204
X64.735 Y-4.185 R10.326
G3 Y-4.815 R0.613
G2 X65.602 Y-6.722 R9.322
X64.804 Y-9.07 R2.073
G3 X63.389 Y-11.107 R3.51
G2 X62.635 Y-12.913 R6.588
G1 X67.
G3 X70.412 Y-9.5 R3.412
G1 Y-3.5
G3 X67. Y-0.087 R3.413
G1 X63.561
G2 X61.289 Y-4.5 R6.588
X63.588 Y-9.45 R6.588
Y-9.5 R6.588
X63.389 Y-11.107 R6.588
G3 X63.772 Y-11.219 R0.2
G1 X66.473 Y-3.209
G3 X66.136 Y-3.01 R0.2
X68.356 Y-5.052 Z-4.835 R1.508
X66.136 Y-3.01 Z-5.671 R1.508
X65.919 Y-4.746 Z-6. R1.508
G2 X66.687 Y-6.619 R9.688
G3 X66.894 Y-6.589 R0.106
G1 Y-3.926
G3 X66.574 Y-3.606 R0.319
G1 X66.437
G3 X66.152 Y-3.787 R0.315
G2 X66.027 Y-4.045 R11.943
X65.895 Y-4.298 R7.942
G3 Y-4.702 R0.422
G2 X65.919 Y-4.746 R9.688
X65.805 Y-5.741 R0.877
G3 X65.602 Y-6.722 R1.011
G2 X65.789 Y-7.381 R9.322
X66.02 Y-10.147 R8.874
G3 X66.308 Y-10.457 R0.289
X67.308 Y-10.31 R3.489
X67.912 Y-9.5 R0.846
G1 Y-3.5
G3 X67.097 Y-2.602 R0.902
X65.885 Y-2.543 R12.525
X65.388 Y-2.881 R0.536
G2 X65.087 Y-3.546 R8.204
X64.735 Y-4.185 R10.326
G3 Y-4.815 R0.613
G2 X65.602 Y-6.722 R9.322
X64.804 Y-9.07 R2.073
G3 X63.389 Y-11.107 R3.51
G2 X62.635 Y-12.913 R6.588
G1 X67.
G3 X70.412 Y-9.5 R3.412
G1 Y-3.5
G3 X67. Y-0.087 R3.413
G1 X63.561
G2 X61.289 Y-4.5 R6.588
X63.588 Y-9.45 R6.588
Y-9.5 R6.588
X63.389 Y-11.107 R6.588
G3 X63.772 Y-11.219 R0.2
G1 X66.473 Y-3.209
G3 X66.136 Y-3.01 R0.2
X68.356 Y-5.052 Z-6.835 R1.508
X66.136 Y-3.01 Z-7.671 R1.508
X65.919 Y-4.746 Z-8. R1.508
G2 X66.687 Y-6.619 R9.688
G3 X66.894 Y-6.589 R0.106
G1 Y-3.926
G3 X66.574 Y-3.606 R0.319
G1 X66.437
G3 X66.152 Y-3.787 R0.315
G2 X66.027 Y-4.045 R11.943
X65.895 Y-4.298 R7.942
G3 Y-4.702 R0.422
G2 X65.919 Y-4.746 R9.688
X65.805 Y-5.741 R0.877
G3 X65.602 Y-6.722 R1.011
G2 X65.789 Y-7.381 R9.322
X66.02 Y-10.147 R8.874
G3 X66.308 Y-10.457 R0.289
X67.308 Y-10.31 R3.489
X67.912 Y-9.5 R0.846
G1 Y-3.5
G3 X67.097 Y-2.602 R0.902
X65.885 Y-2.543 R12.525
X65.388 Y-2.881 R0.536
G2 X65.087 Y-3.546 R8.204
X64.735 Y-4.185 R10.326
G3 Y-4.815 R0.613
G2 X65.602 Y-6.722 R9.322
X64.804 Y-9.07 R2.073
G3 X63.389 Y-11.107 R3.51
G2 X62.635 Y-12.913 R6.588
G1 X67.
G3 X70.412 Y-9.5 R3.412
G1 Y-3.5
G3 X67. Y-0.087 R3.413
G1 X63.561
G2 X61.289 Y-4.5 R6.588
X63.588 Y-9.45 R6.588
Y-9.5 R6.588
X63.389 Y-11.107 R6.588
G3 X63.772 Y-11.219 R0.2
G1 X66.473 Y-3.209
G3 X66.136 Y-3.01 R0.2
X68.356 Y-5.052 Z-8.835 R1.508
X66.136 Y-3.01 Z-9.671 R1.508
X65.919 Y-4.746 Z-10. R1.508
G2 X66.687 Y-6.619 R9.688
G3 X66.894 Y-6.589 R0.106
G1 Y-3.926
G3 X66.574 Y-3.606 R0.319
G1 X66.437
G3 X66.152 Y-3.787 R0.315
G2 X66.027 Y-4.045 R11.943
X65.895 Y-4.298 R7.942
G3 Y-4.702 R0.422
G2 X65.919 Y-4.746 R9.688
X65.805 Y-5.741 R0.877
G3 X65.602 Y-6.722 R1.011
G2 X65.789 Y-7.381 R9.322
X66.02 Y-10.147 R8.874
G3 X66.308 Y-10.457 R0.289
X67.308 Y-10.31 R3.489
X67.912 Y-9.5 R0.846
G1 Y-3.5
G3 X67.097 Y-2.602 R0.902
X65.885 Y-2.543 R12.525
X65.388 Y-2.881 R0.536
G2 X65.087 Y-3.546 R8.204
X64.735 Y-4.185 R10.326
G3 Y-4.815 R0.613
G2 X65.602 Y-6.722 R9.322
X64.804 Y-9.07 R2.073
G3 X63.389 Y-11.107 R3.51
G2 X62.635 Y-12.913 R6.588
G1 X67.
G3 X70.412 Y-9.5 R3.412
G1 Y-3.5
G3 X67. Y-0.087 R3.413
G1 X63.561
G2 X61.289 Y-4.5 R6.588
X63.588 Y-9.45 R6.588
Y-9.5 R6.588
X63.389 Y-11.107 R6.588
G3 X63.772 Y-11.219 R0.2
G1 X66.473 Y-3.209
G3 X66.136 Y-3.01 R0.2
X68.356 Y-5.052 Z-10.835 R1.508
X66.136 Y-3.01 Z-11.671 R1.508
X65.919 Y-4.746 Z-12. R1.508
G2 X66.687 Y-6.619 R9.688
G3 X66.894 Y-6.589 R0.106
G1 Y-3.926
G3 X66.574 Y-3.606 R0.319
G1 X66.437
G3 X66.152 Y-3.787 R0.315
G2 X66.027 Y-4.045 R11.943
X65.895 Y-4.298 R7.942
G3 Y-4.702 R0.422
G2 X65.919 Y-4.746 R9.688
X65.805 Y-5.741 R0.877
G3 X65.602 Y-6.722 R1.011
G2 X65.789 Y-7.381 R9.322
X66.02 Y-10.147 R8.874
G3 X66.308 Y-10.457 R0.289
X67.308 Y-10.31 R3.489
X67.912 Y-9.5 R0.846
G1 Y-3.5
G3 X67.097 Y-2.602 R0.902
X65.885 Y-2.543 R12.525
X65.388 Y-2.881 R0.536
G2 X65.087 Y-3.546 R8.204
X64.735 Y-4.185 R10.326
G3 Y-4.815 R0.613
G2 X65.602 Y-6.722 R9.322
X64.804 Y-9.07 R2.073
G3 X63.389 Y-11.107 R3.51
G2 X62.635 Y-12.913 R6.588
G1 X67.
G3 X70.412 Y-9.5 R3.412
G1 Y-3.5
G3 X67. Y-0.087 R3.413
G1 X63.561
G2 X61.289 Y-4.5 R6.588
X63.588 Y-9.45 R6.588
Y-9.5 R6.588
X63.389 Y-11.107 R6.588
G1 X63.974 Y-11.254 Z-11.94
G0 Z5.
X-68.379 Y-3.972
G1 Z2.5 F351.
G3 X-66.114 Y-5.964 Z1.665 R1.508
X-68.379 Y-3.972 Z0.829 R1.508
X-66.114 Y-5.964 Z-0.006 R1.508
X-68.379 Y-3.972 Z-0.842 R1.508
X-66.114 Y-5.964 Z-1.677 R1.508
X-65.918 Y-4.255 Z-2. R1.508
G2 X-66.027 Y-4.045 R7.942
X-66.152 Y-3.787 R11.943
G3 X-66.437 Y-3.606 R0.315
G1 X-66.578
G3 X-66.894 Y-3.922 R0.315
G1 Y-6.589
G3 X-66.687 Y-6.619 R0.106
G2 X-65.895 Y-4.702 R10.058
G3 Y-4.298 R0.422
G2 X-65.918 Y-4.255 R7.942
X-65.665 Y-3.404 R0.63
G3 X-65.882 Y-2.543 R0.458
G1 X-65.885
G3 X-67.097 Y-2.602 R12.525
X-67.912 Y-3.5 R0.902
G1 Y-9.5
G3 X-67.308 Y-10.31 R0.846
X-66.308 Y-10.457 R3.489
X-66.02 Y-10.147 R0.289
G2 X-65.789 Y-7.381 R8.874
X-64.735 Y-4.815 R9.322
G3 Y-4.185 R0.613
G2 X-65.087 Y-3.546 R10.326
X-65.388 Y-2.881 R8.204
G3 X-65.882 Y-2.543 R0.536
G2 X-67.454 Y-1.443 R1.687
G3 X-69.32 Y-0.997 R1.154
X-70.412 Y-3.5 R3.412
G1 Y-9.5
G3 X-67. Y-12.913 R3.413
G1 X-62.635
G2 X-63.588 Y-9.5 R6.588
X-61.289 Y-4.5 R6.588
X-63.561 Y-0.087 R6.588
G1 X-67.
G3 X-69.32 Y-0.997 R3.412
X-69.354 Y-1.249 R0.2
G1 X-66.455 Y-5.96
G3 X-66.138 Y-5.991 R0.2
X-68.356 Y-3.946 Z-2.835 R1.508
X-66.138 Y-5.991 Z-3.671 R1.508
X-65.918 Y-4.255 Z-4. R1.508
G2 X-66.027 Y-4.045 R7.942
X-66.152 Y-3.787 R11.943
G3 X-66.437 Y-3.606 R0.315
G1 X-66.578
G3 X-66.894 Y-3.922 R0.315
G1 Y-6.589
G3 X-66.687 Y-6.619 R0.106
G2 X-65.895 Y-4.702 R10.058
G3 Y-4.298 R0.422
G2 X-65.918 Y-4.255 R7.942
X-65.665 Y-3.404 R0.63
G3 X-65.882 Y-2.543 R0.458
G1 X-65.885
G3 X-67.097 Y-2.602 R12.525
X-67.912 Y-3.5 R0.902
G1 Y-9.5
G3 X-67.308 Y-10.31 R0.846
X-66.308 Y-10.457 R3.489
X-66.02 Y-10.147 R0.289
G2 X-65.789 Y-7.381 R8.874
X-64.735 Y-4.815 R9.322
G3 Y-4.185 R0.613
G2 X-65.087 Y-3.546 R10.326
X-65.388 Y-2.881 R8.204
G3 X-65.882 Y-2.543 R0.536
G2 X-67.454 Y-1.443 R1.687
G3 X-69.32 Y-0.997 R1.154
X-70.412 Y-3.5 R3.412
G1 Y-9.5
G3 X-67. Y-12.913 R3.413
G1 X-62.635
G2 X-63.588 Y-9.5 R6.588
X-61.289 Y-4.5 R6.588
X-63.561 Y-0.087 R6.588
G1 X-67.
G3 X-69.32 Y-0.997 R3.412
X-69.354 Y-1.249 R0.2
G1 X-66.455 Y-5.96
G3 X-66.138 Y-5.991 R0.2
X-68.356 Y-3.946 Z-4.835 R1.508
X-66.138 Y-5.991 Z-5.671 R1.508
X-65.918 Y-4.255 Z-6. R1.508
G2 X-66.027 Y-4.045 R7.942
X-66.152 Y-3.787 R11.943
G3 X-66.437 Y-3.606 R0.315
G1 X-66.578
G3 X-66.894 Y-3.922 R0.315
G1 Y-6.589
G3 X-66.687 Y-6.619 R0.106
G2 X-65.895 Y-4.702 R10.058
G3 Y-4.298 R0.422
G2 X-65.918 Y-4.255 R7.942
X-65.665 Y-3.404 R0.63
G3 X-65.882 Y-2.543 R0.458
G1 X-65.885
G3 X-67.097 Y-2.602 R12.525
X-67.912 Y-3.5 R0.902
G1 Y-9.5
G3 X-67.308 Y-10.31 R0.846
X-66.308 Y-10.457 R3.489
X-66.02 Y-10.147 R0.289
G2 X-65.789 Y-7.381 R8.874
X-64.735 Y-4.815 R9.322
G3 Y-4.185 R0.613
G2 X-65.087 Y-3.546 R10.326
X-65.388 Y-2.881 R8.204
G3 X-65.882 Y-2.543 R0.536
G2 X-67.454 Y-1.443 R1.687
G3 X-69.32 Y-0.997 R1.154
X-70.412 Y-3.5 R3.412
G1 Y-9.5
G3 X-67. Y-12.913 R3.413
G1 X-62.635
G2 X-63.588 Y-9.5 R6.588
X-61.289 Y-4.5 R6.588
X-63.561 Y-0.087 R6.588
G1 X-67.
G3 X-69.32 Y-0.997 R3.412
X-69.354 Y-1.249 R0.2
G1 X-66.455 Y-5.96
G3 X-66.138 Y-5.991 R0.2
X-68.356 Y-3.946 Z-6.835 R1.508
X-66.138 Y-5.991 Z-7.671 R1.508
X-65.918 Y-4.255 Z-8. R1.508
G2 X-66.027 Y-4.045 R7.942
X-66.152 Y-3.787 R11.943
G3 X-66.437 Y-3.606 R0.315
G1 X-66.578
G3 X-66.894 Y-3.922 R0.315
G1 Y-6.589
G3 X-66.687 Y-6.619 R0.106
G2 X-65.895 Y-4.702 R10.058
G3 Y-4.298 R0.422
G2 X-65.918 Y-4.255 R7.942
X-65.665 Y-3.404 R0.63
G3 X-65.882 Y-2.543 R0.458
G1 X-65.885
G3 X-67.097 Y-2.602 R12.525
X-67.912 Y-3.5 R0.902
G1 Y-9.5
G3 X-67.308 Y-10.31 R0.846
X-66.308 Y-10.457 R3.489
X-66.02 Y-10.147 R0.289
G2 X-65.789 Y-7.381 R8.874
X-64.735 Y-4.815 R9.322
G3 Y-4.185 R0.613
G2 X-65.087 Y-3.546 R10.326
X-65.388 Y-2.881 R8.204
G3 X-65.882 Y-2.543 R0.536
G2 X-67.454 Y-1.443 R1.687
G3 X-69.32 Y-0.997 R1.154
X-70.412 Y-3.5 R3.412
G1 Y-9.5
G3 X-67. Y-12.913 R3.413
G1 X-62.635
G2 X-63.588 Y-9.5 R6.588
X-61.289 Y-4.5 R6.588
X-63.561 Y-0.087 R6.588
G1 X-67.
G3 X-69.32 Y-0.997 R3.412
X-69.354 Y-1.249 R0.2
G1 X-66.455 Y-5.96
G3 X-66.138 Y-5.991 R0.2
X-68.356 Y-3.946 Z-8.835 R1.508
X-66.138 Y-5.991 Z-9.671 R1.508
X-65.918 Y-4.255 Z-10. R1.508
G2 X-66.027 Y-4.045 R7.942
X-66.152 Y-3.787 R11.943
G3 X-66.437 Y-3.606 R0.315
G1 X-66.578
G3 X-66.894 Y-3.922 R0.315
G1 Y-6.589
G3 X-66.687 Y-6.619 R0.106
G2 X-65.895 Y-4.702 R10.058
G3 Y-4.298 R0.422
G2 X-65.918 Y-4.255 R7.942
X-65.665 Y-3.404 R0.63
G3 X-65.882 Y-2.543 R0.458
G1 X-65.885
G3 X-67.097 Y-2.602 R12.525
X-67.912 Y-3.5 R0.902
G1 Y-9.5
G3 X-67.308 Y-10.31 R0.846
X-66.308 Y-10.457 R3.489
X-66.02 Y-10.147 R0.289
G2 X-65.789 Y-7.381 R8.874
X-64.735 Y-4.815 R9.322
G3 Y-4.185 R0.613
G2 X-65.087 Y-3.546 R10.326
X-65.388 Y-2.881 R8.204
G3 X-65.882 Y-2.543 R0.536
G2 X-67.454 Y-1.443 R1.687
G3 X-69.32 Y-0.997 R1.154
X-70.412 Y-3.5 R3.412
G1 Y-9.5
G3 X-67. Y-12.913 R3.413
G1 X-62.635
G2 X-63.588 Y-9.5 R6.588
X-61.289 Y-4.5 R6.588
X-63.561 Y-0.087 R6.588
G1 X-67.
G3 X-69.32 Y-0.997 R3.412
X-69.354 Y-1.249 R0.2
G1 X-66.455 Y-5.96
G3 X-66.138 Y-5.991 R0.2
X-68.356 Y-3.946 Z-10.835 R1.508
X-66.138 Y-5.991 Z-11.671 R1.508
X-65.918 Y-4.255 Z-12. R1.508
G2 X-66.027 Y-4.045 R7.942
X-66.152 Y-3.787 R11.943
G3 X-66.437 Y-3.606 R0.315
G1 X-66.578
G3 X-66.894 Y-3.922 R0.315
G1 Y-6.589
G3 X-66.687 Y-6.619 R0.106
G2 X-65.895 Y-4.702 R10.058
G3 Y-4.298 R0.422
G2 X-65.918 Y-4.255 R7.942
X-65.665 Y-3.404 R0.63
G3 X-65.882 Y-2.543 R0.458
G1 X-65.885
G3 X-67.097 Y-2.602 R12.525
X-67.912 Y-3.5 R0.902
G1 Y-9.5
G3 X-67.308 Y-10.31 R0.846
X-66.308 Y-10.457 R3.489
X-66.02 Y-10.147 R0.289
G2 X-65.789 Y-7.381 R8.874
X-64.735 Y-4.815 R9.322
G3 Y-4.185 R0.613
G2 X-65.087 Y-3.546 R10.326
X-65.388 Y-2.881 R8.204
G3 X-65.882 Y-2.543 R0.536
G2 X-67.454 Y-1.443 R1.687
G3 X-69.32 Y-0.997 R1.154
X-70.412 Y-3.5 R3.412
G1 Y-9.5
G3 X-67. Y-12.913 R3.413
G1 X-62.635
G2 X-63.588 Y-9.5 R6.588
X-61.289 Y-4.5 R6.588
X-63.561 Y-0.087 R6.588
G1 X-67.
G3 X-69.32 Y-0.997 R3.412
G1 X-68.91 Y-1.44 Z-11.94
G0 Z15.

(DRILL2)
M8
G0 X-67. Y-4.5
Z15.
Z5.
Z-7.
G1 Z-12. F762.
Z-14.
G3 X-66.088 R0.456 F351.
X-67.912 R0.912
X-66.088 R0.912
G1 X-67.
Z-16. F762.
G3 X-66.088 R0.456 F351.
X-67.912 R0.912
X-66.088 R0.912
G1 X-67.
Z-18. F762.
G3 X-66.088 R0.456 F351.
X-67.912 R0.912
X-66.088 R0.912
G1 X-67.
Z-20. F762.
G3 X-66.088 R0.456 F351.
X-67.912 R0.912
X-66.088 R0.912
G1 X-67.
G0 Z5.
X-7.
Z-7.
G1 Z-12. F762.
Z-14.
G3 X-6.088 R0.456 F351.
X-7.912 R0.912
X-6.088 R0.912
G1 X-7.
Z-16. F762.
G3 X-6.088 R0.456 F351.
X-7.912 R0.912
X-6.088 R0.912
G1 X-7.
Z-18. F762.
G3 X-6.088 R0.456 F351.
X-7.912 R0.912
X-6.088 R0.912
G1 X-7.
Z-20. F762.
G3 X-6.088 R0.456 F351.
X-7.912 R0.912
X-6.088 R0.912
G1 X-7.
G0 Z5.
X7.
Z-7.
G1 Z-12. F762.
Z-14.
G3 X7.912 R0.456 F351.
X6.088 R0.912
X7.912 R0.912
G1 X7.
Z-16. F762.
G3 X7.912 R0.456 F351.
X6.088 R0.912
X7.912 R0.912
G1 X7.
Z-18. F762.
G3 X7.912 R0.456 F351.
X6.088 R0.912
X7.912 R0.912
G1 X7.
Z-20. F762.
G3 X7.912 R0.456 F351.
X6.088 R0.912
X7.912 R0.912
G1 X7.
G0 Z5.
X67.
Z-7.
G1 Z-12. F762.
Z-14.
G3 X67.912 R0.456 F351.
X66.088 R0.912
X67.912 R0.912
G1 X67.
Z-16. F762.
G3 X67.912 R0.456 F351.
X66.088 R0.912
X67.912 R0.912
G1 X67.
Z-18. F762.
G3 X67.912 R0.456 F351.
X66.088 R0.912
X67.912 R0.912
G1 X67.
Z-20. F762.
G3 X67.912 R0.456 F351.
X66.088 R0.912
X67.912 R0.912
G1 X67.
G0 Z5.
Z15.

(2D CONTOUR3)
M8
G0 X12.595 Y-4.602
Z15.
Z5.
G1 Z3. F762.
Z2.5
G2 X17. Y-2.912 Z1.649 R6.588 F351.
G3 Y-16.087 Z-2. R6.587
G2 Y-2.912 R6.588
G3 Y-16.087 Z-4. R6.587
G2 Y-2.912 R6.588
G3 Y-16.087 Z-6. R6.587
G2 Y-2.912 R6.588
G3 Y-16.087 Z-8. R6.587
G2 Y-2.912 R6.588
G3 Y-16.087 Z-10. R6.587
G2 Y-2.912 R6.588
G3 Y-16.087 Z-12. R6.587
G2 Y-2.912 R6.588
G0 Z5.
X-12.595 Y-14.398
G1 Z3. F762.
Z2.5
G2 X-17. Y-16.087 Z1.649 R6.587 F351.
G3 Y-2.912 Z-2. R6.588
G2 Y-16.087 R6.587
G3 Y-2.912 Z-4. R6.588
G2 Y-16.087 R6.587
G3 Y-2.912 Z-6. R6.588
G2 Y-16.087 R6.587
G3 Y-2.912 Z-8. R6.588
G2 Y-16.087 R6.587
G3 Y-2.912 Z-10. R6.588
G2 Y-16.087 R6.587
G3 Y-2.912 Z-12. R6.588
G2 Y-16.087 R6.587
G0 Z5.
X-61.405 Y-4.602
G1 Z3. F762.
Z2.5
G2 X-57. Y-2.912 Z1.649 R6.588 F351.
G3 Y-16.087 Z-2. R6.587
G2 Y-2.912 R6.588
G3 Y-16.087 Z-4. R6.587
G2 Y-2.912 R6.588
G3 Y-16.087 Z-6. R6.587
G2 Y-2.912 R6.588
G3 Y-16.087 Z-8. R6.587
G2 Y-2.912 R6.588
G3 Y-16.087 Z-10. R6.587
G2 Y-2.912 R6.588
G3 Y-16.087 Z-12. R6.587
G2 Y-2.912 R6.588
G0 Z5.
X61.405 Y-14.398
G1 Z3. F762.
Z2.5
G2 X57. Y-16.087 Z1.649 R6.587 F351.
G3 Y-2.912 Z-2. R6.588
G2 Y-16.087 R6.587
G3 Y-2.912 Z-4. R6.588
G2 Y-16.087 R6.587
G3 Y-2.912 Z-6. R6.588
G2 Y-16.087 R6.587
G3 Y-2.912 Z-8. R6.588
G2 Y-16.087 R6.587
G3 Y-2.912 Z-10. R6.588
G2 Y-16.087 R6.587
G3 Y-2.912 Z-12. R6.588
G2 Y-16.087 R6.587
G0 Z15.

(2D CONTOUR2)
M8
G0 X32.395 Y-16.087
Z15.
Z5.
G1 Z3. F762.
Z2.5
X7. Z-1.978 F351.
G2 X6.874 Y-16.086 Z-2. R6.587
X0.412 Y-9.5 R6.588
G1 Y-3.5
G2 X7. Y3.088 R6.588
G1 X12.
G2 X13.587 Y1.5 R1.587
G1 Y0.5
G3 X17. Y-2.912 R3.412
G1 X57.
G3 X60.412 Y0.5 R3.412
G1 Y1.5
G2 X62. Y3.088 R1.588
G1 X67.
G2 X73.588 Y-3.5 R6.588
G1 Y-9.5
G2 X67. Y-16.087 R6.587
G1 X7.
G2 X6.874 Y-16.086 R6.587
X0.412 Y-9.5 Z-2.717 R6.588
G1 Y-3.5 Z-3.138
G2 X7. Y3.088 Z-3.863 R6.588
G1 X8.95 Z-4.
X12.
G2 X13.587 Y1.5 R1.587
G1 Y0.5
G3 X17. Y-2.912 R3.412
G1 X57.
G3 X60.412 Y0.5 R3.412
G1 Y1.5
G2 X62. Y3.088 R1.588
G1 X67.
G2 X73.588 Y-3.5 R6.588
G1 Y-9.5
G2 X67. Y-16.087 R6.587
G1 X7.
G2 X0.412 Y-9.5 R6.588
G1 Y-3.5
G2 X7. Y3.088 R6.588
G1 X8.95
X12. Z-4.214
G2 X13.587 Y1.5 Z-4.389 R1.587
G1 Y0.5 Z-4.459
G3 X17. Y-2.912 Z-4.835 R3.412
G1 X33.616 Z-6.
X57.
G3 X60.412 Y0.5 R3.412
G1 Y1.5
G2 X62. Y3.088 R1.588
G1 X67.
G2 X73.588 Y-3.5 R6.588
G1 Y-9.5
G2 X67. Y-16.087 R6.587
G1 X7.
G2 X0.412 Y-9.5 R6.588
G1 Y-3.5
G2 X7. Y3.088 R6.588
G1 X12.
G2 X13.587 Y1.5 R1.587
G1 Y0.5
G3 X17. Y-2.912 R3.412
G1 X33.616
X57. Z-7.64
G3 X60.405 Y0.275 Z-8. R3.412
X60.412 Y0.5 R3.412
G1 Y1.5
G2 X62. Y3.088 R1.588
G1 X67.
G2 X73.588 Y-3.5 R6.588
G1 Y-9.5
G2 X67. Y-16.087 R6.587
G1 X7.
G2 X0.412 Y-9.5 R6.588
G1 Y-3.5
G2 X7. Y3.088 R6.588
G1 X12.
G2 X13.587 Y1.5 R1.587
G1 Y0.5
G3 X17. Y-2.912 R3.412
G1 X57.
G3 X60.405 Y0.275 R3.412
X60.412 Y0.5 Z-8.016 R3.412
G1 Y1.5 Z-8.086
G2 X62. Y3.088 Z-8.261 R1.588
G1 X67. Z-8.611
G2 X73.588 Y-3.5 Z-9.337 R6.588
G1 Y-9.5 Z-9.758
G2 X72.703 Y-12.797 Z-10. R6.588
X67. Y-16.087 R6.587
G1 X7.
G2 X0.412 Y-9.5 R6.588
G1 Y-3.5
G2 X7. Y3.088 R6.588
G1 X12.
G2 X13.587 Y1.5 R1.587
G1 Y0.5
G3 X17. Y-2.912 R3.412
G1 X57.
G3 X60.412 Y0.5 R3.412
G1 Y1.5
G2 X62. Y3.088 R1.588
G1 X67.
G2 X73.588 Y-3.5 R6.588
G1 Y-9.5
G2 X72.703 Y-12.797 R6.588
X67. Y-16.087 Z-10.484 R6.587
G1 X45.375 Z-12.
X7.
G2 X0.412 Y-9.5 R6.588
G1 Y-3.5
G2 X7. Y3.088 R6.588
G1 X12.
G2 X13.587 Y1.5 R1.587
G1 Y0.5
G3 X17. Y-2.912 R3.412
G1 X57.
G3 X60.412 Y0.5 R3.412
G1 Y1.5
G2 X62. Y3.088 R1.588
G1 X67.
G2 X73.588 Y-3.5 R6.588
G1 Y-9.5
G2 X67. Y-16.087 R6.587
G1 X45.375
X16.856 Z-14.
X7.
G2 X0.412 Y-9.5 R6.588
G1 Y-3.5
G2 X7. Y3.088 R6.588
G1 X12.
G2 X13.587 Y1.5 R1.587
G1 Y0.5
G3 X17. Y-2.912 R3.412
G1 X57.
G3 X60.412 Y0.5 R3.412
G1 Y1.5
G2 X62. Y3.088 R1.588
G1 X67.
G2 X73.588 Y-3.5 R6.588
G1 Y-9.5
G2 X67. Y-16.087 R6.587
G1 X16.856
X7. Z-14.691
G2 X0.412 Y-9.5 Z-15.417 R6.588
G1 Y-3.5 Z-15.838
G2 X0.815 Y-1.231 Z-16. R6.588
X7. Y3.088 R6.588
G1 X12.
G2 X13.587 Y1.5 R1.587
G1 Y0.5
G3 X17. Y-2.912 R3.412
G1 X57.
G3 X60.412 Y0.5 R3.412
G1 Y1.5
G2 X62. Y3.088 R1.588
G1 X67.
G2 X73.588 Y-3.5 R6.588
G1 Y-9.5
G2 X67. Y-16.087 R6.587
G1 X16.856
X7.
G2 X0.412 Y-9.5 R6.588
G1 Y-3.5
G2 X0.815 Y-1.231 R6.588
X7. Y3.088 Z-16.563 R6.588
G1 X12. Z-16.914
G2 X13.587 Y1.5 Z-17.089 R1.587
G1 Y0.5 Z-17.159
G3 X17. Y-2.912 Z-17.535 R3.412
G1 X23.634 Z-18.
X57.
G3 X60.412 Y0.5 R3.412
G1 Y1.5
G2 X62. Y3.088 R1.588
G1 X67.
G2 X73.588 Y-3.5 R6.588
G1 Y-9.5
G2 X67. Y-16.087 R6.587
G1 X7.
G2 X0.412 Y-9.5 R6.588
G1 Y-3.5
G2 X7. Y3.088 R6.588
G1 X12.
G2 X13.587 Y1.5 R1.587
G1 Y0.5
G3 X17. Y-2.912 R3.412
G1 X23.634
X52.153 Z-20.
X57.
G3 X60.412 Y0.5 R3.412
G1 Y1.5
G2 X62. Y3.088 R1.588
G1 X67.
G2 X73.588 Y-3.5 R6.588
G1 Y-9.5
G2 X67. Y-16.087 R6.587
G1 X7.
G2 X0.412 Y-9.5 R6.588
G1 Y-3.5
G2 X7. Y3.088 R6.588
G1 X12.
G2 X13.587 Y1.5 R1.587
G1 Y0.5
G3 X17. Y-2.912 R3.412
G1 X52.153
Z2.5
X22.133 Y2.912
X17. Z1.595
G2 X16.693 Y16.08 Z-2. R6.588
X17. Y16.087 R6.587
G1 X57.
G2 Y2.912 R6.588
G1 X17.
G2 X16.693 Y16.08 R6.588
X17. Y16.087 Z-2.032 R6.587
G1 X35.81 Z-4.
X57.
G2 Y2.912 R6.588
G1 X17.
G2 Y16.087 R6.587
G1 X35.81
X54.926 Z-6.
X57.
G2 Y2.912 R6.588
G1 X17.
G2 Y16.087 R6.587
G1 X54.926
X57. Z-6.217
G2 X60.468 Y3.899 Z-8. R6.588
X57. Y2.912 R6.588
G1 X17.
G2 Y16.087 R6.587
G1 X54.926
X57.
G2 X60.468 Y3.899 R6.588
X57. Y2.912 Z-8.382 R6.588
G1 X41.536 Z-10.
X17.
G2 Y16.087 R6.587
G1 X57.
G2 Y2.912 R6.588
G1 X41.536
X22.419 Z-12.
X17.
G2 Y16.087 R6.587
G1 X57.
G2 Y2.912 R6.588
G1 X22.419
X17. Z-12.567
G2 X11.246 Y12.707 Z-14. R6.587
X17. Y16.087 R6.587
G1 X57.
G2 Y2.912 R6.588
G1 X22.419
X17.
G2 X11.246 Y12.707 R6.587
X17. Y16.087 Z-14.732 R6.587
G1 X29.119 Z-16.
X57.
G2 Y2.912 R6.588
G1 X17.
G2 Y16.087 R6.587
G1 X29.119
X48.235 Z-18.
X57.
G2 Y2.912 R6.588
G1 X17.
G2 Y16.087 R6.587
G1 X48.235
X57. Z-18.917
G2 X63.588 Y9.5 Z-20. R6.588
G1 X63.587 Y9.496
G2 X57. Y2.912 R6.588
G1 X17.
G2 Y16.087 R6.587
G1 X48.235
X57.
G2 X63.587 Y9.496 R6.587
G0 Z5.
X-5.956 Y3.004
G1 Z3. F762.
Z2.5
G2 X-0.412 Y-3.5 Z0.86 R6.588 F351.
G1 Y-9.5 Z-0.198
G2 X-6.874 Y-16.086 Z-2. R6.587
X-7. Y-16.087 R6.587
G1 X-67.
G2 X-73.588 Y-9.5 R6.588
G1 Y-3.5
G2 X-67. Y3.088 R6.588
G1 X-62.
G2 X-60.412 Y1.5 R1.588
G1 Y0.5
G3 X-57. Y-2.912 R3.412
G1 X-17.
G3 X-13.587 Y0.5 R3.413
G1 Y1.5
G2 X-12. Y3.088 R1.588
G1 X-7.
G2 X-0.412 Y-3.5 R6.588
G1 Y-9.5
G2 X-6.874 Y-16.086 R6.587
X-7. Y-16.087 Z-2.009 R6.587
G1 X-35.394 Z-4.
X-67.
G2 X-73.588 Y-9.5 R6.588
G1 Y-3.5
G2 X-67. Y3.088 R6.588
G1 X-62.
G2 X-60.412 Y1.5 R1.588
G1 Y0.5
G3 X-57. Y-2.912 R3.412
G1 X-17.
G3 X-13.587 Y0.5 R3.413
G1 Y1.5
G2 X-12. Y3.088 R1.588
G1 X-7.
G2 X-0.412 Y-3.5 R6.588
G1 Y-9.5
G2 X-7. Y-16.087 R6.587
G1 X-35.394
X-63.913 Z-6.
X-67.
G2 X-73.588 Y-9.5 R6.588
G1 Y-3.5
G2 X-67. Y3.088 R6.588
G1 X-62.
G2 X-60.412 Y1.5 R1.588
G1 Y0.5
G3 X-57. Y-2.912 R3.412
G1 X-17.
G3 X-13.587 Y0.5 R3.413
G1 Y1.5
G2 X-12. Y3.088 R1.588
G1 X-7.
G2 X-0.412 Y-3.5 R6.588
G1 Y-9.5
G2 X-7. Y-16.087 R6.587
G1 X-63.913
X-67. Z-6.216
G2 X-73.588 Y-9.5 Z-6.942 R6.588
G1 Y-3.5 Z-7.363
G2 X-68.255 Y2.967 Z-8. R6.587
X-67. Y3.088 R6.588
G1 X-62.
G2 X-60.412 Y1.5 R1.588
G1 Y0.5
G3 X-57. Y-2.912 R3.412
G1 X-17.
G3 X-13.587 Y0.5 R3.413
G1 Y1.5
G2 X-12. Y3.088 R1.588
G1 X-7.
G2 X-0.412 Y-3.5 R6.588
G1 Y-9.5
G2 X-7. Y-16.087 R6.587
G1 X-63.913
X-67.
G2 X-73.588 Y-9.5 R6.588
G1 Y-3.5
G2 X-68.255 Y2.967 R6.587
X-67. Y3.088 Z-8.089 R6.588
G1 X-62. Z-8.439
G2 X-60.412 Y1.5 Z-8.614 R1.588
G1 Y0.5 Z-8.684
G3 X-57. Y-2.912 Z-9.06 R3.412
G1 X-43.597 Z-10.
X-17.
G3 X-13.587 Y0.5 R3.413
G1 Y1.5
G2 X-12. Y3.088 R1.588
G1 X-7.
G2 X-0.412 Y-3.5 R6.588
G1 Y-9.5
G2 X-7. Y-16.087 R6.587
G1 X-67.
G2 X-73.588 Y-9.5 R6.588
G1 Y-3.5
G2 X-67. Y3.088 R6.588
G1 X-62.
G2 X-60.412 Y1.5 R1.588
G1 Y0.5
G3 X-57. Y-2.912 R3.412
G1 X-43.597
X-17. Z-11.865
G3 X-15.178 Y-2.385 Z-12. R3.412
X-13.587 Y0.5 R3.413
G1 Y1.5
G2 X-12. Y3.088 R1.588
G1 X-7.
G2 X-0.412 Y-3.5 R6.588
G1 Y-9.5
G2 X-7. Y-16.087 R6.587
G1 X-67.
G2 X-73.588 Y-9.5 R6.588
G1 Y-3.5
G2 X-67. Y3.088 R6.588
G1 X-62.
G2 X-60.412 Y1.5 R1.588
G1 Y0.5
G3 X-57. Y-2.912 R3.412
G1 X-17.
G3 X-15.178 Y-2.385 R3.412
X-13.587 Y0.5 Z-12.241 R3.413
G1 Y1.5 Z-12.311
G2 X-12. Y3.088 Z-12.486 R1.588
G1 X-7. Z-12.837
G2 X-0.412 Y-3.5 Z-13.562 R6.588
G1 Y-9.5 Z-13.983
G2 X-0.417 Y-9.74 Z-14. R6.588
X-7. Y-16.087 R6.587
G1 X-67.
G2 X-73.588 Y-9.5 R6.588
G1 Y-3.5
G2 X-67. Y3.088 R6.588
G1 X-62.
G2 X-60.412 Y1.5 R1.588
G1 Y0.5
G3 X-57. Y-2.912 R3.412
G1 X-17.
G3 X-13.587 Y0.5 R3.413
G1 Y1.5
G2 X-12. Y3.088 R1.588
G1 X-7.
G2 X-0.412 Y-3.5 R6.588
G1 Y-9.5
G2 X-0.417 Y-9.74 R6.588
X-7. Y-16.087 Z-14.709 R6.587
G1 X-25.412 Z-16.
X-67.
G2 X-73.588 Y-9.5 R6.588
G1 Y-3.5
G2 X-67. Y3.088 R6.588
G1 X-62.
G2 X-60.412 Y1.5 R1.588
G1 Y0.5
G3 X-57. Y-2.912 R3.412
G1 X-17.
G3 X-13.587 Y0.5 R3.413
G1 Y1.5
G2 X-12. Y3.088 R1.588
G1 X-7.
G2 X-0.412 Y-3.5 R6.588
G1 Y-9.5
G2 X-7. Y-16.087 R6.587
G1 X-25.412
X-53.931 Z-18.
X-67.
G2 X-73.588 Y-9.5 R6.588
G1 Y-3.5
G2 X-67. Y3.088 R6.588
G1 X-62.
G2 X-60.412 Y1.5 R1.588
G1 Y0.5
G3 X-57. Y-2.912 R3.412
G1 X-17.
G3 X-13.587 Y0.5 R3.413
G1 Y1.5
G2 X-12. Y3.088 R1.588
G1 X-7.
G2 X-0.412 Y-3.5 R6.588
G1 Y-9.5
G2 X-7. Y-16.087 R6.587
G1 X-53.931
X-67. Z-18.916
G2 X-73.588 Y-9.5 Z-19.642 R6.588
G1 Y-4.397 Z-20.
Y-3.5
G2 X-67. Y3.088 R6.588
G1 X-62.
G2 X-60.412 Y1.5 R1.588
G1 Y0.5
G3 X-57. Y-2.912 R3.412
G1 X-17.
G3 X-13.587 Y0.5 R3.413
G1 Y1.5
G2 X-12. Y3.088 R1.588
G1 X-7.
G2 X-0.412 Y-3.5 R6.588
G1 Y-9.5
G2 X-7. Y-16.087 R6.587
G1 X-53.931
X-67.
G2 X-73.588 Y-9.5 R6.588
G1 Y-4.397
G0 Z5.
X-42.214 Y16.087
G1 Z3. F762.
Z2.5
X-17. Z-1.946 F351.
G2 X-16.693 Y16.08 Z-2. R6.588
X-17. Y2.912 R6.588
G1 X-57.
G2 Y16.087 R6.587
G1 X-17.
G2 X-16.693 Y16.08 R6.588
X-15.736 Y3.035 Z-4. R6.587
X-17. Y2.912 R6.588
G1 X-57.
G2 Y16.087 R6.587
G1 X-17.
G2 X-15.736 Y3.035 R6.587
X-17. Y2.912 Z-4.133 R6.588
G1 X-34.845 Z-6.
X-57.
G2 Y16.087 R6.587
G1 X-17.
G2 Y2.912 R6.588
G1 X-34.845
X-53.962 Z-8.
X-57.
G2 Y16.087 R6.587
G1 X-17.
G2 Y2.912 R6.588
G1 X-53.962
X-57. Z-8.318
G2 X-61.248 Y14.535 Z-10. R6.587
X-57. Y16.087 R6.587
G1 X-17.
G2 Y2.912 R6.588
G1 X-53.962
X-57.
G2 X-61.248 Y14.535 R6.587
X-57. Y16.087 Z-10.483 R6.587
G1 X-42.5 Z-12.
X-17.
G2 Y2.912 R6.588
G1 X-57.
G2 Y16.087 R6.587
G1 X-42.5
X-23.384 Z-14.
X-17.
G2 Y2.912 R6.588
G1 X-57.
G2 Y16.087 R6.587
G1 X-23.384
X-17. Z-14.668
G2 X-10.84 Y7.167 Z-16. R6.587
X-17. Y2.912 R6.588
G1 X-57.
G2 Y16.087 R6.587
G1 X-23.384
X-17.
G2 X-10.84 Y7.167 R6.587
X-17. Y2.912 Z-16.833 R6.588
G1 X-28.154 Z-18.
X-57.
G2 Y16.087 R6.587
G1 X-17.
G2 Y2.912 R6.588
G1 X-28.154
X-47.271 Z-20.
X-57.
G2 Y16.087 R6.587
G1 X-17.
G2 Y2.912 R6.588
G1 X-47.271
G0 Z15.

M9
M30
