(_)
(T1  D=3.175 CR=0. - ZMIN=-8. - FLAT END MILL)
G90 G94 G91.1 G40 G49 G17
G21

(DRILL1)
M5
M9
T1
S9170 M3
G54
M8
G0 X16.5 Y0.
G43 Z15. H1
Z5.
G98 G81 X16.5 Y0. Z-8. R-3. F762.
X0. Y16.5
X-16.5 Y0.
X0. Y-16.5
G80
Z15.

(2D CONTOUR1)
M8
G0 X0.649 Y-10.843
Z15.
Z5.
G1 Z3. F762.
Z2.5
G3 X-0.649 Y10.843 Z1.308 R10.862 F465.
X0.649 Y-10.843 Z0.117 R10.862
X-0.649 Y10.843 Z-1.075 R10.862
X-6.517 Y-8.69 Z-2. R10.862
X6.517 Y8.69 R10.862
X-6.517 Y-8.69 R10.862
X6.518 Y8.69 Z-3.192 R10.863
X-10.825 Y0.905 Z-4. R10.863
X10.825 Y-0.905 R10.863
X-10.825 Y0.905 R10.863
X10.825 Y-0.905 Z-5.192 R10.863
X-4.984 Y9.651 Z-6. R10.863
X4.984 Y-9.651 R10.863
X-4.984 Y9.651 R10.863
X4.984 Y-9.651 Z-7.192 R10.863
X5.529 Y9.35 Z-8. R10.863
X-5.529 Y-9.35 R10.863
X5.529 Y9.35 R10.863
G0 Z15.

(2D POCKET1)
M8
G0 X-9.29 Y13.937
Z15.
Z5.
G1 Z2.5 F465.
G3 X-13.573 Y16.547 Z1.111 R2.508
X-9.29 Y13.937 Z-0.279 R2.508
X-12.936 Y17.249 Z-1.5 R2.508
X-21.219 Y-3.93 R21.596
X9.665 Y-19.295 R21.562
X9.637 Y19.309 R21.596
X-12.936 Y17.249 R21.596
G2 X-14.342 Y17.156 R1.29
G3 X-15.74 Y16.99 R1.195
X-19.202 Y12.939 R23.142
X1.128 Y-23.127 R23.147
X21.87 Y7.607 R23.174
X-15.74 Y16.99 R23.142
G2 X-17.852 Y16.619 R1.973
G3 X-19.932 Y16.098 R1.781
X-15.373 Y-20.497 R25.621
X-15.3 Y-20.552 R25.621
X15.3 Y20.552 R25.621
X-19.932 Y16.098 R25.621
G1 X-19.541 Y15.782 Z-1.45
G0 Z5.
X-13.709 Y-18.206
G1 Z1. F465.
Z-1.5
X-12.097 Y-16.064
G2 X-19.792 Y3.667 R20.144
X14.795 Y13.648 R20.116
X8.991 Y-18.009 R20.125
X-12.097 Y-16.064 R20.144
X-12.557 Y-14.697 R1.277
G3 X-12.93 Y-13.303 R1.41
G2 X-5.103 Y17.838 R18.564
X18.554 Y-0.061 R18.542
X-11.181 Y-14.807 R18.564
X-12.93 Y-13.303 R18.564
X-13.369 Y-11.01 R2.039
G3 X-13.544 Y-8.682 R2.457
G2 X13.544 Y8.682 R16.087
X16.087 Y0. R16.087
Y-0.05 R16.088
X-9.653 Y-12.87 R16.088
X-13.544 Y-8.682 R16.088
G1 X-13.968 Y-8.953 Z-1.45
G0 Z15.

(2D CONTOUR2)
M8
G0 X1.706 Y-10.728
Z15.
Z5.
G1 Z2.5 F762.
G3 X-1.706 Y10.728 Z-3.517 R10.862 F465.
X-6.517 Y-8.69 Z-8. R10.862
X6.517 Y8.69 R10.862
X-6.517 Y-8.69 R10.862
X6.517 Y8.69 R10.862
X-6.517 Y-8.69 R10.862
G0 Z15.

(2D CONTOUR3)
M8
G0 X-18.208 Y-22.309
Z15.
Z5.
G1 Z3. F762.
Z2.5
G2 X-28.796 Y0. Z-2. R28.796 F465.
X28.796 R28.796
X-28.796 R28.796
X-15.813 Y24.066 Z-4. R28.796
X15.813 Y-24.066 R28.796
X-15.813 Y24.066 R28.796
X11.43 Y26.431 Z-6. R28.796
X-11.43 Y-26.431 R28.796
X11.43 Y26.431 R28.796
X28.366 Y4.961 Z-8. R28.796
X-28.366 Y-4.961 R28.796
X28.366 Y4.961 R28.796
G0 Z15.

M9
M30
