(_)
(T1  D=3.175 CR=0. - ZMIN=-20. - FLAT END MILL)
G90 G94 G91.1 G40 G49 G17
G21

(DRILL1)
M5
M9
T1
S5500 M3
G54
M8
G0 X-67. Y-9.5
G43 Z15. H1
Z5.
G98 G73 X-67. Y-9.5 Z-12. R5. Q0.794 F762.
G80
X-64.589 Y9.5 Z5.
G73 X-64.589 Y9.5 Z-20. R5. Q0.794 F762.
X-14.589
G80
X-17. Y-9.5 Z5.
G73 X-17. Y-9.5 Z-12. R5. Q0.794 F762.
X17.
G80
X19.411 Y9.5 Z5.
G73 X19.411 Y9.5 Z-20. R5. Q0.794 F762.
X69.411
G80
X67. Y-9.5 Z5.
G73 X67. Y-9.5 Z-12. R5. Q0.794 F762.
G80
Z15.

(2D POCKET1)
M8
G0 X5.621 Y-3.972
Z15.
Z5.
G1 Z2.5 F351.
G3 X7.886 Y-5.964 Z1.665 R1.508
X5.621 Y-3.972 Z0.829 R1.508
X7.886 Y-5.964 Z-0.006 R1.508
X5.621 Y-3.972 Z-0.842 R1.508
X7.886 Y-5.964 Z-1.677 R1.508
X8.082 Y-4.255 Z-2. R1.508
G2 X7.973 Y-4.045 R7.942
X7.848 Y-3.787 R11.943
G3 X7.563 Y-3.606 R0.315
G1 X7.422
G3 X7.106 Y-3.922 R0.315
G1 Y-6.589
G3 X7.313 Y-6.619 R0.106
G2 X8.105 Y-4.702 R10.058
G3 Y-4.298 R0.422
G2 X8.082 Y-4.255 R7.942
X8.335 Y-3.404 R0.63
G3 X8.118 Y-2.543 R0.458
G1 X8.115
G3 X6.903 Y-2.602 R12.525
X6.088 Y-3.5 R0.902
G1 Y-9.5
G3 X6.692 Y-10.31 R0.846
X7.692 Y-10.457 R3.489
X7.98 Y-10.147 R0.289
G2 X8.211 Y-7.381 R8.874
X9.265 Y-4.815 R9.322
G3 Y-4.185 R0.613
G2 X8.913 Y-3.546 R10.326
X8.612 Y-2.881 R8.204
G3 X8.118 Y-2.543 R0.536
G2 X6.546 Y-1.443 R1.687
G3 X4.68 Y-0.997 R1.154
X3.588 Y-3.5 R3.412
G1 Y-9.5
G3 X7. Y-12.913 R3.413
G1 X11.365
G2 X10.413 Y-9.5 R6.588
X12.711 Y-4.5 R6.588
X10.439 Y-0.087 R6.588
G1 X7.
G3 X4.68 Y-0.997 R3.412
X4.646 Y-1.249 R0.2
G1 X7.545 Y-5.96
G3 X7.862 Y-5.991 R0.2
X5.644 Y-3.946 Z-2.835 R1.508
X7.862 Y-5.991 Z-3.671 R1.508
X8.082 Y-4.255 Z-4. R1.508
G2 X7.973 Y-4.045 R7.942
X7.848 Y-3.787 R11.943
G3 X7.563 Y-3.606 R0.315
G1 X7.422
G3 X7.106 Y-3.922 R0.315
G1 Y-6.589
G3 X7.313 Y-6.619 R0.106
G2 X8.105 Y-4.702 R10.058
G3 Y-4.298 R0.422
G2 X8.082 Y-4.255 R7.942
X8.335 Y-3.404 R0.63
G3 X8.118 Y-2.543 R0.458
G1 X8.115
G3 X6.903 Y-2.602 R12.525
X6.088 Y-3.5 R0.902
G1 Y-9.5
G3 X6.692 Y-10.31 R0.846
X7.692 Y-10.457 R3.489
X7.98 Y-10.147 R0.289
G2 X8.211 Y-7.381 R8.874
X9.265 Y-4.815 R9.322
G3 Y-4.185 R0.613
G2 X8.913 Y-3.546 R10.326
X8.612 Y-2.881 R8.204
G3 X8.118 Y-2.543 R0.536
G2 X6.546 Y-1.443 R1.687
G3 X4.68 Y-0.997 R1.154
X3.588 Y-3.5 R3.412
G1 Y-9.5
G3 X7. Y-12.913 R3.413
G1 X11.365
G2 X10.413 Y-9.5 R6.588
X12.711 Y-4.5 R6.588
X10.439 Y-0.087 R6.588
G1 X7.
G3 X4.68 Y-0.997 R3.412
X4.646 Y-1.249 R0.2
G1 X7.545 Y-5.96
G3 X7.862 Y-5.991 R0.2
X5.644 Y-3.946 Z-4.835 R1.508
X7.862 Y-5.991 Z-5.671 R1.508
X8.082 Y-4.255 Z-6. R1.508
G2 X7.973 Y-4.045 R7.942
X7.848 Y-3.787 R11.943
G3 X7.563 Y-3.606 R0.315
G1 X7.422
G3 X7.106 Y-3.922 R0.315
G1 Y-6.589
G3 X7.313 Y-6.619 R0.106
G2 X8.105 Y-4.702 R10.058
G3 Y-4.298 R0.422
G2 X8.082 Y-4.255 R7.942
X8.335 Y-3.404 R0.63
G3 X8.118 Y-2.543 R0.458
G1 X8.115
G3 X6.903 Y-2.602 R12.525
X6.088 Y-3.5 R0.902
G1 Y-9.5
G3 X6.692 Y-10.31 R0.846
X7.692 Y-10.457 R3.489
X7.98 Y-10.147 R0.289
G2 X8.211 Y-7.381 R8.874
X9.265 Y-4.815 R9.322
G3 Y-4.185 R0.613
G2 X8.913 Y-3.546 R10.326
X8.612 Y-2.881 R8.204
G3 X8.118 Y-2.543 R0.536
G2 X6.546 Y-1.443 R1.687
G3 X4.68 Y-0.997 R1.154
X3.588 Y-3.5 R3.412
G1 Y-9.5
G3 X7. Y-12.913 R3.413
G1 X11.365
G2 X10.413 Y-9.5 R6.588
X12.711 Y-4.5 R6.588
X10.439 Y-0.087 R6.588
G1 X7.
G3 X4.68 Y-0.997 R3.412
X4.646 Y-1.249 R0.2
G1 X7.545 Y-5.96
G3 X7.862 Y-5.991 R0.2
X5.644 Y-3.946 Z-6.835 R1.508
X7.862 Y-5.991 Z-7.671 R1.508
X8.082 Y-4.255 Z-8. R1.508
G2 X7.973 Y-4.045 R7.942
X7.848 Y-3.787 R11.943
G3 X7.563 Y-3.606 R0.315
G1 X7.422
G3 X7.106 Y-3.922 R0.315
G1 Y-6.589
G3 X7.313 Y-6.619 R0.106
G2 X8.105 Y-4.702 R10.058
G3 Y-4.298 R0.422
G2 X8.082 Y-4.255 R7.942
X8.335 Y-3.404 R0.63
G3 X8.118 Y-2.543 R0.458
G1 X8.115
G3 X6.903 Y-2.602 R12.525
X6.088 Y-3.5 R0.902
G1 Y-9.5
G3 X6.692 Y-10.31 R0.846
X7.692 Y-10.457 R3.489
X7.98 Y-10.147 R0.289
G2 X8.211 Y-7.381 R8.874
X9.265 Y-4.815 R9.322
G3 Y-4.185 R0.613
G2 X8.913 Y-3.546 R10.326
X8.612 Y-2.881 R8.204
G3 X8.118 Y-2.543 R0.536
G2 X6.546 Y-1.443 R1.687
G3 X4.68 Y-0.997 R1.154
X3.588 Y-3.5 R3.412
G1 Y-9.5
G3 X7. Y-12.913 R3.413
G1 X11.365
G2 X10.413 Y-9.5 R6.588
X12.711 Y-4.5 R6.588
X10.439 Y-0.087 R6.588
G1 X7.
G3 X4.68 Y-0.997 R3.412
X4.646 Y-1.249 R0.2
G1 X7.545 Y-5.96
G3 X7.862 Y-5.991 R0.2
X5.644 Y-3.946 Z-8.835 R1.508
X7.862 Y-5.991 Z-9.671 R1.508
X8.082 Y-4.255 Z-10. R1.508
G2 X7.973 Y-4.045 R7.942
X7.848 Y-3.787 R11.943
G3 X7.563 Y-3.606 R0.315
G1 X7.422
G3 X7.106 Y-3.922 R0.315
G1 Y-6.589
G3 X7.313 Y-6.619 R0.106
G2 X8.105 Y-4.702 R10.058
G3 Y-4.298 R0.422
G2 X8.082 Y-4.255 R7.942
X8.335 Y-3.404 R0.63
G3 X8.118 Y-2.543 R0.458
G1 X8.115
G3 X6.903 Y-2.602 R12.525
X6.088 Y-3.5 R0.902
G1 Y-9.5
G3 X6.692 Y-10.31 R0.846
X7.692 Y-10.457 R3.489
X7.98 Y-10.147 R0.289
G2 X8.211 Y-7.381 R8.874
X9.265 Y-4.815 R9.322
G3 Y-4.185 R0.613
G2 X8.913 Y-3.546 R10.326
X8.612 Y-2.881 R8.204
G3 X8.118 Y-2.543 R0.536
G2 X6.546 Y-1.443 R1.687
G3 X4.68 Y-0.997 R1.154
X3.588 Y-3.5 R3.412
G1 Y-9.5
G3 X7. Y-12.913 R3.413
G1 X11.365
G2 X10.413 Y-9.5 R6.588
X12.711 Y-4.5 R6.588
X10.439 Y-0.087 R6.588
G1 X7.
G3 X4.68 Y-0.997 R3.412
X4.646 Y-1.249 R0.2
G1 X7.545 Y-5.96
G3 X7.862 Y-5.991 R0.2
X5.644 Y-3.946 Z-10.835 R1.508
X7.862 Y-5.991 Z-11.671 R1.508
X8.082 Y-4.255 Z-12. R1.508
G2 X7.973 Y-4.045 R7.942
X7.848 Y-3.787 R11.943
G3 X7.563 Y-3.606 R0.315
G1 X7.422
G3 X7.106 Y-3.922 R0.315
G1 Y-6.589
G3 X7.313 Y-6.619 R0.106
G2 X8.105 Y-4.702 R10.058
G3 Y-4.298 R0.422
G2 X8.082 Y-4.255 R7.942
X8.335 Y-3.404 R0.63
G3 X8.118 Y-2.543 R0.458
G1 X8.115
G3 X6.903 Y-2.602 R12.525
X6.088 Y-3.5 R0.902
G1 Y-9.5
G3 X6.692 Y-10.31 R0.846
X7.692 Y-10.457 R3.489
X7.98 Y-10.147 R0.289
G2 X8.211 Y-7.381 R8.874
X9.265 Y-4.815 R9.322
G3 Y-4.185 R0.613
G2 X8.913 Y-3.546 R10.326
X8.612 Y-2.881 R8.204
G3 X8.118 Y-2.543 R0.536
G2 X6.546 Y-1.443 R1.687
G3 X4.68 Y-0.997 R1.154
X3.588 Y-3.5 R3.412
G1 Y-9.5
G3 X7. Y-12.913 R3.413
G1 X11.365
G2 X10.413 Y-9.5 R6.588
X12.711 Y-4.5 R6.588
X10.439 Y-0.087 R6.588
G1 X7.
G3 X4.68 Y-0.997 R3.412
G1 X5.09 Y-1.44 Z-11.94
G0 Z5.
X-5.62 Y-5.025
G1 Z2.5 F351.
G3 X-7.887 Y-3.036 Z1.665 R1.508
X-5.62 Y-5.025 Z0.829 R1.508
X-7.887 Y-3.036 Z-0.006 R1.508
X-5.62 Y-5.025 Z-0.842 R1.508
X-7.887 Y-3.036 Z-1.677 R1.508
X-8.081 Y-4.746 Z-2. R1.508
G2 X-7.313 Y-6.619 R9.688
G3 X-7.106 Y-6.589 R0.106
G1 Y-3.926
G3 X-7.426 Y-3.606 R0.319
G1 X-7.563
G3 X-7.848 Y-3.787 R0.315
G2 X-7.973 Y-4.045 R11.943
X-8.105 Y-4.298 R7.942
G3 Y-4.702 R0.422
G2 X-8.081 Y-4.746 R9.688
X-8.195 Y-5.741 R0.877
G3 X-8.398 Y-6.722 R1.011
G2 X-8.211 Y-7.381 R9.322
X-7.98 Y-10.147 R8.874
G3 X-7.692 Y-10.457 R0.289
X-6.692 Y-10.31 R3.489
X-6.088 Y-9.5 R0.846
G1 Y-3.5
G3 X-6.894 Y-2.606 R0.899
X-8.095 Y-2.543 R11.539
X-8.619 Y-2.898 R0.565
G2 X-8.917 Y-3.555 R7.995
X-9.265 Y-4.185 R10.467
G3 Y-4.815 R0.613
G2 X-8.398 Y-6.722 R9.322
X-9.196 Y-9.07 R2.073
G3 X-10.611 Y-11.107 R3.51
G2 X-11.365 Y-12.913 R6.588
G1 X-7.
G3 X-3.588 Y-9.5 R3.412
G1 Y-3.5
G3 X-7. Y-0.087 R3.413
G1 X-10.439
G2 X-12.711 Y-4.5 R6.588
X-10.413 Y-9.5 R6.588
X-10.611 Y-11.107 R6.588
G3 X-10.228 Y-11.219 R0.2
G1 X-7.527 Y-3.209
G3 X-7.864 Y-3.01 R0.2
X-5.644 Y-5.052 Z-2.835 R1.508
X-7.864 Y-3.01 Z-3.671 R1.508
X-8.081 Y-4.746 Z-4. R1.508
G2 X-7.313 Y-6.619 R9.688
G3 X-7.106 Y-6.589 R0.106
G1 Y-3.926
G3 X-7.426 Y-3.606 R0.319
G1 X-7.563
G3 X-7.848 Y-3.787 R0.315
G2 X-7.973 Y-4.045 R11.943
X-8.105 Y-4.298 R7.942
G3 Y-4.702 R0.422
G2 X-8.081 Y-4.746 R9.688
X-8.195 Y-5.741 R0.877
G3 X-8.398 Y-6.722 R1.011
G2 X-8.211 Y-7.381 R9.322
X-7.98 Y-10.147 R8.874
G3 X-7.692 Y-10.457 R0.289
X-6.692 Y-10.31 R3.489
X-6.088 Y-9.5 R0.846
G1 Y-3.5
G3 X-6.894 Y-2.606 R0.899
X-8.095 Y-2.543 R11.539
X-8.619 Y-2.898 R0.565
G2 X-8.917 Y-3.555 R7.995
X-9.265 Y-4.185 R10.467
G3 Y-4.815 R0.613
G2 X-8.398 Y-6.722 R9.322
X-9.196 Y-9.07 R2.073
G3 X-10.611 Y-11.107 R3.51
G2 X-11.365 Y-12.913 R6.588
G1 X-7.
G3 X-3.588 Y-9.5 R3.412
G1 Y-3.5
G3 X-7. Y-0.087 R3.413
G1 X-10.439
G2 X-12.711 Y-4.5 R6.588
X-10.413 Y-9.5 R6.588
X-10.611 Y-11.107 R6.588
G3 X-10.228 Y-11.219 R0.2
G1 X-7.527 Y-3.209
G3 X-7.864 Y-3.01 R0.2
X-5.644 Y-5.052 Z-4.835 R1.508
X-7.864 Y-3.01 Z-5.671 R1.508
X-8.081 Y-4.746 Z-6. R1.508
G2 X-7.313 Y-6.619 R9.688
G3 X-7.106 Y-6.589 R0.106
G1 Y-3.926
G3 X-7.426 Y-3.606 R0.319
G1 X-7.563
G3 X-7.848 Y-3.787 R0.315
G2 X-7.973 Y-4.045 R11.943
X-8.105 Y-4.298 R7.942
G3 Y-4.702 R0.422
G2 X-8.081 Y-4.746 R9.688
X-8.195 Y-5.741 R0.877
G3 X-8.398 Y-6.722 R1.011
G2 X-8.211 Y-7.381 R9.322
X-7.98 Y-10.147 R8.874
G3 X-7.692 Y-10.457 R0.289
X-6.692 Y-10.31 R3.489
X-6.088 Y-9.5 R0.846
G1 Y-3.5
G3 X-6.894 Y-2.606 R0.899
X-8.095 Y-2.543 R11.539
X-8.619 Y-2.898 R0.565
G2 X-8.917 Y-3.555 R7.995
X-9.265 Y-4.185 R10.467
G3 Y-4.815 R0.613
G2 X-8.398 Y-6.722 R9.322
X-9.196 Y-9.07 R2.073
G3 X-10.611 Y-11.107 R3.51
G2 X-11.365 Y-12.913 R6.588
G1 X-7.
G3 X-3.588 Y-9.5 R3.412
G1 Y-3.5
G3 X-7. Y-0.087 R3.413
G1 X-10.439
G2 X-12.711 Y-4.5 R6.588
X-10.413 Y-9.5 R6.588
X-10.611 Y-11.107 R6.588
G3 X-10.228 Y-11.219 R0.2
G1 X-7.527 Y-3.209
G3 X-7.864 Y-3.01 R0.2
X-5.644 Y-5.052 Z-6.835 R1.508
X-7.864 Y-3.01 Z-7.671 R1.508
X-8.081 Y-4.746 Z-8. R1.508
G2 X-7.313 Y-6.619 R9.688
G3 X-7.106 Y-6.589 R0.106
G1 Y-3.926
G3 X-7.426 Y-3.606 R0.319
G1 X-7.563
G3 X-7.848 Y-3.787 R0.315
G2 X-7.973 Y-4.045 R11.943
X-8.105 Y-4.298 R7.942
G3 Y-4.702 R0.422
G2 X-8.081 Y-4.746 R9.688
X-8.195 Y-5.741 R0.877
G3 X-8.398 Y-6.722 R1.011
G2 X-8.211 Y-7.381 R9.322
X-7.98 Y-10.147 R8.874
G3 X-7.692 Y-10.457 R0.289
X-6.692 Y-10.31 R3.489
X-6.088 Y-9.5 R0.846
G1 Y-3.5
G3 X-6.894 Y-2.606 R0.899
X-8.095 Y-2.543 R11.539
X-8.619 Y-2.898 R0.565
G2 X-8.917 Y-3.555 R7.995
X-9.265 Y-4.185 R10.467
G3 Y-4.815 R0.613
G2 X-8.398 Y-6.722 R9.322
X-9.196 Y-9.07 R2.073
G3 X-10.611 Y-11.107 R3.51
G2 X-11.365 Y-12.913 R6.588
G1 X-7.
G3 X-3.588 Y-9.5 R3.412
G1 Y-3.5
G3 X-7. Y-0.087 R3.413
G1 X-10.439
G2 X-12.711 Y-4.5 R6.588
X-10.413 Y-9.5 R6.588
X-10.611 Y-11.107 R6.588
G3 X-10.228 Y-11.219 R0.2
G1 X-7.527 Y-3.209
G3 X-7.864 Y-3.01 R0.2
X-5.644 Y-5.052 Z-8.835 R1.508
X-7.864 Y-3.01 Z-9.671 R1.508
X-8.081 Y-4.746 Z-10. R1.508
G2 X-7.313 Y-6.619 R9.688
G3 X-7.106 Y-6.589 R0.106
G1 Y-3.926
G3 X-7.426 Y-3.606 R0.319
G1 X-7.563
G3 X-7.848 Y-3.787 R0.315
G2 X-7.973 Y-4.045 R11.943
X-8.105 Y-4.298 R7.942
G3 Y-4.702 R0.422
G2 X-8.081 Y-4.746 R9.688
X-8.195 Y-5.741 R0.877
G3 X-8.398 Y-6.722 R1.011
G2 X-8.211 Y-7.381 R9.322
X-7.98 Y-10.147 R8.874
G3 X-7.692 Y-10.457 R0.289
X-6.692 Y-10.31 R3.489
X-6.088 Y-9.5 R0.846
G1 Y-3.5
G3 X-6.894 Y-2.606 R0.899
X-8.095 Y-2.543 R11.539
X-8.619 Y-2.898 R0.565
G2 X-8.917 Y-3.555 R7.995
X-9.265 Y-4.185 R10.467
G3 Y-4.815 R0.613
G2 X-8.398 Y-6.722 R9.322
X-9.196 Y-9.07 R2.073
G3 X-10.611 Y-11.107 R3.51
G2 X-11.365 Y-12.913 R6.588
G1 X-7.
G3 X-3.588 Y-9.5 R3.412
G1 Y-3.5
G3 X-7. Y-0.087 R3.413
G1 X-10.439
G2 X-12.711 Y-4.5 R6.588
X-10.413 Y-9.5 R6.588
X-10.611 Y-11.107 R6.588
G3 X-10.228 Y-11.219 R0.2
G1 X-7.527 Y-3.209
G3 X-7.864 Y-3.01 R0.2
X-5.644 Y-5.052 Z-10.835 R1.508
X-7.864 Y-3.01 Z-11.671 R1.508
X-8.081 Y-4.746 Z-12. R1.508
G2 X-7.313 Y-6.619 R9.688
G3 X-7.106 Y-6.589 R0.106
G1 Y-3.926
G3 X-7.426 Y-3.606 R0.319
G1 X-7.563
G3 X-7.848 Y-3.787 R0.315
G2 X-7.973 Y-4.045 R11.943
X-8.105 Y-4.298 R7.942
G3 Y-4.702 R0.422
G2 X-8.081 Y-4.746 R9.688
X-8.195 Y-5.741 R0.877
G3 X-8.398 Y-6.722 R1.011
G2 X-8.211 Y-7.381 R9.322
X-7.98 Y-10.147 R8.874
G3 X-7.692 Y-10.457 R0.289
X-6.692 Y-10.31 R3.489
X-6.088 Y-9.5 R0.846
G1 Y-3.5
G3 X-6.894 Y-2.606 R0.899
X-8.095 Y-2.543 R11.539
X-8.619 Y-2.898 R0.565
G2 X-8.917 Y-3.555 R7.995
X-9.265 Y-4.185 R10.467
G3 Y-4.815 R0.613
G2 X-8.398 Y-6.722 R9.322
X-9.196 Y-9.07 R2.073
G3 X-10.611 Y-11.107 R3.51
G2 X-11.365 Y-12.913 R6.588
G1 X-7.
G3 X-3.588 Y-9.5 R3.412
G1 Y-3.5
G3 X-7. Y-0.087 R3.413
G1 X-10.439
G2 X-12.711 Y-4.5 R6.588
X-10.413 Y-9.5 R6.588
X-10.611 Y-11.107 R6.588
G1 X-10.026 Y-11.254 Z-11.94
G0 Z5.
X-78.379 Y-3.972
G1 Z2.5 F351.
G3 X-76.114 Y-5.964 Z1.665 R1.508
X-78.379 Y-3.972 Z0.829 R1.508
X-76.114 Y-5.964 Z-0.006 R1.508
X-78.379 Y-3.972 Z-0.842 R1.508
X-76.114 Y-5.964 Z-1.677 R1.508
X-75.918 Y-4.255 Z-2. R1.508
G2 X-76.027 Y-4.045 R7.942
X-76.152 Y-3.787 R11.943
G3 X-76.437 Y-3.606 R0.315
G1 X-76.578
G3 X-76.894 Y-3.922 R0.315
G1 Y-6.589
G3 X-76.687 Y-6.619 R0.106
G2 X-75.895 Y-4.702 R10.058
G3 Y-4.298 R0.422
G2 X-75.918 Y-4.255 R7.942
X-75.665 Y-3.404 R0.63
G3 X-75.882 Y-2.543 R0.458
G1 X-75.885
G3 X-77.097 Y-2.602 R12.525
X-77.912 Y-3.5 R0.902
G1 Y-9.5
G3 X-77.308 Y-10.31 R0.846
X-76.308 Y-10.457 R3.489
X-76.02 Y-10.147 R0.289
G2 X-75.789 Y-7.381 R8.874
X-74.735 Y-4.815 R9.322
G3 Y-4.185 R0.613
G2 X-75.087 Y-3.546 R10.326
X-75.388 Y-2.881 R8.204
G3 X-75.882 Y-2.543 R0.536
G2 X-77.454 Y-1.443 R1.687
G3 X-79.32 Y-0.997 R1.154
X-80.412 Y-3.5 R3.412
G1 Y-9.5
G3 X-77. Y-12.913 R3.413
G1 X-72.635
G2 X-73.588 Y-9.5 R6.588
X-71.289 Y-4.5 R6.588
X-73.562 Y-0.087 R6.588
G1 X-77.
G3 X-79.32 Y-0.997 R3.412
X-79.354 Y-1.249 R0.2
G1 X-76.455 Y-5.96
G3 X-76.138 Y-5.991 R0.2
X-78.356 Y-3.946 Z-2.835 R1.508
X-76.138 Y-5.991 Z-3.671 R1.508
X-75.918 Y-4.255 Z-4. R1.508
G2 X-76.027 Y-4.045 R7.942
X-76.152 Y-3.787 R11.943
G3 X-76.437 Y-3.606 R0.315
G1 X-76.578
G3 X-76.894 Y-3.922 R0.315
G1 Y-6.589
G3 X-76.687 Y-6.619 R0.106
G2 X-75.895 Y-4.702 R10.058
G3 Y-4.298 R0.422
G2 X-75.918 Y-4.255 R7.942
X-75.665 Y-3.404 R0.63
G3 X-75.882 Y-2.543 R0.458
G1 X-75.885
G3 X-77.097 Y-2.602 R12.525
X-77.912 Y-3.5 R0.902
G1 Y-9.5
G3 X-77.308 Y-10.31 R0.846
X-76.308 Y-10.457 R3.489
X-76.02 Y-10.147 R0.289
G2 X-75.789 Y-7.381 R8.874
X-74.735 Y-4.815 R9.322
G3 Y-4.185 R0.613
G2 X-75.087 Y-3.546 R10.326
X-75.388 Y-2.881 R8.204
G3 X-75.882 Y-2.543 R0.536
G2 X-77.454 Y-1.443 R1.687
G3 X-79.32 Y-0.997 R1.154
X-80.412 Y-3.5 R3.412
G1 Y-9.5
G3 X-77. Y-12.913 R3.413
G1 X-72.635
G2 X-73.588 Y-9.5 R6.588
X-71.289 Y-4.5 R6.588
X-73.562 Y-0.087 R6.588
G1 X-77.
G3 X-79.32 Y-0.997 R3.412
X-79.354 Y-1.249 R0.2
G1 X-76.455 Y-5.96
G3 X-76.138 Y-5.991 R0.2
X-78.356 Y-3.946 Z-4.835 R1.508
X-76.138 Y-5.991 Z-5.671 R1.508
X-75.918 Y-4.255 Z-6. R1.508
G2 X-76.027 Y-4.045 R7.942
X-76.152 Y-3.787 R11.943
G3 X-76.437 Y-3.606 R0.315
G1 X-76.578
G3 X-76.894 Y-3.922 R0.315
G1 Y-6.589
G3 X-76.687 Y-6.619 R0.106
G2 X-75.895 Y-4.702 R10.058
G3 Y-4.298 R0.422
G2 X-75.918 Y-4.255 R7.942
X-75.665 Y-3.404 R0.63
G3 X-75.882 Y-2.543 R0.458
G1 X-75.885
G3 X-77.097 Y-2.602 R12.525
X-77.912 Y-3.5 R0.902
G1 Y-9.5
G3 X-77.308 Y-10.31 R0.846
X-76.308 Y-10.457 R3.489
X-76.02 Y-10.147 R0.289
G2 X-75.789 Y-7.381 R8.874
X-74.735 Y-4.815 R9.322
G3 Y-4.185 R0.613
G2 X-75.087 Y-3.546 R10.326
X-75.388 Y-2.881 R8.204
G3 X-75.882 Y-2.543 R0.536
G2 X-77.454 Y-1.443 R1.687
G3 X-79.32 Y-0.997 R1.154
X-80.412 Y-3.5 R3.412
G1 Y-9.5
G3 X-77. Y-12.913 R3.413
G1 X-72.635
G2 X-73.588 Y-9.5 R6.588
X-71.289 Y-4.5 R6.588
X-73.562 Y-0.087 R6.588
G1 X-77.
G3 X-79.32 Y-0.997 R3.412
X-79.354 Y-1.249 R0.2
G1 X-76.455 Y-5.96
G3 X-76.138 Y-5.991 R0.2
X-78.356 Y-3.946 Z-6.835 R1.508
X-76.138 Y-5.991 Z-7.671 R1.508
X-75.918 Y-4.255 Z-8. R1.508
G2 X-76.027 Y-4.045 R7.942
X-76.152 Y-3.787 R11.943
G3 X-76.437 Y-3.606 R0.315
G1 X-76.578
G3 X-76.894 Y-3.922 R0.315
G1 Y-6.589
G3 X-76.687 Y-6.619 R0.106
G2 X-75.895 Y-4.702 R10.058
G3 Y-4.298 R0.422
G2 X-75.918 Y-4.255 R7.942
X-75.665 Y-3.404 R0.63
G3 X-75.882 Y-2.543 R0.458
G1 X-75.885
G3 X-77.097 Y-2.602 R12.525
X-77.912 Y-3.5 R0.902
G1 Y-9.5
G3 X-77.308 Y-10.31 R0.846
X-76.308 Y-10.457 R3.489
X-76.02 Y-10.147 R0.289
G2 X-75.789 Y-7.381 R8.874
X-74.735 Y-4.815 R9.322
G3 Y-4.185 R0.613
G2 X-75.087 Y-3.546 R10.326
X-75.388 Y-2.881 R8.204
G3 X-75.882 Y-2.543 R0.536
G2 X-77.454 Y-1.443 R1.687
G3 X-79.32 Y-0.997 R1.154
X-80.412 Y-3.5 R3.412
G1 Y-9.5
G3 X-77. Y-12.913 R3.413
G1 X-72.635
G2 X-73.588 Y-9.5 R6.588
X-71.289 Y-4.5 R6.588
X-73.562 Y-0.087 R6.588
G1 X-77.
G3 X-79.32 Y-0.997 R3.412
X-79.354 Y-1.249 R0.2
G1 X-76.455 Y-5.96
G3 X-76.138 Y-5.991 R0.2
X-78.356 Y-3.946 Z-8.835 R1.508
X-76.138 Y-5.991 Z-9.671 R1.508
X-75.918 Y-4.255 Z-10. R1.508
G2 X-76.027 Y-4.045 R7.942
X-76.152 Y-3.787 R11.943
G3 X-76.437 Y-3.606 R0.315
G1 X-76.578
G3 X-76.894 Y-3.922 R0.315
G1 Y-6.589
G3 X-76.687 Y-6.619 R0.106
G2 X-75.895 Y-4.702 R10.058
G3 Y-4.298 R0.422
G2 X-75.918 Y-4.255 R7.942
X-75.665 Y-3.404 R0.63
G3 X-75.882 Y-2.543 R0.458
G1 X-75.885
G3 X-77.097 Y-2.602 R12.525
X-77.912 Y-3.5 R0.902
G1 Y-9.5
G3 X-77.308 Y-10.31 R0.846
X-76.308 Y-10.457 R3.489
X-76.02 Y-10.147 R0.289
G2 X-75.789 Y-7.381 R8.874
X-74.735 Y-4.815 R9.322
G3 Y-4.185 R0.613
G2 X-75.087 Y-3.546 R10.326
X-75.388 Y-2.881 R8.204
G3 X-75.882 Y-2.543 R0.536
G2 X-77.454 Y-1.443 R1.687
G3 X-79.32 Y-0.997 R1.154
X-80.412 Y-3.5 R3.412
G1 Y-9.5
G3 X-77. Y-12.913 R3.413
G1 X-72.635
G2 X-73.588 Y-9.5 R6.588
X-71.289 Y-4.5 R6.588
X-73.562 Y-0.087 R6.588
G1 X-77.
G3 X-79.32 Y-0.997 R3.412
X-79.354 Y-1.249 R0.2
G1 X-76.455 Y-5.96
G3 X-76.138 Y-5.991 R0.2
X-78.356 Y-3.946 Z-10.835 R1.508
X-76.138 Y-5.991 Z-11.671 R1.508
X-75.918 Y-4.255 Z-12. R1.508
G2 X-76.027 Y-4.045 R7.942
X-76.152 Y-3.787 R11.943
G3 X-76.437 Y-3.606 R0.315
G1 X-76.578
G3 X-76.894 Y-3.922 R0.315
G1 Y-6.589
G3 X-76.687 Y-6.619 R0.106
G2 X-75.895 Y-4.702 R10.058
G3 Y-4.298 R0.422
G2 X-75.918 Y-4.255 R7.942
X-75.665 Y-3.404 R0.63
G3 X-75.882 Y-2.543 R0.458
G1 X-75.885
G3 X-77.097 Y-2.602 R12.525
X-77.912 Y-3.5 R0.902
G1 Y-9.5
G3 X-77.308 Y-10.31 R0.846
X-76.308 Y-10.457 R3.489
X-76.02 Y-10.147 R0.289
G2 X-75.789 Y-7.381 R8.874
X-74.735 Y-4.815 R9.322
G3 Y-4.185 R0.613
G2 X-75.087 Y-3.546 R10.326
X-75.388 Y-2.881 R8.204
G3 X-75.882 Y-2.543 R0.536
G2 X-77.454 Y-1.443 R1.687
G3 X-79.32 Y-0.997 R1.154
X-80.412 Y-3.5 R3.412
G1 Y-9.5
G3 X-77. Y-12.913 R3.413
G1 X-72.635
G2 X-73.588 Y-9.5 R6.588
X-71.289 Y-4.5 R6.588
X-73.562 Y-0.087 R6.588
G1 X-77.
G3 X-79.32 Y-0.997 R3.412
G1 X-78.91 Y-1.44 Z-11.94
G0 Z5.
X78.38 Y-5.025
G1 Z2.5 F351.
G3 X76.113 Y-3.036 Z1.665 R1.508
X78.38 Y-5.025 Z0.829 R1.508
X76.113 Y-3.036 Z-0.006 R1.508
X78.38 Y-5.025 Z-0.842 R1.508
X76.113 Y-3.036 Z-1.677 R1.508
X75.919 Y-4.746 Z-2. R1.508
G2 X76.687 Y-6.619 R9.688
G3 X76.894 Y-6.589 R0.106
G1 Y-3.926
G3 X76.574 Y-3.606 R0.319
G1 X76.437
G3 X76.152 Y-3.787 R0.315
G2 X76.027 Y-4.045 R11.943
X75.895 Y-4.298 R7.942
G3 Y-4.702 R0.422
G2 X75.919 Y-4.746 R9.688
X75.805 Y-5.741 R0.877
G3 X75.602 Y-6.722 R1.011
G2 X75.789 Y-7.381 R9.322
X76.02 Y-10.147 R8.874
G3 X76.308 Y-10.457 R0.289
X77.308 Y-10.31 R3.489
X77.912 Y-9.5 R0.846
G1 Y-3.5
G3 X77.097 Y-2.602 R0.902
X75.885 Y-2.543 R12.525
X75.388 Y-2.881 R0.536
G2 X75.087 Y-3.546 R8.204
X74.735 Y-4.185 R10.326
G3 Y-4.815 R0.613
G2 X75.602 Y-6.722 R9.322
X74.804 Y-9.07 R2.073
G3 X73.389 Y-11.107 R3.51
G2 X72.635 Y-12.913 R6.588
G1 X77.
G3 X80.412 Y-9.5 R3.412
G1 Y-3.5
G3 X77. Y-0.087 R3.413
G1 X73.562
G2 X71.289 Y-4.5 R6.588
X73.588 Y-9.45 R6.588
Y-9.5 R6.588
X73.389 Y-11.107 R6.588
G3 X73.772 Y-11.219 R0.2
G1 X76.473 Y-3.209
G3 X76.136 Y-3.01 R0.2
X78.356 Y-5.052 Z-2.835 R1.508
X76.136 Y-3.01 Z-3.671 R1.508
X75.919 Y-4.746 Z-4. R1.508
G2 X76.687 Y-6.619 R9.688
G3 X76.894 Y-6.589 R0.106
G1 Y-3.926
G3 X76.574 Y-3.606 R0.319
G1 X76.437
G3 X76.152 Y-3.787 R0.315
G2 X76.027 Y-4.045 R11.943
X75.895 Y-4.298 R7.942
G3 Y-4.702 R0.422
G2 X75.919 Y-4.746 R9.688
X75.805 Y-5.741 R0.877
G3 X75.602 Y-6.722 R1.011
G2 X75.789 Y-7.381 R9.322
X76.02 Y-10.147 R8.874
G3 X76.308 Y-10.457 R0.289
X77.308 Y-10.31 R3.489
X77.912 Y-9.5 R0.846
G1 Y-3.5
G3 X77.097 Y-2.602 R0.902
X75.885 Y-2.543 R12.525
X75.388 Y-2.881 R0.536
G2 X75.087 Y-3.546 R8.204
X74.735 Y-4.185 R10.326
G3 Y-4.815 R0.613
G2 X75.602 Y-6.722 R9.322
X74.804 Y-9.07 R2.073
G3 X73.389 Y-11.107 R3.51
G2 X72.635 Y-12.913 R6.588
G1 X77.
G3 X80.412 Y-9.5 R3.412
G1 Y-3.5
G3 X77. Y-0.087 R3.413
G1 X73.562
G2 X71.289 Y-4.5 R6.588
X73.588 Y-9.45 R6.588
Y-9.5 R6.588
X73.389 Y-11.107 R6.588
G3 X73.772 Y-11.219 R0.2
G1 X76.473 Y-3.209
G3 X76.136 Y-3.01 R0.2
X78.356 Y-5.052 Z-4.835 R1.508
X76.136 Y-3.01 Z-5.671 R1.508
X75.919 Y-4.746 Z-6. R1.508
G2 X76.687 Y-6.619 R9.688
G3 X76.894 Y-6.589 R0.106
G1 Y-3.926
G3 X76.574 Y-3.606 R0.319
G1 X76.437
G3 X76.152 Y-3.787 R0.315
G2 X76.027 Y-4.045 R11.943
X75.895 Y-4.298 R7.942
G3 Y-4.702 R0.422
G2 X75.919 Y-4.746 R9.688
X75.805 Y-5.741 R0.877
G3 X75.602 Y-6.722 R1.011
G2 X75.789 Y-7.381 R9.322
X76.02 Y-10.147 R8.874
G3 X76.308 Y-10.457 R0.289
X77.308 Y-10.31 R3.489
X77.912 Y-9.5 R0.846
G1 Y-3.5
G3 X77.097 Y-2.602 R0.902
X75.885 Y-2.543 R12.525
X75.388 Y-2.881 R0.536
G2 X75.087 Y-3.546 R8.204
X74.735 Y-4.185 R10.326
G3 Y-4.815 R0.613
G2 X75.602 Y-6.722 R9.322
X74.804 Y-9.07 R2.073
G3 X73.389 Y-11.107 R3.51
G2 X72.635 Y-12.913 R6.588
G1 X77.
G3 X80.412 Y-9.5 R3.412
G1 Y-3.5
G3 X77. Y-0.087 R3.413
G1 X73.562
G2 X71.289 Y-4.5 R6.588
X73.588 Y-9.45 R6.588
Y-9.5 R6.588
X73.389 Y-11.107 R6.588
G3 X73.772 Y-11.219 R0.2
G1 X76.473 Y-3.209
G3 X76.136 Y-3.01 R0.2
X78.356 Y-5.052 Z-6.835 R1.508
X76.136 Y-3.01 Z-7.671 R1.508
X75.919 Y-4.746 Z-8. R1.508
G2 X76.687 Y-6.619 R9.688
G3 X76.894 Y-6.589 R0.106
G1 Y-3.926
G3 X76.574 Y-3.606 R0.319
G1 X76.437
G3 X76.152 Y-3.787 R0.315
G2 X76.027 Y-4.045 R11.943
X75.895 Y-4.298 R7.942
G3 Y-4.702 R0.422
G2 X75.919 Y-4.746 R9.688
X75.805 Y-5.741 R0.877
G3 X75.602 Y-6.722 R1.011
G2 X75.789 Y-7.381 R9.322
X76.02 Y-10.147 R8.874
G3 X76.308 Y-10.457 R0.289
X77.308 Y-10.31 R3.489
X77.912 Y-9.5 R0.846
G1 Y-3.5
G3 X77.097 Y-2.602 R0.902
X75.885 Y-2.543 R12.525
X75.388 Y-2.881 R0.536
G2 X75.087 Y-3.546 R8.204
X74.735 Y-4.185 R10.326
G3 Y-4.815 R0.613
G2 X75.602 Y-6.722 R9.322
X74.804 Y-9.07 R2.073
G3 X73.389 Y-11.107 R3.51
G2 X72.635 Y-12.913 R6.588
G1 X77.
G3 X80.412 Y-9.5 R3.412
G1 Y-3.5
G3 X77. Y-0.087 R3.413
G1 X73.562
G2 X71.289 Y-4.5 R6.588
X73.588 Y-9.45 R6.588
Y-9.5 R6.588
X73.389 Y-11.107 R6.588
G3 X73.772 Y-11.219 R0.2
G1 X76.473 Y-3.209
G3 X76.136 Y-3.01 R0.2
X78.356 Y-5.052 Z-8.835 R1.508
X76.136 Y-3.01 Z-9.671 R1.508
X75.919 Y-4.746 Z-10. R1.508
G2 X76.687 Y-6.619 R9.688
G3 X76.894 Y-6.589 R0.106
G1 Y-3.926
G3 X76.574 Y-3.606 R0.319
G1 X76.437
G3 X76.152 Y-3.787 R0.315
G2 X76.027 Y-4.045 R11.943
X75.895 Y-4.298 R7.942
G3 Y-4.702 R0.422
G2 X75.919 Y-4.746 R9.688
X75.805 Y-5.741 R0.877
G3 X75.602 Y-6.722 R1.011
G2 X75.789 Y-7.381 R9.322
X76.02 Y-10.147 R8.874
G3 X76.308 Y-10.457 R0.289
X77.308 Y-10.31 R3.489
X77.912 Y-9.5 R0.846
G1 Y-3.5
G3 X77.097 Y-2.602 R0.902
X75.885 Y-2.543 R12.525
X75.388 Y-2.881 R0.536
G2 X75.087 Y-3.546 R8.204
X74.735 Y-4.185 R10.326
G3 Y-4.815 R0.613
G2 X75.602 Y-6.722 R9.322
X74.804 Y-9.07 R2.073
G3 X73.389 Y-11.107 R3.51
G2 X72.635 Y-12.913 R6.588
G1 X77.
G3 X80.412 Y-9.5 R3.412
G1 Y-3.5
G3 X77. Y-0.087 R3.413
G1 X73.562
G2 X71.289 Y-4.5 R6.588
X73.588 Y-9.45 R6.588
Y-9.5 R6.588
X73.389 Y-11.107 R6.588
G3 X73.772 Y-11.219 R0.2
G1 X76.473 Y-3.209
G3 X76.136 Y-3.01 R0.2
X78.356 Y-5.052 Z-10.835 R1.508
X76.136 Y-3.01 Z-11.671 R1.508
X75.919 Y-4.746 Z-12. R1.508
G2 X76.687 Y-6.619 R9.688
G3 X76.894 Y-6.589 R0.106
G1 Y-3.926
G3 X76.574 Y-3.606 R0.319
G1 X76.437
G3 X76.152 Y-3.787 R0.315
G2 X76.027 Y-4.045 R11.943
X75.895 Y-4.298 R7.942
G3 Y-4.702 R0.422
G2 X75.919 Y-4.746 R9.688
X75.805 Y-5.741 R0.877
G3 X75.602 Y-6.722 R1.011
G2 X75.789 Y-7.381 R9.322
X76.02 Y-10.147 R8.874
G3 X76.308 Y-10.457 R0.289
X77.308 Y-10.31 R3.489
X77.912 Y-9.5 R0.846
G1 Y-3.5
G3 X77.097 Y-2.602 R0.902
X75.885 Y-2.543 R12.525
X75.388 Y-2.881 R0.536
G2 X75.087 Y-3.546 R8.204
X74.735 Y-4.185 R10.326
G3 Y-4.815 R0.613
G2 X75.602 Y-6.722 R9.322
X74.804 Y-9.07 R2.073
G3 X73.389 Y-11.107 R3.51
G2 X72.635 Y-12.913 R6.588
G1 X77.
G3 X80.412 Y-9.5 R3.412
G1 Y-3.5
G3 X77. Y-0.087 R3.413
G1 X73.562
G2 X71.289 Y-4.5 R6.588
X73.588 Y-9.45 R6.588
Y-9.5 R6.588
X73.389 Y-11.107 R6.588
G1 X73.974 Y-11.254 Z-11.94
G0 Z15.

(DRILL2)
M8
G0 X-77. Y-4.5
Z15.
Z5.
Z-7.
G1 Z-12. F762.
Z-14.
G3 X-76.088 R0.456 F351.
X-77.912 R0.912
X-76.088 R0.912
G1 X-77.
Z-16. F762.
G3 X-76.088 R0.456 F351.
X-77.912 R0.912
X-76.088 R0.912
G1 X-77.
Z-18. F762.
G3 X-76.088 R0.456 F351.
X-77.912 R0.912
X-76.088 R0.912
G1 X-77.
Z-20. F762.
G3 X-76.088 R0.456 F351.
X-77.912 R0.912
X-76.088 R0.912
G1 X-77.
G0 Z5.
X-7.
Z-7.
G1 Z-12. F762.
Z-14.
G3 X-6.088 R0.456 F351.
X-7.912 R0.912
X-6.088 R0.912
G1 X-7.
Z-16. F762.
G3 X-6.088 R0.456 F351.
X-7.912 R0.912
X-6.088 R0.912
G1 X-7.
Z-18. F762.
G3 X-6.088 R0.456 F351.
X-7.912 R0.912
X-6.088 R0.912
G1 X-7.
Z-20. F762.
G3 X-6.088 R0.456 F351.
X-7.912 R0.912
X-6.088 R0.912
G1 X-7.
G0 Z5.
X7.
Z-7.
G1 Z-12. F762.
Z-14.
G3 X7.912 R0.456 F351.
X6.088 R0.912
X7.912 R0.912
G1 X7.
Z-16. F762.
G3 X7.912 R0.456 F351.
X6.088 R0.912
X7.912 R0.912
G1 X7.
Z-18. F762.
G3 X7.912 R0.456 F351.
X6.088 R0.912
X7.912 R0.912
G1 X7.
Z-20. F762.
G3 X7.912 R0.456 F351.
X6.088 R0.912
X7.912 R0.912
G1 X7.
G0 Z5.
X77.
Z-7.
G1 Z-12. F762.
Z-14.
G3 X77.912 R0.456 F351.
X76.088 R0.912
X77.912 R0.912
G1 X77.
Z-16. F762.
G3 X77.912 R0.456 F351.
X76.088 R0.912
X77.912 R0.912
G1 X77.
Z-18. F762.
G3 X77.912 R0.456 F351.
X76.088 R0.912
X77.912 R0.912
G1 X77.
Z-20. F762.
G3 X77.912 R0.456 F351.
X76.088 R0.912
X77.912 R0.912
G1 X77.
G0 Z5.
Z15.

(2D CONTOUR2)
M8
G0 X-5.941 Y3.002
Z15.
Z5.
G1 Z3. F762.
Z2.5
G2 X-0.412 Y-3.5 Z0.863 R6.588 F351.
G1 Y-9.5 Z-0.195
G2 X-6.889 Y-16.087 Z-2. R6.587
X-7. R6.587
G1 X-77.
G2 X-83.588 Y-9.5 R6.588
G1 Y-3.5
G2 X-77. Y3.088 R6.588
G1 X-72.
G2 X-70.412 Y1.5 R1.588
G1 Y0.5
G3 X-67. Y-2.912 R3.412
G1 X-17.
G3 X-13.587 Y0.5 R3.413
G1 Y1.5
G2 X-12. Y3.088 R1.588
G1 X-7.
G2 X-0.412 Y-3.5 R6.588
G1 Y-9.5
G2 X-6.889 Y-16.087 R6.587
X-7. Z-2.007 R6.587
G1 X-38.558 Z-4.
X-77.
G2 X-83.588 Y-9.5 R6.588
G1 Y-3.5
G2 X-77. Y3.088 R6.588
G1 X-72.
G2 X-70.412 Y1.5 R1.588
G1 Y0.5
G3 X-67. Y-2.912 R3.412
G1 X-17.
G3 X-13.587 Y0.5 R3.413
G1 Y1.5
G2 X-12. Y3.088 R1.588
G1 X-7.
G2 X-0.412 Y-3.5 R6.588
G1 Y-9.5
G2 X-7. Y-16.087 R6.587
G1 X-38.558
X-70.227 Z-6.
X-77.
G2 X-83.588 Y-9.5 R6.588
G1 Y-3.5
G2 X-77. Y3.088 R6.588
G1 X-72.
G2 X-70.412 Y1.5 R1.588
G1 Y0.5
G3 X-67. Y-2.912 R3.412
G1 X-17.
G3 X-13.587 Y0.5 R3.413
G1 Y1.5
G2 X-12. Y3.088 R1.588
G1 X-7.
G2 X-0.412 Y-3.5 R6.588
G1 Y-9.5
G2 X-7. Y-16.087 R6.587
G1 X-70.227
X-77. Z-6.428
G2 X-83.588 Y-9.5 Z-7.081 R6.588
G1 Y-3.5 Z-7.46
G2 X-78.777 Y2.843 Z-8. R6.588
X-77. Y3.088 R6.588
G1 X-72.
G2 X-70.412 Y1.5 R1.588
G1 Y0.5
G3 X-67. Y-2.912 R3.412
G1 X-17.
G3 X-13.587 Y0.5 R3.413
G1 Y1.5
G2 X-12. Y3.088 R1.588
G1 X-7.
G2 X-0.412 Y-3.5 R6.588
G1 Y-9.5
G2 X-7. Y-16.087 R6.587
G1 X-70.227
X-77.
G2 X-83.588 Y-9.5 R6.588
G1 Y-3.5
G2 X-78.777 Y2.843 R6.588
X-77. Y3.088 Z-8.114 R6.588
G1 X-72. Z-8.429
G2 X-70.412 Y1.5 Z-8.587 R1.588
G1 Y0.5 Z-8.65
G3 X-67. Y-2.912 Z-8.989 R3.412
G1 X-50.984 Z-10.
X-17.
G3 X-13.587 Y0.5 R3.413
G1 Y1.5
G2 X-12. Y3.088 R1.588
G1 X-7.
G2 X-0.412 Y-3.5 R6.588
G1 Y-9.5
G2 X-7. Y-16.087 R6.587
G1 X-77.
G2 X-83.588 Y-9.5 R6.588
G1 Y-3.5
G2 X-77. Y3.088 R6.588
G1 X-72.
G2 X-70.412 Y1.5 R1.588
G1 Y0.5
G3 X-67. Y-2.912 R3.412
G1 X-50.984
X-19.315 Z-12.
X-17.
G3 X-13.587 Y0.5 R3.413
G1 Y1.5
G2 X-12. Y3.088 R1.588
G1 X-7.
G2 X-0.412 Y-3.5 R6.588
G1 Y-9.5
G2 X-7. Y-16.087 R6.587
G1 X-77.
G2 X-83.588 Y-9.5 R6.588
G1 Y-3.5
G2 X-77. Y3.088 R6.588
G1 X-72.
G2 X-70.412 Y1.5 R1.588
G1 Y0.5
G3 X-67. Y-2.912 R3.412
G1 X-19.315
X-17. Z-12.146
G3 X-13.587 Y0.5 Z-12.485 R3.413
G1 Y1.5 Z-12.548
G2 X-12. Y3.088 Z-12.705 R1.588
G1 X-7. Z-13.021
G2 X-0.412 Y-3.5 Z-13.675 R6.588
G1 Y-8.653 Z-14.
Y-9.5
G2 X-7. Y-16.087 R6.587
G1 X-77.
G2 X-83.588 Y-9.5 R6.588
G1 Y-3.5
G2 X-77. Y3.088 R6.588
G1 X-72.
G2 X-70.412 Y1.5 R1.588
G1 Y0.5
G3 X-67. Y-2.912 R3.412
G1 X-19.315
X-17.
G3 X-13.587 Y0.5 R3.413
G1 Y1.5
G2 X-12. Y3.088 R1.588
G1 X-7.
G2 X-0.412 Y-3.5 R6.588
G1 Y-8.653
Y-9.5 Z-14.054
G2 X-7. Y-16.087 Z-14.707 R6.587
G1 X-27.474 Z-16.
X-77.
G2 X-83.588 Y-9.5 R6.588
G1 Y-3.5
G2 X-77. Y3.088 R6.588
G1 X-72.
G2 X-70.412 Y1.5 R1.588
G1 Y0.5
G3 X-67. Y-2.912 R3.412
G1 X-17.
G3 X-13.587 Y0.5 R3.413
G1 Y1.5
G2 X-12. Y3.088 R1.588
G1 X-7.
G2 X-0.412 Y-3.5 R6.588
G1 Y-8.653
Y-9.5
G2 X-7. Y-16.087 R6.587
G1 X-27.474
X-59.143 Z-18.
X-77.
G2 X-83.588 Y-9.5 R6.588
G1 Y-3.5
G2 X-77. Y3.088 R6.588
G1 X-72.
G2 X-70.412 Y1.5 R1.588
G1 Y0.5
G3 X-67. Y-2.912 R3.412
G1 X-17.
G3 X-13.587 Y0.5 R3.413
G1 Y1.5
G2 X-12. Y3.088 R1.588
G1 X-7.
G2 X-0.412 Y-3.5 R6.588
G1 Y-9.5
G2 X-7. Y-16.087 R6.587
G1 X-59.143
X-77. Z-19.128
G2 X-83.588 Y-9.5 Z-19.781 R6.588
G1 Y-6.035 Z-20.
Y-3.5
G2 X-77. Y3.088 R6.588
G1 X-72.
G2 X-70.412 Y1.5 R1.588
G1 Y0.5
G3 X-67. Y-2.912 R3.412
G1 X-17.
G3 X-13.587 Y0.5 R3.413
G1 Y1.5
G2 X-12. Y3.088 R1.588
G1 X-7.
G2 X-0.412 Y-3.5 R6.588
G1 Y-9.5
G2 X-7. Y-16.087 R6.587
G1 X-59.143
X-77.
G2 X-83.588 Y-9.5 R6.588
G1 Y-6.035
G0 Z5.
X-39.878 Y16.087
G1 Z3. F762.
Z2.5
X-14.589 Z-1.959 F351.
G2 X-14.357 Y16.083 Z-2. R6.587
X-14.589 Y2.912 R6.588
G1 X-64.589
G2 Y16.087 R6.587
G1 X-14.589
G2 X-14.357 Y16.083 R6.587
X-14.589 Y2.912 Z-3.838 R6.588
G1 X-16.391 Z-4.
X-64.589
G2 Y16.087 R6.587
G1 X-14.589
G2 Y2.912 R6.588
G1 X-16.391
X-38.657 Z-6.
X-64.589
G2 Y16.087 R6.587
G1 X-14.589
G2 Y2.912 R6.588
G1 X-16.391
X-38.657
X-60.923 Z-8.
X-64.589
G2 Y16.087 R6.587
G1 X-14.589
G2 Y2.912 R6.588
G1 X-60.923
X-64.589 Z-8.329
G2 X-66.648 Y15.757 Z-10. R6.588
X-64.589 Y16.087 R6.587
G1 X-14.589
G2 Y2.912 R6.588
G1 X-64.589
G2 X-66.648 Y15.757 R6.588
X-64.589 Y16.087 Z-10.188 R6.587
G1 X-44.417 Z-12.
X-14.589
G2 Y2.912 R6.588
G1 X-64.589
G2 Y16.087 R6.587
G1 X-44.417
X-22.15 Z-14.
X-14.589
G2 Y2.912 R6.588
G1 X-64.589
G2 Y16.087 R6.587
G1 X-22.15
X-14.589 Z-14.679
G2 X-9.39 Y5.454 Z-16. R6.587
X-14.589 Y2.912 R6.588
G1 X-64.589
G2 Y16.087 R6.587
G1 X-22.15
X-14.589
G2 X-9.39 Y5.454 R6.587
X-14.589 Y2.912 Z-16.538 R6.588
G1 X-30.864 Z-18.
X-64.589
G2 Y16.087 R6.587
G1 X-14.589
G2 Y2.912 R6.588
G1 X-30.864
X-53.13 Z-20.
X-64.589
G2 Y16.087 R6.587
G1 X-14.589
G2 Y2.912 R6.588
G1 X-53.13
G0 Z5.
X32.41 Y-16.087
G1 Z3. F762.
Z2.5
X7. Z-1.98 F351.
G2 X6.889 Z-2. R6.587
X0.412 Y-9.5 R6.588
G1 Y-3.5
G2 X7. Y3.088 R6.588
G1 X12.
G2 X13.587 Y1.5 R1.587
G1 Y0.5
G3 X17. Y-2.912 R3.412
G1 X67.
G3 X70.412 Y0.5 R3.412
G1 Y1.5
G2 X72. Y3.088 R1.588
G1 X77.
G2 X83.588 Y-3.5 R6.588
G1 Y-9.5
G2 X77. Y-16.087 R6.587
G1 X7.
G2 X6.889 R6.587
X0.412 Y-9.5 Z-2.646 R6.588
G1 Y-3.5 Z-3.025
G2 X7. Y3.088 Z-3.679 R6.588
G1 X12. Z-3.995
G2 X12.085 Y3.085 Z-4. R1.588
X13.587 Y1.5 R1.587
G1 Y0.5
G3 X17. Y-2.912 R3.412
G1 X67.
G3 X70.412 Y0.5 R3.412
G1 Y1.5
G2 X72. Y3.088 R1.588
G1 X77.
G2 X83.588 Y-3.5 R6.588
G1 Y-9.5
G2 X77. Y-16.087 R6.587
G1 X7.
G2 X0.412 Y-9.5 R6.588
G1 Y-3.5
G2 X7. Y3.088 R6.588
G1 X12.
G2 X12.085 Y3.085 R1.588
X13.587 Y1.5 Z-4.152 R1.587
G1 Y0.5 Z-4.215
G3 X17. Y-2.912 Z-4.554 R3.412
G1 X39.9 Z-6.
X67.
G3 X70.412 Y0.5 R3.412
G1 Y1.5
G2 X72. Y3.088 R1.588
G1 X77.
G2 X83.588 Y-3.5 R6.588
G1 Y-9.5
G2 X77. Y-16.087 R6.587
G1 X7.
G2 X0.412 Y-9.5 R6.588
G1 Y-3.5
G2 X7. Y3.088 R6.588
G1 X12.
G2 X13.587 Y1.5 R1.587
G1 Y0.5
G3 X17. Y-2.912 R3.412
G1 X39.9
X67. Z-7.711
G3 X70.321 Y-0.285 Z-8. R3.412
X70.412 Y0.5 R3.412
G1 Y1.5
G2 X72. Y3.088 R1.588
G1 X77.
G2 X83.588 Y-3.5 R6.588
G1 Y-9.5
G2 X77. Y-16.087 R6.587
G1 X7.
G2 X0.412 Y-9.5 R6.588
G1 Y-3.5
G2 X7. Y3.088 R6.588
G1 X12.
G2 X13.587 Y1.5 R1.587
G1 Y0.5
G3 X17. Y-2.912 R3.412
G1 X67.
G3 X70.321 Y-0.285 R3.412
X70.412 Y0.5 Z-8.05 R3.412
G1 Y1.5 Z-8.113
G2 X72. Y3.088 Z-8.271 R1.588
G1 X77. Z-8.586
G2 X83.588 Y-3.5 Z-9.24 R6.588
G1 Y-9.5 Z-9.619
G2 X81.01 Y-14.726 Z-10. R6.588
X77. Y-16.087 R6.587
G1 X7.
G2 X0.412 Y-9.5 R6.588
G1 Y-3.5
G2 X7. Y3.088 R6.588
G1 X12.
G2 X13.587 Y1.5 R1.587
G1 Y0.5
G3 X17. Y-2.912 R3.412
G1 X67.
G3 X70.412 Y0.5 R3.412
G1 Y1.5
G2 X72. Y3.088 R1.588
G1 X77.
G2 X83.588 Y-3.5 R6.588
G1 Y-9.5
G2 X81.01 Y-14.726 R6.588
X77. Y-16.087 Z-10.272 R6.587
G1 X49.642 Z-12.
X7.
G2 X0.412 Y-9.5 R6.588
G1 Y-3.5
G2 X7. Y3.088 R6.588
G1 X12.
G2 X13.587 Y1.5 R1.587
G1 Y0.5
G3 X17. Y-2.912 R3.412
G1 X67.
G3 X70.412 Y0.5 R3.412
G1 Y1.5
G2 X72. Y3.088 R1.588
G1 X77.
G2 X83.588 Y-3.5 R6.588
G1 Y-9.5
G2 X77. Y-16.087 R6.587
G1 X49.642
X17.973 Z-14.
X7.
G2 X0.412 Y-9.5 R6.588
G1 Y-3.5
G2 X7. Y3.088 R6.588
G1 X12.
G2 X13.587 Y1.5 R1.587
G1 Y0.5
G3 X17. Y-2.912 R3.412
G1 X67.
G3 X70.412 Y0.5 R3.412
G1 Y1.5
G2 X72. Y3.088 R1.588
G1 X77.
G2 X83.588 Y-3.5 R6.588
G1 Y-9.5
G2 X77. Y-16.087 R6.587
G1 X17.973
X7. Z-14.693
G2 X0.412 Y-9.5 Z-15.346 R6.588
G1 Y-3.5 Z-15.725
G2 X1.796 Y0.539 Z-16. R6.588
X7. Y3.088 R6.588
G1 X12.
G2 X13.587 Y1.5 R1.587
G1 Y0.5
G3 X17. Y-2.912 R3.412
G1 X67.
G3 X70.412 Y0.5 R3.412
G1 Y1.5
G2 X72. Y3.088 R1.588
G1 X77.
G2 X83.588 Y-3.5 R6.588
G1 Y-9.5
G2 X77. Y-16.087 R6.587
G1 X17.973
X7.
G2 X0.412 Y-9.5 R6.588
G1 Y-3.5
G2 X1.796 Y0.539 R6.588
X7. Y3.088 Z-16.379 R6.588
G1 X12. Z-16.695
G2 X13.587 Y1.5 Z-16.852 R1.587
G1 Y0.5 Z-16.915
G3 X17. Y-2.912 Z-17.254 R3.412
G1 X28.815 Z-18.
X67.
G3 X70.412 Y0.5 R3.412
G1 Y1.5
G2 X72. Y3.088 R1.588
G1 X77.
G2 X83.588 Y-3.5 R6.588
G1 Y-9.5
G2 X77. Y-16.087 R6.587
G1 X7.
G2 X0.412 Y-9.5 R6.588
G1 Y-3.5
G2 X7. Y3.088 R6.588
G1 X12.
G2 X13.587 Y1.5 R1.587
G1 Y0.5
G3 X17. Y-2.912 R3.412
G1 X28.815
X60.484 Z-20.
X67.
G3 X70.412 Y0.5 R3.412
G1 Y1.5
G2 X72. Y3.088 R1.588
G1 X77.
G2 X83.588 Y-3.5 R6.588
G1 Y-9.5
G2 X77. Y-16.087 R6.587
G1 X7.
G2 X0.412 Y-9.5 R6.588
G1 Y-3.5
G2 X7. Y3.088 R6.588
G1 X12.
G2 X13.587 Y1.5 R1.587
G1 Y0.5
G3 X17. Y-2.912 R3.412
G1 X60.484
Z2.5
X24.512 Y2.912
X19.412 Z1.601
G2 X19.137 Y16.082 Z-2. R6.587
X19.412 Y16.087 R6.587
G1 X69.411
G2 Y2.912 R6.588
G1 X19.412
G2 X19.137 Y16.082 R6.587
X19.412 Y16.087 Z-2.025 R6.587
G1 X41.403 Z-4.
X69.411
G2 Y2.912 R6.588
G1 X19.412
G2 Y16.087 R6.587
G1 X41.403
X63.669 Z-6.
X69.411
G2 Y2.912 R6.588
G1 X19.412
G2 Y16.087 R6.587
G1 X63.669
X69.411 Z-6.516
G2 X73.309 Y4.189 Z-8. R6.588
X69.411 Y2.912 R6.588
G1 X19.412
G2 Y16.087 R6.587
G1 X63.669
X69.411
G2 X73.309 Y4.189 R6.588
X69.411 Y2.912 Z-8.375 R6.588
G1 X51.316 Z-10.
X19.412
G2 Y16.087 R6.587
G1 X69.411
G2 Y2.912 R6.588
G1 X51.316
X29.05 Z-12.
X19.412
G2 Y16.087 R6.587
G1 X69.411
G2 Y2.912 R6.588
G1 X29.05
X19.412 Z-12.866
G2 X13.215 Y11.735 Z-14. R6.588
X19.412 Y16.087 R6.587
G1 X69.411
G2 Y2.912 R6.588
G1 X29.05
X19.412
G2 X13.215 Y11.735 R6.588
X19.412 Y16.087 Z-14.725 R6.587
G1 X33.61 Z-16.
X69.411
G2 Y2.912 R6.588
G1 X19.412
G2 Y16.087 R6.587
G1 X33.61
X55.876 Z-18.
X69.411
G2 Y2.912 R6.588
G1 X19.412
G2 Y16.087 R6.587
G1 X55.876
X69.411 Z-19.216
G2 X75.802 Y11.1 Z-20. R6.588
X69.411 Y2.912 R6.588
G1 X19.412
G2 Y16.087 R6.587
G1 X55.876
X69.411
G2 X75.802 Y11.1 R6.588
G0 Z15.

(2D CONTOUR3)
M8
G0 X-22.133 Y-2.912
Z15.
Z5.
G1 Z3. F762.
Z2.5
X-17. Z1.595 F351.
G2 X-16.693 Y-16.08 Z-2. R6.588
X-17. Y-16.087 R6.587
G1 X-67.
G2 Y-2.912 R6.588
G1 X-17.
G2 X-16.693 Y-16.08 R6.588
X-17. Y-16.087 Z-2.028 R6.587
G1 X-38.959 Z-4.
X-67.
G2 Y-2.912 R6.588
G1 X-17.
G2 Y-16.087 R6.587
G1 X-38.959
X-61.225 Z-6.
X-67.
G2 Y-2.912 R6.588
G1 X-17.
G2 Y-16.087 R6.587
G1 X-61.225
X-67. Z-6.519
G2 X-70.924 Y-4.209 Z-8. R6.587
X-67. Y-2.912 R6.588
G1 X-17.
G2 Y-16.087 R6.587
G1 X-61.225
X-67.
G2 X-70.924 Y-4.209 R6.587
X-67. Y-2.912 Z-8.378 R6.588
G1 X-48.937 Z-10.
X-17.
G2 Y-16.087 R6.587
G1 X-67.
G2 Y-2.912 R6.588
G1 X-48.937
X-26.671 Z-12.
X-17.
G2 Y-16.087 R6.587
G1 X-67.
G2 Y-2.912 R6.588
G1 X-26.671
G0 Z5.
X22.133 Y-16.087
G1 Z3. F762.
Z2.5
X17. Z1.595 F351.
G2 X16.693 Y-2.92 Z-2. R6.587
X17. Y-2.912 R6.588
G1 X67.
G2 Y-16.087 R6.587
G1 X17.
G2 X16.693 Y-2.92 R6.587
X17. Y-2.912 Z-2.028 R6.588
G1 X38.959 Z-4.
X67.
G2 Y-16.087 R6.587
G1 X17.
G2 Y-2.912 R6.588
G1 X38.959
X61.225 Z-6.
X67.
G2 Y-16.087 R6.587
G1 X17.
G2 Y-2.912 R6.588
G1 X61.225
X67. Z-6.519
G2 X70.924 Y-14.791 Z-8. R6.587
X67. Y-16.087 R6.587
G1 X17.
G2 Y-2.912 R6.588
G1 X61.225
X67.
G2 X70.924 Y-14.791 R6.587
X67. Y-16.087 Z-8.378 R6.587
G1 X48.937 Z-10.
X17.
G2 Y-2.912 R6.588
G1 X67.
G2 Y-16.087 R6.587
G1 X48.937
X26.671 Z-12.
X17.
G2 Y-2.912 R6.588
G1 X67.
G2 Y-16.087 R6.587
G1 X26.671
G0 Z15.

M9
M30
