(__V2)
(T1  D=3.175 CR=0. - ZMIN=-8. - FLAT END MILL)
G90 G94 G91.1 G40 G49 G17
G21

(2D CONTOUR1)
M5
M9
T1
S10500 M3
G54
M8
G0 X0.247 Y10.86
G43 Z15. H1
Z5.
G1 Z3. F400.
Z2.5
G3 X-0.247 Y-10.86 Z-0.486 R10.863 F701.
X10.863 Y0. Z-2. R10.863
X-10.863 R10.863
X10.863 R10.863
X-5.526 Y9.352 Z-4. R10.863
X5.526 Y-9.352 R10.863
X-5.526 Y9.352 R10.863
X-5.24 Y-9.515 Z-6. R10.862
X5.24 Y9.515 R10.862
X-5.24 Y-9.515 R10.862
X10.858 Y0.329 Z-8. R10.862
X-10.858 Y-0.329 R10.862
X10.858 Y0.329 R10.862
G0 Z15.

(2D POCKET1)
M8
G0 X20.383 Y7.11
Z15.
Z5.
G1 Z2.5 F701.
G2 X12.953 Y-17.27 Z0.115 R21.588
X-9.896 Y-19.185 Z-2. R21.588
X-18.292 Y11.465 R21.588
X12.953 Y17.27 R21.588
X12.993 Y17.24 R21.588
X12.953 Y-17.27 R21.588
X-9.896 Y-19.185 R21.588
G3 X-10.165 Y-19.269 R0.2
G1 X-11.302 Y-21.412
G3 X-11.217 Y-21.683 R0.2
X14.648 Y19.53 R24.413
X14.607 Y19.56 R24.413
X-24.413 Y0. R24.413
X-11.217 Y-21.683 R24.413
X11.962 Y-21.281 Z-4. R24.413
X14.648 Y19.53 R24.413
X14.607 Y19.56 R24.413
X-24.413 Y0. R24.413
X11.962 Y-21.281 R24.413
X12.039 Y-21.01 R0.2
G1 X10.869 Y-18.886
G3 X10.596 Y-18.808 R0.2
G2 X-10.596 Y18.808 R21.588
X12.953 Y17.27 R21.588
X12.993 Y17.24 R21.588
X12.953 Y-17.27 R21.588
X10.596 Y-18.808 R21.587
G3 X10.521 Y-19.084 R0.2
X10.798 Y-19.153 R0.2
G1 X12.094 Y-18.363
G3 X12.158 Y-18.085 R0.2
X11.88 Y-18.025 R0.2
G2 X-9.896 Y-19.185 Z-6. R21.588
X-18.292 Y11.465 R21.588
X12.953 Y17.27 R21.588
X12.993 Y17.24 R21.588
X12.953 Y-17.27 R21.588
X-9.896 Y-19.185 R21.588
G3 X-10.165 Y-19.269 R0.2
G1 X-11.302 Y-21.412
G3 X-11.217 Y-21.683 R0.2
X14.648 Y19.53 R24.413
X14.607 Y19.56 R24.413
X-24.413 Y0. R24.413
X-11.217 Y-21.683 R24.413
G1 X-10.967 Y-21.201 Z-5.946
G0 Z15.

(2D CONTOUR2)
M8
G0 X0.576 Y-10.847
Z15.
Z5.
G1 Z2.5 F400.
G2 X-0.576 Y10.847 Z-0.486 R10.863 F701.
X0.576 Y-10.847 Z-3.471 R10.863
X-0.576 Y10.847 Z-6.457 R10.863
X10.863 Y0. Z-8. R10.863
X-10.863 R10.863 F201.
X10.863 R10.863
X-10.863 R10.863
X10.863 R10.863
G0 Z15.

(2D CONTOUR3)
M8
G0 X-7.985 Y26.407
Z15.
Z5.
G1 Z3. F400.
Z2.5
G2 X27.587 Y0. Z-2. R27.587 F701.
X-27.587 R27.587
X27.587 R27.587
X15.149 Y-23.056 Z-4. R27.587
X-15.149 Y23.056 R27.587
X15.149 Y-23.056 R27.587
X-10.95 Y-25.321 Z-6. R27.587
X10.95 Y25.321 R27.587
X-10.95 Y-25.321 R27.587
X-27.175 Y-4.753 Z-8. R27.588
X27.175 Y4.753 R27.588
X-27.175 Y-4.753 R27.588
G0 Z15.

M9
M30
