(   4_5  1)
(T3  D=3.175 CR=0. - ZMIN=-4.8 - FLAT END MILL)
G90 G94 G91.1 G40 G49 G17
G21

(2D ADAPTIVE3)
M5
M9
T3
S5500 M3
G54
M8
G0 X0.076 Y0.494
G43 Z15. H3
Z5.
Z3.063
G1 Z2.745 F351.
G3 X-0.076 Y-0.494 Z2.69 R0.5
X0.076 Y0.494 Z2.635 R0.5
X-0.076 Y-0.494 Z2.58 R0.5
X0.076 Y0.494 Z2.526 R0.5
X-0.076 Y-0.494 Z2.471 R0.5
X0.076 Y0.494 Z2.416 R0.5
X-0.076 Y-0.494 Z2.361 R0.5
X0.076 Y0.494 Z2.306 R0.5
X-0.076 Y-0.494 Z2.251 R0.5
X0.076 Y0.494 Z2.196 R0.5
X-0.076 Y-0.494 Z2.142 R0.5
X0.076 Y0.494 Z2.087 R0.5
X-0.076 Y-0.494 Z2.032 R0.5
X0.076 Y0.494 Z1.977 R0.5
X-0.076 Y-0.494 Z1.922 R0.5
X0.076 Y0.494 Z1.867 R0.5
X-0.076 Y-0.494 Z1.812 R0.5
X0.076 Y0.494 Z1.758 R0.5
X-0.076 Y-0.494 Z1.703 R0.5
X0.076 Y0.494 Z1.648 R0.5
X-0.076 Y-0.494 Z1.593 R0.5
X0.076 Y0.494 Z1.538 R0.5
X-0.076 Y-0.494 Z1.483 R0.5
X0.076 Y0.494 Z1.429 R0.5
X-0.076 Y-0.494 Z1.374 R0.5
X0.076 Y0.494 Z1.319 R0.5
X-0.076 Y-0.494 Z1.264 R0.5
X0.076 Y0.494 Z1.209 R0.5
X-0.076 Y-0.494 Z1.154 R0.5
X0.076 Y0.494 Z1.099 R0.5
X-0.076 Y-0.494 Z1.045 R0.5
X0.076 Y0.494 Z0.99 R0.5
X-0.076 Y-0.494 Z0.935 R0.5
X0.076 Y0.494 Z0.88 R0.5
X-0.076 Y-0.494 Z0.825 R0.5
X0.076 Y0.494 Z0.77 R0.5
X-0.076 Y-0.494 Z0.715 R0.5
X0.076 Y0.494 Z0.661 R0.5
X-0.076 Y-0.494 Z0.606 R0.5
X0.076 Y0.494 Z0.551 R0.5
X-0.076 Y-0.494 Z0.496 R0.5
X0.076 Y0.494 Z0.441 R0.5
X-0.076 Y-0.494 Z0.386 R0.5
X0.076 Y0.494 Z0.331 R0.5
X-0.076 Y-0.494 Z0.277 R0.5
X0.076 Y0.494 Z0.222 R0.5
X-0.076 Y-0.494 Z0.167 R0.5
X0.076 Y0.494 Z0.112 R0.5
X-0.076 Y-0.494 Z0.057 R0.5
X0.076 Y0.494 Z0.002 R0.5
X-0.076 Y-0.494 Z-0.053 R0.5
X0.076 Y0.494 Z-0.107 R0.5
X-0.076 Y-0.494 Z-0.162 R0.5
X0.076 Y0.494 Z-0.217 R0.5
X-0.076 Y-0.494 Z-0.272 R0.5
X0.076 Y0.494 Z-0.327 R0.5
X-0.076 Y-0.494 Z-0.382 R0.5
X0.076 Y0.494 Z-0.436 R0.5
X-0.076 Y-0.494 Z-0.491 R0.5
X0.076 Y0.494 Z-0.546 R0.5
X-0.076 Y-0.494 Z-0.601 R0.5
X0.076 Y0.494 Z-0.656 R0.5
X-0.076 Y-0.494 Z-0.711 R0.5
X0.076 Y0.494 Z-0.766 R0.5
X-0.076 Y-0.494 Z-0.82 R0.5
X0.076 Y0.494 Z-0.875 R0.5
X-0.076 Y-0.494 Z-0.93 R0.5
X0.076 Y0.494 Z-0.985 R0.5
X-0.076 Y-0.494 Z-1.04 R0.5
X0.076 Y0.494 Z-1.095 R0.5
X-0.076 Y-0.494 Z-1.15 R0.5
X0.076 Y0.494 Z-1.204 R0.5
X-0.076 Y-0.494 Z-1.259 R0.5
X0.076 Y0.494 Z-1.314 R0.5
X-0.076 Y-0.494 Z-1.369 R0.5
X0.076 Y0.494 Z-1.424 R0.5
X-0.076 Y-0.494 Z-1.479 R0.5
X0.076 Y0.494 Z-1.534 R0.5
X-0.076 Y-0.494 Z-1.588 R0.5
X0.076 Y0.494 Z-1.643 R0.5
X-0.076 Y-0.494 Z-1.698 R0.5
X0.076 Y0.494 Z-1.753 R0.5
X-0.076 Y-0.494 Z-1.808 R0.5
X0.076 Y0.494 Z-1.863 R0.5
X-0.076 Y-0.494 Z-1.918 R0.5
X0.076 Y0.494 Z-1.972 R0.5
X-0.076 Y-0.494 Z-2.027 R0.5
X0.076 Y0.494 Z-2.082 R0.5
X-0.076 Y-0.494 Z-2.137 R0.5
X0.076 Y0.494 Z-2.192 R0.5
X-0.076 Y-0.494 Z-2.247 R0.5
X0.076 Y0.494 Z-2.302 R0.5
X-0.076 Y-0.494 Z-2.356 R0.5
X0.076 Y0.494 Z-2.411 R0.5
X-0.076 Y-0.494 Z-2.466 R0.5
X0.076 Y0.494 Z-2.521 R0.5
X-0.076 Y-0.494 Z-2.576 R0.5
X0.076 Y0.494 Z-2.631 R0.5
X-0.076 Y-0.494 Z-2.685 R0.5
X0.076 Y0.494 Z-2.74 R0.5
X-0.076 Y-0.494 Z-2.795 R0.5
X0.076 Y0.494 Z-2.85 R0.5
X-0.076 Y-0.494 Z-2.905 R0.5
X0.076 Y0.494 Z-2.96 R0.5
X-0.076 Y-0.494 Z-3.015 R0.5
X0.076 Y0.494 Z-3.069 R0.5
X-0.076 Y-0.494 Z-3.124 R0.5
X0.076 Y0.494 Z-3.179 R0.5
X-0.076 Y-0.494 Z-3.234 R0.5
X0.076 Y0.494 Z-3.289 R0.5
X-0.076 Y-0.494 Z-3.344 R0.5
X0.076 Y0.494 Z-3.399 R0.5
X-0.076 Y-0.494 Z-3.453 R0.5
X0.076 Y0.494 Z-3.508 R0.5
X-0.076 Y-0.494 Z-3.563 R0.5
X0.076 Y0.494 Z-3.618 R0.5
X-0.076 Y-0.494 Z-3.673 R0.5
X0.076 Y0.494 Z-3.728 R0.5
X-0.076 Y-0.494 Z-3.783 R0.5
X0.076 Y0.494 Z-3.837 R0.5
X-0.076 Y-0.494 Z-3.892 R0.5
X0.076 Y0.494 Z-3.947 R0.5
X-0.076 Y-0.494 Z-4.002 R0.5
X0.076 Y0.494 Z-4.057 R0.5
X-0.076 Y-0.494 Z-4.112 R0.5
X0.076 Y0.494 Z-4.167 R0.5
X-0.076 Y-0.494 Z-4.221 R0.5
X0.076 Y0.494 Z-4.276 R0.5
X-0.076 Y-0.494 Z-4.331 R0.5
X0.076 Y0.494 Z-4.386 R0.5
X-0.076 Y-0.494 Z-4.441 R0.5
X0.076 Y0.494 Z-4.496 R0.5
X-0.076 Y-0.494 Z-4.551 R0.5
X0.076 Y0.494 Z-4.605 R0.5
X-0.076 Y-0.494 Z-4.66 R0.5
X0.076 Y0.494 Z-4.715 R0.5
X-0.076 Y-0.494 Z-4.77 R0.5
X0.5 Y0. Z-4.8 R0.5
X-0.5 R0.5
X0.5 R0.5
G1 X0.527 Y0.28
X0.502 Y0.426
X0.422 Y0.55
X0.301 Y0.633
X0.156 Y0.663
X-0.215
X-0.349 Y0.656
X-0.479 Y0.617
X-0.596 Y0.55
X-0.697 Y0.46
X-0.778 Y0.352
X-0.842 Y0.16
X-0.848 Y-0.043
X-0.796 Y-0.239
X-0.69 Y-0.412
X-0.538 Y-0.547
X-0.354 Y-0.633
X-0.153 Y-0.663
X0.215
X0.349 Y-0.656
X0.479 Y-0.617
X0.596 Y-0.55
X0.73 Y-0.39
X0.811 Y-0.198
X0.831 Y0.01
X0.788 Y0.214
X0.686 Y0.396
X0.534 Y0.539
X0.347 Y0.631
X0.141 Y0.663
G3 X-0.164 Y0.311 R0.317
G1 X-0.09 Y-0.379
G3 X0.215 Y-0.663 R0.318
G1 X0.596
X0.731 Y-0.656
X0.857 Y-0.609
X0.968 Y-0.532
X1.062 Y-0.434
X1.15 Y-0.236
X1.174 Y-0.02
X1.132 Y0.193
X1.028 Y0.383
X0.871 Y0.533
X0.676 Y0.629
X0.462 Y0.663
X0.156
G3 X-0.101 Y0.175 R0.317
G1 X0.339 Y-0.516
G3 X0.596 Y-0.663 R0.318
G1 X0.969
X1.104 Y-0.656
X1.228 Y-0.603
X1.335 Y-0.52
X1.423 Y-0.418
X1.503 Y-0.219
X1.521 Y-0.005
X1.474 Y0.204
X1.367 Y0.391
X1.21 Y0.537
X1.017 Y0.63
X0.805 Y0.663
X0.462
G3 X0.217 Y0.157 R0.317
G1 X0.725 Y-0.533
G3 X0.969 Y-0.663 R0.318
G1 X1.317
X1.452 Y-0.656
X1.577 Y-0.603
X1.683 Y-0.52
X1.772 Y-0.418
X1.851 Y-0.218
X1.867 Y-0.004
X1.82 Y0.205
X1.713 Y0.391
X1.555 Y0.537
X1.362 Y0.63
X1.15 Y0.663
X0.805
G3 X0.561 Y0.156 R0.317
G1 X1.074 Y-0.534
G3 X1.317 Y-0.663 R0.318
G1 X1.662
X1.797 Y-0.656
X1.921 Y-0.604
X2.028 Y-0.521
X2.117 Y-0.419
X2.196 Y-0.22
X2.213 Y-0.005
X2.166 Y0.204
X2.059 Y0.391
X1.901 Y0.537
X1.708 Y0.63
X1.495 Y0.663
X1.15
G3 X0.906 Y0.156 R0.318
G1 X1.418 Y-0.534
G3 X1.662 Y-0.663 R0.318
G1 X2.015
X2.15 Y-0.656
X2.274 Y-0.602
X2.379 Y-0.518
X2.467 Y-0.415
X2.545 Y-0.216
X2.56 Y-0.002
X2.512 Y0.207
X2.405 Y0.392
X2.247 Y0.538
X2.054 Y0.631
X1.842 Y0.663
X1.495
G3 X1.253 Y0.154 R0.317
G1 X1.772 Y-0.536
G3 X2.015 Y-0.663 R0.318
G1 X2.354
X2.489 Y-0.656
X2.614 Y-0.604
X2.721 Y-0.521
X2.81 Y-0.42
X2.889 Y-0.22
X2.906 Y-0.006
X2.859 Y0.204
X2.752 Y0.39
X2.594 Y0.537
X2.401 Y0.63
X2.188 Y0.663
X1.842
G3 X1.598 Y0.156 R0.317
G1 X2.11 Y-0.534
G3 X2.354 Y-0.663 R0.318
G1 X2.707
X2.842 Y-0.656
X2.966 Y-0.602
X3.072 Y-0.518
X3.16 Y-0.416
X3.237 Y-0.216
X3.253 Y-0.002
X3.205 Y0.207
X3.097 Y0.392
X2.94 Y0.538
X2.747 Y0.631
X2.535 Y0.663
X2.188
G3 X1.945 Y0.154 R0.318
G1 X2.465 Y-0.536
G3 X2.707 Y-0.663 R0.318
G1 X3.047
X3.182 Y-0.656
X3.306 Y-0.604
X3.413 Y-0.522
X3.502 Y-0.42
X3.582 Y-0.22
X3.599 Y-0.006
X3.551 Y0.204
X3.444 Y0.39
X3.287 Y0.537
X3.093 Y0.63
X2.881 Y0.663
X2.535
G3 X2.291 Y0.156 R0.318
G1 X2.803 Y-0.534
G3 X3.047 Y-0.663 R0.318
G1 X3.4
X3.535 Y-0.656
X3.658 Y-0.602
X3.764 Y-0.518
X3.852 Y-0.416
X3.93 Y-0.216
X3.946 Y-0.002
X3.898 Y0.207
X3.79 Y0.392
X3.633 Y0.538
X3.44 Y0.631
X3.228 Y0.663
X2.881
G3 X2.638 Y0.154 R0.318
G1 X3.157 Y-0.536
G3 X3.4 Y-0.663 R0.318
G1 X3.739
X3.874 Y-0.656
X3.999 Y-0.604
X4.106 Y-0.522
X4.195 Y-0.42
X4.274 Y-0.22
X4.291 Y-0.006
X4.244 Y0.204
X4.137 Y0.39
X3.98 Y0.537
X3.786 Y0.63
X3.573 Y0.663
X3.228
G3 X2.984 Y0.156 R0.318
G1 X3.495 Y-0.534
G3 X3.739 Y-0.663 R0.318
G1 X4.092
X4.227 Y-0.656
X4.351 Y-0.602
X4.457 Y-0.518
X4.545 Y-0.416
X4.623 Y-0.216
X4.638 Y-0.002
X4.59 Y0.207
X4.483 Y0.392
X4.326 Y0.538
X4.132 Y0.631
X3.92 Y0.663
X3.573
G3 X3.331 Y0.154 R0.317
G1 X3.85 Y-0.536
G3 X4.092 Y-0.663 R0.318
G1 X4.432
X4.566 Y-0.656
X4.691 Y-0.604
X4.798 Y-0.522
X4.887 Y-0.42
X4.967 Y-0.221
X4.984 Y-0.006
X4.937 Y0.204
X4.83 Y0.39
X4.672 Y0.537
X4.479 Y0.63
X4.266 Y0.663
X3.92
G3 X3.676 Y0.156 R0.317
G1 X4.187 Y-0.534
G3 X4.432 Y-0.663 R0.318
G1 X4.785
X4.92 Y-0.656
X5.043 Y-0.602
X5.149 Y-0.518
X5.237 Y-0.416
X5.315 Y-0.216
X5.331 Y-0.002
X5.283 Y0.207
X5.175 Y0.392
X5.018 Y0.538
X4.825 Y0.631
X4.613 Y0.663
X4.266
G3 X4.023 Y0.154 R0.318
G1 X4.542 Y-0.536
G3 X4.785 Y-0.663 R0.318
G1 X5.124
X5.259 Y-0.656
X5.384 Y-0.604
X5.491 Y-0.522
X5.58 Y-0.42
X5.659 Y-0.221
X5.676 Y-0.006
X5.629 Y0.204
X5.522 Y0.39
X5.365 Y0.537
X5.171 Y0.63
X4.958 Y0.663
X4.613
G3 X4.369 Y0.156 R0.318
G1 X4.88 Y-0.534
G3 X5.124 Y-0.663 R0.318
G1 X5.477
X5.612 Y-0.656
X5.736 Y-0.602
X5.842 Y-0.518
X5.93 Y-0.416
X6.008 Y-0.216
X6.023 Y-0.002
X5.975 Y0.206
X5.868 Y0.392
X5.711 Y0.538
X5.517 Y0.631
X5.306 Y0.663
X4.958
G3 X4.716 Y0.154 R0.317
G1 X5.234 Y-0.536
G3 X5.477 Y-0.663 R0.318
G1 X5.816
X5.951 Y-0.656
X6.076 Y-0.604
X6.183 Y-0.522
X6.272 Y-0.42
X6.352 Y-0.221
X6.369 Y-0.006
X6.322 Y0.204
X6.215 Y0.39
X6.057 Y0.537
X5.864 Y0.63
X5.651 Y0.663
X5.306
G3 X5.061 Y0.156 R0.317
G1 X5.572 Y-0.534
G3 X5.816 Y-0.663 R0.318
G1 X6.17
X6.304 Y-0.656
X6.428 Y-0.602
X6.534 Y-0.518
X6.622 Y-0.416
X6.7 Y-0.216
X6.716 Y-0.002
X6.668 Y0.206
X6.56 Y0.392
X6.403 Y0.538
X6.21 Y0.631
X5.998 Y0.663
X5.651
G3 X5.408 Y0.154 R0.318
G1 X5.927 Y-0.536
G3 X6.17 Y-0.663 R0.318
G1 X6.509
X6.644 Y-0.656
X6.768 Y-0.604
X6.875 Y-0.522
X6.965 Y-0.42
X7.044 Y-0.221
X7.061 Y-0.006
X7.014 Y0.204
X6.907 Y0.39
X6.75 Y0.537
X6.556 Y0.63
X6.343 Y0.663
X5.998
G3 X5.754 Y0.156 R0.317
G1 X6.265 Y-0.534
G3 X6.509 Y-0.663 R0.318
G1 X6.862
X6.997 Y-0.656
X7.121 Y-0.602
X7.227 Y-0.518
X7.315 Y-0.416
X7.393 Y-0.216
X7.408 Y-0.002
X7.36 Y0.206
X7.253 Y0.392
X7.096 Y0.538
X6.902 Y0.631
X6.69 Y0.663
X6.343
G3 X6.101 Y0.155 R0.318
G1 X6.619 Y-0.536
G3 X6.862 Y-0.663 R0.318
G1 X7.201
X7.336 Y-0.656
X7.461 Y-0.604
X7.568 Y-0.522
X7.657 Y-0.42
X7.737 Y-0.221
X7.754 Y-0.006
X7.707 Y0.204
X7.6 Y0.39
X7.442 Y0.537
X7.249 Y0.63
X7.036 Y0.663
X6.69
G3 X6.446 Y0.156 R0.318
G1 X6.957 Y-0.534
G3 X7.201 Y-0.663 R0.318
G1 X7.554
X7.689 Y-0.656
X7.813 Y-0.602
X7.919 Y-0.518
X8.007 Y-0.416
X8.085 Y-0.216
X8.101 Y-0.003
X8.053 Y0.206
X7.945 Y0.392
X7.788 Y0.538
X7.595 Y0.631
X7.383 Y0.663
X7.036
G3 X6.793 Y0.155 R0.318
G1 X7.312 Y-0.536
G3 X7.554 Y-0.663 R0.318
G1 X7.894
X8.029 Y-0.656
X8.153 Y-0.604
X8.26 Y-0.522
X8.349 Y-0.42
X8.429 Y-0.221
X8.446 Y-0.006
X8.399 Y0.204
X8.292 Y0.39
X8.135 Y0.537
X7.941 Y0.63
X7.728 Y0.663
X7.383
G3 X7.139 Y0.156 R0.318
G1 X7.65 Y-0.534
G3 X7.894 Y-0.663 R0.318
G1 X8.247
X8.382 Y-0.656
X8.506 Y-0.602
X8.612 Y-0.518
X8.699 Y-0.416
X8.777 Y-0.216
X8.793 Y-0.003
X8.745 Y0.206
X8.638 Y0.392
X8.481 Y0.538
X8.287 Y0.631
X8.075 Y0.663
X7.728
G3 X7.486 Y0.155 R0.318
G1 X8.004 Y-0.536
G3 X8.247 Y-0.663 R0.318
G1 X8.586
X8.721 Y-0.656
X8.846 Y-0.604
X8.953 Y-0.522
X9.042 Y-0.421
X9.122 Y-0.221
X9.139 Y-0.006
X9.092 Y0.204
X8.985 Y0.39
X8.827 Y0.537
X8.633 Y0.63
X8.421 Y0.663
X8.075
G3 X7.831 Y0.156 R0.318
G1 X8.342 Y-0.534
G3 X8.586 Y-0.663 R0.318
G1 X8.939
X9.074 Y-0.656
X9.198 Y-0.602
X9.304 Y-0.518
X9.392 Y-0.416
X9.47 Y-0.216
X9.486 Y-0.003
X9.438 Y0.206
X9.33 Y0.392
X9.173 Y0.538
X8.98 Y0.631
X8.768 Y0.663
X8.421
G3 X8.178 Y0.155 R0.317
G1 X8.696 Y-0.536
G3 X8.939 Y-0.663 R0.318
G1 X9.279
X9.413 Y-0.656
X9.538 Y-0.604
X9.645 Y-0.522
X9.734 Y-0.421
X9.814 Y-0.221
X9.831 Y-0.006
X9.784 Y0.204
X9.677 Y0.39
X9.52 Y0.537
X9.326 Y0.63
X9.113 Y0.663
X8.768
G3 X8.524 Y0.156 R0.317
G1 X9.034 Y-0.534
G3 X9.279 Y-0.663 R0.318
G1 X9.632
X9.767 Y-0.656
X9.89 Y-0.602
X9.996 Y-0.518
X10.084 Y-0.416
X10.162 Y-0.216
X10.178 Y-0.003
X10.13 Y0.206
X10.023 Y0.392
X9.865 Y0.538
X9.672 Y0.631
X9.46 Y0.663
X9.113
G3 X8.87 Y0.155 R0.318
G1 X9.389 Y-0.536
G3 X9.632 Y-0.663 R0.318
G1 X9.971
X10.106 Y-0.656
X10.231 Y-0.604
X10.338 Y-0.522
X10.427 Y-0.421
X10.506 Y-0.221
X10.523 Y-0.006
X10.476 Y0.204
X10.369 Y0.39
X10.212 Y0.537
X10.018 Y0.63
X9.806 Y0.663
G3 X9.508 Y0.271 R0.317
G1 X9.673 Y-0.419
G3 X9.971 Y-0.663 R0.318
G1 X10.324
X10.459 Y-0.656
X10.583 Y-0.602
X10.689 Y-0.518
X10.777 Y-0.416
X10.855 Y-0.216
X10.87 Y-0.003
X10.822 Y0.206
X10.715 Y0.392
X10.558 Y0.538
X10.365 Y0.631
X10.153 Y0.663
G3 X9.856 Y0.269 R0.318
G1 X10.027 Y-0.422
G3 X10.324 Y-0.663 R0.318
G1 X10.663
X10.798 Y-0.656
X10.923 Y-0.604
X11.03 Y-0.522
X11.119 Y-0.421
X11.199 Y-0.221
X11.216 Y-0.006
X11.169 Y0.204
X11.062 Y0.39
X10.904 Y0.537
X10.711 Y0.63
X10.498 Y0.663
G3 X10.2 Y0.271 R0.318
G1 X10.366 Y-0.419
G3 X10.663 Y-0.663 R0.318
G1 X11.017
X11.151 Y-0.656
X11.275 Y-0.602
X11.381 Y-0.518
X11.469 Y-0.416
X11.547 Y-0.216
X11.563 Y-0.003
X11.515 Y0.206
X11.408 Y0.392
X11.25 Y0.538
X11.057 Y0.631
X10.845 Y0.663
G3 X10.548 Y0.269 R0.318
G1 X10.72 Y-0.422
G3 X11.017 Y-0.663 R0.318
G1 X11.356
X11.491 Y-0.656
X11.616 Y-0.604
X11.722 Y-0.522
X11.812 Y-0.421
X11.891 Y-0.221
X11.908 Y-0.006
X11.861 Y0.204
X11.754 Y0.39
X11.597 Y0.537
X11.403 Y0.63
X11.191 Y0.663
G3 X10.893 Y0.271 R0.318
G1 X11.058 Y-0.419
G3 X11.356 Y-0.663 R0.318
G1 X11.709
X11.844 Y-0.656
X11.968 Y-0.602
X12.074 Y-0.518
X12.162 Y-0.416
X12.24 Y-0.216
X12.255 Y-0.003
X12.207 Y0.206
X12.1 Y0.392
X11.943 Y0.538
X11.75 Y0.631
X11.538 Y0.663
G3 X11.241 Y0.269 R0.318
G1 X11.412 Y-0.422
G3 X11.709 Y-0.663 R0.318
G1 X12.048
X12.183 Y-0.656
X12.308 Y-0.604
X12.415 Y-0.522
X12.504 Y-0.421
X12.584 Y-0.221
X12.601 Y-0.006
X12.554 Y0.204
X12.447 Y0.39
X12.289 Y0.537
X12.096 Y0.63
X11.883 Y0.663
G3 X11.585 Y0.271 R0.317
G1 X11.751 Y-0.419
G3 X12.048 Y-0.663 R0.318
G1 X12.401
X12.536 Y-0.656
X12.66 Y-0.602
X12.766 Y-0.518
X12.854 Y-0.416
X12.932 Y-0.216
X12.948 Y-0.003
X12.9 Y0.206
X12.792 Y0.392
X12.635 Y0.538
X12.442 Y0.631
X12.23 Y0.663
G3 X11.933 Y0.269 R0.318
G1 X12.104 Y-0.422
G3 X12.401 Y-0.663 R0.318
G1 X12.741
X12.876 Y-0.656
X13. Y-0.604
X13.107 Y-0.522
X13.196 Y-0.421
X13.276 Y-0.221
X13.293 Y-0.006
X13.246 Y0.204
X13.139 Y0.39
X12.982 Y0.537
X12.788 Y0.63
X12.575 Y0.663
G3 X12.278 Y0.271 R0.317
G1 X12.443 Y-0.419
G3 X12.741 Y-0.663 R0.318
G1 X13.087 Y-0.662
X13.191 Y-0.644
X13.26 Y-0.609
X13.322 Y-0.554
X13.389 Y-0.45
X13.412 Y-0.346
X13.409 Y0.381
X13.373 Y0.484
X13.295 Y0.582
X13.225 Y0.629
X13.122 Y0.66
X9.46 Y0.663
G3 X9.419 Y0.658 R0.317
G1 X9.336 Y0.652
X-0.073 Y-0.079
G2 X-0.197 Y0.539 R0.317
G3 X-0.215 Y0.663 R0.063
G1 X-0.63
X-0.765 Y0.656
X-0.89 Y0.605
X-0.999 Y0.526
X-1.091 Y0.427
X-1.175 Y0.228
X-1.196 Y0.013
X-1.151 Y-0.198
X-1.046 Y-0.387
X-0.889 Y-0.535
X-0.695 Y-0.63
X-0.482 Y-0.663
X-0.153
G3 X0.097 Y-0.165 R0.318
G1 X-0.38 Y0.526
G3 X-0.63 Y0.663 R0.318
G1 X-1.011
X-1.146 Y0.656
X-1.268 Y0.597
X-1.372 Y0.512
X-1.457 Y0.407
X-1.532 Y0.208
X-1.546 Y-0.005
X-1.496 Y-0.212
X-1.388 Y-0.395
X-1.232 Y-0.539
X-1.04 Y-0.631
X-0.829 Y-0.663
X-0.482
G3 X-0.241 Y-0.152 R0.317
G1 X-0.77 Y0.538
G3 X-1.011 Y0.663 R0.318
G1 X-1.357
X-1.492 Y0.656
X-1.614 Y0.599
X-1.719 Y0.514
X-1.806 Y0.41
X-1.881 Y0.211
X-1.895 Y-0.002
X-1.845 Y-0.21
X-1.737 Y-0.394
X-1.58 Y-0.539
X-1.387 Y-0.631
X-1.176 Y-0.663
X-0.829
G3 X-0.588 Y-0.152 R0.317
G1 X-1.116 Y0.538
G3 X-1.357 Y0.663 R0.318
G1 X-1.704
X-1.839 Y0.656
X-1.962 Y0.6
X-2.066 Y0.515
X-2.153 Y0.412
X-2.229 Y0.212
X-2.243 Y-0.001
X-2.194 Y-0.209
X-2.086 Y-0.394
X-1.929 Y-0.539
X-1.736 Y-0.631
X-1.524 Y-0.663
X-1.176
G3 X-0.935 Y-0.152 R0.317
G1 X-1.463 Y0.538
G3 X-1.704 Y0.663 R0.318
G1 X-2.049
X-2.184 Y0.656
X-2.307 Y0.601
X-2.413 Y0.516
X-2.5 Y0.413
X-2.576 Y0.213
X-2.591 Y0.
X-2.542 Y-0.208
X-2.434 Y-0.393
X-2.277 Y-0.538
X-2.084 Y-0.631
X-1.872 Y-0.663
X-1.524
G3 X-1.283 Y-0.153 R0.318
G1 X-1.808 Y0.537
G3 X-2.049 Y0.663 R0.318
G1 X-2.396
X-2.531 Y0.656
X-2.654 Y0.601
X-2.76 Y0.517
X-2.847 Y0.414
X-2.924 Y0.214
X-2.939 Y0.
X-2.89 Y-0.208
X-2.782 Y-0.393
X-2.625 Y-0.538
X-2.432 Y-0.631
X-2.22 Y-0.663
X-1.872
G3 X-1.631 Y-0.153 R0.317
G1 X-2.154 Y0.537
G3 X-2.396 Y0.663 R0.318
G1 X-2.742
X-2.877 Y0.656
X-3. Y0.602
X-3.106 Y0.518
X-3.193 Y0.415
X-3.271 Y0.215
X-3.286 Y0.001
X-3.237 Y-0.207
X-3.13 Y-0.393
X-2.973 Y-0.538
X-2.779 Y-0.631
X-2.568 Y-0.663
X-2.22
G3 X-1.978 Y-0.154 R0.318
G1 X-2.499 Y0.537
G3 X-2.742 Y0.663 R0.318
G1 X-3.089
X-3.223 Y0.656
X-3.347 Y0.602
X-3.453 Y0.518
X-3.541 Y0.415
X-3.618 Y0.215
X-3.633 Y0.002
X-3.585 Y-0.207
X-3.477 Y-0.392
X-3.32 Y-0.538
X-3.127 Y-0.631
X-2.915 Y-0.663
X-2.568
G3 X-2.325 Y-0.154 R0.318
G1 X-2.846 Y0.536
G3 X-3.089 Y0.663 R0.318
G1 X-3.434
X-3.569 Y0.656
X-3.693 Y0.602
X-3.799 Y0.518
X-3.887 Y0.416
X-3.964 Y0.216
X-3.98 Y0.002
X-3.932 Y-0.207
X-3.824 Y-0.392
X-3.667 Y-0.538
X-3.474 Y-0.631
X-3.262 Y-0.663
X-2.915
G3 X-2.672 Y-0.154 R0.317
G1 X-3.191 Y0.536
G3 X-3.434 Y0.663 R0.318
G1 X-3.781
X-3.916 Y0.656
X-4.04 Y0.602
X-4.146 Y0.518
X-4.234 Y0.416
X-4.311 Y0.216
X-4.327 Y0.002
X-4.279 Y-0.207
X-4.171 Y-0.392
X-4.014 Y-0.538
X-3.821 Y-0.631
X-3.609 Y-0.663
X-3.262
G3 X-3.019 Y-0.154 R0.317
G1 X-3.538 Y0.536
G3 X-3.781 Y0.663 R0.318
G1 X-4.127
X-4.261 Y0.656
X-4.385 Y0.602
X-4.492 Y0.519
X-4.58 Y0.417
X-4.658 Y0.217
X-4.674 Y0.003
X-4.626 Y-0.206
X-4.518 Y-0.392
X-4.361 Y-0.538
X-4.168 Y-0.631
X-3.956 Y-0.663
X-3.609
G3 X-3.366 Y-0.155 R0.317
G1 X-3.884 Y0.536
G3 X-4.127 Y0.663 R0.318
G1 X-4.473
X-4.608 Y0.656
X-4.732 Y0.602
X-4.838 Y0.519
X-4.926 Y0.417
X-5.005 Y0.217
X-5.02 Y0.003
X-4.972 Y-0.206
X-4.865 Y-0.392
X-4.708 Y-0.538
X-4.515 Y-0.631
X-4.302 Y-0.663
X-3.956
G3 X-3.713 Y-0.155 R0.318
G1 X-4.231 Y0.536
G3 X-4.473 Y0.663 R0.318
G1 X-4.819
X-4.954 Y0.656
X-5.078 Y0.603
X-5.184 Y0.519
X-5.272 Y0.417
X-5.351 Y0.218
X-5.367 Y0.004
X-5.319 Y-0.206
X-5.212 Y-0.391
X-5.054 Y-0.537
X-4.861 Y-0.631
X-4.649 Y-0.663
X-4.302
G3 X-4.059 Y-0.155 R0.318
G1 X-4.576 Y0.535
G3 X-4.819 Y0.663 R0.318
G1 X-5.166
X-5.301 Y0.656
X-5.425 Y0.603
X-5.531 Y0.519
X-5.619 Y0.417
X-5.698 Y0.217
X-5.713 Y0.003
X-5.666 Y-0.206
X-5.558 Y-0.392
X-5.401 Y-0.537
X-5.208 Y-0.631
X-4.996 Y-0.663
X-4.649
G3 X-4.406 Y-0.155 R0.318
G1 X-4.923 Y0.535
G3 X-5.166 Y0.663 R0.318
G1 X-5.511
X-5.646 Y0.656
X-5.77 Y0.603
X-5.877 Y0.52
X-5.965 Y0.418
X-6.044 Y0.218
X-6.06 Y0.004
X-6.012 Y-0.205
X-5.905 Y-0.391
X-5.748 Y-0.537
X-5.554 Y-0.63
X-5.342 Y-0.663
X-4.996
G3 X-4.752 Y-0.155 R0.318
G1 X-5.268 Y0.535
G3 X-5.511 Y0.663 R0.318
G1 X-5.858
X-5.993 Y0.656
X-6.117 Y0.603
X-6.224 Y0.519
X-6.312 Y0.417
X-6.39 Y0.218
X-6.406 Y0.004
X-6.359 Y-0.206
X-6.251 Y-0.391
X-6.094 Y-0.537
X-5.901 Y-0.631
X-5.689 Y-0.663
X-5.342
G3 X-5.099 Y-0.155 R0.317
G1 X-5.615 Y0.535
G3 X-5.858 Y0.663 R0.318
G1 X-6.204
X-6.339 Y0.656
X-6.463 Y0.603
X-6.569 Y0.52
X-6.658 Y0.418
X-6.736 Y0.218
X-6.753 Y0.004
X-6.705 Y-0.205
X-6.598 Y-0.391
X-6.441 Y-0.537
X-6.247 Y-0.63
X-6.035 Y-0.663
X-5.689
G3 X-5.445 Y-0.155 R0.317
G1 X-5.96 Y0.535
G3 X-6.204 Y0.663 R0.318
G1 X-6.551
X-6.686 Y0.656
X-6.81 Y0.603
X-6.916 Y0.52
X-7.004 Y0.418
X-7.083 Y0.218
X-7.099 Y0.004
X-7.051 Y-0.205
X-6.944 Y-0.391
X-6.787 Y-0.537
X-6.594 Y-0.631
X-6.381 Y-0.663
X-6.035
G3 X-5.792 Y-0.155 R0.318
G1 X-6.307 Y0.535
G3 X-6.551 Y0.663 R0.318
G1 X-6.896
X-7.031 Y0.656
X-7.155 Y0.603
X-7.262 Y0.52
X-7.35 Y0.418
X-7.429 Y0.218
X-7.445 Y0.004
X-7.398 Y-0.205
X-7.291 Y-0.391
X-7.133 Y-0.537
X-6.94 Y-0.63
X-6.728 Y-0.663
X-6.381
G3 X-6.138 Y-0.155 R0.317
G1 X-6.653 Y0.535
G3 X-6.896 Y0.663 R0.318
G1 X-7.243
X-7.378 Y0.656
X-7.502 Y0.603
X-7.609 Y0.52
X-7.697 Y0.418
X-7.776 Y0.218
X-7.792 Y0.004
X-7.744 Y-0.205
X-7.637 Y-0.391
X-7.48 Y-0.537
X-7.286 Y-0.63
X-7.074 Y-0.663
X-6.728
G3 X-6.484 Y-0.155 R0.317
G1 X-7. Y0.535
G3 X-7.243 Y0.663 R0.318
G1 X-7.589
X-7.724 Y0.656
X-7.848 Y0.603
X-7.954 Y0.52
X-8.043 Y0.418
X-8.122 Y0.218
X-8.138 Y0.004
X-8.09 Y-0.205
X-7.983 Y-0.391
X-7.826 Y-0.537
X-7.633 Y-0.63
X-7.42 Y-0.663
X-7.074
G3 X-6.831 Y-0.155 R0.317
G1 X-7.345 Y0.535
G3 X-7.589 Y0.663 R0.318
G1 X-7.936
X-8.07 Y0.656
X-8.195 Y0.603
X-8.301 Y0.52
X-8.389 Y0.418
X-8.468 Y0.218
X-8.484 Y0.004
X-8.437 Y-0.205
X-8.33 Y-0.391
X-8.172 Y-0.537
X-7.979 Y-0.63
X-7.767 Y-0.663
X-7.42
G3 X-7.177 Y-0.155 R0.318
G1 X-7.692 Y0.535
G3 X-7.936 Y0.663 R0.318
G1 X-8.281
X-8.416 Y0.656
X-8.54 Y0.603
X-8.647 Y0.52
X-8.735 Y0.418
X-8.814 Y0.219
X-8.831 Y0.004
X-8.783 Y-0.205
X-8.676 Y-0.391
X-8.519 Y-0.537
X-8.325 Y-0.63
X-8.113 Y-0.663
X-7.767
G3 X-7.523 Y-0.155 R0.318
G1 X-8.038 Y0.535
G3 X-8.281 Y0.663 R0.318
G1 X-8.628
X-8.763 Y0.656
X-8.887 Y0.603
X-8.994 Y0.52
X-9.082 Y0.418
X-9.161 Y0.218
X-9.177 Y0.004
X-9.129 Y-0.205
X-9.022 Y-0.391
X-8.865 Y-0.537
X-8.671 Y-0.63
X-8.459 Y-0.663
X-8.113
G3 X-7.869 Y-0.155 R0.318
G1 X-8.385 Y0.535
G3 X-8.628 Y0.663 R0.318
G1 X-8.974
X-9.108 Y0.656
X-9.233 Y0.603
X-9.339 Y0.52
X-9.428 Y0.418
X-9.507 Y0.219
X-9.523 Y0.005
X-9.476 Y-0.205
X-9.368 Y-0.391
X-9.211 Y-0.537
X-9.018 Y-0.63
X-8.805 Y-0.663
X-8.459
G3 X-8.216 Y-0.155 R0.317
G1 X-8.73 Y0.535
G3 X-8.974 Y0.663 R0.318
G1 X-9.32
X-9.455 Y0.656
X-9.58 Y0.603
X-9.686 Y0.52
X-9.774 Y0.418
X-9.853 Y0.218
X-9.869 Y0.004
X-9.822 Y-0.205
X-9.715 Y-0.391
X-9.557 Y-0.537
X-9.364 Y-0.63
X-9.152 Y-0.663
X-8.805
G3 X-8.562 Y-0.155 R0.318
G1 X-9.077 Y0.535
G3 X-9.32 Y0.663 R0.318
G1 X-9.666
X-9.801 Y0.656
X-9.925 Y0.603
X-10.032 Y0.52
X-10.12 Y0.418
X-10.199 Y0.219
X-10.216 Y0.005
X-10.168 Y-0.205
X-10.061 Y-0.391
X-9.904 Y-0.537
X-9.71 Y-0.63
X-9.498 Y-0.663
X-9.152
G3 X-8.908 Y-0.156 R0.317
G1 X-9.422 Y0.535
G3 X-9.666 Y0.663 R0.318
G1 X-10.013
X-10.148 Y0.656
X-10.272 Y0.603
X-10.378 Y0.52
X-10.467 Y0.418
X-10.546 Y0.218
X-10.562 Y0.004
X-10.514 Y-0.205
X-10.407 Y-0.391
X-10.25 Y-0.537
X-10.056 Y-0.63
X-9.844 Y-0.663
X-9.498
G3 X-9.254 Y-0.155 R0.317
G1 X-9.77 Y0.535
G3 X-10.013 Y0.663 R0.318
G1 X-10.358
X-10.493 Y0.656
X-10.618 Y0.603
X-10.724 Y0.52
X-10.813 Y0.418
X-10.892 Y0.219
X-10.908 Y0.005
X-10.861 Y-0.205
X-10.753 Y-0.391
X-10.596 Y-0.537
X-10.403 Y-0.63
X-10.19 Y-0.663
G3 X-9.893 Y-0.27 R0.318
G1 X-10.061 Y0.42
G3 X-10.358 Y0.663 R0.317
G1 X-10.705
X-10.84 Y0.656
X-10.964 Y0.603
X-11.071 Y0.52
X-11.159 Y0.418
X-11.238 Y0.218
X-11.254 Y0.004
X-11.207 Y-0.205
X-11.1 Y-0.391
X-10.942 Y-0.537
X-10.749 Y-0.63
X-10.537 Y-0.663
G3 X-10.239 Y-0.27 R0.317
G1 X-10.408 Y0.421
G3 X-10.705 Y0.663 R0.318
G1 X-11.051
X-11.186 Y0.656
X-11.31 Y0.603
X-11.417 Y0.52
X-11.505 Y0.418
X-11.584 Y0.219
X-11.6 Y0.005
X-11.553 Y-0.205
X-11.446 Y-0.391
X-11.289 Y-0.537
X-11.095 Y-0.63
X-10.883 Y-0.663
G3 X-10.585 Y-0.27 R0.318
G1 X-10.753 Y0.42
G3 X-11.051 Y0.663 R0.317
G1 X-11.398
X-11.533 Y0.656
X-11.657 Y0.603
X-11.763 Y0.52
X-11.852 Y0.418
X-11.93 Y0.218
X-11.947 Y0.004
X-11.899 Y-0.205
X-11.792 Y-0.391
X-11.635 Y-0.537
X-11.441 Y-0.63
X-11.229 Y-0.663
G3 X-10.932 Y-0.27 R0.318
G1 X-11.1 Y0.421
G3 X-11.398 Y0.663 R0.318
G1 X-11.743
X-11.878 Y0.656
X-12.003 Y0.603
X-12.109 Y0.52
X-12.198 Y0.418
X-12.277 Y0.219
X-12.293 Y0.005
X-12.245 Y-0.205
X-12.138 Y-0.391
X-11.981 Y-0.537
X-11.788 Y-0.63
X-11.575 Y-0.663
G3 X-11.278 Y-0.27 R0.318
G1 X-11.446 Y0.42
G3 X-11.743 Y0.663 R0.318
G1 X-12.09
X-12.225 Y0.656
X-12.349 Y0.603
X-12.456 Y0.52
X-12.544 Y0.418
X-12.623 Y0.218
X-12.639 Y0.004
X-12.592 Y-0.205
X-12.484 Y-0.391
X-12.327 Y-0.537
X-12.134 Y-0.63
X-11.922 Y-0.663
G3 X-11.624 Y-0.27 R0.318
G1 X-11.793 Y0.421
G3 X-12.09 Y0.663 R0.318
G1 X-12.436
X-12.571 Y0.656
X-12.695 Y0.603
X-12.801 Y0.52
X-12.89 Y0.418
X-12.969 Y0.219
X-12.985 Y0.005
X-12.938 Y-0.205
X-12.831 Y-0.391
X-12.673 Y-0.537
X-12.48 Y-0.63
X-12.268 Y-0.663
G3 X-11.97 Y-0.27 R0.318
G1 X-12.138 Y0.42
G3 X-12.436 Y0.663 R0.318
G1 X-12.783
X-12.917 Y0.656
X-13.042 Y0.603
X-13.148 Y0.52
X-13.237 Y0.418
X-13.315 Y0.218
X-13.332 Y0.004
X-13.284 Y-0.205
X-13.177 Y-0.391
X-13.02 Y-0.537
X-12.826 Y-0.63
X-12.614 Y-0.663
G3 X-12.317 Y-0.27 R0.318
G1 X-12.485 Y0.421
G3 X-12.783 Y0.663 R0.318
G1 X-13.122 Y0.66
X-13.225 Y0.629
X-13.295 Y0.582
X-13.373 Y0.484
X-13.409 Y0.381
Y-0.381
X-13.373 Y-0.484
X-13.295 Y-0.582
X-13.225 Y-0.629
X-13.122 Y-0.66
X-9.844 Y-0.663
G3 X-9.724 Y-0.634 R0.318
G1 X-9.659 Y-0.605 Z-4.792
X-9.598 Y-0.577 Z-4.769
X-9.543 Y-0.552 Z-4.731
X-9.498 Y-0.531 Z-4.68
X-9.463 Y-0.515 Z-4.62
X-9.442 Y-0.506 Z-4.553
X-9.435 Y-0.502 Z-4.483
G0 Z15.

M9
M30
