(  )
(T1  D=3.175 CR=0. - ZMIN=-3.5 - FLAT END MILL)
G90 G94 G91.1 G40 G49 G17
G21

(2D POCKET1)
M5
M9
T1
S10000 M3
G54
M8
G0 X0.602 Y-1.034
G43 Z15. H1
Z5.
G1 Z0.5 F401.
G3 X-0.743 Y0.467 Z0.389 R1.008
X0.602 Y-1.034 Z0.279 R1.008
X-0.743 Y0.467 Z0.168 R1.008
X0.602 Y-1.034 Z0.058 R1.008
X-0.743 Y0.467 Z-0.053 R1.008
X0.602 Y-1.034 Z-0.164 R1.008
X-0.743 Y0.467 Z-0.274 R1.008
X0.602 Y-1.034 Z-0.385 R1.008
X-0.743 Y0.467 Z-0.495 R1.008
X0.602 Y-1.034 Z-0.606 R1.008
X-0.743 Y0.467 Z-0.717 R1.008
X0.602 Y-1.034 Z-0.827 R1.008
X-0.743 Y0.467 Z-0.938 R1.008
X-0.675 Y-1.09 Z-1. R1.008
X0.96 Y1.09 R1.363
X-0.675 Y-1.09 R1.363
X0.96 Y1.09 Z-1.149 R1.363
X-0.675 Y-1.09 Z-1.299 R1.363
X0.96 Y1.09 Z-1.448 R1.363
X-0.675 Y-1.09 Z-1.598 R1.363
X0.96 Y1.09 Z-1.747 R1.363
X-0.675 Y-1.09 Z-1.897 R1.363
X1.503 Y-0.063 Z-2. R1.363
X-1.219 Y0.063 R1.363
X1.503 Y-0.063 R1.363
X-1.219 Y0.063 Z-2.149 R1.363
X1.503 Y-0.063 Z-2.299 R1.363
X-1.219 Y0.063 Z-2.448 R1.363
X1.503 Y-0.063 Z-2.598 R1.363
X-0.545 Y1.177 Z-2.7 R1.363
X0.829 Y-1.177 R1.363
X-0.545 Y1.177 R1.363
G1 X-0.241 Y0.656 Z-2.64
G0 Z5.
X-9.253 Y1.023
G1 Z0.5 F401.
G3 X-9.647 Y-0.954 Z0.389 R1.008
X-9.253 Y1.023 Z0.279 R1.008
X-9.647 Y-0.954 Z0.168 R1.008
X-9.253 Y1.023 Z0.058 R1.008
X-9.647 Y-0.954 Z-0.053 R1.008
X-9.253 Y1.023 Z-0.164 R1.008
X-9.647 Y-0.954 Z-0.274 R1.008
X-9.253 Y1.023 Z-0.385 R1.008
X-9.647 Y-0.954 Z-0.495 R1.008
X-9.253 Y1.023 Z-0.606 R1.008
X-9.647 Y-0.954 Z-0.717 R1.008
X-9.253 Y1.023 Z-0.827 R1.008
X-9.647 Y-0.954 Z-0.938 R1.008
X-8.442 Y0.034 Z-1. R1.008
X-10.967 R1.262
X-8.442 R1.262
X-10.967 Z-1.139 R1.262
X-8.442 Z-1.277 R1.262
X-10.967 Z-1.416 R1.262
X-8.442 Z-1.554 R1.262
X-10.967 Z-1.693 R1.262
X-8.442 Z-1.831 R1.262
X-10.967 Z-1.97 R1.262
X-10.677 Y-0.77 Z-2. R1.262
X-8.732 Y0.839 R1.262
X-10.677 Y-0.77 R1.262
X-8.732 Y0.839 Z-2.139 R1.263
X-10.677 Y-0.77 Z-2.277 R1.263
X-8.732 Y0.839 Z-2.416 R1.263
X-10.677 Y-0.77 Z-2.554 R1.263
X-8.82 Y-0.867 Z-2.627 R1.263
X-8.881 Y0.992 Z-2.7 R1.263
X-10.528 Y-0.923 R1.263
X-8.881 Y0.992 R1.263
G1 X-9.275 Y0.534 Z-2.64
G0 Z5.
X10.64 Y1.023
G1 Z0.5 F401.
G3 X10.246 Y-0.954 Z0.389 R1.008
X10.64 Y1.023 Z0.279 R1.008
X10.246 Y-0.954 Z0.168 R1.008
X10.64 Y1.023 Z0.058 R1.008
X10.246 Y-0.954 Z-0.053 R1.008
X10.64 Y1.023 Z-0.164 R1.008
X10.246 Y-0.954 Z-0.274 R1.008
X10.64 Y1.023 Z-0.385 R1.008
X10.246 Y-0.954 Z-0.495 R1.008
X10.64 Y1.023 Z-0.606 R1.008
X10.246 Y-0.954 Z-0.717 R1.008
X10.64 Y1.023 Z-0.827 R1.008
X10.246 Y-0.954 Z-0.938 R1.008
X11.452 Y0.034 Z-1. R1.008
X8.527 R1.463
X11.452 R1.463
X8.527 Z-1.16 R1.463
X11.452 Z-1.321 R1.463
X8.527 Z-1.481 R1.463
X11.452 Z-1.642 R1.463
X8.527 Z-1.802 R1.463
X11.452 Z-1.963 R1.463
X11.079 Y1.01 Z-2. R1.463
X8.899 Y-0.941 R1.463
X11.079 Y1.01 R1.463
X8.899 Y-0.941 Z-2.16 R1.463
X11.079 Y1.01 Z-2.321 R1.463
X8.899 Y-0.941 Z-2.481 R1.463
X11.079 Y1.01 Z-2.642 R1.463
X9.558 Y1.432 Z-2.7 R1.463
X10.42 Y-1.363 R1.463
X9.558 Y1.432 R1.463
G1 X9.736 Y0.856 Z-2.64
G0 Z15.

(DRILL1)
M8
G0 X-9.705 Y0.034
Z15.
Z5.
G98 G81 X-9.705 Y0.034 Z-3.5 R5. F80.
X0.142 Y0.
X9.989 Y0.034
G80
Z15.

M9
M30
