(   4  1)
(T3  D=3.175 CR=0. - ZMIN=-4.8 - FLAT END MILL)
G90 G94 G91.1 G40 G49 G17
G21

(2D ADAPTIVE3)
M5
M9
T3
S5500 M3
G54
M8
G0 X0.05 Y-0.253
G43 Z15. H3
Z5.
Z3.063
G1 Z2.745 F351.
G3 X-0.05 Y0.253 Z2.717 R0.258
X0.05 Y-0.253 Z2.688 R0.258
X-0.05 Y0.253 Z2.66 R0.258
X0.05 Y-0.253 Z2.632 R0.258
X-0.05 Y0.253 Z2.603 R0.258
X0.05 Y-0.253 Z2.575 R0.258
X-0.05 Y0.253 Z2.547 R0.258
X0.05 Y-0.253 Z2.518 R0.258
X-0.05 Y0.253 Z2.49 R0.258
X0.05 Y-0.253 Z2.462 R0.258
X-0.05 Y0.253 Z2.434 R0.258
X0.05 Y-0.253 Z2.405 R0.258
X-0.05 Y0.253 Z2.377 R0.258
X0.05 Y-0.253 Z2.349 R0.258
X-0.05 Y0.253 Z2.32 R0.258
X0.05 Y-0.253 Z2.292 R0.258
X-0.05 Y0.253 Z2.264 R0.258
X0.05 Y-0.253 Z2.235 R0.258
X-0.05 Y0.253 Z2.207 R0.258
X0.05 Y-0.253 Z2.179 R0.258
X-0.05 Y0.253 Z2.15 R0.258
X0.05 Y-0.253 Z2.122 R0.258
X-0.05 Y0.253 Z2.094 R0.258
X0.05 Y-0.253 Z2.065 R0.258
X-0.05 Y0.253 Z2.037 R0.258
X0.05 Y-0.253 Z2.009 R0.258
X-0.05 Y0.253 Z1.98 R0.258
X0.05 Y-0.253 Z1.952 R0.258
X-0.05 Y0.253 Z1.924 R0.258
X0.05 Y-0.253 Z1.895 R0.258
X-0.05 Y0.253 Z1.867 R0.258
X0.05 Y-0.253 Z1.839 R0.258
X-0.05 Y0.253 Z1.811 R0.258
X0.05 Y-0.253 Z1.782 R0.258
X-0.05 Y0.253 Z1.754 R0.258
X0.05 Y-0.253 Z1.726 R0.258
X-0.05 Y0.253 Z1.697 R0.258
X0.05 Y-0.253 Z1.669 R0.258
X-0.05 Y0.253 Z1.641 R0.258
X0.05 Y-0.253 Z1.612 R0.258
X-0.05 Y0.253 Z1.584 R0.258
X0.05 Y-0.253 Z1.556 R0.258
X-0.05 Y0.253 Z1.527 R0.258
X0.05 Y-0.253 Z1.499 R0.258
X-0.05 Y0.253 Z1.471 R0.258
X0.05 Y-0.253 Z1.442 R0.258
X-0.05 Y0.253 Z1.414 R0.258
X0.05 Y-0.253 Z1.386 R0.258
X-0.05 Y0.253 Z1.357 R0.258
X0.05 Y-0.253 Z1.329 R0.258
X-0.05 Y0.253 Z1.301 R0.258
X0.05 Y-0.253 Z1.272 R0.258
X-0.05 Y0.253 Z1.244 R0.258
X0.05 Y-0.253 Z1.216 R0.258
X-0.05 Y0.253 Z1.188 R0.258
X0.05 Y-0.253 Z1.159 R0.258
X-0.05 Y0.253 Z1.131 R0.258
X0.05 Y-0.253 Z1.103 R0.258
X-0.05 Y0.253 Z1.074 R0.258
X0.05 Y-0.253 Z1.046 R0.258
X-0.05 Y0.253 Z1.018 R0.258
X0.05 Y-0.253 Z0.989 R0.258
X-0.05 Y0.253 Z0.961 R0.258
X0.05 Y-0.253 Z0.933 R0.258
X-0.05 Y0.253 Z0.904 R0.258
X0.05 Y-0.253 Z0.876 R0.258
X-0.05 Y0.253 Z0.848 R0.258
X0.05 Y-0.253 Z0.819 R0.258
X-0.05 Y0.253 Z0.791 R0.258
X0.05 Y-0.253 Z0.763 R0.258
X-0.05 Y0.253 Z0.734 R0.258
X0.05 Y-0.253 Z0.706 R0.258
X-0.05 Y0.253 Z0.678 R0.258
X0.05 Y-0.253 Z0.649 R0.258
X-0.05 Y0.253 Z0.621 R0.258
X0.05 Y-0.253 Z0.593 R0.258
X-0.05 Y0.253 Z0.565 R0.258
X0.05 Y-0.253 Z0.536 R0.258
X-0.05 Y0.253 Z0.508 R0.258
X0.05 Y-0.253 Z0.48 R0.258
X-0.05 Y0.253 Z0.451 R0.258
X0.05 Y-0.253 Z0.423 R0.258
X-0.05 Y0.253 Z0.395 R0.258
X0.05 Y-0.253 Z0.366 R0.258
X-0.05 Y0.253 Z0.338 R0.258
X0.05 Y-0.253 Z0.31 R0.258
X-0.05 Y0.253 Z0.281 R0.258
X0.05 Y-0.253 Z0.253 R0.258
X-0.05 Y0.253 Z0.225 R0.258
X0.05 Y-0.253 Z0.196 R0.258
X-0.05 Y0.253 Z0.168 R0.258
X0.05 Y-0.253 Z0.14 R0.258
X-0.05 Y0.253 Z0.111 R0.258
X0.05 Y-0.253 Z0.083 R0.258
X-0.05 Y0.253 Z0.055 R0.258
X0.05 Y-0.253 Z0.026 R0.258
X-0.05 Y0.253 Z-0.002 R0.258
X0.05 Y-0.253 Z-0.03 R0.258
X-0.05 Y0.253 Z-0.058 R0.258
X0.05 Y-0.253 Z-0.087 R0.258
X-0.05 Y0.253 Z-0.115 R0.258
X0.05 Y-0.253 Z-0.143 R0.258
X-0.05 Y0.253 Z-0.172 R0.258
X0.05 Y-0.253 Z-0.2 R0.258
X-0.05 Y0.253 Z-0.228 R0.258
X0.05 Y-0.253 Z-0.257 R0.258
X-0.05 Y0.253 Z-0.285 R0.258
X0.05 Y-0.253 Z-0.313 R0.258
X-0.05 Y0.253 Z-0.342 R0.258
X0.05 Y-0.253 Z-0.37 R0.258
X-0.05 Y0.253 Z-0.398 R0.258
X0.05 Y-0.253 Z-0.427 R0.258
X-0.05 Y0.253 Z-0.455 R0.258
X0.05 Y-0.253 Z-0.483 R0.258
X-0.05 Y0.253 Z-0.512 R0.258
X0.05 Y-0.253 Z-0.54 R0.258
X-0.05 Y0.253 Z-0.568 R0.258
X0.05 Y-0.253 Z-0.597 R0.258
X-0.05 Y0.253 Z-0.625 R0.258
X0.05 Y-0.253 Z-0.653 R0.258
X-0.05 Y0.253 Z-0.681 R0.258
X0.05 Y-0.253 Z-0.71 R0.258
X-0.05 Y0.253 Z-0.738 R0.258
X0.05 Y-0.253 Z-0.766 R0.258
X-0.05 Y0.253 Z-0.795 R0.258
X0.05 Y-0.253 Z-0.823 R0.258
X-0.05 Y0.253 Z-0.851 R0.258
X0.05 Y-0.253 Z-0.88 R0.258
X-0.05 Y0.253 Z-0.908 R0.258
X0.05 Y-0.253 Z-0.936 R0.258
X-0.05 Y0.253 Z-0.965 R0.258
X0.05 Y-0.253 Z-0.993 R0.258
X-0.05 Y0.253 Z-1.021 R0.258
X0.05 Y-0.253 Z-1.05 R0.258
X-0.05 Y0.253 Z-1.078 R0.258
X0.05 Y-0.253 Z-1.106 R0.258
X-0.05 Y0.253 Z-1.135 R0.258
X0.05 Y-0.253 Z-1.163 R0.258
X-0.05 Y0.253 Z-1.191 R0.258
X0.05 Y-0.253 Z-1.22 R0.258
X-0.05 Y0.253 Z-1.248 R0.258
X0.05 Y-0.253 Z-1.276 R0.258
X-0.05 Y0.253 Z-1.304 R0.258
X0.05 Y-0.253 Z-1.333 R0.258
X-0.05 Y0.253 Z-1.361 R0.258
X0.05 Y-0.253 Z-1.389 R0.258
X-0.05 Y0.253 Z-1.418 R0.258
X0.05 Y-0.253 Z-1.446 R0.258
X-0.05 Y0.253 Z-1.474 R0.258
X0.05 Y-0.253 Z-1.503 R0.258
X-0.05 Y0.253 Z-1.531 R0.258
X0.05 Y-0.253 Z-1.559 R0.258
X-0.05 Y0.253 Z-1.588 R0.258
X0.05 Y-0.253 Z-1.616 R0.258
X-0.05 Y0.253 Z-1.644 R0.258
X0.05 Y-0.253 Z-1.673 R0.258
X-0.05 Y0.253 Z-1.701 R0.258
X0.05 Y-0.253 Z-1.729 R0.258
X-0.05 Y0.253 Z-1.758 R0.258
X0.05 Y-0.253 Z-1.786 R0.258
X-0.05 Y0.253 Z-1.814 R0.258
X0.05 Y-0.253 Z-1.843 R0.258
X-0.05 Y0.253 Z-1.871 R0.258
X0.05 Y-0.253 Z-1.899 R0.258
X-0.05 Y0.253 Z-1.927 R0.258
X0.05 Y-0.253 Z-1.956 R0.258
X-0.05 Y0.253 Z-1.984 R0.258
X0.05 Y-0.253 Z-2.012 R0.258
X-0.05 Y0.253 Z-2.041 R0.258
X0.05 Y-0.253 Z-2.069 R0.258
X-0.05 Y0.253 Z-2.097 R0.258
X0.05 Y-0.253 Z-2.126 R0.258
X-0.05 Y0.253 Z-2.154 R0.258
X0.05 Y-0.253 Z-2.182 R0.258
X-0.05 Y0.253 Z-2.211 R0.258
X0.05 Y-0.253 Z-2.239 R0.258
X-0.05 Y0.253 Z-2.267 R0.258
X0.05 Y-0.253 Z-2.296 R0.258
X-0.05 Y0.253 Z-2.324 R0.258
X0.05 Y-0.253 Z-2.352 R0.258
X-0.05 Y0.253 Z-2.381 R0.258
X0.05 Y-0.253 Z-2.409 R0.258
X-0.05 Y0.253 Z-2.437 R0.258
X0.05 Y-0.253 Z-2.466 R0.258
X-0.05 Y0.253 Z-2.494 R0.258
X0.05 Y-0.253 Z-2.522 R0.258
X-0.05 Y0.253 Z-2.55 R0.258
X0.05 Y-0.253 Z-2.579 R0.258
X-0.05 Y0.253 Z-2.607 R0.258
X0.05 Y-0.253 Z-2.635 R0.258
X-0.05 Y0.253 Z-2.664 R0.258
X0.05 Y-0.253 Z-2.692 R0.258
X-0.05 Y0.253 Z-2.72 R0.258
X0.05 Y-0.253 Z-2.749 R0.258
X-0.05 Y0.253 Z-2.777 R0.258
X0.05 Y-0.253 Z-2.805 R0.258
X-0.05 Y0.253 Z-2.834 R0.258
X0.05 Y-0.253 Z-2.862 R0.258
X-0.05 Y0.253 Z-2.89 R0.258
X0.05 Y-0.253 Z-2.919 R0.258
X-0.05 Y0.253 Z-2.947 R0.258
X0.05 Y-0.253 Z-2.975 R0.258
X-0.05 Y0.253 Z-3.004 R0.258
X0.05 Y-0.253 Z-3.032 R0.258
X-0.05 Y0.253 Z-3.06 R0.258
X0.05 Y-0.253 Z-3.089 R0.258
X-0.05 Y0.253 Z-3.117 R0.258
X0.05 Y-0.253 Z-3.145 R0.258
X-0.05 Y0.253 Z-3.173 R0.258
X0.05 Y-0.253 Z-3.202 R0.258
X-0.05 Y0.253 Z-3.23 R0.258
X0.05 Y-0.253 Z-3.258 R0.258
X-0.05 Y0.253 Z-3.287 R0.258
X0.05 Y-0.253 Z-3.315 R0.258
X-0.05 Y0.253 Z-3.343 R0.258
X0.05 Y-0.253 Z-3.372 R0.258
X-0.05 Y0.253 Z-3.4 R0.258
X0.05 Y-0.253 Z-3.428 R0.258
X-0.05 Y0.253 Z-3.457 R0.258
X0.05 Y-0.253 Z-3.485 R0.258
X-0.05 Y0.253 Z-3.513 R0.258
X0.05 Y-0.253 Z-3.542 R0.258
X-0.05 Y0.253 Z-3.57 R0.258
X0.05 Y-0.253 Z-3.598 R0.258
X-0.05 Y0.253 Z-3.627 R0.258
X0.05 Y-0.253 Z-3.655 R0.258
X-0.05 Y0.253 Z-3.683 R0.258
X0.05 Y-0.253 Z-3.712 R0.258
X-0.05 Y0.253 Z-3.74 R0.258
X0.05 Y-0.253 Z-3.768 R0.258
X-0.05 Y0.253 Z-3.796 R0.258
X0.05 Y-0.253 Z-3.825 R0.258
X-0.05 Y0.253 Z-3.853 R0.258
X0.05 Y-0.253 Z-3.881 R0.258
X-0.05 Y0.253 Z-3.91 R0.258
X0.05 Y-0.253 Z-3.938 R0.258
X-0.05 Y0.253 Z-3.966 R0.258
X0.05 Y-0.253 Z-3.995 R0.258
X-0.05 Y0.253 Z-4.023 R0.258
X0.05 Y-0.253 Z-4.051 R0.258
X-0.05 Y0.253 Z-4.08 R0.258
X0.05 Y-0.253 Z-4.108 R0.258
X-0.05 Y0.253 Z-4.136 R0.258
X0.05 Y-0.253 Z-4.165 R0.258
X-0.05 Y0.253 Z-4.193 R0.258
X0.05 Y-0.253 Z-4.221 R0.258
X-0.05 Y0.253 Z-4.25 R0.258
X0.05 Y-0.253 Z-4.278 R0.258
X-0.05 Y0.253 Z-4.306 R0.258
X0.05 Y-0.253 Z-4.335 R0.258
X-0.05 Y0.253 Z-4.363 R0.258
X0.05 Y-0.253 Z-4.391 R0.258
X-0.05 Y0.253 Z-4.419 R0.258
X0.05 Y-0.253 Z-4.448 R0.258
X-0.05 Y0.253 Z-4.476 R0.258
X0.05 Y-0.253 Z-4.504 R0.258
X-0.05 Y0.253 Z-4.533 R0.258
X0.05 Y-0.253 Z-4.561 R0.258
X-0.05 Y0.253 Z-4.589 R0.258
X0.05 Y-0.253 Z-4.618 R0.258
X-0.05 Y0.253 Z-4.646 R0.258
X0.05 Y-0.253 Z-4.674 R0.258
X-0.05 Y0.253 Z-4.703 R0.258
X0.05 Y-0.253 Z-4.731 R0.258
X-0.05 Y0.253 Z-4.759 R0.258
X0.05 Y-0.253 Z-4.788 R0.258
X0.258 Y0. Z-4.8 R0.258
X-0.258 R0.258
X0.258 R0.258
G1 X0.292 Y0.131
X0.297 Y0.198
X0.243 Y0.309
X0.146 Y0.385
X0.026 Y0.412
X-0.11
X-0.245 Y0.406
X-0.366 Y0.345
X-0.461 Y0.249
X-0.513 Y0.073
X-0.49 Y-0.11
X-0.395 Y-0.268
X-0.245 Y-0.375
X-0.065 Y-0.412
G3 X-0.021 Y-0.406 R0.206
X-0.11 Y0.412 R0.416
G1 X-0.387
X-0.522 Y0.406
X-0.64 Y0.34
X-0.727 Y0.191
X-0.752 Y0.021
X-0.712 Y-0.146
X-0.613 Y-0.287
X-0.468 Y-0.38
X-0.299 Y-0.412
X0.11
X0.245 Y-0.406
X0.376 Y-0.306
X0.459 Y-0.164
X0.484 Y-0.002
X0.446 Y0.158
X0.352 Y0.292
X0.214 Y0.381
X0.053 Y0.412
G3 X-0.004 Y0.403 R0.206
X0.11 Y-0.412 R0.418
G1 X0.353
X0.488 Y-0.406
X0.605 Y-0.339
X0.694 Y-0.192
X0.721 Y-0.022
X0.682 Y0.145
X0.584 Y0.286
X0.439 Y0.38
X0.271 Y0.412
X0.053
G3 X-0.136 Y0.267 R0.204
X0.353 Y-0.412 R0.529
G1 X0.596
X0.731 Y-0.406
X0.847 Y-0.338
X0.932 Y-0.189
X0.956 Y-0.019
X0.915 Y0.148
X0.815 Y0.288
X0.67 Y0.38
X0.502 Y0.412
X0.271
G3 X0.079 Y0.252 R0.204
X0.596 Y-0.412 R0.549
G1 X0.831
X0.966 Y-0.406
X1.082 Y-0.338
X1.167 Y-0.189
X1.191 Y-0.019
X1.15 Y0.148
X1.05 Y0.288
X0.905 Y0.38
X0.737 Y0.412
X0.502
G3 X0.309 Y0.25 R0.203
X0.831 Y-0.412 R0.552
G1 X1.08
X1.215 Y-0.406
X1.329 Y-0.334
X1.409 Y-0.183
X1.429 Y-0.013
X1.385 Y0.152
X1.284 Y0.29
X1.139 Y0.381
X0.972 Y0.412
X0.737
G3 X0.543 Y0.242 R0.203
X1.08 Y-0.412 R0.564
G1 X1.317
X1.452 Y-0.406
X1.567 Y-0.334
X1.647 Y-0.183
X1.667 Y-0.013
X1.623 Y0.152
X1.522 Y0.29
X1.378 Y0.381
X1.21 Y0.412
X0.972
G3 X0.778 Y0.241 R0.203
X1.317 Y-0.412 R0.566
G1 X1.565
X1.633 Y-0.409
X1.758 Y-0.358
X1.857 Y-0.266
X1.911 Y-0.119
X1.912 Y0.038
X1.859 Y0.186
X1.759 Y0.306
X1.623 Y0.385
X1.468 Y0.412
X1.21
G3 X1.015 Y0.235 R0.203
X1.565 Y-0.412 R0.575
G1 X1.8
X1.935 Y-0.406
X2.05 Y-0.335
X2.135 Y-0.187
X2.159 Y-0.017
X2.119 Y0.149
X2.02 Y0.288
X1.876 Y0.38
X1.708 Y0.412
X1.468
G3 X1.276 Y0.248 R0.203
X1.8 Y-0.412 R0.554
G1 X2.049
X2.184 Y-0.406
X2.298 Y-0.333
X2.378 Y-0.183
X2.398 Y-0.013
X2.354 Y0.152
X2.253 Y0.29
X2.108 Y0.381
X1.941 Y0.412
X1.708
G3 X1.514 Y0.243 R0.203
X2.049 Y-0.412 R0.562
G1 X2.287
X2.422 Y-0.406
X2.536 Y-0.334
X2.616 Y-0.183
X2.636 Y-0.013
X2.592 Y0.152
X2.491 Y0.29
X2.347 Y0.381
X2.179 Y0.412
X1.941
G3 X1.747 Y0.24 R0.203
X2.287 Y-0.412 R0.567
G1 X2.535
X2.602 Y-0.409
X2.727 Y-0.358
X2.826 Y-0.266
X2.881 Y-0.119
Y0.038
X2.828 Y0.186
X2.728 Y0.306
X2.592 Y0.385
X2.437 Y0.412
X2.179
G3 X1.984 Y0.235 R0.203
X2.535 Y-0.412 R0.575
G1 X2.77
X2.905 Y-0.406
X3.019 Y-0.335
X3.105 Y-0.187
X3.129 Y-0.017
X3.088 Y0.149
X2.989 Y0.288
X2.845 Y0.38
X2.677 Y0.412
X2.437
G3 X2.245 Y0.248 R0.203
X2.77 Y-0.412 R0.555
G1 X3.019
X3.153 Y-0.406
X3.267 Y-0.333
X3.348 Y-0.183
X3.367 Y-0.013
X3.323 Y0.152
X3.222 Y0.29
X3.078 Y0.381
X2.91 Y0.412
X2.677
G3 X2.484 Y0.243 R0.203
X3.019 Y-0.412 R0.562
G1 X3.256
X3.391 Y-0.406
X3.505 Y-0.334
X3.586 Y-0.183
X3.605 Y-0.013
X3.562 Y0.152
X3.46 Y0.29
X3.316 Y0.381
X3.148 Y0.412
X2.91
G3 X2.716 Y0.24 R0.203
X3.256 Y-0.412 R0.567
G1 X3.504
X3.571 Y-0.409
X3.696 Y-0.358
X3.795 Y-0.266
X3.85 Y-0.119
X3.851 Y0.038
X3.798 Y0.186
X3.697 Y0.306
X3.561 Y0.385
X3.407 Y0.412
X3.148
G3 X2.954 Y0.235 R0.203
X3.504 Y-0.412 R0.575
G1 X3.739
X3.874 Y-0.406
X3.989 Y-0.335
X4.074 Y-0.187
X4.098 Y-0.017
X4.057 Y0.149
X3.958 Y0.288
X3.814 Y0.38
X3.646 Y0.412
X3.407
G3 X3.214 Y0.248 R0.203
X3.739 Y-0.412 R0.555
G1 X3.988
X4.123 Y-0.406
X4.237 Y-0.333
X4.317 Y-0.183
X4.337 Y-0.013
X4.293 Y0.152
X4.192 Y0.29
X4.047 Y0.381
X3.879 Y0.412
X3.646
G3 X3.453 Y0.243 R0.203
X3.988 Y-0.412 R0.563
G1 X4.226
X4.361 Y-0.406
X4.475 Y-0.334
X4.555 Y-0.183
X4.575 Y-0.013
X4.531 Y0.152
X4.43 Y0.29
X4.285 Y0.381
X4.117 Y0.412
X3.879
G3 X3.685 Y0.24 R0.203
X4.226 Y-0.412 R0.567
G1 X4.473
X4.541 Y-0.409
X4.666 Y-0.358
X4.765 Y-0.266
X4.819 Y-0.119
X4.82 Y0.038
X4.767 Y0.186
X4.666 Y0.306
X4.531 Y0.385
X4.376 Y0.412
X4.117
G3 X3.923 Y0.235 R0.203
X4.473 Y-0.412 R0.575
G1 X4.709
X4.843 Y-0.406
X4.958 Y-0.335
X5.043 Y-0.187
X5.067 Y-0.017
X5.027 Y0.149
X4.928 Y0.288
X4.784 Y0.38
X4.616 Y0.412
X4.376
G3 X4.183 Y0.248 R0.203
X4.709 Y-0.412 R0.555
G1 X4.957
X5.092 Y-0.406
X5.206 Y-0.333
X5.286 Y-0.183
X5.306 Y-0.013
X5.262 Y0.152
X5.161 Y0.29
X5.016 Y0.381
X4.849 Y0.412
X4.616
G3 X4.422 Y0.243 R0.203
X4.957 Y-0.412 R0.563
G1 X5.195
X5.33 Y-0.406
X5.444 Y-0.334
X5.524 Y-0.183
X5.544 Y-0.013
X5.5 Y0.152
X5.399 Y0.29
X5.255 Y0.381
X5.087 Y0.412
X4.849
G3 X4.655 Y0.24 R0.203
X5.195 Y-0.412 R0.567
G1 X5.443
X5.51 Y-0.409
X5.635 Y-0.358
X5.734 Y-0.266
X5.789 Y-0.119
X5.79 Y0.038
X5.736 Y0.186
X5.636 Y0.306
X5.5 Y0.385
X5.345 Y0.412
X5.087
G3 X4.892 Y0.235 R0.203
X5.443 Y-0.412 R0.575
G1 X5.678
X5.813 Y-0.406
X5.928 Y-0.335
X6.013 Y-0.187
X6.037 Y-0.017
X5.996 Y0.149
X5.897 Y0.288
X5.753 Y0.38
X5.585 Y0.412
X5.345
G3 X5.153 Y0.248 R0.203
X5.678 Y-0.412 R0.555
G1 X5.927
X6.062 Y-0.406
X6.176 Y-0.333
X6.256 Y-0.183
X6.275 Y-0.013
X6.232 Y0.152
X6.13 Y0.29
X5.986 Y0.381
X5.818 Y0.412
X5.585
G3 X5.392 Y0.243 R0.203
X5.927 Y-0.412 R0.563
G1 X6.165
X6.299 Y-0.406
X6.413 Y-0.334
X6.494 Y-0.183
X6.514 Y-0.013
X6.47 Y0.152
X6.369 Y0.29
X6.224 Y0.381
X6.056 Y0.412
X5.818
G3 X5.624 Y0.24 R0.203
X6.165 Y-0.412 R0.567
G1 X6.412
X6.48 Y-0.409
X6.605 Y-0.358
X6.703 Y-0.266
X6.758 Y-0.119
X6.759 Y0.038
X6.706 Y0.186
X6.605 Y0.306
X6.469 Y0.385
X6.315 Y0.412
X6.056
G3 X5.862 Y0.235 R0.203
X6.412 Y-0.412 R0.575
G1 X6.647
X6.782 Y-0.406
X6.897 Y-0.335
X6.982 Y-0.187
X7.006 Y-0.017
X6.966 Y0.149
X6.866 Y0.288
X6.722 Y0.38
X6.555 Y0.412
X6.315
G3 X6.122 Y0.248 R0.203
X6.647 Y-0.412 R0.555
G1 X6.896
X7.031 Y-0.406
X7.145 Y-0.333
X7.225 Y-0.183
X7.245 Y-0.013
X7.201 Y0.152
X7.1 Y0.29
X6.955 Y0.381
X6.787 Y0.412
X6.555
G3 X6.361 Y0.243 R0.203
X6.896 Y-0.412 R0.563
G1 X7.134
X7.269 Y-0.406
X7.383 Y-0.334
X7.463 Y-0.183
X7.483 Y-0.013
X7.439 Y0.152
X7.338 Y0.29
X7.193 Y0.381
X7.026 Y0.412
X6.787
G3 X6.593 Y0.24 R0.203
X7.134 Y-0.412 R0.567
G1 X7.382
X7.449 Y-0.409
X7.574 Y-0.358
X7.673 Y-0.266
X7.727 Y-0.119
X7.728 Y0.038
X7.675 Y0.186
X7.575 Y0.306
X7.439 Y0.385
X7.284 Y0.412
X7.026
G3 X6.831 Y0.235 R0.203
X7.382 Y-0.412 R0.575
G1 X7.617
X7.752 Y-0.406
X7.866 Y-0.335
X7.952 Y-0.187
X7.976 Y-0.017
X7.935 Y0.149
X7.836 Y0.288
X7.692 Y0.38
X7.524 Y0.412
X7.284
G3 X7.092 Y0.248 R0.203
X7.617 Y-0.412 R0.555
G1 X7.866
X8.001 Y-0.406
X8.114 Y-0.333
X8.195 Y-0.183
X8.214 Y-0.013
X8.17 Y0.152
X8.069 Y0.29
X7.925 Y0.381
X7.757 Y0.412
X7.524
G3 X7.331 Y0.243 R0.203
X7.866 Y-0.412 R0.563
G1 X8.103
X8.238 Y-0.406
X8.352 Y-0.334
X8.433 Y-0.183
X8.452 Y-0.013
X8.409 Y0.152
X8.307 Y0.29
X8.163 Y0.381
X7.995 Y0.412
X7.757
G3 X7.563 Y0.24 R0.203
X8.103 Y-0.412 R0.567
G1 X8.351
X8.418 Y-0.409
X8.543 Y-0.358
X8.642 Y-0.266
X8.697 Y-0.119
X8.698 Y0.038
X8.645 Y0.186
X8.544 Y0.306
X8.408 Y0.385
X8.254 Y0.412
X7.995
G3 X7.8 Y0.235 R0.203
X8.351 Y-0.412 R0.575
G1 X8.586
X8.721 Y-0.406
X8.836 Y-0.335
X8.921 Y-0.187
X8.945 Y-0.017
X8.904 Y0.149
X8.805 Y0.288
X8.661 Y0.38
X8.493 Y0.412
X8.254
G3 X8.061 Y0.248 R0.203
X8.586 Y-0.412 R0.555
G1 X8.835
X8.97 Y-0.406
X9.084 Y-0.333
X9.164 Y-0.183
X9.184 Y-0.013
X9.14 Y0.152
X9.039 Y0.29
X8.894 Y0.381
X8.726 Y0.412
X8.493
G3 X8.3 Y0.243 R0.203
X8.835 Y-0.412 R0.563
G1 X9.073
X9.208 Y-0.406
X9.322 Y-0.334
X9.402 Y-0.183
X9.422 Y-0.013
X9.378 Y0.152
X9.277 Y0.29
X9.132 Y0.381
X8.964 Y0.412
X8.726
G3 X8.532 Y0.24 R0.203
X9.073 Y-0.412 R0.567
G1 X9.32
X9.388 Y-0.409
X9.513 Y-0.358
X9.612 Y-0.266
X9.666 Y-0.119
X9.667 Y0.038
X9.614 Y0.186
X9.513 Y0.306
X9.378 Y0.385
X9.223 Y0.412
X8.964
G3 X8.77 Y0.235 R0.203
X9.32 Y-0.412 R0.575
G1 X9.556
X9.69 Y-0.406
X9.805 Y-0.335
X9.89 Y-0.187
X9.914 Y-0.017
X9.874 Y0.149
X9.775 Y0.288
X9.631 Y0.38
X9.463 Y0.412
X9.223
G3 X9.03 Y0.248 R0.203
X9.556 Y-0.412 R0.555
G1 X9.804
X9.939 Y-0.406
X10.053 Y-0.333
X10.134 Y-0.183
X10.153 Y-0.013
X10.109 Y0.152
X10.008 Y0.29
X9.863 Y0.381
X9.696 Y0.412
X9.463
G3 X9.269 Y0.243 R0.203
X9.804 Y-0.412 R0.563
G1 X10.042
X10.177 Y-0.406
X10.291 Y-0.334
X10.371 Y-0.183
X10.391 Y-0.013
X10.347 Y0.152
X10.246 Y0.29
X10.102 Y0.381
X9.934 Y0.412
X9.696
G3 X9.502 Y0.24 R0.203
X10.042 Y-0.412 R0.567
G1 X10.29
X10.357 Y-0.409
X10.482 Y-0.358
X10.581 Y-0.266
X10.636 Y-0.119
X10.637 Y0.038
X10.583 Y0.186
X10.483 Y0.306
X10.347 Y0.385
X10.192 Y0.412
G3 X10.102 Y0.388 R0.206
X10.29 Y-0.412 R0.426
G1 X10.525
X10.66 Y-0.406
X10.775 Y-0.335
X10.86 Y-0.187
X10.884 Y-0.017
X10.843 Y0.149
X10.744 Y0.288
X10.6 Y0.38
X10.432 Y0.412
G3 X10.345 Y0.39 R0.206
X10.525 Y-0.412 R0.425
G1 X10.774
X10.909 Y-0.406
X11.023 Y-0.333
X11.103 Y-0.183
X11.122 Y-0.013
X11.079 Y0.152
X10.977 Y0.29
X10.833 Y0.381
X10.665 Y0.412
G3 X10.565 Y0.382 R0.205
X10.774 Y-0.412 R0.429
G1 X11.012
X11.146 Y-0.406
X11.26 Y-0.334
X11.341 Y-0.183
X11.361 Y-0.013
X11.317 Y0.152
X11.216 Y0.29
X11.071 Y0.381
X10.903 Y0.412
G3 X10.804 Y0.383 R0.205
X11.012 Y-0.412 R0.429
G1 X11.259
X11.327 Y-0.409
X11.452 Y-0.358
X11.55 Y-0.266
X11.605 Y-0.119
X11.606 Y0.038
X11.553 Y0.186
X11.452 Y0.306
X11.316 Y0.385
X11.162 Y0.412
G3 X11.071 Y0.388 R0.206
X11.259 Y-0.412 R0.426
G1 X11.494
X11.629 Y-0.406
X11.744 Y-0.335
X11.829 Y-0.187
X11.853 Y-0.017
X11.813 Y0.149
X11.713 Y0.288
X11.569 Y0.38
X11.402 Y0.412
G3 X11.315 Y0.39 R0.206
X11.494 Y-0.412 R0.425
G1 X11.743
X11.878 Y-0.406
X11.992 Y-0.333
X12.072 Y-0.183
X12.092 Y-0.013
X12.048 Y0.152
X11.947 Y0.29
X11.802 Y0.381
X11.634 Y0.412
G3 X11.534 Y0.382 R0.205
X11.743 Y-0.412 R0.429
G1 X11.981
X12.116 Y-0.406
X12.23 Y-0.334
X12.31 Y-0.183
X12.33 Y-0.013
X12.286 Y0.152
X12.185 Y0.29
X12.04 Y0.381
X11.873 Y0.412
G3 X11.773 Y0.383 R0.205
X11.981 Y-0.412 R0.429
G1 X12.229
X12.296 Y-0.409
X12.421 Y-0.358
X12.52 Y-0.266
X12.575 Y-0.119
Y0.038
X12.522 Y0.186
X12.422 Y0.306
X12.286 Y0.385
X12.131 Y0.412
G3 X12.04 Y0.388 R0.206
X12.229 Y-0.412 R0.426
G1 X12.464
X12.599 Y-0.406
X12.713 Y-0.335
X12.799 Y-0.187
X12.823 Y-0.017
X12.782 Y0.149
X12.683 Y0.288
X12.539 Y0.38
X12.371 Y0.412
G3 X12.284 Y0.39 R0.206
X12.464 Y-0.412 R0.425
G1 X12.713
X12.848 Y-0.406
X12.961 Y-0.333
X13.042 Y-0.183
X13.061 Y-0.013
X13.017 Y0.152
X12.916 Y0.29
X12.772 Y0.381
X12.604 Y0.412
G3 X12.504 Y0.382 R0.205
X12.713 Y-0.412 R0.429
G1 X12.95
X13.085 Y-0.406
X13.199 Y-0.334
X13.28 Y-0.183
X13.299 Y-0.013
X13.256 Y0.152
X13.154 Y0.29
X13.01 Y0.381
X12.842 Y0.412
G3 X12.743 Y0.383 R0.205
X12.95 Y-0.412 R0.429
G1 X13.122 Y-0.41
X13.225 Y-0.379
X13.295 Y-0.332
X13.37 Y-0.242
X13.408 Y-0.138
Y0.138
X13.37 Y0.242
X13.295 Y0.332
X13.225 Y0.379
X13.122 Y0.41
X9.934 Y0.412
G3 X9.893 Y0.408 R0.317
G1 X9.81 Y0.402
X-0.247 Y-0.329
G2 X-0.37 Y0.289 R0.317
G3 X-0.387 Y0.412 R0.063
G1 X-0.63
X-0.765 Y0.406
X-0.881 Y0.337
X-0.965 Y0.187
X-0.988 Y0.017
X-0.946 Y-0.149
X-0.846 Y-0.288
X-0.701 Y-0.38
X-0.533 Y-0.412
X-0.299
G3 X-0.107 Y-0.249 R0.203
X-0.63 Y0.412 R0.553
G1 X-0.873
X-1.008 Y0.406
X-1.122 Y0.335
X-1.204 Y0.184
X-1.225 Y0.015
X-1.182 Y-0.151
X-1.081 Y-0.289
X-0.936 Y-0.381
X-0.768 Y-0.412
X-0.533
G3 X-0.339 Y-0.244 R0.203
X-0.873 Y0.412 R0.561
G1 X-1.108
X-1.243 Y0.406
X-1.358 Y0.335
X-1.44 Y0.185
X-1.462 Y0.015
X-1.419 Y-0.15
X-1.318 Y-0.289
X-1.174 Y-0.38
X-1.006 Y-0.412
X-0.768
G3 X-0.575 Y-0.244 R0.203
X-1.108 Y0.412 R0.561
G1 X-1.357
X-1.424 Y0.409
X-1.55 Y0.359
X-1.649 Y0.268
X-1.705 Y0.121
X-1.707 Y-0.036
X-1.654 Y-0.185
X-1.554 Y-0.306
X-1.418 Y-0.385
X-1.263 Y-0.412
X-1.006
G3 X-0.811 Y-0.238 R0.203
X-1.357 Y0.412 R0.571
G1 X-1.594
X-1.729 Y0.406
X-1.844 Y0.335
X-1.929 Y0.187
X-1.953 Y0.017
X-1.913 Y-0.149
X-1.814 Y-0.288
X-1.67 Y-0.38
X-1.502 Y-0.412
X-1.263
G3 X-1.07 Y-0.249 R0.203
X-1.594 Y0.412 R0.554
G1 X-1.842
X-1.977 Y0.406
X-2.091 Y0.334
X-2.172 Y0.183
X-2.192 Y0.013
X-2.148 Y-0.152
X-2.047 Y-0.29
X-1.902 Y-0.381
X-1.735 Y-0.412
X-1.502
G3 X-1.309 Y-0.244 R0.203
X-1.842 Y0.412 R0.561
G1 X-2.077
X-2.212 Y0.406
X-2.327 Y0.335
X-2.408 Y0.184
X-2.429 Y0.015
X-2.386 Y-0.151
X-2.285 Y-0.289
X-2.141 Y-0.381
X-1.973 Y-0.412
X-1.735
G3 X-1.541 Y-0.242 R0.203
X-2.077 Y0.412 R0.564
G1 X-2.326
X-2.394 Y0.409
X-2.519 Y0.358
X-2.618 Y0.267
X-2.673 Y0.12
X-2.674 Y-0.037
X-2.621 Y-0.185
X-2.521 Y-0.306
X-2.385 Y-0.385
X-2.23 Y-0.412
X-1.973
G3 X-1.778 Y-0.236 R0.203
X-2.326 Y0.412 R0.573
G1 X-2.564
X-2.699 Y0.406
X-2.813 Y0.334
X-2.898 Y0.186
X-2.921 Y0.017
X-2.881 Y-0.149
X-2.781 Y-0.288
X-2.638 Y-0.38
X-2.47 Y-0.412
X-2.23
G3 X-2.038 Y-0.248 R0.203
X-2.564 Y0.412 R0.556
G1 X-2.812
X-2.946 Y0.406
X-3.06 Y0.333
X-3.141 Y0.183
X-3.16 Y0.013
X-3.116 Y-0.152
X-3.015 Y-0.29
X-2.871 Y-0.381
X-2.703 Y-0.412
X-2.47
G3 X-2.276 Y-0.243 R0.203
X-2.812 Y0.412 R0.563
G1 X-3.047
X-3.182 Y0.406
X-3.296 Y0.334
X-3.377 Y0.184
X-3.398 Y0.014
X-3.355 Y-0.151
X-3.254 Y-0.289
X-3.109 Y-0.381
X-2.941 Y-0.412
X-2.703
G3 X-2.509 Y-0.242 R0.203
X-3.047 Y0.412 R0.565
G1 X-3.296
X-3.363 Y0.409
X-3.488 Y0.358
X-3.587 Y0.266
X-3.642 Y0.119
X-3.643 Y-0.038
X-3.59 Y-0.186
X-3.49 Y-0.306
X-3.354 Y-0.385
X-3.199 Y-0.412
X-2.941
G3 X-2.747 Y-0.236 R0.203
X-3.296 Y0.412 R0.574
G1 X-3.533
X-3.668 Y0.406
X-3.782 Y0.334
X-3.867 Y0.186
X-3.89 Y0.016
X-3.85 Y-0.149
X-3.75 Y-0.288
X-3.606 Y-0.38
X-3.439 Y-0.412
X-3.199
G3 X-3.006 Y-0.247 R0.203
X-3.533 Y0.412 R0.556
G1 X-3.781
X-3.916 Y0.406
X-4.03 Y0.333
X-4.11 Y0.182
X-4.129 Y0.013
X-4.085 Y-0.152
X-3.984 Y-0.29
X-3.839 Y-0.381
X-3.672 Y-0.412
X-3.439
G3 X-3.245 Y-0.243 R0.203
X-3.781 Y0.412 R0.563
G1 X-4.016
X-4.151 Y0.406
X-4.265 Y0.334
X-4.347 Y0.184
X-4.367 Y0.014
X-4.324 Y-0.151
X-4.223 Y-0.289
X-4.078 Y-0.381
X-3.91 Y-0.412
X-3.672
G3 X-3.478 Y-0.241 R0.203
X-4.016 Y0.412 R0.565
G1 X-4.265
X-4.332 Y0.409
X-4.457 Y0.358
X-4.556 Y0.266
X-4.611 Y0.119
X-4.612 Y-0.038
X-4.559 Y-0.186
X-4.459 Y-0.306
X-4.323 Y-0.385
X-4.168 Y-0.412
X-3.91
G3 X-3.716 Y-0.236 R0.203
X-4.265 Y0.412 R0.574
G1 X-4.503
X-4.638 Y0.406
X-4.752 Y0.334
X-4.836 Y0.185
X-4.86 Y0.016
X-4.819 Y-0.149
X-4.719 Y-0.288
X-4.575 Y-0.38
X-4.408 Y-0.412
X-4.168
G3 X-3.976 Y-0.247 R0.203
X-4.503 Y0.412 R0.556
G1 X-4.75
X-4.885 Y0.406
X-4.999 Y0.333
X-5.079 Y0.182
X-5.099 Y0.013
X-5.055 Y-0.152
X-4.953 Y-0.29
X-4.809 Y-0.381
X-4.641 Y-0.412
X-4.408
G3 X-4.214 Y-0.242 R0.203
X-4.75 Y0.412 R0.563
G1 X-4.986
X-5.12 Y0.406
X-5.235 Y0.334
X-5.316 Y0.184
X-5.336 Y0.014
X-5.293 Y-0.151
X-5.192 Y-0.289
X-5.047 Y-0.381
X-4.879 Y-0.412
X-4.641
G3 X-4.447 Y-0.241 R0.203
X-4.986 Y0.412 R0.565
G1 X-5.234
X-5.302 Y0.409
X-5.427 Y0.358
X-5.526 Y0.266
X-5.581 Y0.119
X-5.582 Y-0.038
X-5.529 Y-0.186
X-5.428 Y-0.306
X-5.292 Y-0.385
X-5.138 Y-0.412
X-4.879
G3 X-4.685 Y-0.236 R0.203
X-5.234 Y0.412 R0.574
G1 X-5.472
X-5.607 Y0.406
X-5.721 Y0.334
X-5.806 Y0.185
X-5.829 Y0.016
X-5.788 Y-0.149
X-5.689 Y-0.288
X-5.545 Y-0.38
X-5.377 Y-0.412
X-5.138
G3 X-4.945 Y-0.247 R0.203
X-5.472 Y0.412 R0.556
G1 X-5.72
X-5.855 Y0.406
X-5.968 Y0.333
X-6.049 Y0.182
X-6.068 Y0.013
X-6.024 Y-0.152
X-5.923 Y-0.29
X-5.778 Y-0.381
X-5.61 Y-0.412
X-5.377
G3 X-5.184 Y-0.242 R0.203
X-5.72 Y0.412 R0.563
G1 X-5.955
X-6.09 Y0.406
X-6.204 Y0.334
X-6.285 Y0.184
X-6.306 Y0.014
X-6.262 Y-0.151
X-6.161 Y-0.289
X-6.017 Y-0.381
X-5.849 Y-0.412
X-5.61
G3 X-5.417 Y-0.241 R0.203
X-5.955 Y0.412 R0.565
G1 X-6.204
X-6.271 Y0.409
X-6.396 Y0.358
X-6.495 Y0.266
X-6.55 Y0.119
X-6.551 Y-0.038
X-6.498 Y-0.186
X-6.397 Y-0.306
X-6.262 Y-0.385
X-6.107 Y-0.412
X-5.849
G3 X-5.654 Y-0.236 R0.203
X-6.204 Y0.412 R0.574
G1 X-6.441
X-6.576 Y0.406
X-6.691 Y0.334
X-6.775 Y0.185
X-6.798 Y0.016
X-6.757 Y-0.149
X-6.658 Y-0.288
X-6.514 Y-0.38
X-6.347 Y-0.412
X-6.107
G3 X-5.914 Y-0.247 R0.203
X-6.441 Y0.412 R0.556
G1 X-6.689
X-6.824 Y0.406
X-6.938 Y0.333
X-7.018 Y0.182
X-7.037 Y0.013
X-6.993 Y-0.152
X-6.892 Y-0.29
X-6.747 Y-0.381
X-6.58 Y-0.412
X-6.347
G3 X-6.153 Y-0.242 R0.203
X-6.689 Y0.412 R0.563
G1 X-6.924
X-7.059 Y0.406
X-7.174 Y0.334
X-7.255 Y0.184
X-7.275 Y0.014
X-7.232 Y-0.151
X-7.131 Y-0.289
X-6.986 Y-0.381
X-6.818 Y-0.412
X-6.58
G3 X-6.386 Y-0.241 R0.203
X-6.924 Y0.412 R0.565
G1 X-7.173
X-7.241 Y0.409
X-7.366 Y0.358
X-7.465 Y0.266
X-7.519 Y0.119
X-7.52 Y-0.038
X-7.467 Y-0.186
X-7.367 Y-0.306
X-7.231 Y-0.385
X-7.076 Y-0.412
X-6.818
G3 X-6.624 Y-0.236 R0.203
X-7.173 Y0.412 R0.574
G1 X-7.411
X-7.546 Y0.406
X-7.66 Y0.334
X-7.744 Y0.185
X-7.768 Y0.016
X-7.727 Y-0.149
X-7.627 Y-0.288
X-7.484 Y-0.38
X-7.316 Y-0.412
X-7.076
G3 X-6.884 Y-0.247 R0.203
X-7.411 Y0.412 R0.556
G1 X-7.659
X-7.793 Y0.406
X-7.907 Y0.333
X-7.987 Y0.182
X-8.007 Y0.013
X-7.963 Y-0.152
X-7.861 Y-0.29
X-7.717 Y-0.381
X-7.549 Y-0.412
X-7.316
G3 X-7.122 Y-0.242 R0.203
X-7.659 Y0.412 R0.563
G1 X-7.894
X-8.029 Y0.406
X-8.143 Y0.334
X-8.224 Y0.184
X-8.244 Y0.014
X-8.201 Y-0.151
X-8.1 Y-0.289
X-7.956 Y-0.381
X-7.788 Y-0.412
X-7.549
G3 X-7.355 Y-0.241 R0.203
X-7.894 Y0.412 R0.565
G1 X-8.143
X-8.21 Y0.409
X-8.335 Y0.358
X-8.434 Y0.266
X-8.489 Y0.119
X-8.49 Y-0.038
X-8.437 Y-0.186
X-8.336 Y-0.306
X-8.2 Y-0.385
X-8.046 Y-0.412
X-7.788
G3 X-7.593 Y-0.236 R0.203
X-8.143 Y0.412 R0.574
G1 X-8.38
X-8.515 Y0.406
X-8.629 Y0.334
X-8.714 Y0.185
X-8.737 Y0.016
X-8.696 Y-0.149
X-8.597 Y-0.288
X-8.453 Y-0.38
X-8.285 Y-0.412
X-8.046
G3 X-7.853 Y-0.247 R0.203
X-8.38 Y0.412 R0.556
G1 X-8.628
X-8.763 Y0.406
X-8.877 Y0.333
X-8.957 Y0.182
X-8.976 Y0.013
X-8.932 Y-0.152
X-8.831 Y-0.29
X-8.686 Y-0.381
X-8.518 Y-0.412
X-8.285
G3 X-8.092 Y-0.242 R0.203
X-8.628 Y0.412 R0.563
G1 X-8.863
X-8.998 Y0.406
X-9.112 Y0.334
X-9.194 Y0.184
X-9.214 Y0.014
X-9.17 Y-0.151
X-9.069 Y-0.289
X-8.925 Y-0.381
X-8.757 Y-0.412
X-8.518
G3 X-8.325 Y-0.241 R0.203
X-8.863 Y0.412 R0.565
G1 X-9.112
X-9.179 Y0.409
X-9.304 Y0.358
X-9.403 Y0.266
X-9.458 Y0.119
X-9.459 Y-0.038
X-9.406 Y-0.186
X-9.306 Y-0.306
X-9.17 Y-0.385
X-9.015 Y-0.412
X-8.757
G3 X-8.562 Y-0.236 R0.203
X-9.112 Y0.412 R0.574
G1 X-9.35
X-9.485 Y0.406
X-9.599 Y0.334
X-9.683 Y0.185
X-9.707 Y0.016
X-9.666 Y-0.149
X-9.566 Y-0.288
X-9.422 Y-0.38
X-9.255 Y-0.412
X-9.015
G3 X-8.822 Y-0.247 R0.203
X-9.35 Y0.412 R0.556
G1 X-9.597
X-9.732 Y0.406
X-9.846 Y0.333
X-9.926 Y0.182
X-9.945 Y0.013
X-9.901 Y-0.152
X-9.8 Y-0.29
X-9.656 Y-0.381
X-9.488 Y-0.412
X-9.255
G3 X-9.061 Y-0.242 R0.203
X-9.597 Y0.412 R0.563
G1 X-9.833
X-9.967 Y0.406
X-10.082 Y0.334
X-10.163 Y0.184
X-10.183 Y0.014
X-10.14 Y-0.151
X-10.039 Y-0.289
X-9.894 Y-0.381
X-9.726 Y-0.412
X-9.488
G3 X-9.294 Y-0.241 R0.203
X-9.833 Y0.412 R0.565
G1 X-10.081
X-10.149 Y0.409
X-10.274 Y0.358
X-10.373 Y0.266
X-10.428 Y0.119
Y-0.038
X-10.375 Y-0.186
X-10.275 Y-0.306
X-10.139 Y-0.385
X-9.985 Y-0.412
G3 X-9.894 Y-0.388 R0.206
X-10.081 Y0.412 R0.426
G1 X-10.319
X-10.454 Y0.406
X-10.568 Y0.334
X-10.653 Y0.185
X-10.676 Y0.016
X-10.635 Y-0.149
X-10.536 Y-0.288
X-10.392 Y-0.38
X-10.224 Y-0.412
G3 X-10.135 Y-0.389 R0.206
X-10.319 Y0.412 R0.425
G1 X-10.567
X-10.702 Y0.406
X-10.815 Y0.333
X-10.896 Y0.182
X-10.915 Y0.013
X-10.871 Y-0.152
X-10.77 Y-0.29
X-10.625 Y-0.381
X-10.457 Y-0.412
G3 X-10.357 Y-0.382 R0.205
X-10.567 Y0.412 R0.429
G1 X-10.802
X-10.937 Y0.406
X-11.051 Y0.334
X-11.132 Y0.184
X-11.153 Y0.014
X-11.109 Y-0.151
X-11.008 Y-0.289
X-10.864 Y-0.381
X-10.696 Y-0.412
G3 X-10.598 Y-0.384 R0.205
X-10.802 Y0.412 R0.428
G1 X-11.051
X-11.118 Y0.409
X-11.243 Y0.358
X-11.342 Y0.266
X-11.397 Y0.119
X-11.398 Y-0.038
X-11.345 Y-0.186
X-11.244 Y-0.306
X-11.109 Y-0.385
X-10.954 Y-0.412
G3 X-10.864 Y-0.388 R0.206
X-11.051 Y0.412 R0.426
G1 X-11.289
X-11.423 Y0.406
X-11.538 Y0.334
X-11.622 Y0.185
X-11.645 Y0.016
X-11.604 Y-0.149
X-11.505 Y-0.288
X-11.361 Y-0.38
X-11.194 Y-0.412
G3 X-11.105 Y-0.389 R0.206
X-11.289 Y0.412 R0.425
G1 X-11.536
X-11.671 Y0.406
X-11.785 Y0.333
X-11.865 Y0.182
X-11.884 Y0.013
X-11.84 Y-0.152
X-11.739 Y-0.29
X-11.594 Y-0.381
X-11.427 Y-0.412
G3 X-11.326 Y-0.382 R0.205
X-11.536 Y0.412 R0.429
G1 X-11.771
X-11.906 Y0.406
X-12.021 Y0.334
X-12.102 Y0.184
X-12.122 Y0.014
X-12.079 Y-0.151
X-11.978 Y-0.289
X-11.833 Y-0.381
X-11.665 Y-0.412
G3 X-11.567 Y-0.384 R0.205
X-11.771 Y0.412 R0.428
G1 X-12.02
X-12.088 Y0.409
X-12.213 Y0.358
X-12.312 Y0.266
X-12.366 Y0.119
X-12.367 Y-0.038
X-12.314 Y-0.186
X-12.214 Y-0.306
X-12.078 Y-0.385
X-11.923 Y-0.412
G3 X-11.833 Y-0.388 R0.206
X-12.02 Y0.412 R0.426
G1 X-12.258
X-12.393 Y0.406
X-12.507 Y0.334
X-12.591 Y0.185
X-12.615 Y0.016
X-12.574 Y-0.149
X-12.474 Y-0.288
X-12.331 Y-0.38
X-12.163 Y-0.412
G3 X-12.074 Y-0.389 R0.206
X-12.258 Y0.412 R0.425
G1 X-12.506
X-12.64 Y0.406
X-12.754 Y0.333
X-12.834 Y0.182
X-12.854 Y0.013
X-12.81 Y-0.152
X-12.708 Y-0.29
X-12.564 Y-0.381
X-12.396 Y-0.412
G3 X-12.295 Y-0.382 R0.205
X-12.506 Y0.412 R0.429
G1 X-12.741
X-12.876 Y0.406
X-12.99 Y0.334
X-13.071 Y0.184
X-13.091 Y0.014
X-13.048 Y-0.151
X-12.947 Y-0.289
X-12.803 Y-0.381
X-12.635 Y-0.412
G3 X-12.537 Y-0.384 R0.205
X-12.741 Y0.412 R0.428
G1 X-12.99
X-13.057 Y0.409
X-13.182 Y0.358
X-13.281 Y0.266
X-13.336 Y0.119
X-13.337 Y-0.038
X-13.284 Y-0.186
X-13.183 Y-0.306
X-13.047 Y-0.385
X-12.893 Y-0.412
G3 X-12.802 Y-0.388 R0.206
X-12.99 Y0.412 R0.426
G1 X-13.156 Y0.404
X-13.26 Y0.359
X-13.347 Y0.277
X-13.4 Y0.173
X-13.413 Y0.069
X-13.408 Y-0.138
X-13.37 Y-0.242
X-13.295 Y-0.332
X-13.225 Y-0.379
X-13.122 Y-0.41
X-9.726 Y-0.412
G3 X-9.606 Y-0.384 R0.317
G1 X-9.542 Y-0.355 Z-4.792
X-9.48 Y-0.327 Z-4.769
X-9.426 Y-0.302 Z-4.731
X-9.38 Y-0.281 Z-4.68
X-9.345 Y-0.265 Z-4.62
X-9.324 Y-0.256 Z-4.553
X-9.317 Y-0.252 Z-4.483
G0 Z15.

M9
M30
