(   4  0_5)
(T3  D=3.175 CR=0. - ZMIN=-4.8 - FLAT END MILL)
G90 G94 G91.1 G40 G49 G17
G21

(2D ADAPTIVE3)
M5
M9
T3
S5500 M3
G54
M8
G0 X0.05 Y-0.253
G43 Z15. H3
Z5.
Z3.063
G1 Z2.745 F351.
G3 X-0.05 Y0.253 Z2.717 R0.258
X0.05 Y-0.253 Z2.688 R0.258
X-0.05 Y0.253 Z2.66 R0.258
X0.05 Y-0.253 Z2.632 R0.258
X-0.05 Y0.253 Z2.603 R0.258
X0.05 Y-0.253 Z2.575 R0.258
X-0.05 Y0.253 Z2.547 R0.258
X0.05 Y-0.253 Z2.518 R0.258
X-0.05 Y0.253 Z2.49 R0.258
X0.05 Y-0.253 Z2.462 R0.258
X-0.05 Y0.253 Z2.434 R0.258
X0.05 Y-0.253 Z2.405 R0.258
X-0.05 Y0.253 Z2.377 R0.258
X0.05 Y-0.253 Z2.349 R0.258
X-0.05 Y0.253 Z2.32 R0.258
X0.05 Y-0.253 Z2.292 R0.258
X-0.05 Y0.253 Z2.264 R0.258
X0.05 Y-0.253 Z2.235 R0.258
X-0.05 Y0.253 Z2.207 R0.258
X0.05 Y-0.253 Z2.179 R0.258
X-0.05 Y0.253 Z2.15 R0.258
X0.05 Y-0.253 Z2.122 R0.258
X-0.05 Y0.253 Z2.094 R0.258
X0.05 Y-0.253 Z2.065 R0.258
X-0.05 Y0.253 Z2.037 R0.258
X0.05 Y-0.253 Z2.009 R0.258
X-0.05 Y0.253 Z1.98 R0.258
X0.05 Y-0.253 Z1.952 R0.258
X-0.05 Y0.253 Z1.924 R0.258
X0.05 Y-0.253 Z1.895 R0.258
X-0.05 Y0.253 Z1.867 R0.258
X0.05 Y-0.253 Z1.839 R0.258
X-0.05 Y0.253 Z1.811 R0.258
X0.05 Y-0.253 Z1.782 R0.258
X-0.05 Y0.253 Z1.754 R0.258
X0.05 Y-0.253 Z1.726 R0.258
X-0.05 Y0.253 Z1.697 R0.258
X0.05 Y-0.253 Z1.669 R0.258
X-0.05 Y0.253 Z1.641 R0.258
X0.05 Y-0.253 Z1.612 R0.258
X-0.05 Y0.253 Z1.584 R0.258
X0.05 Y-0.253 Z1.556 R0.258
X-0.05 Y0.253 Z1.527 R0.258
X0.05 Y-0.253 Z1.499 R0.258
X-0.05 Y0.253 Z1.471 R0.258
X0.05 Y-0.253 Z1.442 R0.258
X-0.05 Y0.253 Z1.414 R0.258
X0.05 Y-0.253 Z1.386 R0.258
X-0.05 Y0.253 Z1.357 R0.258
X0.05 Y-0.253 Z1.329 R0.258
X-0.05 Y0.253 Z1.301 R0.258
X0.05 Y-0.253 Z1.272 R0.258
X-0.05 Y0.253 Z1.244 R0.258
X0.05 Y-0.253 Z1.216 R0.258
X-0.05 Y0.253 Z1.188 R0.258
X0.05 Y-0.253 Z1.159 R0.258
X-0.05 Y0.253 Z1.131 R0.258
X0.05 Y-0.253 Z1.103 R0.258
X-0.05 Y0.253 Z1.074 R0.258
X0.05 Y-0.253 Z1.046 R0.258
X-0.05 Y0.253 Z1.018 R0.258
X0.05 Y-0.253 Z0.989 R0.258
X-0.05 Y0.253 Z0.961 R0.258
X0.05 Y-0.253 Z0.933 R0.258
X-0.05 Y0.253 Z0.904 R0.258
X0.05 Y-0.253 Z0.876 R0.258
X-0.05 Y0.253 Z0.848 R0.258
X0.05 Y-0.253 Z0.819 R0.258
X-0.05 Y0.253 Z0.791 R0.258
X0.05 Y-0.253 Z0.763 R0.258
X-0.05 Y0.253 Z0.734 R0.258
X0.05 Y-0.253 Z0.706 R0.258
X-0.05 Y0.253 Z0.678 R0.258
X0.05 Y-0.253 Z0.649 R0.258
X-0.05 Y0.253 Z0.621 R0.258
X0.05 Y-0.253 Z0.593 R0.258
X-0.05 Y0.253 Z0.565 R0.258
X0.05 Y-0.253 Z0.536 R0.258
X-0.05 Y0.253 Z0.508 R0.258
X0.05 Y-0.253 Z0.48 R0.258
X-0.05 Y0.253 Z0.451 R0.258
X0.05 Y-0.253 Z0.423 R0.258
X-0.05 Y0.253 Z0.395 R0.258
X0.05 Y-0.253 Z0.366 R0.258
X-0.05 Y0.253 Z0.338 R0.258
X0.05 Y-0.253 Z0.31 R0.258
X-0.05 Y0.253 Z0.281 R0.258
X0.05 Y-0.253 Z0.253 R0.258
X-0.05 Y0.253 Z0.225 R0.258
X0.05 Y-0.253 Z0.196 R0.258
X-0.05 Y0.253 Z0.168 R0.258
X0.05 Y-0.253 Z0.14 R0.258
X-0.05 Y0.253 Z0.111 R0.258
X0.05 Y-0.253 Z0.083 R0.258
X-0.05 Y0.253 Z0.055 R0.258
X0.05 Y-0.253 Z0.026 R0.258
X-0.05 Y0.253 Z-0.002 R0.258
X0.05 Y-0.253 Z-0.03 R0.258
X-0.05 Y0.253 Z-0.058 R0.258
X0.05 Y-0.253 Z-0.087 R0.258
X-0.05 Y0.253 Z-0.115 R0.258
X0.05 Y-0.253 Z-0.143 R0.258
X-0.05 Y0.253 Z-0.172 R0.258
X0.05 Y-0.253 Z-0.2 R0.258
X-0.05 Y0.253 Z-0.228 R0.258
X0.05 Y-0.253 Z-0.257 R0.258
X-0.05 Y0.253 Z-0.285 R0.258
X0.05 Y-0.253 Z-0.313 R0.258
X-0.05 Y0.253 Z-0.342 R0.258
X0.05 Y-0.253 Z-0.37 R0.258
X-0.05 Y0.253 Z-0.398 R0.258
X0.05 Y-0.253 Z-0.427 R0.258
X-0.05 Y0.253 Z-0.455 R0.258
X0.05 Y-0.253 Z-0.483 R0.258
X-0.05 Y0.253 Z-0.512 R0.258
X0.05 Y-0.253 Z-0.54 R0.258
X-0.05 Y0.253 Z-0.568 R0.258
X0.05 Y-0.253 Z-0.597 R0.258
X-0.05 Y0.253 Z-0.625 R0.258
X0.05 Y-0.253 Z-0.653 R0.258
X-0.05 Y0.253 Z-0.681 R0.258
X0.05 Y-0.253 Z-0.71 R0.258
X-0.05 Y0.253 Z-0.738 R0.258
X0.05 Y-0.253 Z-0.766 R0.258
X-0.05 Y0.253 Z-0.795 R0.258
X0.05 Y-0.253 Z-0.823 R0.258
X-0.05 Y0.253 Z-0.851 R0.258
X0.05 Y-0.253 Z-0.88 R0.258
X-0.05 Y0.253 Z-0.908 R0.258
X0.05 Y-0.253 Z-0.936 R0.258
X-0.05 Y0.253 Z-0.965 R0.258
X0.05 Y-0.253 Z-0.993 R0.258
X-0.05 Y0.253 Z-1.021 R0.258
X0.05 Y-0.253 Z-1.05 R0.258
X-0.05 Y0.253 Z-1.078 R0.258
X0.05 Y-0.253 Z-1.106 R0.258
X-0.05 Y0.253 Z-1.135 R0.258
X0.05 Y-0.253 Z-1.163 R0.258
X-0.05 Y0.253 Z-1.191 R0.258
X0.05 Y-0.253 Z-1.22 R0.258
X-0.05 Y0.253 Z-1.248 R0.258
X0.05 Y-0.253 Z-1.276 R0.258
X-0.05 Y0.253 Z-1.304 R0.258
X0.05 Y-0.253 Z-1.333 R0.258
X-0.05 Y0.253 Z-1.361 R0.258
X0.05 Y-0.253 Z-1.389 R0.258
X-0.05 Y0.253 Z-1.418 R0.258
X0.05 Y-0.253 Z-1.446 R0.258
X-0.05 Y0.253 Z-1.474 R0.258
X0.05 Y-0.253 Z-1.503 R0.258
X-0.05 Y0.253 Z-1.531 R0.258
X0.05 Y-0.253 Z-1.559 R0.258
X-0.05 Y0.253 Z-1.588 R0.258
X0.05 Y-0.253 Z-1.616 R0.258
X-0.05 Y0.253 Z-1.644 R0.258
X0.05 Y-0.253 Z-1.673 R0.258
X-0.05 Y0.253 Z-1.701 R0.258
X0.05 Y-0.253 Z-1.729 R0.258
X-0.05 Y0.253 Z-1.758 R0.258
X0.05 Y-0.253 Z-1.786 R0.258
X-0.05 Y0.253 Z-1.814 R0.258
X0.05 Y-0.253 Z-1.843 R0.258
X-0.05 Y0.253 Z-1.871 R0.258
X0.05 Y-0.253 Z-1.899 R0.258
X-0.05 Y0.253 Z-1.927 R0.258
X0.05 Y-0.253 Z-1.956 R0.258
X-0.05 Y0.253 Z-1.984 R0.258
X0.05 Y-0.253 Z-2.012 R0.258
X-0.05 Y0.253 Z-2.041 R0.258
X0.05 Y-0.253 Z-2.069 R0.258
X-0.05 Y0.253 Z-2.097 R0.258
X0.05 Y-0.253 Z-2.126 R0.258
X-0.05 Y0.253 Z-2.154 R0.258
X0.05 Y-0.253 Z-2.182 R0.258
X-0.05 Y0.253 Z-2.211 R0.258
X0.05 Y-0.253 Z-2.239 R0.258
X-0.05 Y0.253 Z-2.267 R0.258
X0.05 Y-0.253 Z-2.296 R0.258
X-0.05 Y0.253 Z-2.324 R0.258
X0.05 Y-0.253 Z-2.352 R0.258
X-0.05 Y0.253 Z-2.381 R0.258
X0.05 Y-0.253 Z-2.409 R0.258
X-0.05 Y0.253 Z-2.437 R0.258
X0.05 Y-0.253 Z-2.466 R0.258
X-0.05 Y0.253 Z-2.494 R0.258
X0.05 Y-0.253 Z-2.522 R0.258
X-0.05 Y0.253 Z-2.55 R0.258
X0.05 Y-0.253 Z-2.579 R0.258
X-0.05 Y0.253 Z-2.607 R0.258
X0.05 Y-0.253 Z-2.635 R0.258
X-0.05 Y0.253 Z-2.664 R0.258
X0.05 Y-0.253 Z-2.692 R0.258
X-0.05 Y0.253 Z-2.72 R0.258
X0.05 Y-0.253 Z-2.749 R0.258
X-0.05 Y0.253 Z-2.777 R0.258
X0.05 Y-0.253 Z-2.805 R0.258
X-0.05 Y0.253 Z-2.834 R0.258
X0.05 Y-0.253 Z-2.862 R0.258
X-0.05 Y0.253 Z-2.89 R0.258
X0.05 Y-0.253 Z-2.919 R0.258
X-0.05 Y0.253 Z-2.947 R0.258
X0.05 Y-0.253 Z-2.975 R0.258
X-0.05 Y0.253 Z-3.004 R0.258
X0.05 Y-0.253 Z-3.032 R0.258
X-0.05 Y0.253 Z-3.06 R0.258
X0.05 Y-0.253 Z-3.089 R0.258
X-0.05 Y0.253 Z-3.117 R0.258
X0.05 Y-0.253 Z-3.145 R0.258
X-0.05 Y0.253 Z-3.173 R0.258
X0.05 Y-0.253 Z-3.202 R0.258
X-0.05 Y0.253 Z-3.23 R0.258
X0.05 Y-0.253 Z-3.258 R0.258
X-0.05 Y0.253 Z-3.287 R0.258
X0.05 Y-0.253 Z-3.315 R0.258
X-0.05 Y0.253 Z-3.343 R0.258
X0.05 Y-0.253 Z-3.372 R0.258
X-0.05 Y0.253 Z-3.4 R0.258
X0.05 Y-0.253 Z-3.428 R0.258
X-0.05 Y0.253 Z-3.457 R0.258
X0.05 Y-0.253 Z-3.485 R0.258
X-0.05 Y0.253 Z-3.513 R0.258
X0.05 Y-0.253 Z-3.542 R0.258
X-0.05 Y0.253 Z-3.57 R0.258
X0.05 Y-0.253 Z-3.598 R0.258
X-0.05 Y0.253 Z-3.627 R0.258
X0.05 Y-0.253 Z-3.655 R0.258
X-0.05 Y0.253 Z-3.683 R0.258
X0.05 Y-0.253 Z-3.712 R0.258
X-0.05 Y0.253 Z-3.74 R0.258
X0.05 Y-0.253 Z-3.768 R0.258
X-0.05 Y0.253 Z-3.796 R0.258
X0.05 Y-0.253 Z-3.825 R0.258
X-0.05 Y0.253 Z-3.853 R0.258
X0.05 Y-0.253 Z-3.881 R0.258
X-0.05 Y0.253 Z-3.91 R0.258
X0.05 Y-0.253 Z-3.938 R0.258
X-0.05 Y0.253 Z-3.966 R0.258
X0.05 Y-0.253 Z-3.995 R0.258
X-0.05 Y0.253 Z-4.023 R0.258
X0.05 Y-0.253 Z-4.051 R0.258
X-0.05 Y0.253 Z-4.08 R0.258
X0.05 Y-0.253 Z-4.108 R0.258
X-0.05 Y0.253 Z-4.136 R0.258
X0.05 Y-0.253 Z-4.165 R0.258
X-0.05 Y0.253 Z-4.193 R0.258
X0.05 Y-0.253 Z-4.221 R0.258
X-0.05 Y0.253 Z-4.25 R0.258
X0.05 Y-0.253 Z-4.278 R0.258
X-0.05 Y0.253 Z-4.306 R0.258
X0.05 Y-0.253 Z-4.335 R0.258
X-0.05 Y0.253 Z-4.363 R0.258
X0.05 Y-0.253 Z-4.391 R0.258
X-0.05 Y0.253 Z-4.419 R0.258
X0.05 Y-0.253 Z-4.448 R0.258
X-0.05 Y0.253 Z-4.476 R0.258
X0.05 Y-0.253 Z-4.504 R0.258
X-0.05 Y0.253 Z-4.533 R0.258
X0.05 Y-0.253 Z-4.561 R0.258
X-0.05 Y0.253 Z-4.589 R0.258
X0.05 Y-0.253 Z-4.618 R0.258
X-0.05 Y0.253 Z-4.646 R0.258
X0.05 Y-0.253 Z-4.674 R0.258
X-0.05 Y0.253 Z-4.703 R0.258
X0.05 Y-0.253 Z-4.731 R0.258
X-0.05 Y0.253 Z-4.759 R0.258
X0.05 Y-0.253 Z-4.788 R0.258
X0.258 Y0. Z-4.8 R0.258
X-0.258 R0.258
X0.258 R0.258
G1 X0.284 Y0.132
X0.265 Y0.197
X0.194 Y0.312
X0.075 Y0.377
X-0.059 Y0.389
X-0.189 Y0.352
X-0.297 Y0.271
X-0.372 Y0.159
X-0.405 Y0.028
X-0.393 Y-0.106
X-0.337 Y-0.229
X-0.244 Y-0.327
X-0.124 Y-0.389
X0.01 Y-0.408
X0.143 Y-0.382
X0.26 Y-0.315
X0.346 Y-0.173
X0.372 Y-0.009
X0.335 Y0.154
X0.24 Y0.29
X0.1 Y0.381
X-0.063 Y0.412
X-0.18
X-0.248 Y0.409
X-0.373 Y0.359
X-0.471 Y0.266
X-0.52 Y0.116
X-0.516 Y-0.042
X-0.459 Y-0.189
X-0.356 Y-0.308
X-0.219 Y-0.386
X-0.064 Y-0.412
X0.18
X0.248 Y-0.409
X0.37 Y-0.351
X0.458 Y-0.249
X0.495 Y-0.066
X0.459 Y0.117
X0.356 Y0.272
X0.201 Y0.376
X0.017 Y0.412
G3 X-0.12 Y0.353 R0.205
X0.18 Y-0.412 R0.448
G1 X0.319
X0.386 Y-0.409
X0.511 Y-0.358
X0.595 Y-0.252
X0.623 Y-0.065
X0.579 Y0.119
X0.47 Y0.274
X0.311 Y0.377
X0.125 Y0.412
X0.017
G3 X-0.171 Y0.266 R0.204
X0.319 Y-0.412 R0.53
G1 X0.487
X0.554 Y-0.409
X0.669 Y-0.339
X0.741 Y-0.224
X0.775 Y-0.094
X0.748 Y0.063
X0.674 Y0.204
X0.56 Y0.316
X0.418 Y0.388
X0.261 Y0.412
X0.125
X0.
X-0.056
X-0.18
X-0.348
X-0.416 Y0.409
X-0.538 Y0.352
X-0.621 Y0.246
X-0.67 Y0.12
X-0.659 Y-0.041
X-0.596 Y-0.189
X-0.488 Y-0.308
X-0.347 Y-0.386
X-0.188 Y-0.412
X-0.064
G3 X0.121 Y-0.277 R0.204
X-0.348 Y0.412 R0.517
G1 X-0.487
X-0.554 Y0.409
X-0.677 Y0.354
X-0.765 Y0.252
X-0.814 Y0.126
X-0.802 Y-0.037
X-0.737 Y-0.187
X-0.626 Y-0.307
X-0.483 Y-0.386
X-0.322 Y-0.412
X-0.188
G3 X0. Y-0.268 R0.204
X-0.487 Y0.412 R0.528
G1 X-0.625
X-0.692 Y0.409
X-0.818 Y0.36
X-0.908 Y0.259
X-0.957 Y0.133
X-0.944 Y-0.032
X-0.879 Y-0.184
X-0.767 Y-0.306
X-0.622 Y-0.385
X-0.459 Y-0.412
X-0.322
G3 X-0.133 Y-0.265 R0.204
X-0.625 Y0.412 R0.531
G1 X-0.769
X-0.836 Y0.409
X-0.962 Y0.361
X-1.051 Y0.26
X-1.1 Y0.134
X-1.086 Y-0.032
X-1.02 Y-0.184
X-0.908 Y-0.306
X-0.762 Y-0.385
X-0.599 Y-0.412
X-0.459
G3 X-0.269 Y-0.261 R0.204
X-0.769 Y0.412 R0.536
G1 X-0.941
X-1.009 Y0.409
X-1.126 Y0.342
X-1.205 Y0.232
X-1.245 Y0.104
X-1.225 Y-0.054
X-1.157 Y-0.198
X-1.046 Y-0.313
X-0.905 Y-0.387
X-0.748 Y-0.412
X-0.599
G3 X-0.405 Y-0.242 R0.203
X-0.941 Y0.412 R0.564
G1 X-1.08
X-1.147 Y0.409
X-1.266 Y0.345
X-1.348 Y0.238
X-1.39 Y0.109
X-1.372 Y-0.05
X-1.303 Y-0.196
X-1.192 Y-0.312
X-1.05 Y-0.387
X-0.891 Y-0.412
X-0.748
G3 X-0.555 Y-0.248 R0.203
X-1.08 Y0.412 R0.554
G1 X-1.218
X-1.286 Y0.409
X-1.406 Y0.349
X-1.491 Y0.243
X-1.535 Y0.115
X-1.517 Y-0.046
X-1.449 Y-0.193
X-1.338 Y-0.31
X-1.194 Y-0.386
X-1.035 Y-0.412
X-0.891
G3 X-0.699 Y-0.251 R0.204
X-1.218 Y0.412 R0.55
G1 X-1.357
X-1.424 Y0.409
X-1.547 Y0.353
X-1.633 Y0.249
X-1.678 Y0.121
X-1.662 Y-0.041
X-1.594 Y-0.19
X-1.482 Y-0.309
X-1.338 Y-0.386
X-1.177 Y-0.412
X-1.035
G3 X-0.843 Y-0.254 R0.204
X-1.357 Y0.412 R0.546
G1 X-1.495
X-1.563 Y0.409
X-1.687 Y0.357
X-1.774 Y0.254
X-1.821 Y0.127
X-1.806 Y-0.037
X-1.738 Y-0.187
X-1.626 Y-0.308
X-1.481 Y-0.386
X-1.319 Y-0.412
X-1.177
G3 X-0.986 Y-0.256 R0.204
X-1.495 Y0.412 R0.543
G1 X-1.634
X-1.701 Y0.409
X-1.827 Y0.361
X-1.916 Y0.259
X-1.963 Y0.132
X-1.949 Y-0.033
X-1.882 Y-0.185
X-1.77 Y-0.306
X-1.624 Y-0.385
X-1.46 Y-0.412
X-1.319
G3 X-1.128 Y-0.258 R0.204
X-1.634 Y0.412 R0.54
G1 X-1.8
X-1.868 Y0.409
X-1.986 Y0.345
X-2.067 Y0.237
X-2.108 Y0.108
X-2.089 Y-0.051
X-2.021 Y-0.196
X-1.909 Y-0.312
X-1.767 Y-0.387
X-1.609 Y-0.412
X-1.46
G3 X-1.267 Y-0.244 R0.203
X-1.8 Y0.412 R0.561
G1 X-1.939
X-2.006 Y0.409
X-2.126 Y0.348
X-2.21 Y0.241
X-2.253 Y0.114
X-2.235 Y-0.047
X-2.167 Y-0.194
X-2.055 Y-0.311
X-1.912 Y-0.386
X-1.753 Y-0.412
X-1.609
G3 X-1.417 Y-0.25 R0.203
X-1.939 Y0.412 R0.553
G1 X-2.077
X-2.145 Y0.409
X-2.267 Y0.351
X-2.352 Y0.247
X-2.397 Y0.119
X-2.38 Y-0.043
X-2.312 Y-0.191
X-2.2 Y-0.309
X-2.056 Y-0.386
X-1.896 Y-0.412
X-1.753
G3 X-1.561 Y-0.253 R0.204
X-2.077 Y0.412 R0.548
G1 X-2.216
X-2.283 Y0.409
X-2.407 Y0.355
X-2.494 Y0.252
X-2.54 Y0.125
X-2.524 Y-0.038
X-2.457 Y-0.188
X-2.345 Y-0.308
X-2.2 Y-0.386
X-2.038 Y-0.412
X-1.896
G3 X-1.705 Y-0.255 R0.204
X-2.216 Y0.412 R0.544
G1 X-2.354
X-2.422 Y0.409
X-2.547 Y0.359
X-2.635 Y0.257
X-2.682 Y0.13
X-2.668 Y-0.034
X-2.601 Y-0.186
X-2.488 Y-0.307
X-2.343 Y-0.385
X-2.179 Y-0.412
X-2.038
G3 X-1.847 Y-0.257 R0.204
X-2.354 Y0.412 R0.541
G1 X-2.535
X-2.602 Y0.409
X-2.716 Y0.337
X-2.791 Y0.225
X-2.809 Y0.042
X-2.759 Y-0.135
X-2.649 Y-0.282
X-2.493 Y-0.379
X-2.312 Y-0.412
X-2.179
G3 X-1.985 Y-0.235 R0.203
X-2.535 Y0.412 R0.574
G1 X-2.673
X-2.741 Y0.409
X-2.856 Y0.339
X-2.928 Y0.225
X-2.941 Y0.04
X-2.887 Y-0.137
X-2.774 Y-0.283
X-2.616 Y-0.379
X-2.434 Y-0.412
X-2.312
G3 X-2.117 Y-0.232 R0.203
X-2.673 Y0.412 R0.58
G1 X-2.812
X-2.879 Y0.409
X-2.994 Y0.338
X-3.064 Y0.222
X-3.073 Y0.038
X-3.017 Y-0.139
X-2.902 Y-0.284
X-2.744 Y-0.379
X-2.561 Y-0.412
X-2.434
G3 X-2.238 Y-0.223 R0.203
X-2.812 Y0.412 R0.596
G1 X-2.95
X-3.018 Y0.409
X-3.131 Y0.336
X-3.199 Y0.219
X-3.207 Y0.035
X-3.149 Y-0.141
X-3.033 Y-0.285
X-2.874 Y-0.38
X-2.692 Y-0.412
X-2.561
G3 X-2.366 Y-0.218 R0.203
X-2.95 Y0.412 R0.606
G1 X-3.089
X-3.122 Y0.411
X-3.183 Y0.382
X-3.286 Y0.294
X-3.343 Y0.172
X-3.362 Y0.038
X-3.307 Y-0.138
X-3.193 Y-0.284
X-3.034 Y-0.379
X-2.853 Y-0.412
X-2.692
G3 X-2.497 Y-0.214 R0.203
X-3.089 Y0.412 R0.614
G1 X-3.185
X-3.253 Y0.409
X-3.373 Y0.348
X-3.458 Y0.243
X-3.482 Y0.057
X-3.436 Y-0.125
X-3.326 Y-0.277
X-3.167 Y-0.377
X-2.983 Y-0.412
X-2.853
G3 X-2.66 Y-0.248 R0.203
X-3.185 Y0.412 R0.555
G1 X-3.324
X-3.391 Y0.409
X-3.453 Y0.381
X-3.551 Y0.289
X-3.61 Y0.168
X-3.633 Y0.035
X-3.582 Y-0.14
X-3.472 Y-0.284
X-3.317 Y-0.379
X-3.138 Y-0.412
X-2.983
G3 X-2.79 Y-0.244 R0.203
X-3.324 Y0.412 R0.562
G1 X-3.462
X-3.53 Y0.409
X-3.647 Y0.343
X-3.731 Y0.237
X-3.755 Y0.053
X-3.708 Y-0.128
X-3.599 Y-0.278
X-3.442 Y-0.378
X-3.259 Y-0.412
X-3.138
G3 X-2.947 Y-0.253 R0.204
X-3.462 Y0.412 R0.548
G1 X-3.601
X-3.668 Y0.409
X-3.789 Y0.349
X-3.866 Y0.238
X-3.884 Y0.052
X-3.834 Y-0.129
X-3.721 Y-0.279
X-3.562 Y-0.378
X-3.378 Y-0.412
X-3.259
G3 X-3.066 Y-0.243 R0.203
X-3.601 Y0.412 R0.562
G1 X-3.739
X-3.807 Y0.409
X-3.926 Y0.347
X-4. Y0.234
X-4.015 Y0.047
X-3.961 Y-0.132
X-3.847 Y-0.281
X-3.687 Y-0.378
X-3.503 Y-0.412
X-3.378
G3 X-3.183 Y-0.232 R0.203
X-3.739 Y0.412 R0.58
G1 X-3.878
X-3.945 Y0.409
X-4.063 Y0.344
X-4.135 Y0.229
X-4.146 Y0.043
X-4.091 Y-0.135
X-3.975 Y-0.282
X-3.816 Y-0.379
X-3.632 Y-0.412
X-3.503
G3 X-3.308 Y-0.225 R0.203
X-3.878 Y0.412 R0.592
G1 X-4.016
X-4.084 Y0.409
X-4.2 Y0.34
X-4.269 Y0.225
X-4.278 Y0.039
X-4.221 Y-0.138
X-4.106 Y-0.284
X-3.946 Y-0.379
X-3.763 Y-0.412
X-3.632
G3 X-3.436 Y-0.22 R0.203
X-4.016 Y0.412 R0.601
G1 X-4.155
X-4.222 Y0.409
X-4.336 Y0.337
X-4.404 Y0.22
X-4.411 Y0.035
X-4.353 Y-0.14
X-4.237 Y-0.285
X-4.078 Y-0.38
X-3.896 Y-0.412
X-3.763
G3 X-3.568 Y-0.217 R0.203
X-4.155 Y0.412 R0.609
G1 X-4.293
X-4.327 Y0.411
X-4.388 Y0.382
X-4.491 Y0.295
X-4.547 Y0.172
X-4.567 Y0.039
X-4.512 Y-0.138
X-4.397 Y-0.284
X-4.239 Y-0.379
X-4.056 Y-0.412
X-3.896
G3 X-3.7 Y-0.214 R0.203
X-4.293 Y0.412 R0.615
G1 X-4.401
X-4.469 Y0.409
X-4.586 Y0.343
X-4.669 Y0.236
X-4.689 Y0.051
X-4.639 Y-0.129
X-4.528 Y-0.279
X-4.37 Y-0.378
X-4.187 Y-0.412
X-4.056
G3 X-3.863 Y-0.241 R0.203
X-4.401 Y0.412 R0.565
G1 X-4.542
X-4.609 Y0.409
X-4.729 Y0.347
X-4.804 Y0.234
X-4.819 Y0.048
X-4.766 Y-0.132
X-4.653 Y-0.28
X-4.493 Y-0.378
X-4.31 Y-0.412
X-4.187
G3 X-3.992 Y-0.235 R0.203
X-4.542 Y0.412 R0.575
G1 X-4.68
X-4.748 Y0.409
X-4.866 Y0.344
X-4.938 Y0.23
X-4.95 Y0.044
X-4.895 Y-0.135
X-4.78 Y-0.282
X-4.621 Y-0.379
X-4.437 Y-0.412
X-4.31
G3 X-4.114 Y-0.227 R0.203
X-4.68 Y0.412 R0.589
G1 X-4.819
X-4.886 Y0.409
X-5.003 Y0.341
X-5.073 Y0.225
X-5.082 Y0.04
X-5.026 Y-0.138
X-4.91 Y-0.283
X-4.751 Y-0.379
X-4.568 Y-0.412
X-4.437
G3 X-4.242 Y-0.221 R0.203
X-4.819 Y0.412 R0.599
G1 X-4.957
X-5.025 Y0.409
X-5.139 Y0.337
X-5.208 Y0.221
X-5.215 Y0.036
X-5.157 Y-0.14
X-5.041 Y-0.285
X-4.882 Y-0.38
X-4.7 Y-0.412
X-4.568
G3 X-4.372 Y-0.217 R0.203
X-4.957 Y0.412 R0.607
G1 X-5.096
X-5.13 Y0.411
X-5.191 Y0.383
X-5.294 Y0.295
X-5.351 Y0.173
X-5.371 Y0.04
X-5.315 Y-0.137
X-5.201 Y-0.283
X-5.042 Y-0.379
X-4.86 Y-0.412
X-4.7
G3 X-4.504 Y-0.214 R0.203
X-5.096 Y0.412 R0.613
G1 X-5.195
X-5.263 Y0.409
X-5.383 Y0.347
X-5.467 Y0.242
X-5.491 Y0.056
X-5.444 Y-0.125
X-5.334 Y-0.277
X-5.175 Y-0.377
X-4.991 Y-0.412
X-4.86
G3 X-4.667 Y-0.247 R0.203
X-5.195 Y0.412 R0.557
G1 X-5.334
X-5.401 Y0.409
X-5.462 Y0.381
X-5.561 Y0.288
X-5.619 Y0.167
X-5.642 Y0.034
X-5.59 Y-0.14
X-5.48 Y-0.284
X-5.325 Y-0.379
X-5.147 Y-0.412
X-4.991
G3 X-4.797 Y-0.242 R0.203
X-5.334 Y0.412 R0.563
G1 X-5.443
X-5.51 Y0.409
X-5.635 Y0.357
X-5.725 Y0.257
X-5.776 Y0.131
X-5.767 Y-0.032
X-5.704 Y-0.184
X-5.595 Y-0.306
X-5.452 Y-0.385
X-5.29 Y-0.412
X-5.147
G3 X-4.959 Y-0.27 R0.204
X-5.443 Y0.412 R0.526
G1 X-5.581
X-5.649 Y0.409
X-5.776 Y0.364
X-5.867 Y0.264
X-5.919 Y0.139
X-5.909 Y-0.027
X-5.844 Y-0.18
X-5.733 Y-0.304
X-5.587 Y-0.385
X-5.423 Y-0.412
X-5.29
G3 X-5.104 Y-0.273 R0.204
X-5.581 Y0.412 R0.522
G1 X-5.749
X-5.816 Y0.409
X-5.937 Y0.348
X-6.02 Y0.242
X-6.064 Y0.114
X-6.047 Y-0.046
X-5.98 Y-0.193
X-5.869 Y-0.31
X-5.727 Y-0.386
X-5.568 Y-0.412
X-5.423
G3 X-5.231 Y-0.252 R0.204
X-5.749 Y0.412 R0.549
G1 X-5.888
X-5.955 Y0.409
X-6.077 Y0.352
X-6.163 Y0.247
X-6.208 Y0.12
X-6.192 Y-0.042
X-6.125 Y-0.19
X-6.013 Y-0.309
X-5.87 Y-0.386
X-5.709 Y-0.412
X-5.568
G3 X-5.377 Y-0.255 R0.204
X-5.888 Y0.412 R0.544
G1 X-6.026
X-6.093 Y0.409
X-6.217 Y0.356
X-6.305 Y0.253
X-6.351 Y0.126
X-6.336 Y-0.038
X-6.269 Y-0.188
X-6.157 Y-0.308
X-6.012 Y-0.386
X-5.85 Y-0.412
X-5.709
G3 X-5.518 Y-0.257 R0.204
X-6.026 Y0.412 R0.542
G1 X-6.165
X-6.232 Y0.409
X-6.358 Y0.36
X-6.446 Y0.258
X-6.494 Y0.131
X-6.479 Y-0.034
X-6.412 Y-0.185
X-6.3 Y-0.307
X-6.154 Y-0.385
X-5.991 Y-0.412
X-5.85
G3 X-5.66 Y-0.259 R0.204
X-6.165 Y0.412 R0.54
G1 X-6.308
X-6.375 Y0.409
X-6.501 Y0.36
X-6.589 Y0.258
X-6.636 Y0.131
X-6.622 Y-0.034
X-6.555 Y-0.185
X-6.442 Y-0.307
X-6.297 Y-0.385
X-6.133 Y-0.412
X-5.991
G3 X-5.8 Y-0.257 R0.204
X-6.308 Y0.412 R0.542
G1 X-6.481
X-6.548 Y0.409
X-6.665 Y0.341
X-6.743 Y0.23
X-6.782 Y0.101
X-6.761 Y-0.056
X-6.692 Y-0.2
X-6.582 Y-0.314
X-6.441 Y-0.387
X-6.284 Y-0.412
X-6.133
G3 X-5.939 Y-0.24 R0.203
X-6.481 Y0.412 R0.568
G1 X-6.619
X-6.687 Y0.409
X-6.804 Y0.343
X-6.886 Y0.235
X-6.927 Y0.107
X-6.908 Y-0.052
X-6.839 Y-0.197
X-6.728 Y-0.312
X-6.586 Y-0.387
X-6.428 Y-0.412
X-6.284
G3 X-6.091 Y-0.246 R0.203
X-6.619 Y0.412 R0.557
G1 X-6.758
X-6.825 Y0.409
X-6.945 Y0.347
X-7.029 Y0.241
X-7.072 Y0.113
X-7.054 Y-0.047
X-6.986 Y-0.194
X-6.874 Y-0.311
X-6.731 Y-0.386
X-6.572 Y-0.412
X-6.428
G3 X-6.236 Y-0.25 R0.203
X-6.758 Y0.412 R0.552
G1 X-6.896
X-6.964 Y0.409
X-7.086 Y0.351
X-7.171 Y0.247
X-7.216 Y0.119
X-7.199 Y-0.043
X-7.131 Y-0.191
X-7.019 Y-0.31
X-6.875 Y-0.386
X-6.715 Y-0.412
X-6.572
G3 X-6.38 Y-0.253 R0.204
X-6.896 Y0.412 R0.548
G1 X-7.035
X-7.102 Y0.409
X-7.226 Y0.355
X-7.313 Y0.252
X-7.359 Y0.125
X-7.343 Y-0.039
X-7.276 Y-0.188
X-7.164 Y-0.308
X-7.019 Y-0.386
X-6.857 Y-0.412
X-6.715
G3 X-6.524 Y-0.255 R0.204
X-7.035 Y0.412 R0.544
G1 X-7.173
X-7.241 Y0.409
X-7.366 Y0.359
X-7.454 Y0.257
X-7.501 Y0.13
X-7.487 Y-0.034
X-7.42 Y-0.186
X-7.307 Y-0.307
X-7.162 Y-0.385
X-6.998 Y-0.412
X-6.857
G3 X-6.666 Y-0.257 R0.204
X-7.173 Y0.412 R0.541
G1 X-7.34
X-7.407 Y0.409
X-7.525 Y0.344
X-7.605 Y0.235
X-7.646 Y0.106
X-7.627 Y-0.052
X-7.558 Y-0.197
X-7.447 Y-0.312
X-7.305 Y-0.387
X-7.147 Y-0.412
X-6.998
G3 X-6.805 Y-0.243 R0.203
X-7.34 Y0.412 R0.562
G1 X-7.478
X-7.546 Y0.409
X-7.665 Y0.347
X-7.748 Y0.24
X-7.791 Y0.112
X-7.773 Y-0.048
X-7.704 Y-0.194
X-7.593 Y-0.311
X-7.45 Y-0.386
X-7.291 Y-0.412
X-7.147
G3 X-6.955 Y-0.249 R0.203
X-7.478 Y0.412 R0.553
G1 X-7.617
X-7.684 Y0.409
X-7.806 Y0.351
X-7.891 Y0.245
X-7.935 Y0.118
X-7.918 Y-0.044
X-7.85 Y-0.192
X-7.738 Y-0.31
X-7.595 Y-0.386
X-7.434 Y-0.412
X-7.291
G3 X-7.099 Y-0.252 R0.204
X-7.617 Y0.412 R0.549
G1 X-7.755
X-7.823 Y0.409
X-7.946 Y0.354
X-8.032 Y0.251
X-8.078 Y0.124
X-8.062 Y-0.039
X-7.995 Y-0.189
X-7.883 Y-0.308
X-7.738 Y-0.386
X-7.577 Y-0.412
X-7.434
G3 X-7.243 Y-0.255 R0.204
X-7.755 Y0.412 R0.545
G1 X-7.894
X-7.961 Y0.409
X-8.086 Y0.358
X-8.174 Y0.256
X-8.221 Y0.129
X-8.206 Y-0.035
X-8.139 Y-0.186
X-8.027 Y-0.307
X-7.881 Y-0.385
X-7.718 Y-0.412
X-7.577
G3 X-7.386 Y-0.257 R0.204
X-7.894 Y0.412 R0.542
G1 X-8.074
X-8.142 Y0.409
X-8.255 Y0.336
X-8.33 Y0.224
X-8.347 Y0.041
X-8.297 Y-0.135
X-8.187 Y-0.282
X-8.031 Y-0.379
X-7.851 Y-0.412
X-7.718
G3 X-7.524 Y-0.235 R0.203
X-8.074 Y0.412 R0.575
G1 X-8.213
X-8.28 Y0.409
X-8.395 Y0.338
X-8.467 Y0.224
X-8.479 Y0.04
X-8.425 Y-0.137
X-8.312 Y-0.283
X-8.154 Y-0.379
X-7.972 Y-0.412
X-7.851
G3 X-7.656 Y-0.232 R0.203
X-8.213 Y0.412 R0.581
G1 X-8.351
X-8.418 Y0.409
X-8.533 Y0.338
X-8.603 Y0.222
X-8.612 Y0.037
X-8.556 Y-0.139
X-8.441 Y-0.284
X-8.282 Y-0.379
X-8.1 Y-0.412
X-7.972
G3 X-7.777 Y-0.223 R0.203
X-8.351 Y0.412 R0.596
G1 X-8.49
X-8.523 Y0.411
X-8.585 Y0.383
X-8.688 Y0.297
X-8.747 Y0.175
X-8.767 Y0.041
X-8.713 Y-0.136
X-8.599 Y-0.283
X-8.441 Y-0.379
X-8.258 Y-0.412
X-8.1
G3 X-7.905 Y-0.218 R0.203
X-8.49 Y0.412 R0.607
G1 X-8.586
X-8.654 Y0.409
X-8.775 Y0.35
X-8.861 Y0.246
X-8.887 Y0.06
X-8.841 Y-0.123
X-8.731 Y-0.276
X-8.573 Y-0.377
X-8.388 Y-0.412
X-8.258
G3 X-8.066 Y-0.251 R0.204
X-8.586 Y0.412 R0.551
G1 X-8.725
X-8.792 Y0.409
X-8.854 Y0.382
X-8.954 Y0.291
X-9.013 Y0.17
X-9.037 Y0.037
X-8.987 Y-0.138
X-8.877 Y-0.283
X-8.721 Y-0.379
X-8.542 Y-0.412
X-8.388
G3 X-8.195 Y-0.246 R0.203
X-8.725 Y0.412 R0.558
G1 X-8.863
X-8.931 Y0.409
X-9.049 Y0.344
X-9.134 Y0.239
X-9.158 Y0.055
X-9.113 Y-0.126
X-9.003 Y-0.277
X-8.846 Y-0.377
X-8.663 Y-0.412
X-8.542
G3 X-8.351 Y-0.255 R0.204
X-8.863 Y0.412 R0.545
G1 X-9.002
X-9.069 Y0.409
X-9.191 Y0.351
X-9.268 Y0.24
X-9.288 Y0.053
X-9.238 Y-0.128
X-9.125 Y-0.278
X-8.966 Y-0.378
X-8.781 Y-0.412
X-8.663
G3 X-8.47 Y-0.245 R0.203
X-9.002 Y0.412 R0.56
G1 X-9.14
X-9.208 Y0.409
X-9.328 Y0.349
X-9.403 Y0.236
X-9.418 Y0.049
X-9.365 Y-0.131
X-9.251 Y-0.28
X-9.091 Y-0.378
X-8.906 Y-0.412
X-8.781
G3 X-8.586 Y-0.233 R0.203
X-9.14 Y0.412 R0.578
G1 X-9.279
X-9.346 Y0.409
X-9.465 Y0.345
X-9.537 Y0.231
X-9.549 Y0.044
X-9.494 Y-0.134
X-9.379 Y-0.282
X-9.219 Y-0.379
X-9.035 Y-0.412
X-8.906
G3 X-8.711 Y-0.226 R0.203
X-9.279 Y0.412 R0.59
G1 X-9.417
X-9.484 Y0.409
X-9.601 Y0.341
X-9.671 Y0.226
X-9.681 Y0.04
X-9.624 Y-0.137
X-9.509 Y-0.283
X-9.349 Y-0.379
X-9.166 Y-0.412
X-9.035
G3 X-8.839 Y-0.221 R0.203
X-9.417 Y0.412 R0.6
G1 X-9.556
X-9.623 Y0.409
X-9.738 Y0.338
X-9.806 Y0.222
X-9.814 Y0.036
X-9.756 Y-0.14
X-9.64 Y-0.285
X-9.481 Y-0.379
X-9.298 Y-0.412
X-9.166
G3 X-8.97 Y-0.217 R0.203
X-9.556 Y0.412 R0.607
G1 X-9.694
X-9.728 Y0.411
X-9.789 Y0.383
X-9.892 Y0.296
X-9.949 Y0.173
X-9.969 Y0.04
X-9.914 Y-0.137
X-9.8 Y-0.283
X-9.641 Y-0.379
X-9.458 Y-0.412
X-9.298
G3 X-9.102 Y-0.214 R0.203
X-9.694 Y0.412 R0.613
G1 X-9.802
X-9.87 Y0.409
X-9.988 Y0.344
X-10.07 Y0.237
X-10.091 Y0.051
X-10.042 Y-0.129
X-9.93 Y-0.279
X-9.772 Y-0.378
X-9.589 Y-0.412
X-9.458
G3 X-9.265 Y-0.242 R0.203
X-9.802 Y0.412 R0.564
G1 X-9.943
X-10.01 Y0.409
X-10.13 Y0.347
X-10.205 Y0.235
X-10.221 Y0.048
X-10.168 Y-0.131
X-10.055 Y-0.28
X-9.895 Y-0.378
X-9.711 Y-0.412
X-9.589
G3 X-9.394 Y-0.236 R0.203
X-9.943 Y0.412 R0.574
G1 X-10.081
X-10.149 Y0.409
X-10.267 Y0.344
X-10.34 Y0.23
X-10.352 Y0.044
X-10.297 Y-0.134
X-10.182 Y-0.282
X-10.023 Y-0.379
X-9.839 Y-0.412
X-9.711
G3 X-9.516 Y-0.228 R0.203
X-10.081 Y0.412 R0.588
G1 X-10.22
X-10.287 Y0.409
X-10.404 Y0.341
X-10.474 Y0.226
X-10.484 Y0.04
X-10.427 Y-0.137
X-10.312 Y-0.283
X-10.152 Y-0.379
X-9.969 Y-0.412
G3 X-9.793 Y-0.298 R0.204
X-10.22 Y0.412 R0.494
G1 X-10.358
X-10.426 Y0.409
X-10.541 Y0.338
X-10.609 Y0.222
X-10.617 Y0.036
X-10.559 Y-0.14
X-10.443 Y-0.285
X-10.284 Y-0.379
X-10.101 Y-0.412
G3 X-9.923 Y-0.294 R0.204
X-10.358 Y0.412 R0.498
G1 X-10.497
X-10.531 Y0.411
X-10.592 Y0.383
X-10.695 Y0.296
X-10.752 Y0.174
X-10.772 Y0.04
X-10.717 Y-0.137
X-10.603 Y-0.283
X-10.444 Y-0.379
X-10.262 Y-0.412
G3 X-10.09 Y-0.308 R0.204
X-10.497 Y0.412 R0.485
G1 X-10.596
X-10.663 Y0.409
X-10.784 Y0.348
X-10.869 Y0.243
X-10.892 Y0.057
X-10.845 Y-0.125
X-10.735 Y-0.277
X-10.577 Y-0.377
X-10.392 Y-0.412
G3 X-10.234 Y-0.328 R0.205
X-10.596 Y0.412 R0.467
G1 X-10.735
X-10.802 Y0.409
X-10.863 Y0.381
X-10.962 Y0.289
X-11.02 Y0.167
X-11.043 Y0.034
X-10.992 Y-0.14
X-10.881 Y-0.284
X-10.727 Y-0.379
X-10.548 Y-0.412
G3 X-10.398 Y-0.339 R0.205
X-10.735 Y0.412 R0.459
G1 X-10.844
X-10.911 Y0.409
X-11.036 Y0.357
X-11.126 Y0.257
X-11.177 Y0.132
X-11.168 Y-0.032
X-11.106 Y-0.183
X-10.997 Y-0.306
X-10.853 Y-0.385
X-10.692 Y-0.412
G3 X-10.561 Y-0.359 R0.205
X-10.844 Y0.412 R0.444
G1 X-10.982
X-11.05 Y0.409
X-11.177 Y0.364
X-11.268 Y0.265
X-11.32 Y0.14
X-11.31 Y-0.027
X-11.246 Y-0.18
X-11.135 Y-0.304
X-10.989 Y-0.385
X-10.824 Y-0.412
G3 X-10.69 Y-0.356 R0.205
X-10.982 Y0.412 R0.446
G1 X-11.15
X-11.217 Y0.409
X-11.338 Y0.349
X-11.421 Y0.242
X-11.465 Y0.115
X-11.449 Y-0.046
X-11.381 Y-0.193
X-11.271 Y-0.31
X-11.128 Y-0.386
X-10.969 Y-0.412
G3 X-10.821 Y-0.342 R0.205
X-11.15 Y0.412 R0.456
G1 X-11.289
X-11.356 Y0.409
X-11.478 Y0.352
X-11.564 Y0.247
X-11.609 Y0.12
X-11.593 Y-0.042
X-11.526 Y-0.19
X-11.414 Y-0.309
X-11.271 Y-0.386
X-11.11 Y-0.412
G3 X-10.964 Y-0.344 R0.205
X-11.289 Y0.412 R0.455
G1 X-11.427
X-11.494 Y0.409
X-11.618 Y0.356
X-11.706 Y0.253
X-11.752 Y0.126
X-11.737 Y-0.038
X-11.67 Y-0.188
X-11.558 Y-0.308
X-11.413 Y-0.386
X-11.251 Y-0.412
G3 X-11.106 Y-0.345 R0.205
X-11.427 Y0.412 R0.454
G1 X-11.565
X-11.633 Y0.409
X-11.759 Y0.36
X-11.847 Y0.258
X-11.895 Y0.132
X-11.88 Y-0.033
X-11.814 Y-0.185
X-11.701 Y-0.307
X-11.556 Y-0.385
X-11.392 Y-0.412
G3 X-11.249 Y-0.347 R0.205
X-11.565 Y0.412 R0.453
G1 X-11.709
X-11.776 Y0.409
X-11.902 Y0.36
X-11.99 Y0.258
X-12.038 Y0.131
X-12.023 Y-0.034
X-11.956 Y-0.185
X-11.844 Y-0.307
X-11.698 Y-0.385
X-11.534 Y-0.412
G3 X-11.39 Y-0.346 R0.205
X-11.709 Y0.412 R0.453
G1 X-11.882
X-11.949 Y0.409
X-12.066 Y0.341
X-12.144 Y0.231
X-12.183 Y0.101
X-12.163 Y-0.056
X-12.093 Y-0.199
X-11.983 Y-0.314
X-11.842 Y-0.387
X-11.685 Y-0.412
G3 X-11.529 Y-0.332 R0.205
X-11.882 Y0.412 R0.464
G1 X-12.02
X-12.088 Y0.409
X-12.206 Y0.343
X-12.287 Y0.236
X-12.329 Y0.107
X-12.309 Y-0.052
X-12.24 Y-0.197
X-12.129 Y-0.312
X-11.987 Y-0.387
X-11.829 Y-0.412
G3 X-11.677 Y-0.336 R0.205
X-12.02 Y0.412 R0.461
G1 X-12.159
X-12.226 Y0.409
X-12.346 Y0.347
X-12.43 Y0.241
X-12.473 Y0.113
X-12.455 Y-0.047
X-12.387 Y-0.194
X-12.275 Y-0.311
X-12.132 Y-0.386
X-11.973 Y-0.412
G3 X-11.823 Y-0.339 R0.205
X-12.159 Y0.412 R0.458
G1 X-12.297
X-12.365 Y0.409
X-12.487 Y0.351
X-12.572 Y0.247
X-12.617 Y0.119
X-12.6 Y-0.043
X-12.532 Y-0.191
X-12.42 Y-0.309
X-12.277 Y-0.386
X-12.116 Y-0.412
G3 X-11.968 Y-0.342 R0.205
X-12.297 Y0.412 R0.456
G1 X-12.436
X-12.503 Y0.409
X-12.627 Y0.355
X-12.714 Y0.252
X-12.76 Y0.125
X-12.744 Y-0.038
X-12.677 Y-0.188
X-12.565 Y-0.308
X-12.42 Y-0.386
X-12.258 Y-0.412
G3 X-12.112 Y-0.344 R0.205
X-12.436 Y0.412 R0.455
G1 X-12.574
X-12.642 Y0.409
X-12.767 Y0.359
X-12.855 Y0.257
X-12.902 Y0.13
X-12.888 Y-0.034
X-12.821 Y-0.186
X-12.708 Y-0.307
X-12.563 Y-0.385
X-12.399 Y-0.412
G3 X-12.255 Y-0.346 R0.205
X-12.574 Y0.412 R0.453
G1 X-12.741
X-12.808 Y0.409
X-12.926 Y0.344
X-13.007 Y0.235
X-13.047 Y0.107
X-13.028 Y-0.052
X-12.959 Y-0.197
X-12.848 Y-0.312
X-12.706 Y-0.387
X-12.548 Y-0.412
G3 X-12.395 Y-0.335 R0.205
X-12.741 Y0.412 R0.461
G1 X-12.879
X-12.947 Y0.409
X-13.066 Y0.347
X-13.149 Y0.24
X-13.192 Y0.112
X-13.174 Y-0.048
X-13.106 Y-0.194
X-12.994 Y-0.311
X-12.851 Y-0.386
X-12.692 Y-0.412
G3 X-12.542 Y-0.338 R0.205
X-12.879 Y0.412 R0.459
G1 X-13.018
X-13.081 Y0.409
X-13.204 Y0.353
X-13.29 Y0.249
X-13.335 Y0.122
X-13.319 Y-0.041
X-13.252 Y-0.189
X-13.14 Y-0.309
X-12.995 Y-0.386
X-12.834 Y-0.412
G3 X-12.685 Y-0.34 R0.205
X-13.018 Y0.412 R0.457
G1 X-13.156 Y0.404
X-13.26 Y0.359
X-13.347 Y0.277
X-13.4 Y0.173
X-13.413 Y0.069
Y-0.038
Y-0.069
X-13.412 Y-0.104
X-13.387 Y-0.208
G3 X-13.152 Y-0.312 R0.212
X-13.25 Y0.098 R0.211
X-13.412 Y-0.104 R0.211
G1 X-13.387 Y-0.208
X-13.37 Y-0.242
X-13.295 Y-0.332
X-13.225 Y-0.379
X-13.122 Y-0.41
X-12.879 Y-0.412
G3 X-12.838 Y-0.408 R0.318
G2 X-12.803 Y-0.404 R0.318
G1 X-12.755 Y-0.402
X0.351 Y0.329
G2 X0.469 Y-0.289 R0.317
G3 X0.487 Y-0.412 R0.063
G1 X0.596
X0.663 Y-0.409
X0.787 Y-0.354
X0.872 Y-0.25
X0.916 Y-0.122
X0.898 Y0.041
X0.828 Y0.19
X0.715 Y0.309
X0.57 Y0.386
X0.407 Y0.412
X0.261
G3 X0.068 Y0.247 R0.203
X0.596 Y-0.412 R0.557
G1 X0.734
X0.802 Y-0.409
X0.927 Y-0.358
X1.013 Y-0.254
X1.059 Y-0.127
X1.042 Y0.037
X0.974 Y0.187
X0.861 Y0.308
X0.716 Y0.386
X0.553 Y0.412
X0.407
G3 X0.215 Y0.251 R0.204
X0.734 Y-0.412 R0.55
G1 X0.873
X0.94 Y-0.409
X1.066 Y-0.361
X1.154 Y-0.258
X1.201 Y-0.132
X1.186 Y0.033
X1.119 Y0.185
X1.006 Y0.307
X0.86 Y0.385
X0.696 Y0.412
X0.553
G3 X0.362 Y0.255 R0.204
X0.873 Y-0.412 R0.544
G1 X1.041
X1.108 Y-0.409
X1.226 Y-0.344
X1.306 Y-0.235
X1.346 Y-0.106
X1.326 Y0.053
X1.257 Y0.197
X1.146 Y0.313
X1.004 Y0.387
X0.846 Y0.412
X0.696
G3 X0.502 Y0.241 R0.203
X1.041 Y-0.412 R0.565
G1 X1.179
X1.246 Y-0.409
X1.366 Y-0.346
X1.449 Y-0.24
X1.491 Y-0.111
X1.472 Y0.049
X1.404 Y0.195
X1.292 Y0.311
X1.15 Y0.387
X0.991 Y0.412
X0.846
G3 X0.653 Y0.248 R0.203
X1.179 Y-0.412 R0.555
G1 X1.317
X1.385 Y-0.409
X1.506 Y-0.35
X1.591 Y-0.245
X1.635 Y-0.117
X1.618 Y0.044
X1.55 Y0.192
X1.438 Y0.31
X1.294 Y0.386
X1.134 Y0.412
X0.991
G3 X0.799 Y0.251 R0.204
X1.317 Y-0.412 R0.55
G1 X1.456
X1.523 Y-0.409
X1.647 Y-0.354
X1.733 Y-0.25
X1.778 Y-0.123
X1.762 Y0.04
X1.695 Y0.189
X1.583 Y0.309
X1.438 Y0.386
X1.277 Y0.412
X1.134
G3 X0.943 Y0.254 R0.204
X1.456 Y-0.412 R0.546
G1 X1.594
X1.662 Y-0.409
X1.787 Y-0.358
X1.874 Y-0.255
X1.921 Y-0.128
X1.906 Y0.036
X1.839 Y0.187
X1.726 Y0.307
X1.581 Y0.385
X1.418 Y0.412
X1.277
G3 X1.086 Y0.257 R0.204
X1.594 Y-0.412 R0.543
G1 X1.733
X1.8 Y-0.409
X1.927 Y-0.361
X2.016 Y-0.26
X2.063 Y-0.134
X2.049 Y0.032
X1.982 Y0.184
X1.87 Y0.306
X1.724 Y0.385
X1.56 Y0.412
X1.418
G3 X1.228 Y0.259 R0.204
X1.733 Y-0.412 R0.54
G1 X1.876
X1.944 Y-0.409
X2.07 Y-0.362
X2.159 Y-0.26
X2.206 Y-0.133
X2.192 Y0.032
X2.125 Y0.184
X2.012 Y0.306
X1.866 Y0.385
X1.702 Y0.412
X1.56
G3 X1.369 Y0.257 R0.204
X1.876 Y-0.412 R0.542
G1 X2.049
X2.117 Y-0.409
X2.233 Y-0.341
X2.312 Y-0.232
X2.352 Y-0.102
X2.331 Y0.055
X2.262 Y0.199
X2.151 Y0.313
X2.01 Y0.387
X1.853 Y0.412
X1.702
G3 X1.508 Y0.24 R0.203
X2.049 Y-0.412 R0.567
G1 X2.188
X2.255 Y-0.409
X2.373 Y-0.344
X2.455 Y-0.236
X2.497 Y-0.108
X2.478 Y0.051
X2.409 Y0.196
X2.298 Y0.312
X2.156 Y0.387
X1.997 Y0.412
X1.853
G3 X1.66 Y0.247 R0.203
X2.188 Y-0.412 R0.557
G1 X2.326
X2.394 Y-0.409
X2.514 Y-0.348
X2.598 Y-0.242
X2.641 Y-0.114
X2.623 Y0.047
X2.555 Y0.193
X2.444 Y0.311
X2.301 Y0.386
X2.141 Y0.412
X1.997
G3 X1.805 Y0.25 R0.204
X2.326 Y-0.412 R0.552
G1 X2.465
X2.532 Y-0.409
X2.654 Y-0.352
X2.74 Y-0.247
X2.785 Y-0.12
X2.768 Y0.042
X2.7 Y0.191
X2.589 Y0.309
X2.445 Y0.386
X2.284 Y0.412
X2.141
G3 X1.949 Y0.253 R0.204
X2.465 Y-0.412 R0.547
G1 X2.603
X2.671 Y-0.409
X2.795 Y-0.356
X2.882 Y-0.253
X2.928 Y-0.126
X2.912 Y0.038
X2.845 Y0.188
X2.733 Y0.308
X2.588 Y0.386
X2.426 Y0.412
X2.284
G3 X2.093 Y0.256 R0.204
X2.603 Y-0.412 R0.544
G1 X2.742
X2.809 Y-0.409
X2.935 Y-0.36
X3.023 Y-0.257
X3.07 Y-0.131
X3.056 Y0.034
X2.989 Y0.185
X2.876 Y0.307
X2.731 Y0.385
X2.567 Y0.412
X2.426
G3 X2.235 Y0.258 R0.204
X2.742 Y-0.412 R0.541
G1 X2.908
X2.976 Y-0.409
X3.094 Y-0.344
X3.174 Y-0.236
X3.215 Y-0.107
X3.196 Y0.052
X3.127 Y0.197
X3.016 Y0.312
X2.874 Y0.387
X2.716 Y0.412
X2.567
G3 X2.374 Y0.243 R0.203
X2.908 Y-0.412 R0.562
G1 X3.047
X3.114 Y-0.409
X3.234 Y-0.347
X3.317 Y-0.241
X3.36 Y-0.113
X3.342 Y0.048
X3.273 Y0.194
X3.162 Y0.311
X3.019 Y0.386
X2.86 Y0.412
X2.716
G3 X2.524 Y0.249 R0.203
X3.047 Y-0.412 R0.553
G1 X3.185
X3.253 Y-0.409
X3.374 Y-0.351
X3.459 Y-0.246
X3.504 Y-0.118
X3.487 Y0.043
X3.419 Y0.191
X3.307 Y0.31
X3.164 Y0.386
X3.003 Y0.412
X2.86
G3 X2.668 Y0.252 R0.204
X3.185 Y-0.412 R0.549
G1 X3.324
X3.391 Y-0.409
X3.515 Y-0.355
X3.601 Y-0.251
X3.647 Y-0.124
X3.631 Y0.039
X3.564 Y0.189
X3.452 Y0.308
X3.307 Y0.386
X3.145 Y0.412
X3.003
G3 X2.812 Y0.255 R0.204
X3.324 Y-0.412 R0.545
G1 X3.462
X3.53 Y-0.409
X3.655 Y-0.359
X3.743 Y-0.256
X3.79 Y-0.13
X3.775 Y0.035
X3.708 Y0.186
X3.595 Y0.307
X3.45 Y0.385
X3.287 Y0.412
X3.145
G3 X2.955 Y0.257 R0.204
X3.462 Y-0.412 R0.542
G1 X3.643
X3.71 Y-0.409
X3.824 Y-0.337
X3.899 Y-0.224
X3.916 Y-0.041
X3.866 Y0.135
X3.756 Y0.282
X3.6 Y0.379
X3.419 Y0.412
X3.287
G3 X3.092 Y0.235 R0.203
X3.643 Y-0.412 R0.575
G1 X3.781
X3.848 Y-0.409
X3.963 Y-0.338
X4.036 Y-0.224
X4.048 Y-0.04
X3.994 Y0.137
X3.881 Y0.283
X3.723 Y0.379
X3.541 Y0.412
X3.419
G3 X3.225 Y0.232 R0.203
X3.781 Y-0.412 R0.58
G1 X3.92
X3.987 Y-0.409
X4.101 Y-0.338
X4.171 Y-0.222
X4.181 Y-0.037
X4.124 Y0.139
X4.01 Y0.284
X3.851 Y0.379
X3.669 Y0.412
X3.541
G3 X3.346 Y0.223 R0.203
X3.92 Y-0.412 R0.596
G1 X4.058
X4.092 Y-0.411
X4.153 Y-0.383
X4.257 Y-0.297
X4.315 Y-0.175
X4.336 Y-0.042
X4.282 Y0.136
X4.168 Y0.282
X4.009 Y0.379
X3.827 Y0.412
X3.669
G3 X3.473 Y0.218 R0.203
X4.058 Y-0.412 R0.606
G1 X4.155
X4.222 Y-0.409
X4.343 Y-0.35
X4.43 Y-0.246
X4.455 Y-0.06
X4.41 Y0.123
X4.3 Y0.276
X4.141 Y0.377
X3.957 Y0.412
X3.827
G3 X3.635 Y0.251 R0.204
X4.155 Y-0.412 R0.551
G1 X4.293
X4.36 Y-0.409
X4.422 Y-0.382
X4.522 Y-0.291
X4.582 Y-0.17
X4.606 Y-0.038
X4.555 Y0.138
X4.445 Y0.283
X4.29 Y0.379
X4.111 Y0.412
X3.957
G3 X3.764 Y0.246 R0.203
X4.293 Y-0.412 R0.558
G1 X4.432
X4.499 Y-0.409
X4.617 Y-0.344
X4.703 Y-0.24
X4.727 Y-0.055
X4.681 Y0.126
X4.572 Y0.277
X4.415 Y0.377
X4.231 Y0.412
X4.111
G3 X3.919 Y0.255 R0.204
X4.432 Y-0.412 R0.545
G1 X4.57
X4.637 Y-0.409
X4.759 Y-0.351
X4.837 Y-0.241
X4.856 Y-0.054
X4.806 Y0.128
X4.694 Y0.278
X4.534 Y0.378
X4.35 Y0.412
X4.231
G3 X4.038 Y0.245 R0.203
X4.57 Y-0.412 R0.56
G1 X4.709
X4.776 Y-0.409
X4.897 Y-0.349
X4.971 Y-0.236
X4.986 Y-0.049
X4.933 Y0.131
X4.819 Y0.28
X4.659 Y0.378
X4.475 Y0.412
X4.35
G3 X4.155 Y0.233 R0.203
X4.709 Y-0.412 R0.578
G1 X4.847
X4.914 Y-0.409
X5.033 Y-0.345
X5.106 Y-0.231
X5.117 Y-0.044
X5.062 Y0.134
X4.947 Y0.282
X4.787 Y0.379
X4.603 Y0.412
X4.475
G3 X4.279 Y0.226 R0.203
X4.847 Y-0.412 R0.59
G1 X4.986
X5.053 Y-0.409
X5.17 Y-0.341
X5.24 Y-0.226
X5.249 Y-0.04
X5.193 Y0.137
X5.077 Y0.283
X4.918 Y0.379
X4.734 Y0.412
X4.603
G3 X4.408 Y0.221 R0.203
X4.986 Y-0.412 R0.6
G1 X5.124
X5.191 Y-0.409
X5.306 Y-0.338
X5.375 Y-0.222
X5.382 Y-0.036
X5.324 Y0.14
X5.208 Y0.285
X5.049 Y0.379
X4.867 Y0.412
X4.734
G3 X4.539 Y0.217 R0.203
X5.124 Y-0.412 R0.607
G1 X5.262
X5.296 Y-0.411
X5.358 Y-0.383
X5.461 Y-0.296
X5.518 Y-0.174
X5.538 Y-0.04
X5.482 Y0.137
X5.368 Y0.283
X5.209 Y0.379
X5.027 Y0.412
X4.867
G3 X4.671 Y0.214 R0.203
X5.262 Y-0.412 R0.613
G1 X5.371
X5.438 Y-0.409
X5.556 Y-0.344
X5.639 Y-0.237
X5.659 Y-0.051
X5.61 Y0.129
X5.499 Y0.279
X5.341 Y0.378
X5.157 Y0.412
X5.027
G3 X4.833 Y0.242 R0.203
X5.371 Y-0.412 R0.564
G1 X5.511
X5.579 Y-0.409
X5.699 Y-0.347
X5.774 Y-0.235
X5.789 Y-0.048
X5.737 Y0.131
X5.623 Y0.28
X5.464 Y0.378
X5.28 Y0.412
X5.157
G3 X4.963 Y0.236 R0.203
X5.511 Y-0.412 R0.574
G1 X5.65
X5.717 Y-0.409
X5.836 Y-0.344
X5.908 Y-0.231
X5.92 Y-0.044
X5.866 Y0.134
X5.751 Y0.282
X5.591 Y0.379
X5.407 Y0.412
X5.28
G3 X5.085 Y0.228 R0.203
X5.65 Y-0.412 R0.588
G1 X5.788
X5.856 Y-0.409
X5.972 Y-0.341
X6.043 Y-0.226
X6.052 Y-0.04
X5.996 Y0.137
X5.88 Y0.283
X5.721 Y0.379
X5.538 Y0.412
X5.407
G3 X5.212 Y0.222 R0.203
X5.788 Y-0.412 R0.598
G1 X5.927
X5.994 Y-0.409
X6.109 Y-0.338
X6.178 Y-0.222
X6.185 Y-0.036
X6.127 Y0.14
X6.012 Y0.285
X5.852 Y0.379
X5.67 Y0.412
X5.538
G3 X5.342 Y0.218 R0.203
X5.927 Y-0.412 R0.606
G1 X6.065
X6.099 Y-0.411
X6.161 Y-0.383
X6.264 Y-0.296
X6.321 Y-0.174
X6.341 Y-0.04
X6.286 Y0.137
X6.171 Y0.283
X6.012 Y0.379
X5.83 Y0.412
X5.67
G3 X5.474 Y0.215 R0.203
X6.065 Y-0.412 R0.613
G1 X6.165
X6.232 Y-0.409
X6.352 Y-0.348
X6.437 Y-0.243
X6.461 Y-0.057
X6.414 Y0.125
X6.304 Y0.277
X6.145 Y0.377
X5.961 Y0.412
X5.83
G3 X5.637 Y0.247 R0.203
X6.165 Y-0.412 R0.556
G1 X6.303
X6.37 Y-0.409
X6.432 Y-0.381
X6.53 Y-0.289
X6.589 Y-0.167
X6.612 Y-0.034
X6.56 Y0.14
X6.45 Y0.284
X6.295 Y0.379
X6.117 Y0.412
X5.961
G3 X5.767 Y0.243 R0.203
X6.303 Y-0.412 R0.563
G1 X6.412
X6.48 Y-0.409
X6.604 Y-0.357
X6.695 Y-0.257
X6.745 Y-0.132
X6.737 Y0.032
X6.674 Y0.183
X6.565 Y0.306
X6.422 Y0.385
X6.26 Y0.412
X6.117
G3 X5.929 Y0.27 R0.204
X6.412 Y-0.412 R0.525
G1 X6.551
X6.618 Y-0.409
X6.745 Y-0.364
X6.837 Y-0.265
X6.888 Y-0.14
X6.878 Y0.027
X6.814 Y0.18
X6.703 Y0.304
X6.557 Y0.385
X6.393 Y0.412
X6.26
G3 X6.074 Y0.273 R0.204
X6.551 Y-0.412 R0.522
G1 X6.718
X6.786 Y-0.409
X6.907 Y-0.349
X6.99 Y-0.242
X7.034 Y-0.115
X7.017 Y0.046
X6.95 Y0.193
X6.839 Y0.31
X6.697 Y0.386
X6.537 Y0.412
X6.393
G3 X6.201 Y0.252 R0.204
X6.718 Y-0.412 R0.549
G1 X6.857
X6.924 Y-0.409
X7.047 Y-0.352
X7.132 Y-0.247
X7.178 Y-0.12
X7.162 Y0.042
X7.094 Y0.19
X6.983 Y0.309
X6.839 Y0.386
X6.678 Y0.412
X6.537
G3 X6.346 Y0.256 R0.204
X6.857 Y-0.412 R0.544
G1 X6.995
X7.063 Y-0.409
X7.187 Y-0.356
X7.274 Y-0.253
X7.321 Y-0.126
X7.305 Y0.038
X7.238 Y0.188
X7.126 Y0.308
X6.982 Y0.386
X6.82 Y0.412
X6.678
G3 X6.488 Y0.257 R0.204
X6.995 Y-0.412 R0.542
G1 X7.134
X7.201 Y-0.409
X7.327 Y-0.36
X7.416 Y-0.258
X7.463 Y-0.132
X7.449 Y0.033
X7.382 Y0.185
X7.27 Y0.307
X7.124 Y0.385
X6.961 Y0.412
X6.82
G3 X6.629 Y0.259 R0.204
X7.134 Y-0.412 R0.54
G1 X7.277
X7.345 Y-0.409
X7.471 Y-0.36
X7.559 Y-0.258
X7.606 Y-0.132
X7.592 Y0.034
X7.525 Y0.185
X7.412 Y0.307
X7.266 Y0.385
X7.103 Y0.412
X6.961
G3 X6.77 Y0.257 R0.204
X7.277 Y-0.412 R0.542
G1 X7.45
X7.518 Y-0.409
X7.634 Y-0.341
X7.712 Y-0.231
X7.752 Y-0.101
X7.731 Y0.056
X7.662 Y0.199
X7.551 Y0.314
X7.41 Y0.387
X7.253 Y0.412
X7.103
G3 X6.909 Y0.24 R0.203
X7.45 Y-0.412 R0.568
G1 X7.589
X7.656 Y-0.409
X7.774 Y-0.343
X7.855 Y-0.236
X7.897 Y-0.107
X7.878 Y0.052
X7.809 Y0.197
X7.698 Y0.312
X7.556 Y0.387
X7.398 Y0.412
X7.253
G3 X7.06 Y0.246 R0.203
X7.589 Y-0.412 R0.557
G1 X7.727
X7.795 Y-0.409
X7.915 Y-0.347
X7.998 Y-0.241
X8.041 Y-0.113
X8.023 Y0.047
X7.955 Y0.194
X7.844 Y0.311
X7.701 Y0.386
X7.541 Y0.412
X7.398
G3 X7.205 Y0.25 R0.203
X7.727 Y-0.412 R0.552
G1 X7.866
X7.933 Y-0.409
X8.055 Y-0.351
X8.14 Y-0.247
X8.185 Y-0.119
X8.168 Y0.043
X8.1 Y0.191
X7.989 Y0.309
X7.845 Y0.386
X7.684 Y0.412
X7.541
G3 X7.35 Y0.253 R0.204
X7.866 Y-0.412 R0.548
G1 X8.004
X8.072 Y-0.409
X8.195 Y-0.355
X8.282 Y-0.252
X8.328 Y-0.125
X8.313 Y0.038
X8.245 Y0.188
X8.133 Y0.308
X7.988 Y0.386
X7.826 Y0.412
X7.684
G3 X7.493 Y0.255 R0.204
X8.004 Y-0.412 R0.544
G1 X8.143
X8.21 Y-0.409
X8.335 Y-0.359
X8.424 Y-0.257
X8.471 Y-0.13
X8.456 Y0.034
X8.389 Y0.186
X8.277 Y0.307
X8.131 Y0.385
X7.968 Y0.412
X7.826
G3 X7.636 Y0.257 R0.204
X8.143 Y-0.412 R0.541
G1 X8.309
X8.377 Y-0.409
X8.495 Y-0.344
X8.575 Y-0.235
X8.616 Y-0.107
X8.596 Y0.052
X8.528 Y0.197
X8.417 Y0.312
X8.275 Y0.387
X8.117 Y0.412
X7.968
G3 X7.774 Y0.243 R0.203
X8.309 Y-0.412 R0.562
G1 X8.448
X8.515 Y-0.409
X8.635 Y-0.347
X8.718 Y-0.24
X8.761 Y-0.112
X8.742 Y0.048
X8.674 Y0.194
X8.563 Y0.311
X8.42 Y0.386
X8.261 Y0.412
X8.117
G3 X7.924 Y0.249 R0.203
X8.448 Y-0.412 R0.553
G1 X8.586
X8.654 Y-0.409
X8.775 Y-0.351
X8.86 Y-0.246
X8.904 Y-0.118
X8.887 Y0.044
X8.819 Y0.191
X8.708 Y0.31
X8.564 Y0.386
X8.404 Y0.412
X8.261
G3 X8.069 Y0.252 R0.204
X8.586 Y-0.412 R0.549
G1 X8.725
X8.792 Y-0.409
X8.916 Y-0.355
X9.002 Y-0.251
X9.048 Y-0.124
X9.032 Y0.039
X8.964 Y0.189
X8.852 Y0.308
X8.708 Y0.386
X8.546 Y0.412
X8.404
G3 X8.212 Y0.255 R0.204
X8.725 Y-0.412 R0.545
G1 X8.863
X8.931 Y-0.409
X9.056 Y-0.358
X9.143 Y-0.256
X9.19 Y-0.129
X9.176 Y0.035
X9.108 Y0.186
X8.996 Y0.307
X8.851 Y0.385
X8.688 Y0.412
X8.546
G3 X8.355 Y0.257 R0.204
X8.863 Y-0.412 R0.542
G1 X9.044
X9.111 Y-0.409
X9.225 Y-0.336
X9.299 Y-0.224
X9.317 Y-0.041
X9.267 Y0.135
X9.156 Y0.282
X9.001 Y0.379
X8.82 Y0.412
X8.688
G3 X8.493 Y0.235 R0.203
X9.044 Y-0.412 R0.575
G1 X9.182
X9.249 Y-0.409
X9.364 Y-0.338
X9.436 Y-0.224
X9.449 Y-0.04
X9.395 Y0.137
X9.282 Y0.283
X9.124 Y0.379
X8.942 Y0.412
X8.82
G3 X8.625 Y0.232 R0.203
X9.182 Y-0.412 R0.581
G1 X9.32
X9.388 Y-0.409
X9.502 Y-0.338
X9.572 Y-0.222
X9.582 Y-0.037
X9.525 Y0.139
X9.41 Y0.284
X9.252 Y0.379
X9.07 Y0.412
X8.942
G3 X8.746 Y0.223 R0.203
X9.32 Y-0.412 R0.596
G1 X9.459
X9.493 Y-0.411
X9.554 Y-0.383
X9.658 Y-0.297
X9.716 Y-0.175
X9.737 Y-0.041
X9.682 Y0.136
X9.569 Y0.283
X9.41 Y0.379
X9.228 Y0.412
X9.07
G3 X8.874 Y0.218 R0.203
X9.459 Y-0.412 R0.607
G1 X9.556
X9.623 Y-0.409
X9.744 Y-0.35
X9.831 Y-0.246
X9.856 Y-0.06
X9.811 Y0.123
X9.701 Y0.276
X9.542 Y0.377
X9.358 Y0.412
X9.228
G3 X9.035 Y0.251 R0.204
X9.556 Y-0.412 R0.551
G1 X9.694
X9.761 Y-0.409
X9.823 Y-0.382
X9.923 Y-0.291
X9.983 Y-0.17
X10.007 Y-0.037
X9.956 Y0.138
X9.846 Y0.283
X9.691 Y0.379
X9.511 Y0.412
X9.358
G3 X9.165 Y0.246 R0.203
X9.694 Y-0.412 R0.558
G1 X9.833
X9.9 Y-0.409
X10.018 Y-0.344
X10.103 Y-0.24
X10.128 Y-0.055
X10.082 Y0.126
X9.973 Y0.277
X9.815 Y0.377
X9.632 Y0.412
X9.511
G3 X9.32 Y0.255 R0.204
X9.833 Y-0.412 R0.545
G1 X9.971
X10.038 Y-0.409
X10.16 Y-0.351
X10.238 Y-0.24
X10.257 Y-0.053
X10.207 Y0.128
X10.095 Y0.278
X9.935 Y0.378
X9.75 Y0.412
X9.632
G3 X9.439 Y0.245 R0.203
X9.971 Y-0.412 R0.56
G1 X10.109
X10.177 Y-0.409
X10.298 Y-0.349
X10.372 Y-0.236
X10.387 Y-0.049
X10.334 Y0.131
X10.22 Y0.28
X10.06 Y0.378
X9.875 Y0.412
X9.75
G3 X9.556 Y0.233 R0.203
X10.109 Y-0.412 R0.578
G1 X10.248
X10.315 Y-0.409
X10.434 Y-0.345
X10.506 Y-0.231
X10.518 Y-0.044
X10.463 Y0.134
X10.348 Y0.282
X10.188 Y0.379
X10.004 Y0.412
G3 X9.83 Y0.302 R0.204
X10.248 Y-0.412 R0.49
G1 X10.386
X10.454 Y-0.409
X10.571 Y-0.341
X10.641 Y-0.226
X10.65 Y-0.04
X10.594 Y0.137
X10.478 Y0.283
X10.318 Y0.379
X10.135 Y0.412
G3 X9.959 Y0.297 R0.204
X10.386 Y-0.412 R0.495
G1 X10.525
X10.592 Y-0.409
X10.707 Y-0.338
X10.776 Y-0.222
X10.783 Y-0.036
X10.725 Y0.14
X10.609 Y0.285
X10.45 Y0.379
X10.268 Y0.412
G3 X10.089 Y0.294 R0.204
X10.525 Y-0.412 R0.499
G1 X10.663
X10.697 Y-0.411
X10.759 Y-0.383
X10.862 Y-0.296
X10.919 Y-0.173
X10.939 Y-0.04
X10.883 Y0.137
X10.769 Y0.283
X10.61 Y0.379
X10.428 Y0.412
G3 X10.256 Y0.307 R0.204
X10.663 Y-0.412 R0.485
G1 X10.772
X10.839 Y-0.409
X10.957 Y-0.344
X11.04 Y-0.237
X11.06 Y-0.051
X11.011 Y0.129
X10.9 Y0.279
X10.742 Y0.378
X10.558 Y0.412
G3 X10.395 Y0.322 R0.205
X10.772 Y-0.412 R0.472
G1 X10.912
X10.98 Y-0.409
X11.1 Y-0.347
X11.175 Y-0.235
X11.19 Y-0.048
X11.138 Y0.131
X11.024 Y0.28
X10.865 Y0.378
X10.681 Y0.412
G3 X10.511 Y0.31 R0.204
X10.912 Y-0.412 R0.483
G1 X11.051
X11.118 Y-0.409
X11.237 Y-0.344
X11.309 Y-0.23
X11.321 Y-0.044
X11.267 Y0.134
X11.152 Y0.282
X10.992 Y0.379
X10.808 Y0.412
G3 X10.635 Y0.303 R0.204
X11.051 Y-0.412 R0.489
G1 X11.189
X11.257 Y-0.409
X11.373 Y-0.341
X11.444 Y-0.226
X11.453 Y-0.04
X11.397 Y0.137
X11.281 Y0.283
X11.122 Y0.379
X10.939 Y0.412
G3 X10.762 Y0.298 R0.204
X11.189 Y-0.412 R0.494
G1 X11.328
X11.395 Y-0.409
X11.51 Y-0.338
X11.579 Y-0.222
X11.586 Y-0.036
X11.528 Y0.14
X11.413 Y0.285
X11.253 Y0.379
X11.071 Y0.412
G3 X10.893 Y0.294 R0.204
X11.328 Y-0.412 R0.498
G1 X11.466
X11.5 Y-0.411
X11.561 Y-0.383
X11.665 Y-0.296
X11.722 Y-0.174
X11.742 Y-0.04
X11.686 Y0.137
X11.572 Y0.283
X11.413 Y0.379
X11.231 Y0.412
G3 X11.06 Y0.308 R0.204
X11.466 Y-0.412 R0.485
G1 X11.565
X11.633 Y-0.409
X11.753 Y-0.348
X11.838 Y-0.243
X11.862 Y-0.057
X11.815 Y0.125
X11.704 Y0.277
X11.546 Y0.377
X11.362 Y0.412
G3 X11.203 Y0.328 R0.205
X11.565 Y-0.412 R0.467
G1 X11.704
X11.771 Y-0.409
X11.833 Y-0.381
X11.931 Y-0.289
X11.99 Y-0.167
X12.012 Y-0.034
X11.961 Y0.14
X11.851 Y0.284
X11.696 Y0.379
X11.517 Y0.412
G3 X11.367 Y0.339 R0.205
X11.704 Y-0.412 R0.459
G1 X11.813
X11.881 Y-0.409
X12.005 Y-0.357
X12.096 Y-0.257
X12.146 Y-0.132
X12.138 Y0.032
X12.075 Y0.183
X11.966 Y0.306
X11.823 Y0.385
X11.661 Y0.412
G3 X11.53 Y0.359 R0.205
X11.813 Y-0.412 R0.444
G1 X11.952
X12.019 Y-0.409
X12.146 Y-0.364
X12.238 Y-0.265
X12.289 Y-0.14
X12.279 Y0.027
X12.215 Y0.18
X12.104 Y0.304
X11.958 Y0.385
X11.794 Y0.412
G3 X11.659 Y0.356 R0.205
X11.952 Y-0.412 R0.446
G1 X12.119
X12.187 Y-0.409
X12.308 Y-0.349
X12.391 Y-0.242
X12.435 Y-0.115
X12.418 Y0.046
X12.351 Y0.193
X12.24 Y0.31
X12.098 Y0.386
X11.938 Y0.412
G3 X11.791 Y0.342 R0.205
X12.119 Y-0.412 R0.456
G1 X12.258
X12.325 Y-0.409
X12.448 Y-0.352
X12.533 Y-0.247
X12.578 Y-0.12
X12.562 Y0.042
X12.495 Y0.19
X12.384 Y0.309
X12.24 Y0.386
X12.079 Y0.412
G3 X11.933 Y0.344 R0.205
X12.258 Y-0.412 R0.455
G1 X12.396
X12.464 Y-0.409
X12.588 Y-0.356
X12.675 Y-0.253
X12.722 Y-0.126
X12.706 Y0.038
X12.639 Y0.188
X12.527 Y0.308
X12.383 Y0.386
X12.221 Y0.412
G3 X12.076 Y0.345 R0.205
X12.396 Y-0.412 R0.454
G1 X12.535
X12.602 Y-0.409
X12.728 Y-0.36
X12.816 Y-0.258
X12.864 Y-0.132
X12.85 Y0.033
X12.783 Y0.185
X12.671 Y0.307
X12.525 Y0.385
X12.362 Y0.412
G3 X12.218 Y0.347 R0.205
X12.535 Y-0.412 R0.453
G1 X12.678
X12.746 Y-0.409
X12.872 Y-0.36
X12.96 Y-0.258
X13.007 Y-0.132
X12.993 Y0.034
X12.926 Y0.185
X12.813 Y0.307
X12.667 Y0.385
X12.504 Y0.412
G3 X12.36 Y0.346 R0.205
X12.678 Y-0.412 R0.453
G1 X12.851
X12.919 Y-0.409
X13.035 Y-0.341
X13.113 Y-0.231
X13.153 Y-0.101
X13.132 Y0.056
X13.063 Y0.199
X12.952 Y0.314
X12.811 Y0.387
X12.654 Y0.412
G3 X12.498 Y0.332 R0.205
X12.851 Y-0.412 R0.464
G1 X12.99
X13.057 Y-0.409
X13.175 Y-0.343
X13.256 Y-0.236
X13.298 Y-0.107
X13.279 Y0.052
X13.21 Y0.197
X13.099 Y0.312
X12.957 Y0.387
X12.799 Y0.412
G3 X12.646 Y0.336 R0.205
X12.99 Y-0.412 R0.461
G1 X13.122 Y-0.41
X13.156 Y-0.404
X13.191 Y-0.394
X13.295 Y-0.332
G3 X12.972 Y-0.023 R0.223
X12.996 Y-0.353 R0.223
X13.191 Y-0.394 R0.224
G1 X13.26 Y-0.359
X13.323 Y-0.304
X13.347 Y-0.277
X13.37 Y-0.242
X13.387 Y-0.208
X13.4 Y-0.173
X13.413 Y-0.069
Y-0.031
X13.406 Y0.104
X13.366 Y0.239
X13.3 Y0.323
X13.26 Y0.359
G3 X13.132 Y0.25 R0.091
G1 X13.236 Y-0.057
G3 X13.413 Y-0.031 R0.091
G1 X13.408 Y0.138
X13.37 Y0.242
X13.295 Y0.332
X13.225 Y0.379
X13.122 Y0.41
X9.875 Y0.412
G3 X9.755 Y0.384 R0.318
G1 X9.691 Y0.355 Z-4.792
X9.63 Y0.327 Z-4.769
X9.575 Y0.302 Z-4.731
X9.529 Y0.281 Z-4.68
X9.495 Y0.265 Z-4.62
X9.473 Y0.256 Z-4.553
X9.466 Y0.252 Z-4.483
G0 Z15.

M9
M30
