(   4_5  0,5)
(T3  D=3.175 CR=0. - ZMIN=-4.8 - FLAT END MILL)
G90 G94 G91.1 G40 G49 G17
G21

(2D ADAPTIVE3)
M5
M9
T3
S5500 M3
G54
M8
G0 X0.076 Y0.494
G43 Z15. H3
Z5.
Z3.063
G1 Z2.745 F351.
G3 X-0.076 Y-0.494 Z2.69 R0.5
X0.076 Y0.494 Z2.635 R0.5
X-0.076 Y-0.494 Z2.58 R0.5
X0.076 Y0.494 Z2.526 R0.5
X-0.076 Y-0.494 Z2.471 R0.5
X0.076 Y0.494 Z2.416 R0.5
X-0.076 Y-0.494 Z2.361 R0.5
X0.076 Y0.494 Z2.306 R0.5
X-0.076 Y-0.494 Z2.251 R0.5
X0.076 Y0.494 Z2.196 R0.5
X-0.076 Y-0.494 Z2.142 R0.5
X0.076 Y0.494 Z2.087 R0.5
X-0.076 Y-0.494 Z2.032 R0.5
X0.076 Y0.494 Z1.977 R0.5
X-0.076 Y-0.494 Z1.922 R0.5
X0.076 Y0.494 Z1.867 R0.5
X-0.076 Y-0.494 Z1.812 R0.5
X0.076 Y0.494 Z1.758 R0.5
X-0.076 Y-0.494 Z1.703 R0.5
X0.076 Y0.494 Z1.648 R0.5
X-0.076 Y-0.494 Z1.593 R0.5
X0.076 Y0.494 Z1.538 R0.5
X-0.076 Y-0.494 Z1.483 R0.5
X0.076 Y0.494 Z1.429 R0.5
X-0.076 Y-0.494 Z1.374 R0.5
X0.076 Y0.494 Z1.319 R0.5
X-0.076 Y-0.494 Z1.264 R0.5
X0.076 Y0.494 Z1.209 R0.5
X-0.076 Y-0.494 Z1.154 R0.5
X0.076 Y0.494 Z1.099 R0.5
X-0.076 Y-0.494 Z1.045 R0.5
X0.076 Y0.494 Z0.99 R0.5
X-0.076 Y-0.494 Z0.935 R0.5
X0.076 Y0.494 Z0.88 R0.5
X-0.076 Y-0.494 Z0.825 R0.5
X0.076 Y0.494 Z0.77 R0.5
X-0.076 Y-0.494 Z0.715 R0.5
X0.076 Y0.494 Z0.661 R0.5
X-0.076 Y-0.494 Z0.606 R0.5
X0.076 Y0.494 Z0.551 R0.5
X-0.076 Y-0.494 Z0.496 R0.5
X0.076 Y0.494 Z0.441 R0.5
X-0.076 Y-0.494 Z0.386 R0.5
X0.076 Y0.494 Z0.331 R0.5
X-0.076 Y-0.494 Z0.277 R0.5
X0.076 Y0.494 Z0.222 R0.5
X-0.076 Y-0.494 Z0.167 R0.5
X0.076 Y0.494 Z0.112 R0.5
X-0.076 Y-0.494 Z0.057 R0.5
X0.076 Y0.494 Z0.002 R0.5
X-0.076 Y-0.494 Z-0.053 R0.5
X0.076 Y0.494 Z-0.107 R0.5
X-0.076 Y-0.494 Z-0.162 R0.5
X0.076 Y0.494 Z-0.217 R0.5
X-0.076 Y-0.494 Z-0.272 R0.5
X0.076 Y0.494 Z-0.327 R0.5
X-0.076 Y-0.494 Z-0.382 R0.5
X0.076 Y0.494 Z-0.436 R0.5
X-0.076 Y-0.494 Z-0.491 R0.5
X0.076 Y0.494 Z-0.546 R0.5
X-0.076 Y-0.494 Z-0.601 R0.5
X0.076 Y0.494 Z-0.656 R0.5
X-0.076 Y-0.494 Z-0.711 R0.5
X0.076 Y0.494 Z-0.766 R0.5
X-0.076 Y-0.494 Z-0.82 R0.5
X0.076 Y0.494 Z-0.875 R0.5
X-0.076 Y-0.494 Z-0.93 R0.5
X0.076 Y0.494 Z-0.985 R0.5
X-0.076 Y-0.494 Z-1.04 R0.5
X0.076 Y0.494 Z-1.095 R0.5
X-0.076 Y-0.494 Z-1.15 R0.5
X0.076 Y0.494 Z-1.204 R0.5
X-0.076 Y-0.494 Z-1.259 R0.5
X0.076 Y0.494 Z-1.314 R0.5
X-0.076 Y-0.494 Z-1.369 R0.5
X0.076 Y0.494 Z-1.424 R0.5
X-0.076 Y-0.494 Z-1.479 R0.5
X0.076 Y0.494 Z-1.534 R0.5
X-0.076 Y-0.494 Z-1.588 R0.5
X0.076 Y0.494 Z-1.643 R0.5
X-0.076 Y-0.494 Z-1.698 R0.5
X0.076 Y0.494 Z-1.753 R0.5
X-0.076 Y-0.494 Z-1.808 R0.5
X0.076 Y0.494 Z-1.863 R0.5
X-0.076 Y-0.494 Z-1.918 R0.5
X0.076 Y0.494 Z-1.972 R0.5
X-0.076 Y-0.494 Z-2.027 R0.5
X0.076 Y0.494 Z-2.082 R0.5
X-0.076 Y-0.494 Z-2.137 R0.5
X0.076 Y0.494 Z-2.192 R0.5
X-0.076 Y-0.494 Z-2.247 R0.5
X0.076 Y0.494 Z-2.302 R0.5
X-0.076 Y-0.494 Z-2.356 R0.5
X0.076 Y0.494 Z-2.411 R0.5
X-0.076 Y-0.494 Z-2.466 R0.5
X0.076 Y0.494 Z-2.521 R0.5
X-0.076 Y-0.494 Z-2.576 R0.5
X0.076 Y0.494 Z-2.631 R0.5
X-0.076 Y-0.494 Z-2.685 R0.5
X0.076 Y0.494 Z-2.74 R0.5
X-0.076 Y-0.494 Z-2.795 R0.5
X0.076 Y0.494 Z-2.85 R0.5
X-0.076 Y-0.494 Z-2.905 R0.5
X0.076 Y0.494 Z-2.96 R0.5
X-0.076 Y-0.494 Z-3.015 R0.5
X0.076 Y0.494 Z-3.069 R0.5
X-0.076 Y-0.494 Z-3.124 R0.5
X0.076 Y0.494 Z-3.179 R0.5
X-0.076 Y-0.494 Z-3.234 R0.5
X0.076 Y0.494 Z-3.289 R0.5
X-0.076 Y-0.494 Z-3.344 R0.5
X0.076 Y0.494 Z-3.399 R0.5
X-0.076 Y-0.494 Z-3.453 R0.5
X0.076 Y0.494 Z-3.508 R0.5
X-0.076 Y-0.494 Z-3.563 R0.5
X0.076 Y0.494 Z-3.618 R0.5
X-0.076 Y-0.494 Z-3.673 R0.5
X0.076 Y0.494 Z-3.728 R0.5
X-0.076 Y-0.494 Z-3.783 R0.5
X0.076 Y0.494 Z-3.837 R0.5
X-0.076 Y-0.494 Z-3.892 R0.5
X0.076 Y0.494 Z-3.947 R0.5
X-0.076 Y-0.494 Z-4.002 R0.5
X0.076 Y0.494 Z-4.057 R0.5
X-0.076 Y-0.494 Z-4.112 R0.5
X0.076 Y0.494 Z-4.167 R0.5
X-0.076 Y-0.494 Z-4.221 R0.5
X0.076 Y0.494 Z-4.276 R0.5
X-0.076 Y-0.494 Z-4.331 R0.5
X0.076 Y0.494 Z-4.386 R0.5
X-0.076 Y-0.494 Z-4.441 R0.5
X0.076 Y0.494 Z-4.496 R0.5
X-0.076 Y-0.494 Z-4.551 R0.5
X0.076 Y0.494 Z-4.605 R0.5
X-0.076 Y-0.494 Z-4.66 R0.5
X0.076 Y0.494 Z-4.715 R0.5
X-0.076 Y-0.494 Z-4.77 R0.5
X0.5 Y0. Z-4.8 R0.5
X-0.5 R0.5
X0.5 R0.5
G1 X0.523 Y0.299
X0.471 Y0.424
X0.385 Y0.528
X0.276 Y0.606
X0.184 Y0.637
X0.089 Y0.656
X-0.007 Y0.663
X-0.047
X-0.182 Y0.656
X-0.309 Y0.611
X-0.425 Y0.542
X-0.524 Y0.45
X-0.603 Y0.34
X-0.659 Y0.217
X-0.689 Y0.086
X-0.693 Y-0.049
X-0.671 Y-0.182
X-0.624 Y-0.309
X-0.553 Y-0.423
X-0.394 Y-0.553
X-0.206 Y-0.635
X-0.003 Y-0.663
X0.
X0.135 Y-0.656
X0.266 Y-0.623
X0.387 Y-0.563
X0.492 Y-0.479
X0.606 Y-0.286
X0.652 Y-0.066
X0.627 Y0.157
X0.532 Y0.36
X0.377 Y0.522
X0.178 Y0.626
X-0.043 Y0.663
X-0.047
X-0.319
X-0.454 Y0.656
X-0.577 Y0.6
X-0.683 Y0.517
X-0.769 Y0.413
X-0.835 Y0.295
X-0.873 Y0.07
X-0.839 Y-0.156
X-0.737 Y-0.36
X-0.577 Y-0.522
X-0.374 Y-0.627
X-0.148 Y-0.663
X-0.003
X0.
X0.319
X0.454 Y-0.656
X0.573 Y-0.592
X0.672 Y-0.501
X0.752 Y-0.392
X0.811 Y-0.188
X0.809 Y0.024
X0.749 Y0.228
X0.634 Y0.406
X0.473 Y0.544
X0.28 Y0.632
X0.069 Y0.663
G3 X-0.218 Y0.237 R0.318
G1 X0.031 Y-0.453
G3 X0.319 Y-0.663 R0.318
G1 X0.526
X0.661 Y-0.656
X0.779 Y-0.59
X0.872 Y-0.493
X0.941 Y-0.377
X0.989 Y-0.251
X0.997 Y-0.026
X0.94 Y0.192
X0.822 Y0.384
X0.655 Y0.534
X0.451 Y0.63
X0.228 Y0.663
X0.069
G3 X-0.184 Y0.17 R0.318
G1 X0.272 Y-0.52
G3 X0.526 Y-0.663 R0.318
G1 X0.734
X0.802 Y-0.659
X0.926 Y-0.607
X1.03 Y-0.521
X1.106 Y-0.409
X1.161 Y-0.286
X1.176 Y-0.055
X1.124 Y0.171
X1.007 Y0.371
X0.837 Y0.528
X0.628 Y0.628
X0.399 Y0.663
X0.228
G3 X-0.017 Y0.157 R0.317
G1 X0.489 Y-0.533
G3 X0.734 Y-0.663 R0.318
G1 X0.902
X1.037 Y-0.656
X1.152 Y-0.585
X1.244 Y-0.486
X1.311 Y-0.369
X1.348 Y-0.161
X1.329 Y0.05
X1.254 Y0.248
X1.129 Y0.419
X0.964 Y0.551
X0.769 Y0.634
X0.559 Y0.663
X0.399
G3 X0.153 Y0.158 R0.318
G1 X0.657 Y-0.532
G3 X0.902 Y-0.663 R0.318
G1 X1.08
X1.215 Y-0.656
X1.332 Y-0.588
X1.421 Y-0.487
X1.485 Y-0.368
X1.527 Y-0.24
X1.524 Y-0.014
X1.459 Y0.202
X1.336 Y0.391
X1.164 Y0.538
X0.959 Y0.631
X0.736 Y0.663
X0.559
G3 X0.317 Y0.154 R0.318
G1 X0.837 Y-0.536
G3 X1.08 Y-0.663 R0.318
G1 X1.288
X1.356 Y-0.659
X1.478 Y-0.602
X1.578 Y-0.511
X1.65 Y-0.397
X1.699 Y-0.271
X1.706 Y-0.041
X1.647 Y0.182
X1.527 Y0.378
X1.355 Y0.531
X1.147 Y0.629
X0.919 Y0.663
X0.736
G3 X0.499 Y0.147 R0.317
G1 X1.051 Y-0.544
G3 X1.288 Y-0.663 R0.318
G1 X1.427
X1.562 Y-0.656
X1.679 Y-0.589
X1.774 Y-0.493
X1.841 Y-0.376
X1.884 Y-0.248
X1.905 Y-0.115
X1.862 Y0.126
X1.748 Y0.343
X1.573 Y0.515
X1.354 Y0.625
X1.112 Y0.663
X0.919
G3 X0.674 Y0.157 R0.317
G1 X1.182 Y-0.533
G3 X1.427 Y-0.663 R0.318
G1 X1.634
X1.701 Y-0.659
X1.826 Y-0.608
X1.928 Y-0.52
X2.008 Y-0.411
X2.059 Y-0.286
X2.09 Y-0.154
X2.068 Y0.055
X1.992 Y0.252
X1.867 Y0.422
X1.702 Y0.552
X1.508 Y0.634
X1.299 Y0.663
X1.112
G3 X0.87 Y0.154 R0.318
G1 X1.392 Y-0.537
G3 X1.634 Y-0.663 R0.318
G1 X1.8
X1.935 Y-0.656
X2.051 Y-0.586
X2.144 Y-0.489
X2.215 Y-0.373
X2.26 Y-0.246
X2.261 Y-0.02
X2.199 Y0.197
X2.077 Y0.388
X1.907 Y0.536
X1.701 Y0.63
X1.478 Y0.663
X1.299
G3 X1.053 Y0.159 R0.317
G1 X1.554 Y-0.532
G3 X1.8 Y-0.663 R0.318
G1 X1.981
X2.116 Y-0.656
X2.233 Y-0.59
X2.329 Y-0.494
X2.396 Y-0.377
X2.441 Y-0.25
X2.462 Y-0.117
X2.421 Y0.125
X2.308 Y0.342
X2.134 Y0.514
X1.916 Y0.624
X1.674 Y0.663
X1.478
G3 X1.232 Y0.158 R0.318
G1 X1.735 Y-0.532
G3 X1.981 Y-0.663 R0.318
G1 X2.188
X2.255 Y-0.659
X2.38 Y-0.608
X2.483 Y-0.521
X2.563 Y-0.413
X2.615 Y-0.288
X2.646 Y-0.157
X2.626 Y0.053
X2.551 Y0.25
X2.427 Y0.421
X2.261 Y0.552
X2.067 Y0.634
X1.858 Y0.663
X1.674
G3 X1.43 Y0.156 R0.317
G1 X1.944 Y-0.535
G3 X2.188 Y-0.663 R0.318
G1 X2.354
X2.489 Y-0.656
X2.605 Y-0.587
X2.7 Y-0.49
X2.77 Y-0.375
X2.817 Y-0.248
X2.819 Y-0.022
X2.757 Y0.195
X2.636 Y0.387
X2.465 Y0.536
X2.26 Y0.63
X2.036 Y0.663
X1.858
G3 X1.612 Y0.16 R0.317
G1 X2.107 Y-0.53
G3 X2.354 Y-0.663 R0.318
G1 X2.535
X2.669 Y-0.656
X2.788 Y-0.591
X2.884 Y-0.496
X2.952 Y-0.379
X2.997 Y-0.252
X3.019 Y-0.119
X2.979 Y0.123
X2.866 Y0.341
X2.692 Y0.514
X2.473 Y0.624
X2.231 Y0.663
X2.036
G3 X1.789 Y0.159 R0.317
G1 X2.288 Y-0.531
G3 X2.535 Y-0.663 R0.318
G1 X2.742
X2.809 Y-0.659
X2.935 Y-0.61
X3.038 Y-0.523
X3.119 Y-0.415
X3.171 Y-0.29
X3.203 Y-0.159
X3.183 Y0.051
X3.109 Y0.249
X2.984 Y0.42
X2.819 Y0.551
X2.624 Y0.634
X2.415 Y0.663
X2.231
G3 X1.987 Y0.156 R0.318
G1 X2.497 Y-0.534
G3 X2.742 Y-0.663 R0.318
G1 X2.908
X3.043 Y-0.656
X3.16 Y-0.588
X3.255 Y-0.492
X3.326 Y-0.377
X3.372 Y-0.25
X3.375 Y-0.024
X3.314 Y0.194
X3.193 Y0.386
X3.022 Y0.535
X2.816 Y0.63
X2.592 Y0.663
X2.415
G3 X2.168 Y0.161 R0.318
G1 X2.661 Y-0.53
G3 X2.908 Y-0.663 R0.318
G1 X3.089
X3.223 Y-0.656
X3.342 Y-0.591
X3.439 Y-0.497
X3.507 Y-0.381
X3.552 Y-0.254
X3.575 Y-0.12
X3.547 Y0.083
X3.468 Y0.271
X3.342 Y0.433
X3.18 Y0.558
X2.99 Y0.636
X2.787 Y0.663
X2.592
G3 X2.345 Y0.16 R0.317
G1 X2.842 Y-0.531
G3 X3.089 Y-0.663 R0.318
G1 X3.296
X3.43 Y-0.656
X3.544 Y-0.583
X3.635 Y-0.483
X3.704 Y-0.367
X3.748 Y-0.239
X3.747 Y-0.014
X3.684 Y0.201
X3.562 Y0.39
X3.392 Y0.537
X3.188 Y0.631
X2.965 Y0.663
X2.787
G3 X2.543 Y0.157 R0.318
G1 X3.051 Y-0.533
G3 X3.296 Y-0.663 R0.318
G1 X3.504
X3.571 Y-0.659
X3.694 Y-0.603
X3.795 Y-0.513
X3.868 Y-0.4
X3.919 Y-0.274
X3.929 Y-0.044
X3.871 Y0.179
X3.752 Y0.376
X3.581 Y0.531
X3.372 Y0.629
X3.144 Y0.663
X2.965
G3 X2.726 Y0.15 R0.318
G1 X3.265 Y-0.54
G3 X3.504 Y-0.663 R0.318
G1 X3.643
X3.777 Y-0.656
X3.896 Y-0.591
X3.992 Y-0.496
X4.06 Y-0.38
X4.104 Y-0.252
X4.126 Y-0.119
X4.085 Y0.123
X3.972 Y0.341
X3.797 Y0.514
X3.578 Y0.624
X3.335 Y0.663
X3.144
G3 X2.898 Y0.159 R0.318
G1 X3.396 Y-0.531
G3 X3.643 Y-0.663 R0.318
G1 X3.85
X3.917 Y-0.659
X4.043 Y-0.61
X4.146 Y-0.523
X4.226 Y-0.414
X4.279 Y-0.29
X4.31 Y-0.159
X4.29 Y0.052
X4.215 Y0.249
X4.09 Y0.42
X3.925 Y0.551
X3.73 Y0.634
X3.521 Y0.663
X3.335
G3 X3.092 Y0.156 R0.317
G1 X3.606 Y-0.535
G3 X3.85 Y-0.663 R0.318
G1 X4.016
X4.151 Y-0.656
X4.267 Y-0.587
X4.362 Y-0.491
X4.433 Y-0.377
X4.48 Y-0.25
X4.482 Y-0.023
X4.42 Y0.195
X4.299 Y0.386
X4.129 Y0.535
X3.923 Y0.63
X3.699 Y0.663
X3.521
G3 X3.274 Y0.16 R0.318
G1 X3.769 Y-0.53
G3 X4.016 Y-0.663 R0.318
G1 X4.196
X4.331 Y-0.656
X4.45 Y-0.591
X4.546 Y-0.497
X4.615 Y-0.38
X4.66 Y-0.253
X4.682 Y-0.12
X4.654 Y0.083
X4.575 Y0.272
X4.449 Y0.434
X4.286 Y0.558
X4.097 Y0.636
X3.894 Y0.663
X3.699
G3 X3.452 Y0.159 R0.317
G1 X3.95 Y-0.531
G3 X4.196 Y-0.663 R0.318
G1 X4.404
X4.471 Y-0.659
X4.597 Y-0.61
X4.7 Y-0.524
X4.781 Y-0.416
X4.835 Y-0.292
X4.866 Y-0.16
X4.85 Y0.05
X4.778 Y0.247
X4.655 Y0.419
X4.491 Y0.551
X4.298 Y0.634
X4.089 Y0.663
X3.894
G3 X3.65 Y0.157 R0.317
G1 X4.159 Y-0.534
G3 X4.404 Y-0.663 R0.318
G1 X4.57
X4.705 Y-0.656
X4.822 Y-0.588
X4.917 Y-0.493
X4.989 Y-0.378
X5.036 Y-0.252
X5.041 Y-0.025
X4.98 Y0.193
X4.86 Y0.385
X4.691 Y0.535
X4.485 Y0.63
X4.261 Y0.663
X4.089
G3 X3.84 Y0.164 R0.317
G1 X4.321 Y-0.527
G3 X4.57 Y-0.663 R0.318
G1 X4.75
X4.885 Y-0.656
X5.004 Y-0.592
X5.101 Y-0.498
X5.17 Y-0.382
X5.216 Y-0.255
X5.239 Y-0.122
X5.212 Y0.081
X5.134 Y0.27
X5.009 Y0.433
X4.847 Y0.557
X4.657 Y0.636
X4.454 Y0.663
X4.261
G3 X4.013 Y0.162 R0.318
G1 X4.502 Y-0.529
G3 X4.75 Y-0.663 R0.318
G1 X4.957
X5.092 Y-0.656
X5.206 Y-0.583
X5.298 Y-0.484
X5.367 Y-0.368
X5.412 Y-0.241
Y-0.016
X5.349 Y0.2
X5.228 Y0.389
X5.058 Y0.537
X4.854 Y0.63
X4.631 Y0.663
X4.454
G3 X4.209 Y0.158 R0.318
G1 X4.712 Y-0.532
G3 X4.957 Y-0.663 R0.318
G1 X5.166
X5.233 Y-0.659
X5.356 Y-0.604
X5.458 Y-0.515
X5.531 Y-0.401
X5.582 Y-0.276
X5.593 Y-0.046
X5.536 Y0.178
X5.417 Y0.375
X5.246 Y0.53
X5.038 Y0.629
X4.809 Y0.663
X4.631
G3 X4.391 Y0.151 R0.317
G1 X4.926 Y-0.54
G3 X5.166 Y-0.663 R0.318
G1 X5.304
X5.439 Y-0.656
X5.558 Y-0.592
X5.654 Y-0.497
X5.723 Y-0.381
X5.767 Y-0.254
X5.79 Y-0.121
X5.762 Y0.083
X5.682 Y0.272
X5.556 Y0.434
X5.393 Y0.558
X5.203 Y0.636
X5. Y0.663
X4.809
G3 X4.562 Y0.16 R0.318
G1 X5.057 Y-0.53
G3 X5.304 Y-0.663 R0.318
G1 X5.511
X5.646 Y-0.656
X5.76 Y-0.583
X5.851 Y-0.483
X5.92 Y-0.367
X5.963 Y-0.239
X5.962 Y-0.014
X5.899 Y0.201
X5.777 Y0.39
X5.607 Y0.537
X5.402 Y0.631
X5.18 Y0.663
X5.
G3 X4.756 Y0.156 R0.317
G1 X5.267 Y-0.534
G3 X5.511 Y-0.663 R0.318
G1 X5.72
X5.787 Y-0.659
X5.91 Y-0.603
X6.011 Y-0.513
X6.084 Y-0.399
X6.134 Y-0.274
X6.144 Y-0.044
X6.086 Y0.179
X5.967 Y0.376
X5.796 Y0.531
X5.587 Y0.629
X5.359 Y0.663
X5.18
G3 X4.941 Y0.15 R0.317
G1 X5.481 Y-0.541
G3 X5.72 Y-0.663 R0.318
G1 X5.858
X5.993 Y-0.656
X6.112 Y-0.591
X6.207 Y-0.496
X6.276 Y-0.379
X6.319 Y-0.252
X6.342 Y-0.118
X6.3 Y0.124
X6.187 Y0.341
X6.012 Y0.514
X5.793 Y0.624
X5.55 Y0.663
X5.359
G3 X5.113 Y0.159 R0.317
G1 X5.612 Y-0.531
G3 X5.858 Y-0.663 R0.318
G1 X6.065
X6.133 Y-0.659
X6.258 Y-0.61
X6.362 Y-0.522
X6.442 Y-0.414
X6.494 Y-0.29
X6.525 Y-0.158
X6.505 Y0.052
X6.43 Y0.25
X6.305 Y0.42
X6.14 Y0.551
X5.945 Y0.634
X5.736 Y0.663
X5.55
G3 X5.307 Y0.155 R0.318
G1 X5.822 Y-0.535
G3 X6.065 Y-0.663 R0.318
G1 X6.232
X6.367 Y-0.656
X6.483 Y-0.587
X6.578 Y-0.491
X6.649 Y-0.376
X6.695 Y-0.25
X6.697 Y-0.023
X6.636 Y0.195
X6.514 Y0.386
X6.344 Y0.535
X6.138 Y0.63
X5.914 Y0.663
X5.736
G3 X5.489 Y0.16 R0.317
G1 X5.985 Y-0.53
G3 X6.232 Y-0.663 R0.318
G1 X6.412
X6.547 Y-0.656
X6.666 Y-0.591
X6.762 Y-0.496
X6.83 Y-0.38
X6.875 Y-0.253
X6.897 Y-0.12
X6.857 Y0.123
X6.745 Y0.341
X6.571 Y0.513
X6.352 Y0.624
X6.11 Y0.663
X5.914
G3 X5.668 Y0.159 R0.318
G1 X6.166 Y-0.531
G3 X6.412 Y-0.663 R0.318
G1 X6.619
X6.687 Y-0.659
X6.812 Y-0.61
X6.916 Y-0.523
X6.997 Y-0.415
X7.05 Y-0.291
X7.081 Y-0.16
X7.062 Y0.051
X6.987 Y0.249
X6.863 Y0.419
X6.697 Y0.551
X6.503 Y0.634
X6.293 Y0.663
X6.11
G3 X5.865 Y0.157 R0.317
G1 X6.375 Y-0.534
G3 X6.619 Y-0.663 R0.318
G1 X6.786
X6.921 Y-0.656
X7.037 Y-0.588
X7.133 Y-0.492
X7.204 Y-0.378
X7.251 Y-0.251
X7.254 Y-0.024
X7.192 Y0.194
X7.071 Y0.386
X6.901 Y0.535
X6.695 Y0.63
X6.47 Y0.663
X6.293
G3 X6.046 Y0.161 R0.317
G1 X6.538 Y-0.53
G3 X6.786 Y-0.663 R0.318
G1 X6.966
X7.101 Y-0.656
X7.22 Y-0.592
X7.317 Y-0.497
X7.385 Y-0.381
X7.431 Y-0.254
X7.453 Y-0.121
X7.425 Y0.082
X7.346 Y0.271
X7.221 Y0.433
X7.058 Y0.558
X6.869 Y0.636
X6.666 Y0.663
X6.47
G3 X6.224 Y0.16 R0.318
G1 X6.719 Y-0.53
G3 X6.966 Y-0.663 R0.318
G1 X7.173
X7.308 Y-0.656
X7.422 Y-0.583
X7.513 Y-0.483
X7.582 Y-0.367
X7.626 Y-0.24
Y-0.015
X7.562 Y0.201
X7.441 Y0.39
X7.271 Y0.537
X7.066 Y0.631
X6.844 Y0.663
X6.666
G3 X6.421 Y0.157 R0.317
G1 X6.929 Y-0.533
G3 X7.173 Y-0.663 R0.318
G1 X7.382
X7.449 Y-0.659
X7.572 Y-0.603
X7.673 Y-0.514
X7.746 Y-0.4
X7.797 Y-0.275
X7.807 Y-0.045
X7.75 Y0.179
X7.63 Y0.376
X7.459 Y0.531
X7.251 Y0.629
X7.023 Y0.663
X6.844
G3 X6.604 Y0.15 R0.318
G1 X7.142 Y-0.54
G3 X7.382 Y-0.663 R0.318
G1 X7.52
X7.655 Y-0.656
X7.774 Y-0.591
X7.869 Y-0.496
X7.938 Y-0.38
X7.982 Y-0.252
X8.004 Y-0.119
X7.963 Y0.123
X7.85 Y0.341
X7.675 Y0.514
X7.456 Y0.624
X7.213 Y0.663
X7.023
G3 X6.776 Y0.16 R0.318
G1 X7.274 Y-0.531
G3 X7.52 Y-0.663 R0.318
G1 X7.727
X7.795 Y-0.659
X7.92 Y-0.61
X8.024 Y-0.523
X8.104 Y-0.415
X8.157 Y-0.29
X8.188 Y-0.159
X8.168 Y0.051
X8.093 Y0.249
X7.968 Y0.42
X7.803 Y0.551
X7.608 Y0.634
X7.399 Y0.663
X7.213
G3 X6.97 Y0.156 R0.317
G1 X7.484 Y-0.535
G3 X7.727 Y-0.663 R0.318
G1 X7.894
X8.029 Y-0.656
X8.145 Y-0.588
X8.24 Y-0.492
X8.311 Y-0.377
X8.358 Y-0.25
X8.36 Y-0.024
X8.298 Y0.194
X8.177 Y0.386
X8.007 Y0.535
X7.801 Y0.63
X7.577 Y0.663
X7.399
G3 X7.152 Y0.16 R0.317
G1 X7.647 Y-0.53
G3 X7.894 Y-0.663 R0.318
G1 X8.074
X8.209 Y-0.656
X8.328 Y-0.591
X8.424 Y-0.497
X8.492 Y-0.381
X8.538 Y-0.253
X8.56 Y-0.12
X8.532 Y0.083
X8.453 Y0.272
X8.327 Y0.434
X8.164 Y0.558
X7.975 Y0.636
X7.772 Y0.663
X7.577
G3 X7.33 Y0.16 R0.317
G1 X7.828 Y-0.531
G3 X8.074 Y-0.663 R0.318
G1 X8.281
X8.349 Y-0.659
X8.474 Y-0.61
X8.578 Y-0.524
X8.659 Y-0.416
X8.713 Y-0.292
X8.744 Y-0.161
X8.728 Y0.049
X8.656 Y0.247
X8.533 Y0.418
X8.369 Y0.551
X8.176 Y0.634
X7.967 Y0.663
X7.772
G3 X7.528 Y0.157 R0.318
G1 X8.037 Y-0.534
G3 X8.281 Y-0.663 R0.318
G1 X8.448
X8.582 Y-0.656
X8.699 Y-0.588
X8.795 Y-0.493
X8.866 Y-0.378
X8.914 Y-0.252
X8.918 Y-0.025
X8.858 Y0.193
X8.738 Y0.385
X8.568 Y0.535
X8.363 Y0.63
X8.139 Y0.663
X7.967
G3 X7.718 Y0.164 R0.318
G1 X8.198 Y-0.527
G3 X8.448 Y-0.663 R0.318
G1 X8.628
X8.763 Y-0.656
X8.882 Y-0.592
X8.979 Y-0.498
X9.048 Y-0.382
X9.094 Y-0.255
X9.117 Y-0.122
X9.09 Y0.081
X9.012 Y0.27
X8.887 Y0.433
X8.724 Y0.557
X8.535 Y0.636
X8.332 Y0.663
X8.139
G3 X7.891 Y0.162 R0.317
G1 X8.38 Y-0.529
G3 X8.628 Y-0.663 R0.318
G1 X8.835
X8.97 Y-0.656
X9.084 Y-0.583
X9.176 Y-0.484
X9.245 Y-0.369
X9.289 Y-0.241
X9.29 Y-0.016
X9.227 Y0.2
X9.106 Y0.389
X8.936 Y0.537
X8.732 Y0.63
X8.509 Y0.663
X8.332
G3 X8.086 Y0.158 R0.318
G1 X8.59 Y-0.532
G3 X8.835 Y-0.663 R0.318
G1 X9.044
X9.111 Y-0.659
X9.234 Y-0.604
X9.336 Y-0.515
X9.409 Y-0.401
X9.46 Y-0.277
X9.471 Y-0.046
X9.414 Y0.178
X9.295 Y0.375
X9.124 Y0.53
X8.915 Y0.629
X8.687 Y0.663
X8.509
G3 X8.269 Y0.151 R0.318
G1 X8.804 Y-0.54
G3 X9.044 Y-0.663 R0.318
G1 X9.182
X9.317 Y-0.656
X9.436 Y-0.592
X9.532 Y-0.497
X9.601 Y-0.381
X9.645 Y-0.254
X9.668 Y-0.121
X9.64 Y0.083
X9.56 Y0.271
X9.434 Y0.434
X9.271 Y0.558
X9.081 Y0.636
X8.877 Y0.663
X8.687
G3 X8.44 Y0.16 R0.318
G1 X8.935 Y-0.53
G3 X9.182 Y-0.663 R0.317
G1 X9.389
X9.524 Y-0.656
X9.638 Y-0.583
X9.728 Y-0.483
X9.797 Y-0.367
X9.841 Y-0.239
X9.84 Y-0.014
X9.776 Y0.201
X9.655 Y0.39
X9.484 Y0.537
X9.28 Y0.631
X9.057 Y0.663
X8.877
G3 X8.633 Y0.156 R0.317
G1 X9.145 Y-0.534
G3 X9.389 Y-0.663 R0.317
G1 X9.597
X9.665 Y-0.659
X9.788 Y-0.603
X9.889 Y-0.513
X9.961 Y-0.4
X10.012 Y-0.274
X10.022 Y-0.044
X9.964 Y0.179
X9.845 Y0.376
X9.673 Y0.531
X9.465 Y0.629
X9.237 Y0.663
X9.057
G3 X8.818 Y0.15 R0.317
G1 X9.358 Y-0.541
G3 X9.597 Y-0.663 R0.318
G1 X9.736
X9.871 Y-0.656
X9.989 Y-0.591
X10.085 Y-0.496
X10.153 Y-0.379
X10.197 Y-0.252
X10.219 Y-0.118
X10.178 Y0.124
X10.065 Y0.341
X9.89 Y0.514
X9.671 Y0.624
X9.428 Y0.663
X9.237
G3 X8.991 Y0.159 R0.317
G1 X9.49 Y-0.531
G3 X9.736 Y-0.663 R0.318
G1 X9.943
X10.01 Y-0.659
X10.136 Y-0.61
X10.239 Y-0.523
X10.32 Y-0.414
X10.372 Y-0.29
X10.403 Y-0.158
X10.383 Y0.052
X10.308 Y0.25
X10.183 Y0.42
X10.018 Y0.551
X9.823 Y0.634
X9.614 Y0.663
X9.428
G3 X9.185 Y0.155 R0.317
G1 X9.7 Y-0.535
G3 X9.943 Y-0.663 R0.318
G1 X10.109
X10.244 Y-0.656
X10.361 Y-0.587
X10.456 Y-0.491
X10.526 Y-0.376
X10.573 Y-0.25
X10.575 Y-0.023
X10.513 Y0.195
X10.392 Y0.386
X10.222 Y0.535
X10.016 Y0.63
X9.792 Y0.663
X9.614
G3 X9.367 Y0.16 R0.317
G1 X9.863 Y-0.53
G3 X10.109 Y-0.663 R0.318
G1 X10.29
X10.425 Y-0.656
X10.543 Y-0.591
X10.64 Y-0.497
X10.708 Y-0.38
X10.753 Y-0.253
X10.775 Y-0.12
X10.735 Y0.122
X10.623 Y0.341
X10.448 Y0.513
X10.23 Y0.624
X9.987 Y0.663
X9.792
G3 X9.545 Y0.159 R0.318
G1 X10.044 Y-0.531
G3 X10.29 Y-0.663 R0.318
G1 X10.497
X10.564 Y-0.659
X10.69 Y-0.61
X10.794 Y-0.524
X10.875 Y-0.415
X10.927 Y-0.291
X10.959 Y-0.16
X10.94 Y0.051
X10.865 Y0.249
X10.74 Y0.419
X10.575 Y0.551
X10.381 Y0.634
X10.171 Y0.663
G3 X9.895 Y0.21 R0.318
G1 X10.221 Y-0.481
G3 X10.497 Y-0.663 R0.318
G1 X10.663
X10.798 Y-0.656
X10.915 Y-0.588
X11.01 Y-0.492
X11.082 Y-0.378
X11.128 Y-0.251
X11.131 Y-0.024
X11.07 Y0.194
X10.949 Y0.386
X10.778 Y0.535
X10.572 Y0.63
X10.348 Y0.663
G3 X10.07 Y0.213 R0.317
G1 X10.386 Y-0.477
G3 X10.663 Y-0.663 R0.318
G1 X10.844
X10.979 Y-0.656
X11.098 Y-0.592
X11.194 Y-0.498
X11.263 Y-0.381
X11.308 Y-0.254
X11.331 Y-0.121
X11.303 Y0.082
X11.224 Y0.271
X11.099 Y0.433
X10.936 Y0.558
X10.746 Y0.636
X10.543 Y0.663
G3 X10.263 Y0.218 R0.318
G1 X10.564 Y-0.472
G3 X10.844 Y-0.663 R0.317
G1 X11.051
X11.186 Y-0.656
X11.299 Y-0.583
X11.391 Y-0.483
X11.459 Y-0.367
X11.503 Y-0.24
Y-0.015
X11.44 Y0.201
X11.318 Y0.39
X11.148 Y0.537
X10.944 Y0.631
X10.721 Y0.663
G3 X10.446 Y0.208 R0.317
G1 X10.775 Y-0.482
G3 X11.051 Y-0.663 R0.317
G1 X11.259
X11.327 Y-0.659
X11.449 Y-0.603
X11.551 Y-0.514
X11.624 Y-0.4
X11.674 Y-0.275
X11.684 Y-0.045
X11.627 Y0.179
X11.508 Y0.376
X11.337 Y0.531
X11.128 Y0.629
X10.9 Y0.663
G3 X10.63 Y0.199 R0.318
G1 X10.989 Y-0.492
G3 X11.259 Y-0.663 R0.318
G1 X11.398
X11.533 Y-0.656
X11.651 Y-0.591
X11.747 Y-0.496
X11.816 Y-0.38
X11.859 Y-0.252
X11.882 Y-0.119
X11.841 Y0.123
X11.728 Y0.341
X11.553 Y0.514
X11.334 Y0.624
X11.091 Y0.663
G3 X10.812 Y0.216 R0.317
G1 X11.119 Y-0.474
G3 X11.398 Y-0.663 R0.318
G1 X11.605
X11.672 Y-0.659
X11.798 Y-0.61
X11.901 Y-0.523
X11.982 Y-0.415
X12.034 Y-0.29
X12.066 Y-0.159
X12.046 Y0.051
X11.971 Y0.249
X11.846 Y0.42
X11.68 Y0.551
X11.486 Y0.634
X11.276 Y0.663
G3 X11.001 Y0.209 R0.318
G1 X11.329 Y-0.482
G3 X11.605 Y-0.663 R0.318
G1 X11.771
X11.906 Y-0.656
X12.023 Y-0.588
X12.118 Y-0.492
X12.189 Y-0.377
X12.235 Y-0.25
X12.238 Y-0.024
X12.176 Y0.194
X12.055 Y0.386
X11.884 Y0.535
X11.679 Y0.63
X11.454 Y0.663
G3 X11.177 Y0.213 R0.318
G1 X11.494 Y-0.478
G3 X11.771 Y-0.663 R0.318
G1 X11.952
X12.087 Y-0.656
X12.205 Y-0.591
X12.302 Y-0.497
X12.37 Y-0.381
X12.415 Y-0.253
X12.437 Y-0.12
X12.409 Y0.083
X12.33 Y0.272
X12.205 Y0.434
X12.042 Y0.558
X11.853 Y0.636
X11.65 Y0.663
G3 X11.37 Y0.218 R0.317
G1 X11.672 Y-0.472
G3 X11.952 Y-0.663 R0.318
G1 X12.159
X12.226 Y-0.659
X12.352 Y-0.61
X12.456 Y-0.524
X12.537 Y-0.416
X12.59 Y-0.292
X12.622 Y-0.161
X12.605 Y0.049
X12.533 Y0.247
X12.411 Y0.418
X12.247 Y0.551
X12.053 Y0.634
X11.845 Y0.663
G3 X11.567 Y0.214 R0.317
G1 X11.881 Y-0.477
G3 X12.159 Y-0.663 R0.318
G1 X12.325
X12.46 Y-0.656
X12.577 Y-0.588
X12.672 Y-0.493
X12.744 Y-0.378
X12.792 Y-0.252
X12.796 Y-0.026
X12.736 Y0.193
X12.616 Y0.385
X12.446 Y0.535
X12.241 Y0.63
X12.017 Y0.663
G3 X11.738 Y0.216 R0.317
G1 X12.047 Y-0.475
G3 X12.325 Y-0.663 R0.318
G1 X12.506
X12.64 Y-0.656
X12.76 Y-0.592
X12.857 Y-0.498
X12.926 Y-0.382
X12.972 Y-0.255
X12.995 Y-0.122
X12.968 Y0.081
X12.89 Y0.27
X12.765 Y0.433
X12.602 Y0.557
X12.413 Y0.636
X12.21 Y0.663
G3 X11.929 Y0.22 R0.317
G1 X12.225 Y-0.47
G3 X12.506 Y-0.663 R0.317
G1 X12.713
X12.848 Y-0.656
X12.962 Y-0.583
X13.053 Y-0.484
X13.123 Y-0.369
X13.167 Y-0.241
X13.168 Y-0.016
X13.105 Y0.2
X12.984 Y0.389
X12.814 Y0.537
X12.609 Y0.63
X12.387 Y0.663
G3 X12.111 Y0.21 R0.318
G1 X12.437 Y-0.481
G3 X12.713 Y-0.663 R0.317
G1 X12.921
X12.989 Y-0.659
X13.112 Y-0.604
X13.213 Y-0.515
X13.287 Y-0.401
X13.338 Y-0.277
X13.349 Y-0.046
X13.292 Y0.178
X13.173 Y0.375
X13.002 Y0.53
X12.793 Y0.629
X12.565 Y0.663
G3 X12.294 Y0.2 R0.318
G1 X12.65 Y-0.491
G3 X12.921 Y-0.663 R0.318
G1 X13.087 Y-0.662
X13.122 Y-0.66
X13.156 Y-0.654
X13.26 Y-0.609
G3 X13.318 Y-0.364 R0.209
X12.936 Y-0.531 R0.209
X13.156 Y-0.654 R0.209
G1 X13.26 Y-0.609
X13.295 Y-0.582
X13.373 Y-0.484
X13.409 Y-0.381
X13.413 Y0.11
X13.406 Y0.245
X13.324 Y0.413
X13.193 Y0.547
X13.028 Y0.633
X12.843 Y0.663
G3 X12.348 Y-0.024 R0.536
X13.413 Y0.11 R0.543
G1 X13.412 Y0.346
X13.389 Y0.45
X13.322 Y0.554
X13.26 Y0.609
X13.156 Y0.654
X13.018 Y0.663
X9.987
G3 X9.946 Y0.658 R0.317
G1 X9.863 Y0.652
X-0.178 Y-0.079
G2 X-0.301 Y0.539 R0.317
G3 X-0.319 Y0.663 R0.063
G1 X-0.554
X-0.689 Y0.656
X-0.808 Y0.592
X-0.906 Y0.499
X-0.982 Y0.388
X-1.035 Y0.182
X-1.028 Y-0.03
X-0.963 Y-0.233
X-0.845 Y-0.409
X-0.682 Y-0.546
X-0.488 Y-0.633
X-0.278 Y-0.663
X-0.148
G3 X0.114 Y-0.184 R0.318
G1 X-0.291 Y0.506
G3 X-0.554 Y0.663 R0.318
G1 X-0.764
X-0.898 Y0.656
X-1.014 Y0.586
X-1.105 Y0.487
X-1.171 Y0.369
X-1.216 Y0.241
X-1.219 Y0.017
X-1.158 Y-0.199
X-1.038 Y-0.389
X-0.869 Y-0.536
X-0.666 Y-0.63
X-0.444 Y-0.663
X-0.278
G3 X-0.029 Y-0.163 R0.317
G1 X-0.515 Y0.528
G3 X-0.764 Y0.663 R0.318
G1 X-0.941
X-1.076 Y0.656
X-1.193 Y0.587
X-1.287 Y0.491
X-1.354 Y0.374
X-1.398 Y0.246
X-1.42 Y0.113
X-1.379 Y-0.127
X-1.267 Y-0.344
X-1.093 Y-0.515
X-0.876 Y-0.625
X-0.635 Y-0.663
X-0.444
G3 X-0.197 Y-0.16 R0.318
G1 X-0.695 Y0.531
G3 X-0.941 Y0.663 R0.318
G1 X-1.15
X-1.217 Y0.659
X-1.341 Y0.606
X-1.443 Y0.518
X-1.523 Y0.408
X-1.574 Y0.284
X-1.605 Y0.152
X-1.584 Y-0.057
X-1.509 Y-0.253
X-1.385 Y-0.422
X-1.22 Y-0.552
X-1.027 Y-0.634
X-0.819 Y-0.663
X-0.635
G3 X-0.392 Y-0.155 R0.318
G1 X-0.906 Y0.535
G3 X-1.15 Y0.663 R0.318
G1 X-1.317
X-1.452 Y0.656
X-1.567 Y0.585
X-1.661 Y0.487
X-1.731 Y0.372
X-1.776 Y0.245
X-1.778 Y0.019
X-1.715 Y-0.198
X-1.594 Y-0.388
X-1.424 Y-0.536
X-1.219 Y-0.63
X-0.995 Y-0.663
X-0.819
G3 X-0.573 Y-0.159 R0.317
G1 X-1.071 Y0.531
G3 X-1.317 Y0.663 R0.318
G1 X-1.495
X-1.63 Y0.656
X-1.748 Y0.59
X-1.844 Y0.495
X-1.912 Y0.378
X-1.956 Y0.251
X-1.978 Y0.117
X-1.938 Y-0.124
X-1.825 Y-0.342
X-1.651 Y-0.514
X-1.433 Y-0.624
X-1.191 Y-0.663
X-0.995
G3 X-0.749 Y-0.159 R0.318
G1 X-1.249 Y0.531
G3 X-1.495 Y0.663 R0.318
G1 X-1.704
X-1.771 Y0.659
X-1.896 Y0.608
X-1.999 Y0.521
X-2.079 Y0.412
X-2.131 Y0.288
X-2.163 Y0.156
X-2.143 Y-0.053
X-2.068 Y-0.251
X-1.943 Y-0.421
X-1.778 Y-0.552
X-1.584 Y-0.634
X-1.375 Y-0.663
X-1.191
G3 X-0.947 Y-0.156 R0.318
G1 X-1.46 Y0.534
G3 X-1.704 Y0.663 R0.318
G1 X-1.871
X-2.006 Y0.656
X-2.122 Y0.586
X-2.216 Y0.49
X-2.287 Y0.375
X-2.333 Y0.248
X-2.335 Y0.021
X-2.273 Y-0.196
X-2.152 Y-0.387
X-1.981 Y-0.536
X-1.776 Y-0.63
X-1.552 Y-0.663
X-1.375
G3 X-1.128 Y-0.16 R0.317
G1 X-1.625 Y0.531
G3 X-1.871 Y0.663 R0.318
G1 X-2.049
X-2.184 Y0.656
X-2.303 Y0.591
X-2.399 Y0.497
X-2.467 Y0.38
X-2.513 Y0.253
X-2.535 Y0.12
X-2.507 Y-0.083
X-2.428 Y-0.272
X-2.303 Y-0.434
X-2.14 Y-0.558
X-1.951 Y-0.636
X-1.748 Y-0.663
X-1.552
G3 X-1.306 Y-0.16 R0.318
G1 X-1.803 Y0.531
G3 X-2.049 Y0.663 R0.318
G1 X-2.258
X-2.325 Y0.659
X-2.451 Y0.609
X-2.554 Y0.523
X-2.635 Y0.415
X-2.688 Y0.291
X-2.719 Y0.159
X-2.703 Y-0.05
X-2.631 Y-0.248
X-2.508 Y-0.419
X-2.344 Y-0.551
X-2.151 Y-0.634
X-1.943 Y-0.663
X-1.748
G3 X-1.504 Y-0.157 R0.317
G1 X-2.013 Y0.534
G3 X-2.258 Y0.663 R0.318
G1 X-2.425
X-2.56 Y0.656
X-2.677 Y0.587
X-2.771 Y0.491
X-2.843 Y0.376
X-2.89 Y0.25
X-2.894 Y0.024
X-2.833 Y-0.194
X-2.713 Y-0.386
X-2.544 Y-0.535
X-2.338 Y-0.63
X-2.115 Y-0.663
X-1.943
G3 X-1.694 Y-0.163 R0.318
G1 X-2.176 Y0.527
G3 X-2.425 Y0.663 R0.318
G1 X-2.603
X-2.738 Y0.656
X-2.857 Y0.592
X-2.954 Y0.498
X-3.023 Y0.382
X-3.07 Y0.256
X-3.093 Y0.123
X-3.066 Y-0.081
X-2.988 Y-0.27
X-2.863 Y-0.433
X-2.7 Y-0.557
X-2.511 Y-0.636
X-2.308 Y-0.663
X-2.115
G3 X-1.866 Y-0.162 R0.318
G1 X-2.355 Y0.529
G3 X-2.603 Y0.663 R0.318
G1 X-2.812
X-2.946 Y0.656
X-3.06 Y0.583
X-3.152 Y0.484
X-3.221 Y0.368
X-3.265 Y0.24
X-3.266 Y0.015
X-3.203 Y-0.2
X-3.081 Y-0.39
X-2.912 Y-0.537
X-2.707 Y-0.63
X-2.485 Y-0.663
X-2.308
G3 X-2.063 Y-0.158 R0.318
G1 X-2.566 Y0.532
G3 X-2.812 Y0.663 R0.318
G1 X-2.984
X-3.119 Y0.656
X-3.237 Y0.59
X-3.332 Y0.494
X-3.4 Y0.377
X-3.445 Y0.25
X-3.449 Y0.024
X-3.388 Y-0.194
X-3.268 Y-0.386
X-3.098 Y-0.535
X-2.892 Y-0.63
X-2.668 Y-0.663
X-2.485
G3 X-2.239 Y-0.159 R0.318
G1 X-2.738 Y0.531
G3 X-2.984 Y0.663 R0.318
G1 X-3.185
X-3.32 Y0.656
X-3.434 Y0.583
X-3.525 Y0.484
X-3.591 Y0.366
X-3.627 Y0.122
X-3.587 Y-0.121
X-3.474 Y-0.339
X-3.3 Y-0.513
X-3.08 Y-0.624
X-2.837 Y-0.663
X-2.668
G3 X-2.425 Y-0.155 R0.317
G1 X-2.942 Y0.535
G3 X-3.185 Y0.663 R0.318
G1 X-3.366
X-3.5 Y0.656
X-3.616 Y0.585
X-3.702 Y0.482
X-3.766 Y0.363
X-3.801 Y0.12
X-3.76 Y-0.123
X-3.646 Y-0.341
X-3.471 Y-0.514
X-3.252 Y-0.624
X-3.009 Y-0.663
X-2.837
G3 X-2.596 Y-0.152 R0.318
G1 X-3.125 Y0.538
G3 X-3.366 Y0.663 R0.318
G1 X-3.538
X-3.673 Y0.656
X-3.789 Y0.586
X-3.875 Y0.482
X-3.94 Y0.364
X-3.975 Y0.12
X-3.933 Y-0.122
X-3.819 Y-0.341
X-3.644 Y-0.513
X-3.424 Y-0.624
X-3.181 Y-0.663
X-3.009
G3 X-2.768 Y-0.152 R0.318
G1 X-3.297 Y0.538
G3 X-3.538 Y0.663 R0.318
G1 X-3.739
X-3.807 Y0.659
X-3.929 Y0.603
X-4.025 Y0.507
X-4.097 Y0.393
X-4.142 Y0.266
X-4.167 Y0.133
X-4.139 Y-0.073
X-4.06 Y-0.265
X-3.933 Y-0.429
X-3.768 Y-0.556
X-3.576 Y-0.635
X-3.37 Y-0.663
X-3.181
G3 X-2.945 Y-0.146 R0.318
G1 X-3.503 Y0.545
G3 X-3.739 Y0.663 R0.318
G1 X-3.878
X-4.012 Y0.656
X-4.129 Y0.587
X-4.222 Y0.489
X-4.292 Y0.374
X-4.337 Y0.247
X-4.338 Y0.021
X-4.275 Y-0.197
X-4.153 Y-0.387
X-3.982 Y-0.536
X-3.776 Y-0.63
X-3.552 Y-0.663
X-3.37
G3 X-3.126 Y-0.157 R0.317
G1 X-3.633 Y0.533
G3 X-3.878 Y0.663 R0.318
G1 X-4.058
X-4.193 Y0.656
X-4.311 Y0.59
X-4.406 Y0.494
X-4.473 Y0.377
X-4.517 Y0.25
X-4.539 Y0.116
X-4.497 Y-0.125
X-4.384 Y-0.342
X-4.21 Y-0.514
X-3.991 Y-0.625
X-3.749 Y-0.663
X-3.552
G3 X-3.307 Y-0.158 R0.318
G1 X-3.813 Y0.533
G3 X-4.058 Y0.663 R0.318
G1 X-4.265
X-4.332 Y0.659
X-4.458 Y0.608
X-4.56 Y0.521
X-4.64 Y0.412
X-4.692 Y0.288
X-4.723 Y0.156
X-4.703 Y-0.054
X-4.627 Y-0.251
X-4.503 Y-0.421
X-4.337 Y-0.552
X-4.143 Y-0.634
X-3.934 Y-0.663
X-3.749
G3 X-3.506 Y-0.155 R0.317
G1 X-4.022 Y0.535
G3 X-4.265 Y0.663 R0.318
G1 X-4.432
X-4.566 Y0.656
X-4.682 Y0.586
X-4.777 Y0.49
X-4.847 Y0.375
X-4.893 Y0.248
X-4.895 Y0.022
X-4.833 Y-0.196
X-4.712 Y-0.387
X-4.541 Y-0.536
X-4.336 Y-0.63
X-4.112 Y-0.663
X-3.934
G3 X-3.688 Y-0.16 R0.317
G1 X-4.185 Y0.531
G3 X-4.432 Y0.663 R0.318
G1 X-4.612
X-4.747 Y0.656
X-4.865 Y0.59
X-4.961 Y0.495
X-5.029 Y0.379
X-5.074 Y0.251
X-5.095 Y0.118
X-5.055 Y-0.124
X-4.942 Y-0.341
X-4.768 Y-0.514
X-4.55 Y-0.624
X-4.308 Y-0.663
X-4.112
G3 X-3.866 Y-0.159 R0.318
G1 X-4.366 Y0.531
G3 X-4.612 Y0.663 R0.318
G1 X-4.819
X-4.886 Y0.659
X-5.012 Y0.609
X-5.115 Y0.522
X-5.196 Y0.414
X-5.248 Y0.29
X-5.28 Y0.158
X-5.26 Y-0.052
X-5.185 Y-0.249
X-5.061 Y-0.42
X-4.895 Y-0.551
X-4.701 Y-0.634
X-4.492 Y-0.663
X-4.308
G3 X-4.064 Y-0.156 R0.317
G1 X-4.575 Y0.534
G3 X-4.819 Y0.663 R0.318
G1 X-4.986
X-5.12 Y0.656
X-5.237 Y0.587
X-5.332 Y0.491
X-5.403 Y0.377
X-5.449 Y0.25
X-5.452 Y0.023
X-5.39 Y-0.195
X-5.269 Y-0.386
X-5.099 Y-0.535
X-4.893 Y-0.63
X-4.669 Y-0.663
X-4.492
G3 X-4.244 Y-0.16 R0.318
G1 X-4.738 Y0.53
G3 X-4.986 Y0.663 R0.318
G1 X-5.166
X-5.301 Y0.656
X-5.419 Y0.591
X-5.516 Y0.497
X-5.584 Y0.38
X-5.629 Y0.253
X-5.651 Y0.12
X-5.624 Y-0.083
X-5.544 Y-0.272
X-5.419 Y-0.434
X-5.256 Y-0.558
X-5.067 Y-0.636
X-4.864 Y-0.663
X-4.669
G3 X-4.422 Y-0.16 R0.318
G1 X-4.919 Y0.531
G3 X-5.166 Y0.663 R0.318
G1 X-5.373
X-5.44 Y0.659
X-5.566 Y0.61
X-5.67 Y0.524
X-5.751 Y0.416
X-5.804 Y0.292
X-5.836 Y0.161
X-5.819 Y-0.049
X-5.747 Y-0.247
X-5.625 Y-0.418
X-5.461 Y-0.551
X-5.268 Y-0.634
X-5.059 Y-0.663
X-4.864
G3 X-4.62 Y-0.157 R0.317
G1 X-5.128 Y0.534
G3 X-5.373 Y0.663 R0.318
G1 X-5.539
X-5.674 Y0.656
X-5.791 Y0.588
X-5.887 Y0.493
X-5.958 Y0.378
X-6.006 Y0.252
X-6.01 Y0.025
X-5.95 Y-0.193
X-5.83 Y-0.385
X-5.66 Y-0.535
X-5.455 Y-0.63
X-5.231 Y-0.663
X-5.059
G3 X-4.81 Y-0.164 R0.317
G1 X-5.29 Y0.527
G3 X-5.539 Y0.663 R0.318
G1 X-5.72
X-5.855 Y0.656
X-5.974 Y0.592
X-6.071 Y0.498
X-6.14 Y0.382
X-6.186 Y0.255
X-6.209 Y0.122
X-6.182 Y-0.081
X-6.104 Y-0.27
X-5.979 Y-0.433
X-5.816 Y-0.557
X-5.627 Y-0.636
X-5.424 Y-0.663
X-5.231
G3 X-4.983 Y-0.162 R0.318
G1 X-5.472 Y0.529
G3 X-5.72 Y0.663 R0.318
G1 X-5.927
X-6.062 Y0.656
X-6.176 Y0.583
X-6.267 Y0.484
X-6.337 Y0.369
X-6.381 Y0.241
X-6.382 Y0.016
X-6.319 Y-0.2
X-6.198 Y-0.389
X-6.028 Y-0.537
X-5.823 Y-0.63
X-5.601 Y-0.663
X-5.424
G3 X-5.178 Y-0.158 R0.317
G1 X-5.681 Y0.532
G3 X-5.927 Y0.663 R0.318
G1 X-6.135
X-6.203 Y0.659
X-6.326 Y0.604
X-6.427 Y0.515
X-6.501 Y0.401
X-6.552 Y0.277
X-6.563 Y0.046
X-6.506 Y-0.178
X-6.387 Y-0.375
X-6.216 Y-0.53
X-6.007 Y-0.629
X-5.779 Y-0.663
X-5.601
G3 X-5.361 Y-0.151 R0.317
G1 X-5.895 Y0.54
G3 X-6.135 Y0.663 R0.318
G1 X-6.274
X-6.409 Y0.656
X-6.528 Y0.592
X-6.624 Y0.497
X-6.693 Y0.381
X-6.737 Y0.254
X-6.76 Y0.121
X-6.731 Y-0.083
X-6.651 Y-0.271
X-6.526 Y-0.434
X-6.362 Y-0.558
X-6.173 Y-0.636
X-5.969 Y-0.663
X-5.779
G3 X-5.532 Y-0.16 R0.318
G1 X-6.027 Y0.53
G3 X-6.274 Y0.663 R0.318
G1 X-6.481
X-6.616 Y0.656
X-6.729 Y0.583
X-6.82 Y0.483
X-6.889 Y0.367
X-6.933 Y0.239
X-6.932 Y0.014
X-6.868 Y-0.201
X-6.746 Y-0.39
X-6.576 Y-0.537
X-6.372 Y-0.631
X-6.149 Y-0.663
X-5.969
G3 X-5.725 Y-0.156 R0.317
G1 X-6.237 Y0.534
G3 X-6.481 Y0.663 R0.318
G1 X-6.689
X-6.757 Y0.659
X-6.879 Y0.603
X-6.98 Y0.513
X-7.053 Y0.4
X-7.104 Y0.274
X-7.113 Y0.044
X-7.056 Y-0.179
X-6.937 Y-0.376
X-6.765 Y-0.531
X-6.557 Y-0.629
X-6.329 Y-0.663
X-6.149
G3 X-5.91 Y-0.15 R0.318
G1 X-6.45 Y0.541
G3 X-6.689 Y0.663 R0.318
G1 X-6.828
X-6.963 Y0.656
X-7.081 Y0.591
X-7.177 Y0.496
X-7.245 Y0.379
X-7.289 Y0.252
X-7.311 Y0.118
X-7.27 Y-0.124
X-7.156 Y-0.341
X-6.982 Y-0.514
X-6.762 Y-0.624
X-6.52 Y-0.663
X-6.329
G3 X-6.082 Y-0.159 R0.318
G1 X-6.581 Y0.531
G3 X-6.828 Y0.663 R0.318
G1 X-7.035
X-7.102 Y0.659
X-7.228 Y0.61
X-7.331 Y0.523
X-7.411 Y0.414
X-7.464 Y0.29
X-7.495 Y0.158
X-7.475 Y-0.052
X-7.4 Y-0.25
X-7.275 Y-0.42
X-7.109 Y-0.551
X-6.915 Y-0.634
X-6.705 Y-0.663
X-6.52
G3 X-6.276 Y-0.155 R0.317
G1 X-6.791 Y0.535
G3 X-7.035 Y0.663 R0.318
G1 X-7.201
X-7.336 Y0.656
X-7.453 Y0.587
X-7.547 Y0.491
X-7.618 Y0.376
X-7.665 Y0.25
X-7.667 Y0.023
X-7.605 Y-0.195
X-7.484 Y-0.386
X-7.313 Y-0.535
X-7.108 Y-0.63
X-6.883 Y-0.663
X-6.705
G3 X-6.459 Y-0.16 R0.317
G1 X-6.954 Y0.53
G3 X-7.201 Y0.663 R0.318
G1 X-7.382
X-7.516 Y0.656
X-7.635 Y0.591
X-7.731 Y0.497
X-7.8 Y0.38
X-7.845 Y0.253
X-7.867 Y0.12
X-7.827 Y-0.122
X-7.714 Y-0.341
X-7.54 Y-0.513
X-7.321 Y-0.624
X-7.079 Y-0.663
X-6.883
G3 X-6.637 Y-0.159 R0.317
G1 X-7.135 Y0.531
G3 X-7.382 Y0.663 R0.318
G1 X-7.589
X-7.656 Y0.659
X-7.782 Y0.61
X-7.886 Y0.524
X-7.966 Y0.415
X-8.019 Y0.291
X-8.051 Y0.16
X-8.031 Y-0.051
X-7.957 Y-0.249
X-7.832 Y-0.419
X-7.667 Y-0.551
X-7.472 Y-0.634
X-7.263 Y-0.663
X-7.079
G3 X-6.835 Y-0.157 R0.318
G1 X-7.344 Y0.534
G3 X-7.589 Y0.663 R0.318
G1 X-7.755
X-7.89 Y0.656
X-8.007 Y0.588
X-8.102 Y0.492
X-8.173 Y0.378
X-8.22 Y0.251
X-8.223 Y0.024
X-8.161 Y-0.194
X-8.041 Y-0.386
X-7.87 Y-0.535
X-7.664 Y-0.63
X-7.44 Y-0.663
X-7.263
G3 X-7.015 Y-0.161 R0.317
G1 X-7.508 Y0.53
G3 X-7.755 Y0.663 R0.318
G1 X-7.936
X-8.07 Y0.656
X-8.189 Y0.592
X-8.286 Y0.498
X-8.355 Y0.381
X-8.4 Y0.254
X-8.422 Y0.121
X-8.395 Y-0.082
X-8.316 Y-0.271
X-8.19 Y-0.433
X-8.028 Y-0.558
X-7.838 Y-0.636
X-7.635 Y-0.663
X-7.44
G3 X-7.193 Y-0.16 R0.318
G1 X-7.689 Y0.53
G3 X-7.936 Y0.663 R0.318
G1 X-8.143
X-8.277 Y0.656
X-8.391 Y0.583
X-8.482 Y0.483
X-8.551 Y0.367
X-8.595 Y0.24
Y0.015
X-8.532 Y-0.201
X-8.41 Y-0.39
X-8.24 Y-0.537
X-8.036 Y-0.631
X-7.813 Y-0.663
X-7.635
G3 X-7.39 Y-0.157 R0.317
G1 X-7.898 Y0.533
G3 X-8.143 Y0.663 R0.318
G1 X-8.351
X-8.418 Y0.659
X-8.541 Y0.603
X-8.642 Y0.514
X-8.715 Y0.4
X-8.766 Y0.275
X-8.776 Y0.045
X-8.719 Y-0.179
X-8.6 Y-0.376
X-8.429 Y-0.531
X-8.22 Y-0.629
X-7.992 Y-0.663
X-7.813
G3 X-7.574 Y-0.15 R0.318
G1 X-8.112 Y0.54
G3 X-8.351 Y0.663 R0.318
G1 X-8.49
X-8.624 Y0.656
X-8.743 Y0.591
X-8.839 Y0.496
X-8.908 Y0.38
X-8.951 Y0.252
X-8.974 Y0.119
X-8.933 Y-0.123
X-8.819 Y-0.341
X-8.645 Y-0.514
X-8.425 Y-0.624
X-8.183 Y-0.663
X-7.992
G3 X-7.746 Y-0.16 R0.318
G1 X-8.243 Y0.531
G3 X-8.49 Y0.663 R0.318
G1 X-8.697
X-8.764 Y0.659
X-8.89 Y0.61
X-8.993 Y0.523
X-9.074 Y0.415
X-9.126 Y0.29
X-9.157 Y0.159
X-9.138 Y-0.051
X-9.063 Y-0.249
X-8.938 Y-0.42
X-8.772 Y-0.551
X-8.578 Y-0.634
X-8.368 Y-0.663
X-8.183
G3 X-7.939 Y-0.156 R0.317
G1 X-8.453 Y0.535
G3 X-8.697 Y0.663 R0.317
G1 X-8.863
X-8.998 Y0.656
X-9.114 Y0.588
X-9.209 Y0.492
X-9.281 Y0.377
X-9.327 Y0.25
X-9.33 Y0.024
X-9.268 Y-0.194
X-9.147 Y-0.386
X-8.976 Y-0.535
X-8.77 Y-0.63
X-8.546 Y-0.663
X-8.368
G3 X-8.121 Y-0.16 R0.318
G1 X-8.616 Y0.53
G3 X-8.863 Y0.663 R0.317
G1 X-9.044
X-9.178 Y0.656
X-9.297 Y0.591
X-9.393 Y0.497
X-9.462 Y0.381
X-9.507 Y0.253
X-9.529 Y0.12
X-9.501 Y-0.083
X-9.422 Y-0.272
X-9.297 Y-0.434
X-9.134 Y-0.558
X-8.945 Y-0.636
X-8.742 Y-0.663
X-8.546
G3 X-8.3 Y-0.16 R0.317
G1 X-8.797 Y0.531
G3 X-9.044 Y0.663 R0.318
G1 X-9.251
X-9.318 Y0.659
X-9.444 Y0.61
X-9.548 Y0.524
X-9.629 Y0.416
X-9.682 Y0.292
X-9.714 Y0.161
X-9.697 Y-0.049
X-9.625 Y-0.247
X-9.503 Y-0.418
X-9.339 Y-0.551
X-9.145 Y-0.634
X-8.937 Y-0.663
X-8.742
G3 X-8.497 Y-0.157 R0.317
G1 X-9.006 Y0.534
G3 X-9.251 Y0.663 R0.318
G1 X-9.417
X-9.552 Y0.656
X-9.669 Y0.588
X-9.764 Y0.493
X-9.836 Y0.378
X-9.883 Y0.252
X-9.888 Y0.026
X-9.828 Y-0.193
X-9.708 Y-0.385
X-9.538 Y-0.535
X-9.332 Y-0.63
X-9.108 Y-0.663
X-8.937
G3 X-8.687 Y-0.164 R0.318
G1 X-9.168 Y0.527
G3 X-9.417 Y0.663 R0.318
G1 X-9.597
X-9.732 Y0.656
X-9.851 Y0.592
X-9.948 Y0.498
X-10.018 Y0.382
X-10.064 Y0.255
X-10.087 Y0.122
X-10.06 Y-0.081
X-9.981 Y-0.27
X-9.857 Y-0.433
X-9.694 Y-0.557
X-9.505 Y-0.636
X-9.301 Y-0.663
X-9.108
G3 X-8.86 Y-0.162 R0.318
G1 X-9.349 Y0.529
G3 X-9.597 Y0.663 R0.318
G1 X-9.804
X-9.939 Y0.656
X-10.053 Y0.583
X-10.145 Y0.484
X-10.214 Y0.369
X-10.259 Y0.241
Y0.016
X-10.197 Y-0.2
X-10.075 Y-0.389
X-9.906 Y-0.537
X-9.701 Y-0.63
X-9.478 Y-0.663
X-9.301
G3 X-9.056 Y-0.158 R0.318
G1 X-9.559 Y0.532
G3 X-9.804 Y0.663 R0.318
G1 X-10.013
X-10.08 Y0.659
X-10.203 Y0.604
X-10.305 Y0.515
X-10.378 Y0.401
X-10.43 Y0.277
X-10.44 Y0.046
X-10.384 Y-0.178
X-10.265 Y-0.375
X-10.094 Y-0.53
X-9.885 Y-0.629
X-9.657 Y-0.663
X-9.478
G3 X-9.238 Y-0.151 R0.317
G1 X-9.773 Y0.54
G3 X-10.013 Y0.663 R0.318
G1 X-10.151
X-10.286 Y0.656
X-10.405 Y0.592
X-10.501 Y0.497
X-10.571 Y0.381
X-10.615 Y0.254
X-10.637 Y0.121
X-10.609 Y-0.082
X-10.529 Y-0.271
X-10.403 Y-0.434
X-10.24 Y-0.558
X-10.05 Y-0.636
X-9.847 Y-0.663
X-9.657
G3 X-9.41 Y-0.16 R0.318
G1 X-9.904 Y0.53
G3 X-10.151 Y0.663 R0.318
G1 X-10.358
X-10.493 Y0.656
X-10.607 Y0.583
X-10.698 Y0.483
X-10.767 Y0.367
X-10.81 Y0.239
Y0.014
X-10.746 Y-0.201
X-10.624 Y-0.39
X-10.454 Y-0.537
X-10.249 Y-0.631
X-10.027 Y-0.663
X-9.847
G3 X-9.603 Y-0.156 R0.318
G1 X-10.114 Y0.534
G3 X-10.358 Y0.663 R0.317
G1 X-10.567
X-10.634 Y0.659
X-10.757 Y0.603
X-10.858 Y0.513
X-10.931 Y0.4
X-10.981 Y0.274
X-10.991 Y0.044
X-10.934 Y-0.179
X-10.814 Y-0.376
X-10.643 Y-0.531
X-10.434 Y-0.629
X-10.206 Y-0.663
G3 X-9.936 Y-0.198 R0.317
G1 X-10.297 Y0.492
G3 X-10.567 Y0.663 R0.318
G1 X-10.705
X-10.84 Y0.656
X-10.959 Y0.591
X-11.054 Y0.496
X-11.123 Y0.379
X-11.166 Y0.252
X-11.189 Y0.119
X-11.147 Y-0.124
X-11.034 Y-0.341
X-10.859 Y-0.514
X-10.64 Y-0.624
X-10.397 Y-0.663
G3 X-10.118 Y-0.216 R0.318
G1 X-10.426 Y0.475
G3 X-10.705 Y0.663 R0.318
G1 X-10.912
X-10.98 Y0.659
X-11.105 Y0.61
X-11.209 Y0.523
X-11.289 Y0.414
X-11.341 Y0.29
X-11.373 Y0.158
X-11.352 Y-0.052
X-11.277 Y-0.25
X-11.153 Y-0.42
X-10.987 Y-0.551
X-10.793 Y-0.634
X-10.583 Y-0.663
G3 X-10.308 Y-0.209 R0.318
G1 X-10.637 Y0.482
G3 X-10.912 Y0.663 R0.318
G1 X-11.079
X-11.214 Y0.656
X-11.33 Y0.587
X-11.425 Y0.491
X-11.496 Y0.376
X-11.542 Y0.25
X-11.545 Y0.023
X-11.483 Y-0.195
X-11.361 Y-0.386
X-11.191 Y-0.535
X-10.985 Y-0.63
X-10.761 Y-0.663
G3 X-10.484 Y-0.212 R0.318
G1 X-10.802 Y0.478
G3 X-11.079 Y0.663 R0.318
G1 X-11.259
X-11.394 Y0.656
X-11.513 Y0.591
X-11.609 Y0.497
X-11.677 Y0.38
X-11.722 Y0.253
X-11.744 Y0.12
X-11.716 Y-0.083
X-11.637 Y-0.272
X-11.512 Y-0.434
X-11.349 Y-0.558
X-11.16 Y-0.636
X-10.957 Y-0.663
G3 X-10.677 Y-0.218 R0.317
G1 X-10.98 Y0.473
G3 X-11.259 Y0.663 R0.318
G1 X-11.466
X-11.534 Y0.659
X-11.659 Y0.61
X-11.763 Y0.524
X-11.844 Y0.415
X-11.897 Y0.291
X-11.929 Y0.16
X-11.912 Y-0.05
X-11.84 Y-0.247
X-11.718 Y-0.419
X-11.554 Y-0.551
X-11.36 Y-0.634
X-11.152 Y-0.663
G3 X-10.874 Y-0.214 R0.317
G1 X-11.188 Y0.477
G3 X-11.466 Y0.663 R0.318
G1 X-11.633
X-11.768 Y0.656
X-11.884 Y0.588
X-11.98 Y0.492
X-12.051 Y0.378
X-12.099 Y0.251
X-12.103 Y0.025
X-12.043 Y-0.193
X-11.923 Y-0.385
X-11.753 Y-0.535
X-11.548 Y-0.63
X-11.324 Y-0.663
G3 X-11.045 Y-0.215 R0.318
G1 X-11.354 Y0.475
G3 X-11.633 Y0.663 R0.318
G1 X-11.813
X-11.948 Y0.656
X-12.067 Y0.592
X-12.164 Y0.498
X-12.233 Y0.382
X-12.279 Y0.255
X-12.302 Y0.122
X-12.275 Y-0.081
X-12.196 Y-0.27
X-12.072 Y-0.433
X-11.909 Y-0.557
X-11.72 Y-0.636
X-11.517 Y-0.663
G3 X-11.236 Y-0.22 R0.318
G1 X-11.533 Y0.47
G3 X-11.813 Y0.663 R0.318
G1 X-12.02
X-12.155 Y0.656
X-12.269 Y0.583
X-12.361 Y0.484
X-12.43 Y0.368
X-12.474 Y0.241
X-12.475 Y0.016
X-12.412 Y-0.2
X-12.291 Y-0.389
X-12.121 Y-0.537
X-11.916 Y-0.63
X-11.694 Y-0.663
G3 X-11.418 Y-0.209 R0.317
G1 X-11.744 Y0.481
G3 X-12.02 Y0.663 R0.317
G1 X-12.229
X-12.296 Y0.659
X-12.419 Y0.604
X-12.521 Y0.515
X-12.594 Y0.401
X-12.645 Y0.276
X-12.656 Y0.046
X-12.599 Y-0.178
X-12.48 Y-0.376
X-12.309 Y-0.53
X-12.1 Y-0.629
X-11.872 Y-0.663
G3 X-11.601 Y-0.199 R0.318
G1 X-11.958 Y0.491
G3 X-12.229 Y0.663 R0.318
G1 X-12.367
X-12.502 Y0.656
X-12.621 Y0.592
X-12.717 Y0.497
X-12.786 Y0.381
X-12.83 Y0.253
X-12.853 Y0.12
X-12.824 Y-0.083
X-12.744 Y-0.272
X-12.619 Y-0.434
X-12.455 Y-0.558
X-12.266 Y-0.636
X-12.062 Y-0.663
G3 X-11.783 Y-0.217 R0.318
G1 X-12.088 Y0.473
G3 X-12.367 Y0.663 R0.318
G1 X-12.574
X-12.709 Y0.656
X-12.823 Y0.583
X-12.914 Y0.483
X-12.982 Y0.367
X-13.026 Y0.239
X-13.025 Y0.014
X-12.961 Y-0.201
X-12.839 Y-0.39
X-12.669 Y-0.537
X-12.465 Y-0.631
X-12.242 Y-0.663
G3 X-11.967 Y-0.208 R0.318
G1 X-12.299 Y0.483
G3 X-12.574 Y0.663 R0.318
G1 X-12.783
X-12.85 Y0.659
X-12.973 Y0.603
X-13.074 Y0.513
X-13.146 Y0.399
X-13.197 Y0.274
X-13.207 Y0.044
X-13.149 Y-0.179
X-13.03 Y-0.376
X-12.858 Y-0.531
X-12.65 Y-0.629
X-12.422 Y-0.663
G3 X-12.151 Y-0.198 R0.317
G1 X-12.512 Y0.492
G3 X-12.783 Y0.663 R0.318
G1 X-12.921
X-13.056 Y0.656
X-13.174 Y0.591
X-13.27 Y0.496
X-13.338 Y0.379
X-13.382 Y0.251
X-13.404 Y0.118
X-13.363 Y-0.124
X-13.249 Y-0.341
X-13.075 Y-0.514
X-12.855 Y-0.624
X-12.613 Y-0.663
G3 X-12.334 Y-0.216 R0.317
G1 X-12.642 Y0.475
G3 X-12.921 Y0.663 R0.318
G1 X-13.122 Y0.66
X-13.225 Y0.629
X-13.295 Y0.582
X-13.373 Y0.484
X-13.409 Y0.381
X-13.413 Y-0.18
Y-0.209
Y-0.246
X-13.406 Y-0.381
X-13.288 Y-0.53
X-13.126 Y-0.628
X-12.939 Y-0.663
G3 X-12.574 Y-0.094 R0.411
X-13.413 Y-0.246 R0.436
G1 X-13.409 Y-0.381
X-13.373 Y-0.484
X-13.295 Y-0.582
X-13.225 Y-0.629
X-13.122 Y-0.66
X-10.027 Y-0.663
G3 X-9.906 Y-0.634 R0.318
G1 X-9.842 Y-0.605 Z-4.792
X-9.781 Y-0.577 Z-4.769
X-9.726 Y-0.552 Z-4.731
X-9.68 Y-0.531 Z-4.68
X-9.646 Y-0.515 Z-4.62
X-9.624 Y-0.506 Z-4.553
X-9.617 Y-0.502 Z-4.483
G0 Z15.

M9
M30
