(   4  1_5)
(T3  D=3.175 CR=0. - ZMIN=-4.8 - FLAT END MILL)
G90 G94 G91.1 G40 G49 G17
G21

(2D ADAPTIVE3)
M5
M9
T3
S5500 M3
G54
M8
G0 X0.05 Y-0.253
G43 Z15. H3
Z5.
Z3.063
G1 Z2.745 F351.
G3 X-0.05 Y0.253 Z2.717 R0.258
X0.05 Y-0.253 Z2.688 R0.258
X-0.05 Y0.253 Z2.66 R0.258
X0.05 Y-0.253 Z2.632 R0.258
X-0.05 Y0.253 Z2.603 R0.258
X0.05 Y-0.253 Z2.575 R0.258
X-0.05 Y0.253 Z2.547 R0.258
X0.05 Y-0.253 Z2.518 R0.258
X-0.05 Y0.253 Z2.49 R0.258
X0.05 Y-0.253 Z2.462 R0.258
X-0.05 Y0.253 Z2.434 R0.258
X0.05 Y-0.253 Z2.405 R0.258
X-0.05 Y0.253 Z2.377 R0.258
X0.05 Y-0.253 Z2.349 R0.258
X-0.05 Y0.253 Z2.32 R0.258
X0.05 Y-0.253 Z2.292 R0.258
X-0.05 Y0.253 Z2.264 R0.258
X0.05 Y-0.253 Z2.235 R0.258
X-0.05 Y0.253 Z2.207 R0.258
X0.05 Y-0.253 Z2.179 R0.258
X-0.05 Y0.253 Z2.15 R0.258
X0.05 Y-0.253 Z2.122 R0.258
X-0.05 Y0.253 Z2.094 R0.258
X0.05 Y-0.253 Z2.065 R0.258
X-0.05 Y0.253 Z2.037 R0.258
X0.05 Y-0.253 Z2.009 R0.258
X-0.05 Y0.253 Z1.98 R0.258
X0.05 Y-0.253 Z1.952 R0.258
X-0.05 Y0.253 Z1.924 R0.258
X0.05 Y-0.253 Z1.895 R0.258
X-0.05 Y0.253 Z1.867 R0.258
X0.05 Y-0.253 Z1.839 R0.258
X-0.05 Y0.253 Z1.811 R0.258
X0.05 Y-0.253 Z1.782 R0.258
X-0.05 Y0.253 Z1.754 R0.258
X0.05 Y-0.253 Z1.726 R0.258
X-0.05 Y0.253 Z1.697 R0.258
X0.05 Y-0.253 Z1.669 R0.258
X-0.05 Y0.253 Z1.641 R0.258
X0.05 Y-0.253 Z1.612 R0.258
X-0.05 Y0.253 Z1.584 R0.258
X0.05 Y-0.253 Z1.556 R0.258
X-0.05 Y0.253 Z1.527 R0.258
X0.05 Y-0.253 Z1.499 R0.258
X-0.05 Y0.253 Z1.471 R0.258
X0.05 Y-0.253 Z1.442 R0.258
X-0.05 Y0.253 Z1.414 R0.258
X0.05 Y-0.253 Z1.386 R0.258
X-0.05 Y0.253 Z1.357 R0.258
X0.05 Y-0.253 Z1.329 R0.258
X-0.05 Y0.253 Z1.301 R0.258
X0.05 Y-0.253 Z1.272 R0.258
X-0.05 Y0.253 Z1.244 R0.258
X0.05 Y-0.253 Z1.216 R0.258
X-0.05 Y0.253 Z1.188 R0.258
X0.05 Y-0.253 Z1.159 R0.258
X-0.05 Y0.253 Z1.131 R0.258
X0.05 Y-0.253 Z1.103 R0.258
X-0.05 Y0.253 Z1.074 R0.258
X0.05 Y-0.253 Z1.046 R0.258
X-0.05 Y0.253 Z1.018 R0.258
X0.05 Y-0.253 Z0.989 R0.258
X-0.05 Y0.253 Z0.961 R0.258
X0.05 Y-0.253 Z0.933 R0.258
X-0.05 Y0.253 Z0.904 R0.258
X0.05 Y-0.253 Z0.876 R0.258
X-0.05 Y0.253 Z0.848 R0.258
X0.05 Y-0.253 Z0.819 R0.258
X-0.05 Y0.253 Z0.791 R0.258
X0.05 Y-0.253 Z0.763 R0.258
X-0.05 Y0.253 Z0.734 R0.258
X0.05 Y-0.253 Z0.706 R0.258
X-0.05 Y0.253 Z0.678 R0.258
X0.05 Y-0.253 Z0.649 R0.258
X-0.05 Y0.253 Z0.621 R0.258
X0.05 Y-0.253 Z0.593 R0.258
X-0.05 Y0.253 Z0.565 R0.258
X0.05 Y-0.253 Z0.536 R0.258
X-0.05 Y0.253 Z0.508 R0.258
X0.05 Y-0.253 Z0.48 R0.258
X-0.05 Y0.253 Z0.451 R0.258
X0.05 Y-0.253 Z0.423 R0.258
X-0.05 Y0.253 Z0.395 R0.258
X0.05 Y-0.253 Z0.366 R0.258
X-0.05 Y0.253 Z0.338 R0.258
X0.05 Y-0.253 Z0.31 R0.258
X-0.05 Y0.253 Z0.281 R0.258
X0.05 Y-0.253 Z0.253 R0.258
X-0.05 Y0.253 Z0.225 R0.258
X0.05 Y-0.253 Z0.196 R0.258
X-0.05 Y0.253 Z0.168 R0.258
X0.05 Y-0.253 Z0.14 R0.258
X-0.05 Y0.253 Z0.111 R0.258
X0.05 Y-0.253 Z0.083 R0.258
X-0.05 Y0.253 Z0.055 R0.258
X0.05 Y-0.253 Z0.026 R0.258
X-0.05 Y0.253 Z-0.002 R0.258
X0.05 Y-0.253 Z-0.03 R0.258
X-0.05 Y0.253 Z-0.058 R0.258
X0.05 Y-0.253 Z-0.087 R0.258
X-0.05 Y0.253 Z-0.115 R0.258
X0.05 Y-0.253 Z-0.143 R0.258
X-0.05 Y0.253 Z-0.172 R0.258
X0.05 Y-0.253 Z-0.2 R0.258
X-0.05 Y0.253 Z-0.228 R0.258
X0.05 Y-0.253 Z-0.257 R0.258
X-0.05 Y0.253 Z-0.285 R0.258
X0.05 Y-0.253 Z-0.313 R0.258
X-0.05 Y0.253 Z-0.342 R0.258
X0.05 Y-0.253 Z-0.37 R0.258
X-0.05 Y0.253 Z-0.398 R0.258
X0.05 Y-0.253 Z-0.427 R0.258
X-0.05 Y0.253 Z-0.455 R0.258
X0.05 Y-0.253 Z-0.483 R0.258
X-0.05 Y0.253 Z-0.512 R0.258
X0.05 Y-0.253 Z-0.54 R0.258
X-0.05 Y0.253 Z-0.568 R0.258
X0.05 Y-0.253 Z-0.597 R0.258
X-0.05 Y0.253 Z-0.625 R0.258
X0.05 Y-0.253 Z-0.653 R0.258
X-0.05 Y0.253 Z-0.681 R0.258
X0.05 Y-0.253 Z-0.71 R0.258
X-0.05 Y0.253 Z-0.738 R0.258
X0.05 Y-0.253 Z-0.766 R0.258
X-0.05 Y0.253 Z-0.795 R0.258
X0.05 Y-0.253 Z-0.823 R0.258
X-0.05 Y0.253 Z-0.851 R0.258
X0.05 Y-0.253 Z-0.88 R0.258
X-0.05 Y0.253 Z-0.908 R0.258
X0.05 Y-0.253 Z-0.936 R0.258
X-0.05 Y0.253 Z-0.965 R0.258
X0.05 Y-0.253 Z-0.993 R0.258
X-0.05 Y0.253 Z-1.021 R0.258
X0.05 Y-0.253 Z-1.05 R0.258
X-0.05 Y0.253 Z-1.078 R0.258
X0.05 Y-0.253 Z-1.106 R0.258
X-0.05 Y0.253 Z-1.135 R0.258
X0.05 Y-0.253 Z-1.163 R0.258
X-0.05 Y0.253 Z-1.191 R0.258
X0.05 Y-0.253 Z-1.22 R0.258
X-0.05 Y0.253 Z-1.248 R0.258
X0.05 Y-0.253 Z-1.276 R0.258
X-0.05 Y0.253 Z-1.304 R0.258
X0.05 Y-0.253 Z-1.333 R0.258
X-0.05 Y0.253 Z-1.361 R0.258
X0.05 Y-0.253 Z-1.389 R0.258
X-0.05 Y0.253 Z-1.418 R0.258
X0.05 Y-0.253 Z-1.446 R0.258
X-0.05 Y0.253 Z-1.474 R0.258
X0.05 Y-0.253 Z-1.503 R0.258
X-0.05 Y0.253 Z-1.531 R0.258
X0.05 Y-0.253 Z-1.559 R0.258
X-0.05 Y0.253 Z-1.588 R0.258
X0.05 Y-0.253 Z-1.616 R0.258
X-0.05 Y0.253 Z-1.644 R0.258
X0.05 Y-0.253 Z-1.673 R0.258
X-0.05 Y0.253 Z-1.701 R0.258
X0.05 Y-0.253 Z-1.729 R0.258
X-0.05 Y0.253 Z-1.758 R0.258
X0.05 Y-0.253 Z-1.786 R0.258
X-0.05 Y0.253 Z-1.814 R0.258
X0.05 Y-0.253 Z-1.843 R0.258
X-0.05 Y0.253 Z-1.871 R0.258
X0.05 Y-0.253 Z-1.899 R0.258
X-0.05 Y0.253 Z-1.927 R0.258
X0.05 Y-0.253 Z-1.956 R0.258
X-0.05 Y0.253 Z-1.984 R0.258
X0.05 Y-0.253 Z-2.012 R0.258
X-0.05 Y0.253 Z-2.041 R0.258
X0.05 Y-0.253 Z-2.069 R0.258
X-0.05 Y0.253 Z-2.097 R0.258
X0.05 Y-0.253 Z-2.126 R0.258
X-0.05 Y0.253 Z-2.154 R0.258
X0.05 Y-0.253 Z-2.182 R0.258
X-0.05 Y0.253 Z-2.211 R0.258
X0.05 Y-0.253 Z-2.239 R0.258
X-0.05 Y0.253 Z-2.267 R0.258
X0.05 Y-0.253 Z-2.296 R0.258
X-0.05 Y0.253 Z-2.324 R0.258
X0.05 Y-0.253 Z-2.352 R0.258
X-0.05 Y0.253 Z-2.381 R0.258
X0.05 Y-0.253 Z-2.409 R0.258
X-0.05 Y0.253 Z-2.437 R0.258
X0.05 Y-0.253 Z-2.466 R0.258
X-0.05 Y0.253 Z-2.494 R0.258
X0.05 Y-0.253 Z-2.522 R0.258
X-0.05 Y0.253 Z-2.55 R0.258
X0.05 Y-0.253 Z-2.579 R0.258
X-0.05 Y0.253 Z-2.607 R0.258
X0.05 Y-0.253 Z-2.635 R0.258
X-0.05 Y0.253 Z-2.664 R0.258
X0.05 Y-0.253 Z-2.692 R0.258
X-0.05 Y0.253 Z-2.72 R0.258
X0.05 Y-0.253 Z-2.749 R0.258
X-0.05 Y0.253 Z-2.777 R0.258
X0.05 Y-0.253 Z-2.805 R0.258
X-0.05 Y0.253 Z-2.834 R0.258
X0.05 Y-0.253 Z-2.862 R0.258
X-0.05 Y0.253 Z-2.89 R0.258
X0.05 Y-0.253 Z-2.919 R0.258
X-0.05 Y0.253 Z-2.947 R0.258
X0.05 Y-0.253 Z-2.975 R0.258
X-0.05 Y0.253 Z-3.004 R0.258
X0.05 Y-0.253 Z-3.032 R0.258
X-0.05 Y0.253 Z-3.06 R0.258
X0.05 Y-0.253 Z-3.089 R0.258
X-0.05 Y0.253 Z-3.117 R0.258
X0.05 Y-0.253 Z-3.145 R0.258
X-0.05 Y0.253 Z-3.173 R0.258
X0.05 Y-0.253 Z-3.202 R0.258
X-0.05 Y0.253 Z-3.23 R0.258
X0.05 Y-0.253 Z-3.258 R0.258
X-0.05 Y0.253 Z-3.287 R0.258
X0.05 Y-0.253 Z-3.315 R0.258
X-0.05 Y0.253 Z-3.343 R0.258
X0.05 Y-0.253 Z-3.372 R0.258
X-0.05 Y0.253 Z-3.4 R0.258
X0.05 Y-0.253 Z-3.428 R0.258
X-0.05 Y0.253 Z-3.457 R0.258
X0.05 Y-0.253 Z-3.485 R0.258
X-0.05 Y0.253 Z-3.513 R0.258
X0.05 Y-0.253 Z-3.542 R0.258
X-0.05 Y0.253 Z-3.57 R0.258
X0.05 Y-0.253 Z-3.598 R0.258
X-0.05 Y0.253 Z-3.627 R0.258
X0.05 Y-0.253 Z-3.655 R0.258
X-0.05 Y0.253 Z-3.683 R0.258
X0.05 Y-0.253 Z-3.712 R0.258
X-0.05 Y0.253 Z-3.74 R0.258
X0.05 Y-0.253 Z-3.768 R0.258
X-0.05 Y0.253 Z-3.796 R0.258
X0.05 Y-0.253 Z-3.825 R0.258
X-0.05 Y0.253 Z-3.853 R0.258
X0.05 Y-0.253 Z-3.881 R0.258
X-0.05 Y0.253 Z-3.91 R0.258
X0.05 Y-0.253 Z-3.938 R0.258
X-0.05 Y0.253 Z-3.966 R0.258
X0.05 Y-0.253 Z-3.995 R0.258
X-0.05 Y0.253 Z-4.023 R0.258
X0.05 Y-0.253 Z-4.051 R0.258
X-0.05 Y0.253 Z-4.08 R0.258
X0.05 Y-0.253 Z-4.108 R0.258
X-0.05 Y0.253 Z-4.136 R0.258
X0.05 Y-0.253 Z-4.165 R0.258
X-0.05 Y0.253 Z-4.193 R0.258
X0.05 Y-0.253 Z-4.221 R0.258
X-0.05 Y0.253 Z-4.25 R0.258
X0.05 Y-0.253 Z-4.278 R0.258
X-0.05 Y0.253 Z-4.306 R0.258
X0.05 Y-0.253 Z-4.335 R0.258
X-0.05 Y0.253 Z-4.363 R0.258
X0.05 Y-0.253 Z-4.391 R0.258
X-0.05 Y0.253 Z-4.419 R0.258
X0.05 Y-0.253 Z-4.448 R0.258
X-0.05 Y0.253 Z-4.476 R0.258
X0.05 Y-0.253 Z-4.504 R0.258
X-0.05 Y0.253 Z-4.533 R0.258
X0.05 Y-0.253 Z-4.561 R0.258
X-0.05 Y0.253 Z-4.589 R0.258
X0.05 Y-0.253 Z-4.618 R0.258
X-0.05 Y0.253 Z-4.646 R0.258
X0.05 Y-0.253 Z-4.674 R0.258
X-0.05 Y0.253 Z-4.703 R0.258
X0.05 Y-0.253 Z-4.731 R0.258
X-0.05 Y0.253 Z-4.759 R0.258
X0.05 Y-0.253 Z-4.788 R0.258
X0.258 Y0. Z-4.8 R0.258
X-0.258 R0.258
X0.258 R0.258
G1 X0.304 Y0.179
X0.29 Y0.293
X0.215 Y0.38
X0.106 Y0.412
X-0.215
X-0.349 Y0.406
X-0.474 Y0.352
X-0.583 Y0.215
X-0.628 Y0.046
X-0.603 Y-0.127
X-0.511 Y-0.276
X-0.368 Y-0.377
X-0.196 Y-0.412
X0.215
X0.349 Y-0.406
X0.495 Y-0.322
X0.597 Y-0.188
X0.638 Y-0.025
X0.611 Y0.141
X0.521 Y0.283
X0.383 Y0.379
X0.218 Y0.412
X0.212
G3 X0.215 Y-0.412 R0.413
G1 X0.596
X0.731 Y-0.406
X0.854 Y-0.351
X0.964 Y-0.215
X1.01 Y-0.046
X0.986 Y0.127
X0.895 Y0.276
X0.752 Y0.377
X0.581 Y0.412
X0.218
G3 X0.023 Y0.224 R0.203
X0.596 Y-0.412 R0.595
G1 X0.969
X1.104 Y-0.406
X1.227 Y-0.35
X1.336 Y-0.213
X1.382 Y-0.045
X1.357 Y0.128
X1.266 Y0.277
X1.123 Y0.377
X0.952 Y0.412
X0.581
G3 X0.385 Y0.218 R0.203
X0.969 Y-0.412 R0.606
G1 X1.323
X1.457 Y-0.406
X1.583 Y-0.356
X1.697 Y-0.222
X1.747 Y-0.053
X1.726 Y0.122
X1.636 Y0.274
X1.492 Y0.376
X1.32 Y0.412
X0.952
G3 X0.757 Y0.227 R0.203
X1.323 Y-0.412 R0.588
G1 X1.704
X1.839 Y-0.406
X1.962 Y-0.35
X2.072 Y-0.215
X2.119 Y-0.046
X2.095 Y0.127
X2.004 Y0.276
X1.861 Y0.377
X1.69 Y0.412
X1.32
G3 X1.124 Y0.22 R0.203
X1.704 Y-0.412 R0.602
G1 X2.077
X2.212 Y-0.406
X2.335 Y-0.35
X2.444 Y-0.214
X2.49 Y-0.045
X2.466 Y0.128
X2.374 Y0.277
X2.232 Y0.377
X2.061 Y0.412
X1.69
G3 X1.494 Y0.218 R0.203
X2.077 Y-0.412 R0.605
G1 X2.43
X2.565 Y-0.406
X2.691 Y-0.356
X2.805 Y-0.222
X2.856 Y-0.053
X2.834 Y0.122
X2.744 Y0.274
X2.6 Y0.376
X2.428 Y0.412
X2.061
G3 X1.865 Y0.228 R0.203
X2.43 Y-0.412 R0.588
G1 X2.812
X2.946 Y-0.406
X3.07 Y-0.35
X3.18 Y-0.215
X3.227 Y-0.046
X3.203 Y0.127
X3.112 Y0.276
X2.969 Y0.377
X2.798 Y0.412
X2.428
G3 X2.232 Y0.22 R0.203
X2.812 Y-0.412 R0.601
G1 X3.185
X3.32 Y-0.406
X3.443 Y-0.35
X3.552 Y-0.214
X3.598 Y-0.045
X3.574 Y0.128
X3.482 Y0.277
X3.34 Y0.377
X3.169 Y0.412
X2.798
G3 X2.602 Y0.218 R0.203
X3.185 Y-0.412 R0.605
G1 X3.538
X3.673 Y-0.406
X3.799 Y-0.356
X3.913 Y-0.222
X3.964 Y-0.053
X3.942 Y0.122
X3.852 Y0.274
X3.708 Y0.376
X3.536 Y0.412
X3.169
G3 X2.973 Y0.228 R0.203
X3.538 Y-0.412 R0.588
G1 X3.92
X4.054 Y-0.406
X4.178 Y-0.35
X4.288 Y-0.215
X4.335 Y-0.046
X4.311 Y0.127
X4.22 Y0.276
X4.077 Y0.377
X3.906 Y0.412
X3.536
G3 X3.34 Y0.22 R0.203
X3.92 Y-0.412 R0.601
G1 X4.293
X4.428 Y-0.406
X4.551 Y-0.35
X4.66 Y-0.214
X4.706 Y-0.045
X4.682 Y0.128
X4.59 Y0.277
X4.448 Y0.377
X4.276 Y0.412
X3.906
G3 X3.71 Y0.219 R0.203
X4.293 Y-0.412 R0.605
G1 X4.646
X4.781 Y-0.406
X4.907 Y-0.356
X5.021 Y-0.222
X5.071 Y-0.053
X5.05 Y0.122
X4.96 Y0.274
X4.816 Y0.376
X4.644 Y0.412
X4.276
G3 X4.081 Y0.228 R0.203
X4.646 Y-0.412 R0.588
G1 X5.027
X5.162 Y-0.406
X5.285 Y-0.351
X5.396 Y-0.215
X5.443 Y-0.046
X5.419 Y0.127
X5.328 Y0.276
X5.185 Y0.377
X5.014 Y0.412
X4.644
G3 X4.448 Y0.22 R0.203
X5.027 Y-0.412 R0.601
G1 X5.401
X5.536 Y-0.406
X5.659 Y-0.35
X5.768 Y-0.214
X5.814 Y-0.045
X5.79 Y0.128
X5.698 Y0.277
X5.555 Y0.377
X5.384 Y0.412
X5.014
G3 X4.818 Y0.219 R0.203
X5.401 Y-0.412 R0.605
G1 X5.754
X5.889 Y-0.406
X6.015 Y-0.356
X6.129 Y-0.222
X6.179 Y-0.053
X6.158 Y0.122
X6.068 Y0.274
X5.924 Y0.376
X5.752 Y0.412
X5.384
G3 X5.189 Y0.228 R0.203
X5.754 Y-0.412 R0.588
G1 X6.135
X6.27 Y-0.406
X6.393 Y-0.351
X6.503 Y-0.215
X6.55 Y-0.046
X6.526 Y0.127
X6.435 Y0.276
X6.293 Y0.377
X6.121 Y0.412
X5.752
G3 X5.556 Y0.22 R0.203
X6.135 Y-0.412 R0.601
G1 X6.509
X6.644 Y-0.406
X6.767 Y-0.35
X6.876 Y-0.214
X6.922 Y-0.045
X6.897 Y0.128
X6.806 Y0.277
X6.663 Y0.377
X6.492 Y0.412
X6.121
G3 X5.926 Y0.219 R0.203
X6.509 Y-0.412 R0.605
G1 X6.862
X6.997 Y-0.406
X7.122 Y-0.356
X7.237 Y-0.222
X7.287 Y-0.053
X7.266 Y0.122
X7.176 Y0.274
X7.032 Y0.376
X6.859 Y0.412
X6.492
G3 X6.297 Y0.228 R0.203
X6.862 Y-0.412 R0.588
G1 X7.243
X7.378 Y-0.406
X7.501 Y-0.351
X7.611 Y-0.215
X7.658 Y-0.046
X7.634 Y0.127
X7.543 Y0.276
X7.401 Y0.377
X7.229 Y0.412
X6.859
G3 X6.664 Y0.22 R0.203
X7.243 Y-0.412 R0.601
G1 X7.617
X7.752 Y-0.406
X7.874 Y-0.35
X7.984 Y-0.214
X8.03 Y-0.045
X8.005 Y0.128
X7.914 Y0.277
X7.771 Y0.377
X7.6 Y0.412
X7.229
G3 X7.034 Y0.219 R0.203
X7.617 Y-0.412 R0.605
G1 X7.97
X8.105 Y-0.406
X8.23 Y-0.356
X8.345 Y-0.222
X8.395 Y-0.053
X8.374 Y0.122
X8.283 Y0.274
X8.14 Y0.376
X7.967 Y0.412
X7.6
G3 X7.405 Y0.228 R0.203
X7.97 Y-0.412 R0.588
G1 X8.351
X8.486 Y-0.406
X8.609 Y-0.351
X8.719 Y-0.215
X8.766 Y-0.046
X8.742 Y0.127
X8.651 Y0.276
X8.508 Y0.377
X8.337 Y0.412
X7.967
G3 X7.772 Y0.22 R0.203
X8.351 Y-0.412 R0.601
G1 X8.725
X8.859 Y-0.406
X8.982 Y-0.35
X9.092 Y-0.214
X9.138 Y-0.045
X9.113 Y0.128
X9.022 Y0.277
X8.879 Y0.377
X8.708 Y0.412
X8.337
G3 X8.142 Y0.219 R0.203
X8.725 Y-0.412 R0.605
G1 X9.078
X9.213 Y-0.406
X9.338 Y-0.356
X9.452 Y-0.222
X9.503 Y-0.053
X9.481 Y0.122
X9.391 Y0.274
X9.248 Y0.376
X9.075 Y0.412
X8.708
G3 X8.513 Y0.228 R0.203
X9.078 Y-0.412 R0.588
G1 X9.459
X9.594 Y-0.406
X9.717 Y-0.351
X9.827 Y-0.215
X9.874 Y-0.046
X9.85 Y0.127
X9.759 Y0.276
X9.616 Y0.377
X9.445 Y0.412
X9.075
G3 X8.88 Y0.22 R0.203
X9.459 Y-0.412 R0.601
G1 X9.833
X9.967 Y-0.406
X10.09 Y-0.35
X10.2 Y-0.214
X10.246 Y-0.045
X10.221 Y0.128
X10.13 Y0.277
X9.987 Y0.377
X9.816 Y0.412
X9.445
G3 X9.249 Y0.219 R0.203
X9.833 Y-0.412 R0.605
G1 X10.186
X10.32 Y-0.406
X10.446 Y-0.356
X10.56 Y-0.222
X10.611 Y-0.053
X10.589 Y0.122
X10.499 Y0.274
X10.356 Y0.376
X10.183 Y0.412
G3 X9.877 Y0.091 R0.318
G1 X9.879 Y-0.099
G3 X10.186 Y-0.412 R0.317
G1 X10.567
X10.702 Y-0.406
X10.825 Y-0.351
X10.935 Y-0.215
X10.982 Y-0.046
X10.958 Y0.127
X10.867 Y0.276
X10.724 Y0.377
X10.553 Y0.412
G3 X10.247 Y0.072 R0.318
G1 X10.261 Y-0.118
G3 X10.567 Y-0.412 R0.317
G1 X10.94
X11.075 Y-0.406
X11.198 Y-0.35
X11.307 Y-0.214
X11.354 Y-0.045
X11.329 Y0.128
X11.238 Y0.277
X11.095 Y0.377
X10.924 Y0.412
G3 X10.619 Y0.068 R0.318
G1 X10.635 Y-0.123
G3 X10.94 Y-0.412 R0.317
G1 X11.294
X11.428 Y-0.406
X11.554 Y-0.356
X11.668 Y-0.222
X11.719 Y-0.053
X11.697 Y0.122
X11.607 Y0.274
X11.464 Y0.376
X11.291 Y0.412
G3 X10.985 Y0.091 R0.317
G1 X10.987 Y-0.099
G3 X11.294 Y-0.412 R0.317
G1 X11.675
X11.81 Y-0.406
X11.933 Y-0.351
X12.043 Y-0.215
X12.09 Y-0.046
X12.066 Y0.127
X11.975 Y0.276
X11.832 Y0.377
X11.661 Y0.412
G3 X11.355 Y0.072 R0.318
G1 X11.369 Y-0.118
G3 X11.675 Y-0.412 R0.317
G1 X12.048
X12.183 Y-0.406
X12.306 Y-0.35
X12.415 Y-0.214
X12.461 Y-0.045
X12.437 Y0.128
X12.346 Y0.277
X12.203 Y0.377
X12.032 Y0.412
G3 X11.727 Y0.068 R0.317
G1 X11.743 Y-0.123
G3 X12.048 Y-0.412 R0.317
G1 X12.401
X12.536 Y-0.406
X12.662 Y-0.356
X12.776 Y-0.222
X12.827 Y-0.053
X12.805 Y0.122
X12.715 Y0.274
X12.571 Y0.376
X12.399 Y0.412
G3 X12.093 Y0.091 R0.317
G1 X12.095 Y-0.099
G3 X12.401 Y-0.412 R0.317
G1 X12.783
X12.917 Y-0.406
X13.041 Y-0.351
X13.151 Y-0.215
X13.198 Y-0.046
X13.174 Y0.127
X13.083 Y0.276
X12.94 Y0.377
X12.769 Y0.412
G3 X12.463 Y0.072 R0.318
G1 X12.477 Y-0.118
G3 X12.783 Y-0.412 R0.317
G1 X13.122 Y-0.41
X13.225 Y-0.379
X13.295 Y-0.332
X13.37 Y-0.242
X13.408 Y-0.138
Y0.138
X13.37 Y0.242
X13.295 Y0.332
X13.225 Y0.379
X13.122 Y0.41
X9.816 Y0.412
G3 X9.775 Y0.408 R0.318
G1 X9.692 Y0.402
X-0.073 Y-0.329
G2 X-0.197 Y0.289 R0.317
G3 X-0.215 Y0.412 R0.063
G1 X-0.596
X-0.731 Y0.406
X-0.852 Y0.347
X-0.959 Y0.21
X-1.003 Y0.041
X-0.976 Y-0.131
X-0.884 Y-0.278
X-0.742 Y-0.377
X-0.571 Y-0.412
X-0.196
G3 X-0.001 Y-0.213 R0.203
X-0.596 Y0.412 R0.617
G1 X-0.969
X-1.104 Y0.406
X-1.226 Y0.347
X-1.333 Y0.21
X-1.377 Y0.042
X-1.351 Y-0.13
X-1.259 Y-0.278
X-1.116 Y-0.377
X-0.945 Y-0.412
X-0.571
G3 X-0.376 Y-0.213 R0.203
X-0.969 Y0.412 R0.615
G1 X-1.323
X-1.457 Y0.406
X-1.582 Y0.354
X-1.695 Y0.219
X-1.744 Y0.05
X-1.721 Y-0.124
X-1.63 Y-0.275
X-1.487 Y-0.377
X-1.315 Y-0.412
X-0.945
G3 X-0.75 Y-0.224 R0.203
X-1.323 Y0.412 R0.595
G1 X-1.704
X-1.839 Y0.406
X-1.961 Y0.349
X-2.07 Y0.213
X-2.116 Y0.045
X-2.091 Y-0.128
X-2. Y-0.277
X-1.857 Y-0.377
X-1.686 Y-0.412
X-1.315
G3 X-1.119 Y-0.218 R0.203
X-1.704 Y0.412 R0.606
G1 X-2.077
X-2.212 Y0.406
X-2.335 Y0.349
X-2.443 Y0.212
X-2.488 Y0.044
X-2.463 Y-0.129
X-2.372 Y-0.277
X-2.229 Y-0.377
X-2.058 Y-0.412
X-1.686
G3 X-1.49 Y-0.217 R0.203
X-2.077 Y0.412 R0.609
G1 X-2.43
X-2.565 Y0.406
X-2.691 Y0.355
X-2.804 Y0.221
X-2.854 Y0.052
X-2.832 Y-0.123
X-2.742 Y-0.274
X-2.598 Y-0.376
X-2.426 Y-0.412
X-2.058
G3 X-1.863 Y-0.226 R0.203
X-2.43 Y0.412 R0.59
G1 X-2.812
X-2.946 Y0.406
X-3.069 Y0.35
X-3.179 Y0.214
X-3.226 Y0.046
X-3.201 Y-0.127
X-3.11 Y-0.276
X-2.967 Y-0.377
X-2.796 Y-0.412
X-2.426
G3 X-2.23 Y-0.219 R0.203
X-2.812 Y0.412 R0.603
G1 X-3.185
X-3.32 Y0.406
X-3.443 Y0.35
X-3.552 Y0.213
X-3.598 Y0.045
X-3.573 Y-0.128
X-3.481 Y-0.277
X-3.339 Y-0.377
X-3.168 Y-0.412
X-2.796
G3 X-2.601 Y-0.218 R0.203
X-3.185 Y0.412 R0.606
G1 X-3.538
X-3.673 Y0.406
X-3.799 Y0.356
X-3.913 Y0.221
X-3.963 Y0.053
X-3.941 Y-0.122
X-3.851 Y-0.274
X-3.708 Y-0.376
X-3.535 Y-0.412
X-3.168
G3 X-2.972 Y-0.227 R0.203
X-3.538 Y0.412 R0.589
G1 X-3.92
X-4.054 Y0.406
X-4.177 Y0.35
X-4.287 Y0.214
X-4.334 Y0.046
X-4.31 Y-0.127
X-4.219 Y-0.276
X-4.076 Y-0.377
X-3.905 Y-0.412
X-3.535
G3 X-3.339 Y-0.22 R0.203
X-3.92 Y0.412 R0.602
G1 X-4.293
X-4.428 Y0.406
X-4.551 Y0.35
X-4.66 Y0.213
X-4.706 Y0.045
X-4.681 Y-0.128
X-4.59 Y-0.277
X-4.447 Y-0.377
X-4.276 Y-0.412
X-3.905
G3 X-3.709 Y-0.218 R0.203
X-4.293 Y0.412 R0.605
G1 X-4.646
X-4.781 Y0.406
X-4.907 Y0.356
X-5.021 Y0.222
X-5.071 Y0.053
X-5.05 Y-0.122
X-4.959 Y-0.274
X-4.816 Y-0.376
X-4.643 Y-0.412
X-4.276
G3 X-4.081 Y-0.228 R0.203
X-4.646 Y0.412 R0.588
G1 X-5.027
X-5.162 Y0.406
X-5.285 Y0.35
X-5.395 Y0.215
X-5.442 Y0.046
X-5.418 Y-0.127
X-5.327 Y-0.276
X-5.185 Y-0.377
X-5.013 Y-0.412
X-4.643
G3 X-4.448 Y-0.22 R0.203
X-5.027 Y0.412 R0.601
G1 X-5.401
X-5.536 Y0.406
X-5.659 Y0.35
X-5.768 Y0.214
X-5.814 Y0.045
X-5.789 Y-0.128
X-5.698 Y-0.277
X-5.555 Y-0.377
X-5.384 Y-0.412
X-5.013
G3 X-4.818 Y-0.218 R0.203
X-5.401 Y0.412 R0.605
G1 X-5.754
X-5.889 Y0.406
X-6.014 Y0.356
X-6.129 Y0.222
X-6.179 Y0.053
X-6.158 Y-0.122
X-6.068 Y-0.274
X-5.924 Y-0.376
X-5.751 Y-0.412
X-5.384
G3 X-5.189 Y-0.228 R0.203
X-5.754 Y0.412 R0.588
G1 X-6.135
X-6.27 Y0.406
X-6.393 Y0.35
X-6.503 Y0.215
X-6.55 Y0.046
X-6.526 Y-0.127
X-6.435 Y-0.276
X-6.293 Y-0.377
X-6.121 Y-0.412
X-5.751
G3 X-5.556 Y-0.22 R0.203
X-6.135 Y0.412 R0.601
G1 X-6.509
X-6.644 Y0.406
X-6.767 Y0.35
X-6.876 Y0.214
X-6.922 Y0.045
X-6.897 Y-0.128
X-6.806 Y-0.277
X-6.663 Y-0.377
X-6.492 Y-0.412
X-6.121
G3 X-5.926 Y-0.219 R0.203
X-6.509 Y0.412 R0.605
G1 X-6.862
X-6.997 Y0.406
X-7.122 Y0.356
X-7.237 Y0.222
X-7.287 Y0.053
X-7.266 Y-0.122
X-7.175 Y-0.274
X-7.032 Y-0.376
X-6.859 Y-0.412
X-6.492
G3 X-6.297 Y-0.228 R0.203
X-6.862 Y0.412 R0.588
G1 X-7.243
X-7.378 Y0.406
X-7.501 Y0.351
X-7.611 Y0.215
X-7.658 Y0.046
X-7.634 Y-0.127
X-7.543 Y-0.276
X-7.4 Y-0.377
X-7.229 Y-0.412
X-6.859
G3 X-6.664 Y-0.22 R0.203
X-7.243 Y0.412 R0.601
G1 X-7.617
X-7.752 Y0.406
X-7.874 Y0.35
X-7.984 Y0.214
X-8.03 Y0.045
X-8.005 Y-0.128
X-7.914 Y-0.277
X-7.771 Y-0.377
X-7.6 Y-0.412
X-7.229
G3 X-7.034 Y-0.219 R0.203
X-7.617 Y0.412 R0.605
G1 X-7.97
X-8.105 Y0.406
X-8.23 Y0.356
X-8.345 Y0.222
X-8.395 Y0.053
X-8.374 Y-0.122
X-8.283 Y-0.274
X-8.14 Y-0.376
X-7.967 Y-0.412
X-7.6
G3 X-7.405 Y-0.228 R0.203
X-7.97 Y0.412 R0.588
G1 X-8.351
X-8.486 Y0.406
X-8.609 Y0.351
X-8.719 Y0.215
X-8.766 Y0.046
X-8.742 Y-0.127
X-8.651 Y-0.276
X-8.508 Y-0.377
X-8.337 Y-0.412
X-7.967
G3 X-7.772 Y-0.22 R0.203
X-8.351 Y0.412 R0.601
G1 X-8.725
X-8.859 Y0.406
X-8.982 Y0.35
X-9.092 Y0.214
X-9.138 Y0.045
X-9.113 Y-0.128
X-9.022 Y-0.277
X-8.879 Y-0.377
X-8.708 Y-0.412
X-8.337
G3 X-8.141 Y-0.219 R0.203
X-8.725 Y0.412 R0.605
G1 X-9.078
X-9.213 Y0.406
X-9.338 Y0.356
X-9.452 Y0.222
X-9.503 Y0.053
X-9.481 Y-0.122
X-9.391 Y-0.274
X-9.248 Y-0.376
X-9.075 Y-0.412
X-8.708
G3 X-8.513 Y-0.228 R0.203
X-9.078 Y0.412 R0.588
G1 X-9.459
X-9.594 Y0.406
X-9.717 Y0.351
X-9.827 Y0.215
X-9.874 Y0.046
X-9.85 Y-0.127
X-9.759 Y-0.276
X-9.616 Y-0.377
X-9.445 Y-0.412
X-9.075
G3 X-8.88 Y-0.22 R0.203
X-9.459 Y0.412 R0.601
G1 X-9.833
X-9.967 Y0.406
X-10.09 Y0.35
X-10.2 Y0.214
X-10.246 Y0.045
X-10.221 Y-0.128
X-10.13 Y-0.277
X-9.987 Y-0.377
X-9.816 Y-0.412
X-9.445
G3 X-9.249 Y-0.219 R0.203
X-9.833 Y0.412 R0.605
G1 X-10.186
X-10.32 Y0.406
X-10.446 Y0.356
X-10.56 Y0.222
X-10.611 Y0.053
X-10.589 Y-0.122
X-10.499 Y-0.274
X-10.356 Y-0.376
X-10.183 Y-0.412
G3 X-9.877 Y-0.091 R0.317
G1 X-9.879 Y0.099
G3 X-10.186 Y0.412 R0.317
G1 X-10.567
X-10.702 Y0.406
X-10.825 Y0.351
X-10.935 Y0.215
X-10.982 Y0.046
X-10.958 Y-0.127
X-10.867 Y-0.276
X-10.724 Y-0.377
X-10.553 Y-0.412
G3 X-10.247 Y-0.072 R0.318
G1 X-10.261 Y0.118
G3 X-10.567 Y0.412 R0.317
G1 X-10.94
X-11.075 Y0.406
X-11.198 Y0.35
X-11.307 Y0.214
X-11.354 Y0.045
X-11.329 Y-0.128
X-11.238 Y-0.277
X-11.095 Y-0.377
X-10.924 Y-0.412
G3 X-10.619 Y-0.068 R0.317
G1 X-10.635 Y0.123
G3 X-10.94 Y0.412 R0.317
G1 X-11.294
X-11.428 Y0.406
X-11.554 Y0.356
X-11.668 Y0.222
X-11.719 Y0.053
X-11.697 Y-0.122
X-11.607 Y-0.274
X-11.464 Y-0.376
X-11.291 Y-0.412
G3 X-10.985 Y-0.091 R0.317
G1 X-10.987 Y0.099
G3 X-11.294 Y0.412 R0.317
G1 X-11.675
X-11.81 Y0.406
X-11.933 Y0.351
X-12.043 Y0.215
X-12.09 Y0.046
X-12.066 Y-0.127
X-11.975 Y-0.276
X-11.832 Y-0.377
X-11.661 Y-0.412
G3 X-11.355 Y-0.072 R0.318
G1 X-11.369 Y0.118
G3 X-11.675 Y0.412 R0.317
G1 X-12.048
X-12.183 Y0.406
X-12.306 Y0.35
X-12.415 Y0.214
X-12.461 Y0.045
X-12.437 Y-0.128
X-12.346 Y-0.277
X-12.203 Y-0.377
X-12.032 Y-0.412
G3 X-11.727 Y-0.068 R0.317
G1 X-11.743 Y0.123
G3 X-12.048 Y0.412 R0.317
G1 X-12.401
X-12.536 Y0.406
X-12.662 Y0.356
X-12.776 Y0.222
X-12.827 Y0.053
X-12.805 Y-0.122
X-12.715 Y-0.274
X-12.571 Y-0.376
X-12.399 Y-0.412
G3 X-12.093 Y-0.091 R0.317
G1 X-12.095 Y0.099
G3 X-12.401 Y0.412 R0.317
G1 X-12.783
X-12.917 Y0.406
X-13.041 Y0.351
X-13.151 Y0.215
X-13.198 Y0.046
X-13.174 Y-0.127
X-13.083 Y-0.276
X-12.94 Y-0.377
X-12.769 Y-0.412
G3 X-12.463 Y-0.072 R0.318
G1 X-12.477 Y0.118
G3 X-12.783 Y0.412 R0.317
G1 X-13.122 Y0.41
X-13.225 Y0.379
X-13.295 Y0.332
X-13.37 Y0.242
X-13.408 Y0.138
Y-0.138
X-13.37 Y-0.242
X-13.295 Y-0.332
X-13.225 Y-0.379
X-13.122 Y-0.41
X-9.816 Y-0.412
G3 X-9.695 Y-0.384 R0.318
G1 X-9.631 Y-0.355 Z-4.792
X-9.57 Y-0.327 Z-4.769
X-9.515 Y-0.302 Z-4.731
X-9.47 Y-0.281 Z-4.68
X-9.435 Y-0.265 Z-4.62
X-9.414 Y-0.256 Z-4.553
X-9.406 Y-0.252 Z-4.483
G0 Z15.

M9
M30
