(   4_5  1,5)
(T3  D=3.175 CR=0. - ZMIN=-4.8 - FLAT END MILL)
G90 G94 G91.1 G40 G49 G17
G21

(2D ADAPTIVE3)
M5
M9
T3
S5500 M3
G54
M8
G0 X0.076 Y0.494
G43 Z15. H3
Z5.
Z3.063
G1 Z2.745 F351.
G3 X-0.076 Y-0.494 Z2.69 R0.5
X0.076 Y0.494 Z2.635 R0.5
X-0.076 Y-0.494 Z2.58 R0.5
X0.076 Y0.494 Z2.526 R0.5
X-0.076 Y-0.494 Z2.471 R0.5
X0.076 Y0.494 Z2.416 R0.5
X-0.076 Y-0.494 Z2.361 R0.5
X0.076 Y0.494 Z2.306 R0.5
X-0.076 Y-0.494 Z2.251 R0.5
X0.076 Y0.494 Z2.196 R0.5
X-0.076 Y-0.494 Z2.142 R0.5
X0.076 Y0.494 Z2.087 R0.5
X-0.076 Y-0.494 Z2.032 R0.5
X0.076 Y0.494 Z1.977 R0.5
X-0.076 Y-0.494 Z1.922 R0.5
X0.076 Y0.494 Z1.867 R0.5
X-0.076 Y-0.494 Z1.812 R0.5
X0.076 Y0.494 Z1.758 R0.5
X-0.076 Y-0.494 Z1.703 R0.5
X0.076 Y0.494 Z1.648 R0.5
X-0.076 Y-0.494 Z1.593 R0.5
X0.076 Y0.494 Z1.538 R0.5
X-0.076 Y-0.494 Z1.483 R0.5
X0.076 Y0.494 Z1.429 R0.5
X-0.076 Y-0.494 Z1.374 R0.5
X0.076 Y0.494 Z1.319 R0.5
X-0.076 Y-0.494 Z1.264 R0.5
X0.076 Y0.494 Z1.209 R0.5
X-0.076 Y-0.494 Z1.154 R0.5
X0.076 Y0.494 Z1.099 R0.5
X-0.076 Y-0.494 Z1.045 R0.5
X0.076 Y0.494 Z0.99 R0.5
X-0.076 Y-0.494 Z0.935 R0.5
X0.076 Y0.494 Z0.88 R0.5
X-0.076 Y-0.494 Z0.825 R0.5
X0.076 Y0.494 Z0.77 R0.5
X-0.076 Y-0.494 Z0.715 R0.5
X0.076 Y0.494 Z0.661 R0.5
X-0.076 Y-0.494 Z0.606 R0.5
X0.076 Y0.494 Z0.551 R0.5
X-0.076 Y-0.494 Z0.496 R0.5
X0.076 Y0.494 Z0.441 R0.5
X-0.076 Y-0.494 Z0.386 R0.5
X0.076 Y0.494 Z0.331 R0.5
X-0.076 Y-0.494 Z0.277 R0.5
X0.076 Y0.494 Z0.222 R0.5
X-0.076 Y-0.494 Z0.167 R0.5
X0.076 Y0.494 Z0.112 R0.5
X-0.076 Y-0.494 Z0.057 R0.5
X0.076 Y0.494 Z0.002 R0.5
X-0.076 Y-0.494 Z-0.053 R0.5
X0.076 Y0.494 Z-0.107 R0.5
X-0.076 Y-0.494 Z-0.162 R0.5
X0.076 Y0.494 Z-0.217 R0.5
X-0.076 Y-0.494 Z-0.272 R0.5
X0.076 Y0.494 Z-0.327 R0.5
X-0.076 Y-0.494 Z-0.382 R0.5
X0.076 Y0.494 Z-0.436 R0.5
X-0.076 Y-0.494 Z-0.491 R0.5
X0.076 Y0.494 Z-0.546 R0.5
X-0.076 Y-0.494 Z-0.601 R0.5
X0.076 Y0.494 Z-0.656 R0.5
X-0.076 Y-0.494 Z-0.711 R0.5
X0.076 Y0.494 Z-0.766 R0.5
X-0.076 Y-0.494 Z-0.82 R0.5
X0.076 Y0.494 Z-0.875 R0.5
X-0.076 Y-0.494 Z-0.93 R0.5
X0.076 Y0.494 Z-0.985 R0.5
X-0.076 Y-0.494 Z-1.04 R0.5
X0.076 Y0.494 Z-1.095 R0.5
X-0.076 Y-0.494 Z-1.15 R0.5
X0.076 Y0.494 Z-1.204 R0.5
X-0.076 Y-0.494 Z-1.259 R0.5
X0.076 Y0.494 Z-1.314 R0.5
X-0.076 Y-0.494 Z-1.369 R0.5
X0.076 Y0.494 Z-1.424 R0.5
X-0.076 Y-0.494 Z-1.479 R0.5
X0.076 Y0.494 Z-1.534 R0.5
X-0.076 Y-0.494 Z-1.588 R0.5
X0.076 Y0.494 Z-1.643 R0.5
X-0.076 Y-0.494 Z-1.698 R0.5
X0.076 Y0.494 Z-1.753 R0.5
X-0.076 Y-0.494 Z-1.808 R0.5
X0.076 Y0.494 Z-1.863 R0.5
X-0.076 Y-0.494 Z-1.918 R0.5
X0.076 Y0.494 Z-1.972 R0.5
X-0.076 Y-0.494 Z-2.027 R0.5
X0.076 Y0.494 Z-2.082 R0.5
X-0.076 Y-0.494 Z-2.137 R0.5
X0.076 Y0.494 Z-2.192 R0.5
X-0.076 Y-0.494 Z-2.247 R0.5
X0.076 Y0.494 Z-2.302 R0.5
X-0.076 Y-0.494 Z-2.356 R0.5
X0.076 Y0.494 Z-2.411 R0.5
X-0.076 Y-0.494 Z-2.466 R0.5
X0.076 Y0.494 Z-2.521 R0.5
X-0.076 Y-0.494 Z-2.576 R0.5
X0.076 Y0.494 Z-2.631 R0.5
X-0.076 Y-0.494 Z-2.685 R0.5
X0.076 Y0.494 Z-2.74 R0.5
X-0.076 Y-0.494 Z-2.795 R0.5
X0.076 Y0.494 Z-2.85 R0.5
X-0.076 Y-0.494 Z-2.905 R0.5
X0.076 Y0.494 Z-2.96 R0.5
X-0.076 Y-0.494 Z-3.015 R0.5
X0.076 Y0.494 Z-3.069 R0.5
X-0.076 Y-0.494 Z-3.124 R0.5
X0.076 Y0.494 Z-3.179 R0.5
X-0.076 Y-0.494 Z-3.234 R0.5
X0.076 Y0.494 Z-3.289 R0.5
X-0.076 Y-0.494 Z-3.344 R0.5
X0.076 Y0.494 Z-3.399 R0.5
X-0.076 Y-0.494 Z-3.453 R0.5
X0.076 Y0.494 Z-3.508 R0.5
X-0.076 Y-0.494 Z-3.563 R0.5
X0.076 Y0.494 Z-3.618 R0.5
X-0.076 Y-0.494 Z-3.673 R0.5
X0.076 Y0.494 Z-3.728 R0.5
X-0.076 Y-0.494 Z-3.783 R0.5
X0.076 Y0.494 Z-3.837 R0.5
X-0.076 Y-0.494 Z-3.892 R0.5
X0.076 Y0.494 Z-3.947 R0.5
X-0.076 Y-0.494 Z-4.002 R0.5
X0.076 Y0.494 Z-4.057 R0.5
X-0.076 Y-0.494 Z-4.112 R0.5
X0.076 Y0.494 Z-4.167 R0.5
X-0.076 Y-0.494 Z-4.221 R0.5
X0.076 Y0.494 Z-4.276 R0.5
X-0.076 Y-0.494 Z-4.331 R0.5
X0.076 Y0.494 Z-4.386 R0.5
X-0.076 Y-0.494 Z-4.441 R0.5
X0.076 Y0.494 Z-4.496 R0.5
X-0.076 Y-0.494 Z-4.551 R0.5
X0.076 Y0.494 Z-4.605 R0.5
X-0.076 Y-0.494 Z-4.66 R0.5
X0.076 Y0.494 Z-4.715 R0.5
X-0.076 Y-0.494 Z-4.77 R0.5
X0.5 Y0. Z-4.8 R0.5
X-0.5 R0.5
X0.5 R0.5
G1 X0.539 Y0.405
X0.505 Y0.534
X0.411 Y0.628
X0.282 Y0.663
X-0.387
X-0.522 Y0.656
X-0.652 Y0.618
X-0.77 Y0.553
X-0.875 Y0.468
X-0.963 Y0.365
X-1.033 Y0.25
X-1.085 Y0.125
X-1.119 Y-0.013
X-1.107 Y-0.208
X-1.031 Y-0.389
X-0.9 Y-0.535
X-0.728 Y-0.63
X-0.534 Y-0.663
X0.387
X0.522 Y-0.656
X0.652 Y-0.618
X0.771 Y-0.555
X0.882 Y-0.478
X0.983 Y-0.388
X1.094 Y-0.253
X1.178 Y-0.06
X1.189 Y0.151
X1.125 Y0.351
X0.994 Y0.516
X0.814 Y0.625
X0.606 Y0.663
X0.282
G3 X-0.02 Y0.297 R0.318
G1 X0.085 Y-0.393
G3 X0.387 Y-0.663 R0.318
G1 X1.046
X1.18 Y-0.656
X1.311 Y-0.623
X1.432 Y-0.563
X1.542 Y-0.484
X1.637 Y-0.388
X1.715 Y-0.278
X1.791 Y-0.123
X1.825 Y0.061
X1.8 Y0.246
X1.718 Y0.413
X1.588 Y0.547
X1.422 Y0.633
X1.238 Y0.663
X0.606
G3 X0.35 Y0.175 R0.317
G1 X0.789 Y-0.516
G3 X1.046 Y-0.663 R0.318
G1 X1.704
X1.839 Y-0.656
X1.968 Y-0.616
X2.087 Y-0.553
X2.193 Y-0.47
X2.286 Y-0.371
X2.362 Y-0.26
X2.43 Y-0.113
X2.461 Y0.069
X2.433 Y0.252
X2.35 Y0.418
X2.22 Y0.549
X2.056 Y0.633
X1.873 Y0.663
X1.238
G3 X0.986 Y0.168 R0.318
G1 X1.452 Y-0.523
G3 X1.704 Y-0.663 R0.318
G1 X2.354
X2.489 Y-0.656
X2.617 Y-0.613
X2.735 Y-0.548
X2.84 Y-0.462
X2.931 Y-0.362
X3.005 Y-0.25
X3.07 Y-0.105
X3.098 Y0.076
X3.069 Y0.257
X2.986 Y0.421
X2.856 Y0.551
X2.692 Y0.634
X2.511 Y0.663
X1.873
G3 X1.624 Y0.164 R0.318
G1 X2.105 Y-0.527
G3 X2.354 Y-0.663 R0.318
G1 X2.984
X3.119 Y-0.656
X3.248 Y-0.614
X3.367 Y-0.55
X3.472 Y-0.466
X3.563 Y-0.366
X3.639 Y-0.254
X3.705 Y-0.109
X3.734 Y0.073
X3.706 Y0.255
X3.623 Y0.419
X3.493 Y0.55
X3.329 Y0.634
X3.147 Y0.663
X2.511
G3 X2.26 Y0.166 R0.317
G1 X2.734 Y-0.525
G3 X2.984 Y-0.663 R0.318
G1 X3.601
X3.735 Y-0.656
X3.865 Y-0.618
X3.986 Y-0.558
X4.093 Y-0.476
X4.187 Y-0.378
X4.264 Y-0.268
X4.335 Y-0.119
X4.368 Y0.064
X4.342 Y0.248
X4.259 Y0.415
X4.129 Y0.548
X3.964 Y0.633
X3.78 Y0.663
X3.147
G3 X2.893 Y0.171 R0.317
G1 X3.346 Y-0.52
G3 X3.601 Y-0.663 R0.318
G1 X4.231
X4.366 Y-0.656
X4.495 Y-0.619
X4.616 Y-0.559
X4.724 Y-0.477
X4.818 Y-0.38
X4.896 Y-0.27
X4.967 Y-0.12
X5.001 Y0.063
X4.975 Y0.247
X4.893 Y0.414
X4.762 Y0.547
X4.597 Y0.633
X4.413 Y0.663
X3.78
G3 X3.525 Y0.172 R0.318
G1 X3.976 Y-0.519
G3 X4.231 Y-0.663 R0.318
G1 X4.847
X4.982 Y-0.656
X5.113 Y-0.622
X5.235 Y-0.565
X5.344 Y-0.486
X5.44 Y-0.391
X5.52 Y-0.282
X5.595 Y-0.129
X5.631 Y0.055
X5.608 Y0.242
X5.526 Y0.411
X5.396 Y0.546
X5.23 Y0.633
X5.044 Y0.663
X4.413
G3 X4.155 Y0.176 R0.318
G1 X4.589 Y-0.514
G3 X4.847 Y-0.663 R0.318
G1 X5.477
X5.612 Y-0.656
X5.743 Y-0.622
X5.865 Y-0.565
X5.975 Y-0.486
X6.07 Y-0.391
X6.151 Y-0.283
X6.226 Y-0.129
X6.262 Y0.055
X6.239 Y0.241
X6.157 Y0.411
X6.027 Y0.546
X5.86 Y0.632
X5.675 Y0.663
X5.044
G3 X4.786 Y0.177 R0.317
G1 X5.219 Y-0.514
G3 X5.477 Y-0.663 R0.318
G1 X6.135
X6.27 Y-0.656
X6.399 Y-0.617
X6.52 Y-0.555
X6.626 Y-0.473
X6.719 Y-0.375
X6.796 Y-0.264
X6.865 Y-0.116
X6.897 Y0.067
X6.87 Y0.251
X6.787 Y0.416
X6.657 Y0.548
X6.492 Y0.633
X6.309 Y0.663
X5.675
G3 X5.422 Y0.169 R0.317
G1 X5.882 Y-0.521
G3 X6.135 Y-0.663 R0.318
G1 X6.786
X6.921 Y-0.656
X7.049 Y-0.614
X7.168 Y-0.549
X7.273 Y-0.465
X7.364 Y-0.365
X7.439 Y-0.253
X7.505 Y-0.108
X7.534 Y0.074
X7.505 Y0.256
X7.422 Y0.42
X7.292 Y0.55
X7.128 Y0.634
X6.946 Y0.663
X6.309
G3 X6.059 Y0.165 R0.317
G1 X6.536 Y-0.526
G3 X6.786 Y-0.663 R0.318
G1 X7.416
X7.551 Y-0.656
X7.679 Y-0.615
X7.799 Y-0.552
X7.904 Y-0.468
X7.996 Y-0.369
X8.072 Y-0.257
X8.139 Y-0.111
X8.169 Y0.071
X8.141 Y0.254
X8.058 Y0.419
X7.928 Y0.549
X7.764 Y0.634
X7.582 Y0.663
X6.946
G3 X6.695 Y0.167 R0.317
G1 X7.165 Y-0.524
G3 X7.416 Y-0.663 R0.318
G1 X8.032
X8.167 Y-0.656
X8.297 Y-0.619
X8.418 Y-0.559
X8.526 Y-0.478
X8.619 Y-0.381
X8.698 Y-0.27
X8.769 Y-0.12
X8.802 Y0.063
X8.776 Y0.247
X8.694 Y0.414
X8.564 Y0.547
X8.399 Y0.633
X8.215 Y0.663
X7.582
G3 X7.327 Y0.172 R0.318
G1 X7.777 Y-0.519
G3 X8.032 Y-0.663 R0.318
G1 X8.662
X8.797 Y-0.656
X8.927 Y-0.619
X9.048 Y-0.56
X9.156 Y-0.479
X9.251 Y-0.382
X9.329 Y-0.272
X9.401 Y-0.122
X9.435 Y0.062
X9.409 Y0.246
X9.327 Y0.414
X9.197 Y0.547
X9.031 Y0.633
X8.847 Y0.663
X8.215
G3 X7.959 Y0.172 R0.317
G1 X8.407 Y-0.518
G3 X8.662 Y-0.663 R0.318
G1 X9.279
X9.413 Y-0.656
X9.544 Y-0.623
X9.667 Y-0.566
X9.777 Y-0.487
X9.872 Y-0.392
X9.953 Y-0.284
X10.029 Y-0.13
X10.065 Y0.054
X10.042 Y0.241
X9.961 Y0.41
X9.83 Y0.545
X9.664 Y0.632
X9.478 Y0.663
X8.847
G3 X8.589 Y0.177 R0.318
G1 X9.02 Y-0.513
G3 X9.279 Y-0.663 R0.318
G1 X9.909
X10.044 Y-0.656
X10.174 Y-0.623
X10.297 Y-0.566
X10.407 Y-0.488
X10.503 Y-0.393
X10.583 Y-0.284
X10.659 Y-0.13
X10.696 Y0.054
X10.672 Y0.24
X10.591 Y0.41
X10.461 Y0.545
X10.294 Y0.632
X10.109 Y0.663
X9.478
G3 X9.22 Y0.177 R0.317
G1 X9.65 Y-0.513
G3 X9.909 Y-0.663 R0.318
G1 X10.567
X10.702 Y-0.656
X10.831 Y-0.617
X10.951 Y-0.556
X11.058 Y-0.474
X11.151 Y-0.376
X11.228 Y-0.265
X11.298 Y-0.117
X11.33 Y0.066
X11.304 Y0.25
X11.221 Y0.416
X11.091 Y0.548
X10.926 Y0.633
X10.743 Y0.663
G3 X10.446 Y0.424 R0.318
G1 X10.27 Y-0.267
G3 X10.567 Y-0.663 R0.318
G1 X11.217
X11.352 Y-0.656
X11.481 Y-0.614
X11.599 Y-0.55
X11.705 Y-0.465
X11.796 Y-0.366
X11.871 Y-0.254
X11.937 Y-0.108
X11.967 Y0.073
X11.938 Y0.255
X11.855 Y0.42
X11.725 Y0.55
X11.561 Y0.634
X11.379 Y0.663
G3 X11.081 Y0.418 R0.318
G1 X10.919 Y-0.273
G3 X11.217 Y-0.663 R0.318
G1 X11.848
X11.982 Y-0.656
X12.111 Y-0.615
X12.231 Y-0.552
X12.336 Y-0.468
X12.428 Y-0.37
X12.504 Y-0.258
X12.572 Y-0.111
X12.602 Y0.071
X12.574 Y0.253
X12.491 Y0.418
X12.361 Y0.549
X12.197 Y0.633
X12.015 Y0.663
G3 X11.717 Y0.42 R0.318
G1 X11.55 Y-0.271
G3 X11.848 Y-0.663 R0.318
G1 X12.464
X12.599 Y-0.656
X12.729 Y-0.619
X12.85 Y-0.559
X12.957 Y-0.478
X13.051 Y-0.381
X13.13 Y-0.271
X13.201 Y-0.121
X13.235 Y0.062
X13.209 Y0.247
X13.127 Y0.414
X12.997 Y0.547
X12.831 Y0.633
X12.647 Y0.663
G3 X12.352 Y0.427 R0.318
G1 X12.168 Y-0.264
G3 X12.464 Y-0.663 R0.318
G1 X13.122 Y-0.66
X13.225 Y-0.629
X13.295 Y-0.582
X13.373 Y-0.484
X13.409 Y-0.381
Y0.381
X13.373 Y0.484
X13.295 Y0.582
X13.225 Y0.629
X13.122 Y0.66
X10.109 Y0.663
G3 X10.067 Y0.658 R0.317
G2 X10.038 Y0.655 R0.318
G1 X9.985 Y0.651
X-0.247 Y-0.079
G2 X-0.37 Y0.539 R0.317
G3 X-0.387 Y0.663 R0.063
G1 X-0.969
X-1.104 Y0.656
X-1.235 Y0.623
X-1.357 Y0.565
X-1.467 Y0.486
X-1.562 Y0.391
X-1.641 Y0.282
X-1.717 Y0.128
X-1.753 Y-0.056
X-1.729 Y-0.242
X-1.648 Y-0.411
X-1.517 Y-0.546
X-1.351 Y-0.633
X-1.166 Y-0.663
X-0.534
G3 X-0.277 Y-0.176 R0.317
G1 X-0.712 Y0.514
G3 X-0.969 Y0.663 R0.318
G1 X-1.6
X-1.734 Y0.656
X-1.865 Y0.622
X-1.987 Y0.565
X-2.097 Y0.486
X-2.193 Y0.391
X-2.273 Y0.282
X-2.348 Y0.129
X-2.384 Y-0.055
X-2.36 Y-0.242
X-2.279 Y-0.411
X-2.149 Y-0.546
X-1.982 Y-0.633
X-1.797 Y-0.663
X-1.166
G3 X-0.908 Y-0.176 R0.318
G1 X-1.342 Y0.514
G3 X-1.6 Y0.663 R0.318
G1 X-2.258
X-2.393 Y0.656
X-2.522 Y0.617
X-2.642 Y0.555
X-2.748 Y0.472
X-2.841 Y0.374
X-2.918 Y0.263
X-2.987 Y0.115
X-3.019 Y-0.067
X-2.992 Y-0.251
X-2.909 Y-0.417
X-2.779 Y-0.549
X-2.614 Y-0.633
X-2.431 Y-0.663
X-1.797
G3 X-1.544 Y-0.169 R0.318
G1 X-2.005 Y0.521
G3 X-2.258 Y0.663 R0.318
G1 X-2.908
X-3.043 Y0.656
X-3.171 Y0.614
X-3.29 Y0.549
X-3.395 Y0.464
X-3.486 Y0.365
X-3.561 Y0.252
X-3.627 Y0.107
X-3.656 Y-0.074
X-3.627 Y-0.256
X-3.544 Y-0.42
X-3.414 Y-0.55
X-3.25 Y-0.634
X-3.068 Y-0.663
X-2.431
G3 X-2.181 Y-0.165 R0.318
G1 X-2.658 Y0.526
G3 X-2.908 Y0.663 R0.318
G1 X-3.538
X-3.673 Y0.656
X-3.802 Y0.615
X-3.921 Y0.551
X-4.027 Y0.468
X-4.119 Y0.369
X-4.194 Y0.257
X-4.261 Y0.111
X-4.291 Y-0.072
X-4.263 Y-0.254
X-4.18 Y-0.419
X-4.05 Y-0.549
X-3.886 Y-0.634
X-3.704 Y-0.663
X-3.068
G3 X-2.817 Y-0.166 R0.317
G1 X-3.287 Y0.524
G3 X-3.538 Y0.663 R0.318
G1 X-4.155
X-4.289 Y0.656
X-4.419 Y0.619
X-4.54 Y0.559
X-4.648 Y0.477
X-4.742 Y0.38
X-4.82 Y0.27
X-4.891 Y0.12
X-4.924 Y-0.063
X-4.898 Y-0.247
X-4.816 Y-0.415
X-4.686 Y-0.547
X-4.521 Y-0.633
X-4.337 Y-0.663
X-3.704
G3 X-3.449 Y-0.172 R0.317
G1 X-3.9 Y0.519
G3 X-4.155 Y0.663 R0.318
G1 X-4.785
X-4.92 Y0.656
X-5.05 Y0.619
X-5.171 Y0.56
X-5.279 Y0.479
X-5.373 Y0.382
X-5.451 Y0.272
X-5.523 Y0.122
X-5.557 Y-0.062
X-5.531 Y-0.246
X-5.449 Y-0.414
X-5.319 Y-0.547
X-5.153 Y-0.633
X-4.969 Y-0.663
X-4.337
G3 X-4.082 Y-0.172 R0.317
G1 X-4.529 Y0.518
G3 X-4.785 Y0.663 R0.318
G1 X-5.401
X-5.536 Y0.656
X-5.667 Y0.623
X-5.789 Y0.566
X-5.899 Y0.487
X-5.995 Y0.392
X-6.075 Y0.284
X-6.151 Y0.13
X-6.187 Y-0.054
X-6.164 Y-0.241
X-6.083 Y-0.41
X-5.952 Y-0.545
X-5.786 Y-0.632
X-5.6 Y-0.663
X-4.969
G3 X-4.711 Y-0.177 R0.318
G1 X-5.143 Y0.513
G3 X-5.401 Y0.663 R0.318
G1 X-6.031
X-6.166 Y0.656
X-6.297 Y0.623
X-6.419 Y0.566
X-6.529 Y0.488
X-6.625 Y0.393
X-6.705 Y0.284
X-6.781 Y0.13
X-6.818 Y-0.054
X-6.795 Y-0.241
X-6.713 Y-0.41
X-6.583 Y-0.545
X-6.416 Y-0.632
X-6.231 Y-0.663
X-5.6
G3 X-5.342 Y-0.177 R0.318
G1 X-5.773 Y0.513
G3 X-6.031 Y0.663 R0.318
G1 X-6.689
X-6.824 Y0.656
X-6.953 Y0.617
X-7.074 Y0.556
X-7.181 Y0.473
X-7.274 Y0.376
X-7.351 Y0.265
X-7.42 Y0.116
X-7.452 Y-0.066
X-7.426 Y-0.25
X-7.343 Y-0.416
X-7.213 Y-0.548
X-7.048 Y-0.633
X-6.865 Y-0.663
X-6.231
G3 X-5.977 Y-0.17 R0.317
G1 X-6.436 Y0.521
G3 X-6.689 Y0.663 R0.318
G1 X-7.34
X-7.475 Y0.656
X-7.603 Y0.614
X-7.722 Y0.55
X-7.827 Y0.465
X-7.918 Y0.366
X-7.993 Y0.254
X-8.06 Y0.108
X-8.089 Y-0.073
X-8.06 Y-0.255
X-7.977 Y-0.42
X-7.847 Y-0.55
X-7.683 Y-0.634
X-7.501 Y-0.663
X-6.865
G3 X-6.614 Y-0.165 R0.318
G1 X-7.089 Y0.525
G3 X-7.34 Y0.663 R0.318
G1 X-7.97
X-8.105 Y0.656
X-8.233 Y0.615
X-8.353 Y0.552
X-8.459 Y0.468
X-8.551 Y0.37
X-8.627 Y0.258
X-8.694 Y0.111
X-8.724 Y-0.071
X-8.697 Y-0.253
X-8.614 Y-0.418
X-8.483 Y-0.549
X-8.319 Y-0.633
X-8.137 Y-0.663
X-7.501
G3 X-7.25 Y-0.167 R0.317
G1 X-7.718 Y0.523
G3 X-7.97 Y0.663 R0.318
G1 X-8.586
X-8.721 Y0.656
X-8.851 Y0.619
X-8.972 Y0.559
X-9.08 Y0.478
X-9.174 Y0.381
X-9.252 Y0.271
X-9.324 Y0.121
X-9.357 Y-0.062
X-9.331 Y-0.247
X-9.249 Y-0.414
X-9.119 Y-0.547
X-8.954 Y-0.633
X-8.77 Y-0.663
X-8.137
G3 X-7.882 Y-0.172 R0.317
G1 X-8.331 Y0.518
G3 X-8.586 Y0.663 R0.318
G1 X-9.216
X-9.351 Y0.656
X-9.481 Y0.62
X-9.602 Y0.56
X-9.711 Y0.479
X-9.805 Y0.383
X-9.883 Y0.273
X-9.956 Y0.122
X-9.989 Y-0.061
X-9.964 Y-0.246
X-9.882 Y-0.414
X-9.752 Y-0.547
X-9.586 Y-0.633
X-9.402 Y-0.663
X-8.77
G3 X-8.514 Y-0.173 R0.318
G1 X-8.961 Y0.518
G3 X-9.216 Y0.663 R0.318
G1 X-9.833
X-9.967 Y0.656
X-10.098 Y0.623
X-10.221 Y0.566
X-10.331 Y0.488
X-10.427 Y0.393
X-10.507 Y0.285
X-10.583 Y0.13
X-10.62 Y-0.054
X-10.597 Y-0.24
X-10.515 Y-0.41
X-10.385 Y-0.545
X-10.218 Y-0.632
X-10.033 Y-0.663
X-9.402
G3 X-9.144 Y-0.177 R0.317
G1 X-9.574 Y0.513
G3 X-9.833 Y0.663 R0.317
G1 X-10.463
X-10.597 Y0.656
X-10.728 Y0.623
X-10.851 Y0.567
X-10.961 Y0.488
X-11.057 Y0.393
X-11.137 Y0.285
X-11.214 Y0.131
X-11.25 Y-0.054
X-11.227 Y-0.24
X-11.146 Y-0.41
X-11.016 Y-0.545
X-10.849 Y-0.632
X-10.663 Y-0.663
G3 X-10.37 Y-0.434 R0.317
G1 X-10.169 Y0.257
G3 X-10.463 Y0.663 R0.317
G1 X-11.121
X-11.256 Y0.656
X-11.385 Y0.618
X-11.505 Y0.556
X-11.612 Y0.474
X-11.706 Y0.376
X-11.783 Y0.265
X-11.853 Y0.117
X-11.885 Y-0.066
X-11.858 Y-0.25
X-11.776 Y-0.416
X-11.646 Y-0.548
X-11.481 Y-0.633
X-11.297 Y-0.663
G3 X-11.001 Y-0.424 R0.317
G1 X-10.824 Y0.267
G3 X-11.121 Y0.663 R0.318
G1 X-11.771
X-11.906 Y0.656
X-12.035 Y0.614
X-12.153 Y0.55
X-12.259 Y0.466
X-12.35 Y0.366
X-12.425 Y0.254
X-12.492 Y0.109
X-12.521 Y-0.073
X-12.493 Y-0.255
X-12.41 Y-0.419
X-12.28 Y-0.55
X-12.115 Y-0.634
X-11.934 Y-0.663
G3 X-11.636 Y-0.418 R0.318
G1 X-11.473 Y0.273
G3 X-11.771 Y0.663 R0.318
G1 X-12.401
X-12.536 Y0.656
X-12.665 Y0.615
X-12.785 Y0.552
X-12.89 Y0.469
X-12.983 Y0.37
X-13.059 Y0.258
X-13.126 Y0.112
X-13.156 Y-0.07
X-13.129 Y-0.253
X-13.046 Y-0.418
X-12.916 Y-0.549
X-12.751 Y-0.633
X-12.569 Y-0.663
G3 X-12.271 Y-0.42 R0.318
G1 X-12.104 Y0.27
G3 X-12.401 Y0.663 R0.318
G1 X-13.018
X-13.156 Y0.654
X-13.26 Y0.609
X-13.322 Y0.554
X-13.389 Y0.45
X-13.412 Y0.346
X-13.409 Y-0.381
X-13.373 Y-0.484
X-13.295 Y-0.582
X-13.225 Y-0.629
X-13.122 Y-0.66
X-10.033 Y-0.663
G3 X-9.912 Y-0.634 R0.318
G1 X-9.848 Y-0.605 Z-4.792
X-9.787 Y-0.577 Z-4.769
X-9.732 Y-0.552 Z-4.731
X-9.686 Y-0.531 Z-4.68
X-9.652 Y-0.515 Z-4.62
X-9.631 Y-0.506 Z-4.553
X-9.623 Y-0.502 Z-4.483
G0 Z15.

M9
M30
