(__2)
(T1  D=4. CR=0. - ZMIN=-15. - FLAT END MILL)
G90 G94 G91.1 G40 G49 G17
G21

(2D CONTOUR3)
M5
M9
T1
S7280 M3
G54
M8
G0 X2.587 Y-21.968
G43 Z15. H1
Z5.
G1 Z2. F30.
Z0.5
G3 X-2.587 Y-18.032 Z0.143 R3.25 F466.
X2.587 Y-21.968 Z-0.213 R3.25
X-2.587 Y-18.032 Z-0.57 R3.25
X2.587 Y-21.968 Z-0.926 R3.25
X3.25 Y-20. Z-1. R3.25
X-3.25 R3.25
X3.25 R3.25
X-3.25 Z-1.357 R3.25
X3.25 Z-1.713 R3.25
X-2.657 Y-18.129 Z-2. R3.25
X2.657 Y-21.871 R3.25
X-2.657 Y-18.129 R3.25
X2.657 Y-21.871 Z-2.357 R3.25
X-2.657 Y-18.129 Z-2.713 R3.25
X1.095 Y-23.06 Z-3. R3.25
X-1.095 Y-16.94 R3.25
X1.095 Y-23.06 R3.25
X-1.095 Y-16.94 Z-3.357 R3.25
X1.095 Y-23.06 Z-3.713 R3.25
X0.867 Y-16.868 Z-4. R3.25
X-0.867 Y-23.132 R3.25
X0.867 Y-16.868 R3.25
X-0.867 Y-23.132 Z-4.357 R3.25
X0.867 Y-16.868 Z-4.713 R3.25
X-2.513 Y-22.061 Z-5. R3.25
X2.513 Y-17.939 R3.25
X-2.513 Y-22.061 R3.25
X2.513 Y-17.939 Z-5.357 R3.25
X-1.206 Y-16.982 Z-5.5 R3.25
X1.206 Y-23.018 R3.25
X-1.206 Y-16.982 R3.25
G0 Z5.
X2.587 Y18.032
G1 Z2. F30.
Z0.5
G3 X-2.587 Y21.968 Z0.143 R3.25 F466.
X2.587 Y18.032 Z-0.213 R3.25
X-2.587 Y21.968 Z-0.57 R3.25
X2.587 Y18.032 Z-0.926 R3.25
X3.25 Y20. Z-1. R3.25
X-3.25 R3.25
X3.25 R3.25
X-3.25 Z-1.357 R3.25
X3.25 Z-1.713 R3.25
X-2.657 Y21.871 Z-2. R3.25
X2.657 Y18.129 R3.25
X-2.657 Y21.871 R3.25
X2.657 Y18.129 Z-2.357 R3.25
X-2.657 Y21.871 Z-2.713 R3.25
X1.095 Y16.94 Z-3. R3.25
X-1.095 Y23.06 R3.25
X1.095 Y16.94 R3.25
X-1.095 Y23.06 Z-3.357 R3.25
X1.095 Y16.94 Z-3.713 R3.25
X0.867 Y23.132 Z-4. R3.25
X-0.867 Y16.868 R3.25
X0.867 Y23.132 R3.25
X-0.867 Y16.868 Z-4.357 R3.25
X0.867 Y23.132 Z-4.713 R3.25
X-2.513 Y17.939 Z-5. R3.25
X2.513 Y22.061 R3.25
X-2.513 Y17.939 R3.25
X2.513 Y22.061 Z-5.357 R3.25
X-1.206 Y23.018 Z-5.5 R3.25
X1.206 Y16.982 R3.25
X-1.206 Y23.018 R3.25
G0 Z15.

(2D POCKET3)
M8
G0 X0.962 Y19.503
Z15.
Z0.
G1 Z-4.5 F466.
G3 X-0.162 Y20.497 Z-4.582 R0.75
X0.962 Y19.503 Z-4.665 R0.75
X-0.162 Y20.497 Z-4.747 R0.75
X0.962 Y19.503 Z-4.829 R0.75
X-0.162 Y20.497 Z-4.911 R0.75
X0.962 Y19.503 Z-4.994 R0.75
X-0.162 Y20.497 Z-5.076 R0.75
X0.962 Y19.503 Z-5.158 R0.75
X-0.162 Y20.497 Z-5.241 R0.75
X0.962 Y19.503 Z-5.323 R0.75
X-0.162 Y20.497 Z-5.405 R0.75
X0.962 Y19.503 Z-5.487 R0.75
X-0.162 Y20.497 Z-5.57 R0.75
X0.962 Y19.503 Z-5.652 R0.75
X-0.162 Y20.497 Z-5.734 R0.75
X0.962 Y19.503 Z-5.816 R0.75
X-0.162 Y20.497 Z-5.899 R0.75
X0.962 Y19.503 Z-5.981 R0.75
X1.15 Y20. Z-6. R0.75
X-1.15 R1.15
X1.25 R1.2
X-1.25 R1.25
X1.25 R1.25
X1.066 Y20.049 R0.099
G1 X0.892 Y19.747
G3 X0.929 Y19.611 R0.099
X1.064 Y19.652 R0.099
X-0.264 Y20.348 Z-6.082 R0.75
X1.064 Y19.652 Z-6.165 R0.75
X-0.264 Y20.348 Z-6.247 R0.75
X1.064 Y19.652 Z-6.329 R0.75
X-0.264 Y20.348 Z-6.411 R0.75
X1.064 Y19.652 Z-6.494 R0.75
X-0.264 Y20.348 Z-6.576 R0.75
X1.064 Y19.652 Z-6.658 R0.75
X-0.264 Y20.348 Z-6.741 R0.75
X1.064 Y19.652 Z-6.823 R0.75
X-0.264 Y20.348 Z-6.905 R0.75
X1.064 Y19.652 Z-6.987 R0.75
X1.15 Y20. Z-7. R0.75
X-1.15 R1.15
X1.25 R1.2
X-1.25 R1.25
X1.25 R1.25
X1.066 Y20.049 R0.099
G1 X0.892 Y19.747
G3 X0.929 Y19.611 R0.099
X1.064 Y19.652 R0.099
X-0.264 Y20.348 Z-7.082 R0.75
X1.064 Y19.652 Z-7.165 R0.75
X-0.264 Y20.348 Z-7.247 R0.75
X1.064 Y19.652 Z-7.329 R0.75
X-0.264 Y20.348 Z-7.411 R0.75
X1.064 Y19.652 Z-7.494 R0.75
X-0.264 Y20.348 Z-7.576 R0.75
X1.064 Y19.652 Z-7.658 R0.75
X-0.264 Y20.348 Z-7.741 R0.75
X1.064 Y19.652 Z-7.823 R0.75
X-0.264 Y20.348 Z-7.905 R0.75
X1.064 Y19.652 Z-7.987 R0.75
X1.15 Y20. Z-8. R0.75
X-1.15 R1.15
X1.25 R1.2
X-1.25 R1.25
X1.25 R1.25
X1.066 Y20.049 R0.099
G1 X0.892 Y19.747
G3 X0.929 Y19.611 R0.099
X1.064 Y19.652 R0.099
X-0.264 Y20.348 Z-8.082 R0.75
X1.064 Y19.652 Z-8.165 R0.75
X-0.264 Y20.348 Z-8.247 R0.75
X1.064 Y19.652 Z-8.329 R0.75
X-0.264 Y20.348 Z-8.411 R0.75
X1.064 Y19.652 Z-8.494 R0.75
X-0.264 Y20.348 Z-8.576 R0.75
X1.064 Y19.652 Z-8.658 R0.75
X-0.264 Y20.348 Z-8.741 R0.75
X1.064 Y19.652 Z-8.823 R0.75
X-0.264 Y20.348 Z-8.905 R0.75
X1.064 Y19.652 Z-8.987 R0.75
X1.15 Y20. Z-9. R0.75
X-1.15 R1.15
X1.25 R1.2
X-1.25 R1.25
X1.25 R1.25
X1.066 Y20.049 R0.099
G1 X0.892 Y19.747
G3 X0.929 Y19.611 R0.099
X1.064 Y19.652 R0.099
X-0.264 Y20.348 Z-9.082 R0.75
X1.064 Y19.652 Z-9.165 R0.75
X-0.264 Y20.348 Z-9.247 R0.75
X1.064 Y19.652 Z-9.329 R0.75
X-0.264 Y20.348 Z-9.411 R0.75
X1.064 Y19.652 Z-9.494 R0.75
X-0.264 Y20.348 Z-9.576 R0.75
X1.064 Y19.652 Z-9.658 R0.75
X-0.264 Y20.348 Z-9.741 R0.75
X1.064 Y19.652 Z-9.823 R0.75
X-0.264 Y20.348 Z-9.905 R0.75
X1.064 Y19.652 Z-9.987 R0.75
X1.15 Y20. Z-10. R0.75
X-1.15 R1.15
X1.25 R1.2
X-1.25 R1.25
X1.25 R1.25
X1.066 Y20.049 R0.099
G1 X0.892 Y19.747
G3 X0.929 Y19.611 R0.099
X1.064 Y19.652 R0.099
X-0.264 Y20.348 Z-10.082 R0.75
X1.064 Y19.652 Z-10.165 R0.75
X-0.264 Y20.348 Z-10.247 R0.75
X1.064 Y19.652 Z-10.329 R0.75
X-0.264 Y20.348 Z-10.411 R0.75
X1.064 Y19.652 Z-10.494 R0.75
X-0.264 Y20.348 Z-10.576 R0.75
X1.064 Y19.652 Z-10.658 R0.75
X-0.264 Y20.348 Z-10.741 R0.75
X1.064 Y19.652 Z-10.823 R0.75
X-0.264 Y20.348 Z-10.905 R0.75
X1.064 Y19.652 Z-10.987 R0.75
X1.15 Y20. Z-11. R0.75
X-1.15 R1.15
X1.25 R1.2
X-1.25 R1.25
X1.25 R1.25
X1.066 Y20.049 R0.099
G1 X0.892 Y19.747
G3 X0.929 Y19.611 R0.099
X1.064 Y19.652 R0.099
X-0.264 Y20.348 Z-11.082 R0.75
X1.064 Y19.652 Z-11.165 R0.75
X-0.264 Y20.348 Z-11.247 R0.75
X1.064 Y19.652 Z-11.329 R0.75
X-0.264 Y20.348 Z-11.411 R0.75
X1.064 Y19.652 Z-11.494 R0.75
X-0.264 Y20.348 Z-11.576 R0.75
X1.064 Y19.652 Z-11.658 R0.75
X-0.264 Y20.348 Z-11.741 R0.75
X1.064 Y19.652 Z-11.823 R0.75
X-0.264 Y20.348 Z-11.905 R0.75
X1.064 Y19.652 Z-11.987 R0.75
X1.15 Y20. Z-12. R0.75
X-1.15 R1.15
X1.25 R1.2
X-1.25 R1.25
X1.25 R1.25
X1.066 Y20.049 R0.099
G1 X0.892 Y19.747
G3 X0.929 Y19.611 R0.099
X1.064 Y19.652 R0.099
X-0.264 Y20.348 Z-12.082 R0.75
X1.064 Y19.652 Z-12.165 R0.75
X-0.264 Y20.348 Z-12.247 R0.75
X1.064 Y19.652 Z-12.329 R0.75
X-0.264 Y20.348 Z-12.411 R0.75
X1.064 Y19.652 Z-12.494 R0.75
X-0.264 Y20.348 Z-12.576 R0.75
X1.064 Y19.652 Z-12.658 R0.75
X-0.264 Y20.348 Z-12.741 R0.75
X1.064 Y19.652 Z-12.823 R0.75
X-0.264 Y20.348 Z-12.905 R0.75
X1.064 Y19.652 Z-12.987 R0.75
X1.15 Y20. Z-13. R0.75
X-1.15 R1.15
X1.25 R1.2
X-1.25 R1.25
X1.25 R1.25
X1.066 Y20.049 R0.099
G1 X0.892 Y19.747
G3 X0.929 Y19.611 R0.099
X1.064 Y19.652 R0.099
X-0.264 Y20.348 Z-13.082 R0.75
X1.064 Y19.652 Z-13.165 R0.75
X-0.264 Y20.348 Z-13.247 R0.75
X1.064 Y19.652 Z-13.329 R0.75
X-0.264 Y20.348 Z-13.411 R0.75
X1.064 Y19.652 Z-13.494 R0.75
X-0.264 Y20.348 Z-13.576 R0.75
X1.064 Y19.652 Z-13.658 R0.75
X-0.264 Y20.348 Z-13.741 R0.75
X1.064 Y19.652 Z-13.823 R0.75
X-0.264 Y20.348 Z-13.905 R0.75
X1.064 Y19.652 Z-13.987 R0.75
X1.15 Y20. Z-14. R0.75
X-1.15 R1.15
X1.25 R1.2
X-1.25 R1.25
X1.25 R1.25
X1.066 Y20.049 R0.099
G1 X0.892 Y19.747
G3 X0.929 Y19.611 R0.099
X1.064 Y19.652 R0.099
X-0.264 Y20.348 Z-14.082 R0.75
X1.064 Y19.652 Z-14.165 R0.75
X-0.264 Y20.348 Z-14.247 R0.75
X1.064 Y19.652 Z-14.329 R0.75
X-0.264 Y20.348 Z-14.411 R0.75
X1.064 Y19.652 Z-14.494 R0.75
X-0.264 Y20.348 Z-14.576 R0.75
X1.064 Y19.652 Z-14.658 R0.75
X-0.264 Y20.348 Z-14.741 R0.75
X1.064 Y19.652 Z-14.823 R0.75
X-0.264 Y20.348 Z-14.905 R0.75
X1.064 Y19.652 Z-14.987 R0.75
X1.15 Y20. Z-15. R0.75
X-1.15 R1.15
X1.25 R1.2
X-1.25 R1.25
X1.25 R1.25
G1 X0.49 Z-14.924
G0 Z5.
X0.962 Y-20.497
Z0.
G1 Z-4.5 F466.
G3 X-0.162 Y-19.503 Z-4.582 R0.75
X0.962 Y-20.497 Z-4.665 R0.75
X-0.162 Y-19.503 Z-4.747 R0.75
X0.962 Y-20.497 Z-4.829 R0.75
X-0.162 Y-19.503 Z-4.911 R0.75
X0.962 Y-20.497 Z-4.994 R0.75
X-0.162 Y-19.503 Z-5.076 R0.75
X0.962 Y-20.497 Z-5.158 R0.75
X-0.162 Y-19.503 Z-5.241 R0.75
X0.962 Y-20.497 Z-5.323 R0.75
X-0.162 Y-19.503 Z-5.405 R0.75
X0.962 Y-20.497 Z-5.487 R0.75
X-0.162 Y-19.503 Z-5.57 R0.75
X0.962 Y-20.497 Z-5.652 R0.75
X-0.162 Y-19.503 Z-5.734 R0.75
X0.962 Y-20.497 Z-5.816 R0.75
X-0.162 Y-19.503 Z-5.899 R0.75
X0.962 Y-20.497 Z-5.981 R0.75
X1.15 Y-20. Z-6. R0.75
X-1.15 R1.15
X1.25 R1.2
X-1.25 R1.25
X1.25 R1.25
X1.066 Y-19.951 R0.099
G1 X0.892 Y-20.253
G3 X0.929 Y-20.389 R0.099
X1.064 Y-20.348 R0.099
X-0.264 Y-19.652 Z-6.082 R0.75
X1.064 Y-20.348 Z-6.165 R0.75
X-0.264 Y-19.652 Z-6.247 R0.75
X1.064 Y-20.348 Z-6.329 R0.75
X-0.264 Y-19.652 Z-6.411 R0.75
X1.064 Y-20.348 Z-6.494 R0.75
X-0.264 Y-19.652 Z-6.576 R0.75
X1.064 Y-20.348 Z-6.658 R0.75
X-0.264 Y-19.652 Z-6.741 R0.75
X1.064 Y-20.348 Z-6.823 R0.75
X-0.264 Y-19.652 Z-6.905 R0.75
X1.064 Y-20.348 Z-6.987 R0.75
X1.15 Y-20. Z-7. R0.75
X-1.15 R1.15
X1.25 R1.2
X-1.25 R1.25
X1.25 R1.25
X1.066 Y-19.951 R0.099
G1 X0.892 Y-20.253
G3 X0.929 Y-20.389 R0.099
X1.064 Y-20.348 R0.099
X-0.264 Y-19.652 Z-7.082 R0.75
X1.064 Y-20.348 Z-7.165 R0.75
X-0.264 Y-19.652 Z-7.247 R0.75
X1.064 Y-20.348 Z-7.329 R0.75
X-0.264 Y-19.652 Z-7.411 R0.75
X1.064 Y-20.348 Z-7.494 R0.75
X-0.264 Y-19.652 Z-7.576 R0.75
X1.064 Y-20.348 Z-7.658 R0.75
X-0.264 Y-19.652 Z-7.741 R0.75
X1.064 Y-20.348 Z-7.823 R0.75
X-0.264 Y-19.652 Z-7.905 R0.75
X1.064 Y-20.348 Z-7.987 R0.75
X1.15 Y-20. Z-8. R0.75
X-1.15 R1.15
X1.25 R1.2
X-1.25 R1.25
X1.25 R1.25
X1.066 Y-19.951 R0.099
G1 X0.892 Y-20.253
G3 X0.929 Y-20.389 R0.099
X1.064 Y-20.348 R0.099
X-0.264 Y-19.652 Z-8.082 R0.75
X1.064 Y-20.348 Z-8.165 R0.75
X-0.264 Y-19.652 Z-8.247 R0.75
X1.064 Y-20.348 Z-8.329 R0.75
X-0.264 Y-19.652 Z-8.411 R0.75
X1.064 Y-20.348 Z-8.494 R0.75
X-0.264 Y-19.652 Z-8.576 R0.75
X1.064 Y-20.348 Z-8.658 R0.75
X-0.264 Y-19.652 Z-8.741 R0.75
X1.064 Y-20.348 Z-8.823 R0.75
X-0.264 Y-19.652 Z-8.905 R0.75
X1.064 Y-20.348 Z-8.987 R0.75
X1.15 Y-20. Z-9. R0.75
X-1.15 R1.15
X1.25 R1.2
X-1.25 R1.25
X1.25 R1.25
X1.066 Y-19.951 R0.099
G1 X0.892 Y-20.253
G3 X0.929 Y-20.389 R0.099
X1.064 Y-20.348 R0.099
X-0.264 Y-19.652 Z-9.082 R0.75
X1.064 Y-20.348 Z-9.165 R0.75
X-0.264 Y-19.652 Z-9.247 R0.75
X1.064 Y-20.348 Z-9.329 R0.75
X-0.264 Y-19.652 Z-9.411 R0.75
X1.064 Y-20.348 Z-9.494 R0.75
X-0.264 Y-19.652 Z-9.576 R0.75
X1.064 Y-20.348 Z-9.658 R0.75
X-0.264 Y-19.652 Z-9.741 R0.75
X1.064 Y-20.348 Z-9.823 R0.75
X-0.264 Y-19.652 Z-9.905 R0.75
X1.064 Y-20.348 Z-9.987 R0.75
X1.15 Y-20. Z-10. R0.75
X-1.15 R1.15
X1.25 R1.2
X-1.25 R1.25
X1.25 R1.25
X1.066 Y-19.951 R0.099
G1 X0.892 Y-20.253
G3 X0.929 Y-20.389 R0.099
X1.064 Y-20.348 R0.099
X-0.264 Y-19.652 Z-10.082 R0.75
X1.064 Y-20.348 Z-10.165 R0.75
X-0.264 Y-19.652 Z-10.247 R0.75
X1.064 Y-20.348 Z-10.329 R0.75
X-0.264 Y-19.652 Z-10.411 R0.75
X1.064 Y-20.348 Z-10.494 R0.75
X-0.264 Y-19.652 Z-10.576 R0.75
X1.064 Y-20.348 Z-10.658 R0.75
X-0.264 Y-19.652 Z-10.741 R0.75
X1.064 Y-20.348 Z-10.823 R0.75
X-0.264 Y-19.652 Z-10.905 R0.75
X1.064 Y-20.348 Z-10.987 R0.75
X1.15 Y-20. Z-11. R0.75
X-1.15 R1.15
X1.25 R1.2
X-1.25 R1.25
X1.25 R1.25
X1.066 Y-19.951 R0.099
G1 X0.892 Y-20.253
G3 X0.929 Y-20.389 R0.099
X1.064 Y-20.348 R0.099
X-0.264 Y-19.652 Z-11.082 R0.75
X1.064 Y-20.348 Z-11.165 R0.75
X-0.264 Y-19.652 Z-11.247 R0.75
X1.064 Y-20.348 Z-11.329 R0.75
X-0.264 Y-19.652 Z-11.411 R0.75
X1.064 Y-20.348 Z-11.494 R0.75
X-0.264 Y-19.652 Z-11.576 R0.75
X1.064 Y-20.348 Z-11.658 R0.75
X-0.264 Y-19.652 Z-11.741 R0.75
X1.064 Y-20.348 Z-11.823 R0.75
X-0.264 Y-19.652 Z-11.905 R0.75
X1.064 Y-20.348 Z-11.987 R0.75
X1.15 Y-20. Z-12. R0.75
X-1.15 R1.15
X1.25 R1.2
X-1.25 R1.25
X1.25 R1.25
X1.066 Y-19.951 R0.099
G1 X0.892 Y-20.253
G3 X0.929 Y-20.389 R0.099
X1.064 Y-20.348 R0.099
X-0.264 Y-19.652 Z-12.082 R0.75
X1.064 Y-20.348 Z-12.165 R0.75
X-0.264 Y-19.652 Z-12.247 R0.75
X1.064 Y-20.348 Z-12.329 R0.75
X-0.264 Y-19.652 Z-12.411 R0.75
X1.064 Y-20.348 Z-12.494 R0.75
X-0.264 Y-19.652 Z-12.576 R0.75
X1.064 Y-20.348 Z-12.658 R0.75
X-0.264 Y-19.652 Z-12.741 R0.75
X1.064 Y-20.348 Z-12.823 R0.75
X-0.264 Y-19.652 Z-12.905 R0.75
X1.064 Y-20.348 Z-12.987 R0.75
X1.15 Y-20. Z-13. R0.75
X-1.15 R1.15
X1.25 R1.2
X-1.25 R1.25
X1.25 R1.25
X1.066 Y-19.951 R0.099
G1 X0.892 Y-20.253
G3 X0.929 Y-20.389 R0.099
X1.064 Y-20.348 R0.099
X-0.264 Y-19.652 Z-13.082 R0.75
X1.064 Y-20.348 Z-13.165 R0.75
X-0.264 Y-19.652 Z-13.247 R0.75
X1.064 Y-20.348 Z-13.329 R0.75
X-0.264 Y-19.652 Z-13.411 R0.75
X1.064 Y-20.348 Z-13.494 R0.75
X-0.264 Y-19.652 Z-13.576 R0.75
X1.064 Y-20.348 Z-13.658 R0.75
X-0.264 Y-19.652 Z-13.741 R0.75
X1.064 Y-20.348 Z-13.823 R0.75
X-0.264 Y-19.652 Z-13.905 R0.75
X1.064 Y-20.348 Z-13.987 R0.75
X1.15 Y-20. Z-14. R0.75
X-1.15 R1.15
X1.25 R1.2
X-1.25 R1.25
X1.25 R1.25
X1.066 Y-19.951 R0.099
G1 X0.892 Y-20.253
G3 X0.929 Y-20.389 R0.099
X1.064 Y-20.348 R0.099
X-0.264 Y-19.652 Z-14.082 R0.75
X1.064 Y-20.348 Z-14.165 R0.75
X-0.264 Y-19.652 Z-14.247 R0.75
X1.064 Y-20.348 Z-14.329 R0.75
X-0.264 Y-19.652 Z-14.411 R0.75
X1.064 Y-20.348 Z-14.494 R0.75
X-0.264 Y-19.652 Z-14.576 R0.75
X1.064 Y-20.348 Z-14.658 R0.75
X-0.264 Y-19.652 Z-14.741 R0.75
X1.064 Y-20.348 Z-14.823 R0.75
X-0.264 Y-19.652 Z-14.905 R0.75
X1.064 Y-20.348 Z-14.987 R0.75
X1.15 Y-20. Z-15. R0.75
X-1.15 R1.15
X1.25 R1.2
X-1.25 R1.25
X1.25 R1.25
G1 X0.49 Z-14.924
G0 Z15.

M9
M30
