(__1)
(T1  D=4. CR=0. - ZMIN=-15. - FLAT END MILL)
G90 G94 G91.1 G40 G49 G17
G21

(2D CONTOUR1)
M5
M9
T1
S7280 M3
G54
M8
G0 X-3.25 Y0.022
G43 Z15. H1
Z5.
G1 Z2. F30.
Z0.5
G3 X3.25 Y-0.022 Z0.143 R3.25 F466.
X-3.25 Y0.022 Z-0.213 R3.25
X3.25 Y-0.022 Z-0.57 R3.25
X-3.25 Y0.022 Z-0.926 R3.25
X-2.6 Y-1.95 Z-1. R3.25
X2.6 Y1.95 R3.25
X-2.6 Y-1.95 R3.25
X2.6 Y1.95 Z-1.357 R3.25
X-2.6 Y-1.95 Z-1.713 R3.25
X3.249 Y0.097 Z-2. R3.25
X-3.249 Y-0.097 R3.25
X3.249 Y0.097 R3.25
X-3.249 Y-0.097 Z-2.357 R3.25
X3.249 Y0.097 Z-2.713 R3.25
X-2.712 Y1.791 Z-3. R3.25
X2.712 Y-1.791 R3.25
X-2.712 Y1.791 R3.25
X2.712 Y-1.791 Z-3.357 R3.25
X-2.712 Y1.791 Z-3.713 R3.25
X1.186 Y-3.026 Z-4. R3.25
X-1.186 Y3.026 R3.25
X1.186 Y-3.026 R3.25
X-1.186 Y3.026 Z-4.357 R3.25
X1.186 Y-3.026 Z-4.713 R3.25
X0.773 Y3.157 Z-5. R3.25
X-0.773 Y-3.157 R3.25
X0.773 Y3.157 R3.25
X-0.773 Y-3.157 Z-5.357 R3.25
X2.776 Y-1.69 Z-5.5 R3.25
X-2.776 Y1.69 R3.25
X2.776 Y-1.69 R3.25
G0 Z5.
X0.889 Y-43.126
G1 Z2. F30.
Z0.5
G3 X-0.889 Y-36.874 Z0.143 R3.25 F466.
X0.889 Y-43.126 Z-0.213 R3.25
X-0.889 Y-36.874 Z-0.57 R3.25
X0.889 Y-43.126 Z-0.926 R3.25
X2.6 Y-41.95 Z-1. R3.25
X-2.6 Y-38.05 R3.25
X2.6 Y-41.95 R3.25
X-2.6 Y-38.05 Z-1.357 R3.25
X2.6 Y-41.95 Z-1.713 R3.25
X-1.003 Y-36.909 Z-2. R3.25
X1.003 Y-43.091 R3.25
X-1.003 Y-36.909 R3.25
X1.003 Y-43.091 Z-2.357 R3.25
X-1.003 Y-36.909 Z-2.713 R3.25
X-0.96 Y-43.105 Z-3. R3.25
X0.96 Y-36.895 R3.25
X-0.96 Y-43.105 R3.25
X0.96 Y-36.895 Z-3.357 R3.25
X-0.96 Y-43.105 Z-3.713 R3.25
X2.573 Y-38.015 Z-4. R3.25
X-2.573 Y-41.985 R3.25
X2.573 Y-38.015 R3.25
X-2.573 Y-41.985 Z-4.357 R3.25
X2.573 Y-38.015 Z-4.713 R3.25
X-3.247 Y-40.142 Z-5. R3.25
X3.247 Y-39.858 R3.25
X-3.247 Y-40.142 R3.25
X3.247 Y-39.858 Z-5.357 R3.25
X0.846 Y-36.862 Z-5.5 R3.25
X-0.846 Y-43.138 R3.25
X0.846 Y-36.862 R3.25
G0 Z5.
X0.889 Y36.874
G1 Z2. F30.
Z0.5
G3 X-0.889 Y43.126 Z0.143 R3.25 F466.
X0.889 Y36.874 Z-0.213 R3.25
X-0.889 Y43.126 Z-0.57 R3.25
X0.889 Y36.874 Z-0.926 R3.25
X2.6 Y38.05 Z-1. R3.25
X-2.6 Y41.95 R3.25
X2.6 Y38.05 R3.25
X-2.6 Y41.95 Z-1.357 R3.25
X2.6 Y38.05 Z-1.713 R3.25
X-1.003 Y43.091 Z-2. R3.25
X1.003 Y36.909 R3.25
X-1.003 Y43.091 R3.25
X1.003 Y36.909 Z-2.357 R3.25
X-1.003 Y43.091 Z-2.713 R3.25
X-0.96 Y36.895 Z-3. R3.25
X0.96 Y43.105 R3.25
X-0.96 Y36.895 R3.25
X0.96 Y43.105 Z-3.357 R3.25
X-0.96 Y36.895 Z-3.713 R3.25
X2.573 Y41.985 Z-4. R3.25
X-2.573 Y38.015 R3.25
X2.573 Y41.985 R3.25
X-2.573 Y38.015 Z-4.357 R3.25
X2.573 Y41.985 Z-4.713 R3.25
X-3.247 Y39.858 Z-5. R3.25
X3.247 Y40.142 R3.25
X-3.247 Y39.858 R3.25
X3.247 Y40.142 Z-5.357 R3.25
X0.846 Y43.138 Z-5.5 R3.25
X-0.846 Y36.862 R3.25
X0.846 Y43.138 R3.25
G0 Z15.

(2D POCKET2)
M8
G0 X0.962 Y-0.497
Z15.
Z-0.5
G1 Z-5. F466.
G3 X-0.162 Y0.497 Z-5.082 R0.75
X0.962 Y-0.497 Z-5.165 R0.75
X-0.162 Y0.497 Z-5.247 R0.75
X0.962 Y-0.497 Z-5.329 R0.75
X-0.162 Y0.497 Z-5.411 R0.75
X0.962 Y-0.497 Z-5.494 R0.75
X-0.162 Y0.497 Z-5.576 R0.75
X0.962 Y-0.497 Z-5.658 R0.75
X-0.162 Y0.497 Z-5.741 R0.75
X0.962 Y-0.497 Z-5.823 R0.75
X-0.162 Y0.497 Z-5.905 R0.75
X0.962 Y-0.497 Z-5.987 R0.75
X-0.162 Y0.497 Z-6.07 R0.75
X0.962 Y-0.497 Z-6.152 R0.75
X-0.162 Y0.497 Z-6.234 R0.75
X0.962 Y-0.497 Z-6.316 R0.75
X-0.162 Y0.497 Z-6.399 R0.75
X0.962 Y-0.497 Z-6.481 R0.75
X1.15 Y0. Z-6.5 R0.75
X-1.15 R1.15
X1.25 R1.2
X-1.25 R1.25
X1.25 R1.25
X1.066 Y0.049 R0.099
G1 X0.892 Y-0.253
G3 X0.929 Y-0.389 R0.099
X1.064 Y-0.348 R0.099
X-0.264 Y0.348 Z-6.582 R0.75
X1.064 Y-0.348 Z-6.665 R0.75
X-0.264 Y0.348 Z-6.747 R0.75
X1.064 Y-0.348 Z-6.829 R0.75
X-0.264 Y0.348 Z-6.911 R0.75
X1.064 Y-0.348 Z-6.994 R0.75
X-0.264 Y0.348 Z-7.076 R0.75
X1.064 Y-0.348 Z-7.158 R0.75
X-0.264 Y0.348 Z-7.241 R0.75
X1.064 Y-0.348 Z-7.323 R0.75
X-0.264 Y0.348 Z-7.405 R0.75
X1.064 Y-0.348 Z-7.487 R0.75
X1.15 Y0. Z-7.5 R0.75
X-1.15 R1.15
X1.25 R1.2
X-1.25 R1.25
X1.25 R1.25
X1.066 Y0.049 R0.099
G1 X0.892 Y-0.253
G3 X0.929 Y-0.389 R0.099
X1.064 Y-0.348 R0.099
X-0.264 Y0.348 Z-7.582 R0.75
X1.064 Y-0.348 Z-7.665 R0.75
X-0.264 Y0.348 Z-7.747 R0.75
X1.064 Y-0.348 Z-7.829 R0.75
X-0.264 Y0.348 Z-7.911 R0.75
X1.064 Y-0.348 Z-7.994 R0.75
X-0.264 Y0.348 Z-8.076 R0.75
X1.064 Y-0.348 Z-8.158 R0.75
X-0.264 Y0.348 Z-8.241 R0.75
X1.064 Y-0.348 Z-8.323 R0.75
X-0.264 Y0.348 Z-8.405 R0.75
X1.064 Y-0.348 Z-8.487 R0.75
X1.15 Y0. Z-8.5 R0.75
X-1.15 R1.15
X1.25 R1.2
X-1.25 R1.25
X1.25 R1.25
X1.066 Y0.049 R0.099
G1 X0.892 Y-0.253
G3 X0.929 Y-0.389 R0.099
X1.064 Y-0.348 R0.099
X-0.264 Y0.348 Z-8.582 R0.75
X1.064 Y-0.348 Z-8.665 R0.75
X-0.264 Y0.348 Z-8.747 R0.75
X1.064 Y-0.348 Z-8.829 R0.75
X-0.264 Y0.348 Z-8.911 R0.75
X1.064 Y-0.348 Z-8.994 R0.75
X-0.264 Y0.348 Z-9.076 R0.75
X1.064 Y-0.348 Z-9.158 R0.75
X-0.264 Y0.348 Z-9.241 R0.75
X1.064 Y-0.348 Z-9.323 R0.75
X-0.264 Y0.348 Z-9.405 R0.75
X1.064 Y-0.348 Z-9.487 R0.75
X1.15 Y0. Z-9.5 R0.75
X-1.15 R1.15
X1.25 R1.2
X-1.25 R1.25
X1.25 R1.25
X1.066 Y0.049 R0.099
G1 X0.892 Y-0.253
G3 X0.929 Y-0.389 R0.099
X1.064 Y-0.348 R0.099
X-0.264 Y0.348 Z-9.582 R0.75
X1.064 Y-0.348 Z-9.665 R0.75
X-0.264 Y0.348 Z-9.747 R0.75
X1.064 Y-0.348 Z-9.829 R0.75
X-0.264 Y0.348 Z-9.911 R0.75
X1.064 Y-0.348 Z-9.994 R0.75
X-0.264 Y0.348 Z-10.076 R0.75
X1.064 Y-0.348 Z-10.158 R0.75
X-0.264 Y0.348 Z-10.241 R0.75
X1.064 Y-0.348 Z-10.323 R0.75
X-0.264 Y0.348 Z-10.405 R0.75
X1.064 Y-0.348 Z-10.487 R0.75
X1.15 Y0. Z-10.5 R0.75
X-1.15 R1.15
X1.25 R1.2
X-1.25 R1.25
X1.25 R1.25
X1.066 Y0.049 R0.099
G1 X0.892 Y-0.253
G3 X0.929 Y-0.389 R0.099
X1.064 Y-0.348 R0.099
X-0.264 Y0.348 Z-10.582 R0.75
X1.064 Y-0.348 Z-10.665 R0.75
X-0.264 Y0.348 Z-10.747 R0.75
X1.064 Y-0.348 Z-10.829 R0.75
X-0.264 Y0.348 Z-10.911 R0.75
X1.064 Y-0.348 Z-10.994 R0.75
X-0.264 Y0.348 Z-11.076 R0.75
X1.064 Y-0.348 Z-11.158 R0.75
X-0.264 Y0.348 Z-11.241 R0.75
X1.064 Y-0.348 Z-11.323 R0.75
X-0.264 Y0.348 Z-11.405 R0.75
X1.064 Y-0.348 Z-11.487 R0.75
X1.15 Y0. Z-11.5 R0.75
X-1.15 R1.15
X1.25 R1.2
X-1.25 R1.25
X1.25 R1.25
X1.066 Y0.049 R0.099
G1 X0.892 Y-0.253
G3 X0.929 Y-0.389 R0.099
X1.064 Y-0.348 R0.099
X-0.264 Y0.348 Z-11.582 R0.75
X1.064 Y-0.348 Z-11.665 R0.75
X-0.264 Y0.348 Z-11.747 R0.75
X1.064 Y-0.348 Z-11.829 R0.75
X-0.264 Y0.348 Z-11.911 R0.75
X1.064 Y-0.348 Z-11.994 R0.75
X-0.264 Y0.348 Z-12.076 R0.75
X1.064 Y-0.348 Z-12.158 R0.75
X-0.264 Y0.348 Z-12.241 R0.75
X1.064 Y-0.348 Z-12.323 R0.75
X-0.264 Y0.348 Z-12.405 R0.75
X1.064 Y-0.348 Z-12.487 R0.75
X1.15 Y0. Z-12.5 R0.75
X-1.15 R1.15
X1.25 R1.2
X-1.25 R1.25
X1.25 R1.25
X1.066 Y0.049 R0.099
G1 X0.892 Y-0.253
G3 X0.929 Y-0.389 R0.099
X1.064 Y-0.348 R0.099
X-0.264 Y0.348 Z-12.582 R0.75
X1.064 Y-0.348 Z-12.665 R0.75
X-0.264 Y0.348 Z-12.747 R0.75
X1.064 Y-0.348 Z-12.829 R0.75
X-0.264 Y0.348 Z-12.911 R0.75
X1.064 Y-0.348 Z-12.994 R0.75
X-0.264 Y0.348 Z-13.076 R0.75
X1.064 Y-0.348 Z-13.158 R0.75
X-0.264 Y0.348 Z-13.241 R0.75
X1.064 Y-0.348 Z-13.323 R0.75
X-0.264 Y0.348 Z-13.405 R0.75
X1.064 Y-0.348 Z-13.487 R0.75
X1.15 Y0. Z-13.5 R0.75
X-1.15 R1.15
X1.25 R1.2
X-1.25 R1.25
X1.25 R1.25
X1.066 Y0.049 R0.099
G1 X0.892 Y-0.253
G3 X0.929 Y-0.389 R0.099
X1.064 Y-0.348 R0.099
X-0.264 Y0.348 Z-13.582 R0.75
X1.064 Y-0.348 Z-13.665 R0.75
X-0.264 Y0.348 Z-13.747 R0.75
X1.064 Y-0.348 Z-13.829 R0.75
X-0.264 Y0.348 Z-13.911 R0.75
X1.064 Y-0.348 Z-13.994 R0.75
X-0.264 Y0.348 Z-14.076 R0.75
X1.064 Y-0.348 Z-14.158 R0.75
X-0.264 Y0.348 Z-14.241 R0.75
X1.064 Y-0.348 Z-14.323 R0.75
X-0.264 Y0.348 Z-14.405 R0.75
X1.064 Y-0.348 Z-14.487 R0.75
X1.15 Y0. Z-14.5 R0.75
X-1.15 R1.15
X1.25 R1.2
X-1.25 R1.25
X1.25 R1.25
X1.152 Y0.032 R0.054
G1 X1.032 Y-0.135
G3 X1.12 Y-0.198 R0.054
X1.128 Y-0.179 R0.054
X-0.328 Y0.179 Z-14.582 R0.75
X1.128 Y-0.179 Z-14.665 R0.75
X-0.328 Y0.179 Z-14.747 R0.75
X1.128 Y-0.179 Z-14.829 R0.75
X-0.328 Y0.179 Z-14.911 R0.75
X0.31 Y-0.745 Z-14.956 R0.75
X1.15 Y0. Z-15. R0.75
X-1.15 R1.15
X1.25 R1.2
X-1.25 R1.25
X1.25 R1.25
G1 X0.49 Z-14.924
G0 Z5.
X0.962 Y39.503
Z-0.5
G1 Z-5. F466.
G3 X-0.162 Y40.497 Z-5.082 R0.75
X0.962 Y39.503 Z-5.165 R0.75
X-0.162 Y40.497 Z-5.247 R0.75
X0.962 Y39.503 Z-5.329 R0.75
X-0.162 Y40.497 Z-5.411 R0.75
X0.962 Y39.503 Z-5.494 R0.75
X-0.162 Y40.497 Z-5.576 R0.75
X0.962 Y39.503 Z-5.658 R0.75
X-0.162 Y40.497 Z-5.741 R0.75
X0.962 Y39.503 Z-5.823 R0.75
X-0.162 Y40.497 Z-5.905 R0.75
X0.962 Y39.503 Z-5.987 R0.75
X-0.162 Y40.497 Z-6.07 R0.75
X0.962 Y39.503 Z-6.152 R0.75
X-0.162 Y40.497 Z-6.234 R0.75
X0.962 Y39.503 Z-6.316 R0.75
X-0.162 Y40.497 Z-6.399 R0.75
X0.962 Y39.503 Z-6.481 R0.75
X1.15 Y40. Z-6.5 R0.75
X-1.15 R1.15
X1.25 R1.2
X-1.25 R1.25
X1.25 R1.25
X1.066 Y40.049 R0.099
G1 X0.892 Y39.747
G3 X0.929 Y39.611 R0.099
X1.064 Y39.652 R0.099
X-0.264 Y40.348 Z-6.582 R0.75
X1.064 Y39.652 Z-6.665 R0.75
X-0.264 Y40.348 Z-6.747 R0.75
X1.064 Y39.652 Z-6.829 R0.75
X-0.264 Y40.348 Z-6.911 R0.75
X1.064 Y39.652 Z-6.994 R0.75
X-0.264 Y40.348 Z-7.076 R0.75
X1.064 Y39.652 Z-7.158 R0.75
X-0.264 Y40.348 Z-7.241 R0.75
X1.064 Y39.652 Z-7.323 R0.75
X-0.264 Y40.348 Z-7.405 R0.75
X1.064 Y39.652 Z-7.487 R0.75
X1.15 Y40. Z-7.5 R0.75
X-1.15 R1.15
X1.25 R1.2
X-1.25 R1.25
X1.25 R1.25
X1.066 Y40.049 R0.099
G1 X0.892 Y39.747
G3 X0.929 Y39.611 R0.099
X1.064 Y39.652 R0.099
X-0.264 Y40.348 Z-7.582 R0.75
X1.064 Y39.652 Z-7.665 R0.75
X-0.264 Y40.348 Z-7.747 R0.75
X1.064 Y39.652 Z-7.829 R0.75
X-0.264 Y40.348 Z-7.911 R0.75
X1.064 Y39.652 Z-7.994 R0.75
X-0.264 Y40.348 Z-8.076 R0.75
X1.064 Y39.652 Z-8.158 R0.75
X-0.264 Y40.348 Z-8.241 R0.75
X1.064 Y39.652 Z-8.323 R0.75
X-0.264 Y40.348 Z-8.405 R0.75
X1.064 Y39.652 Z-8.487 R0.75
X1.15 Y40. Z-8.5 R0.75
X-1.15 R1.15
X1.25 R1.2
X-1.25 R1.25
X1.25 R1.25
X1.066 Y40.049 R0.099
G1 X0.892 Y39.747
G3 X0.929 Y39.611 R0.099
X1.064 Y39.652 R0.099
X-0.264 Y40.348 Z-8.582 R0.75
X1.064 Y39.652 Z-8.665 R0.75
X-0.264 Y40.348 Z-8.747 R0.75
X1.064 Y39.652 Z-8.829 R0.75
X-0.264 Y40.348 Z-8.911 R0.75
X1.064 Y39.652 Z-8.994 R0.75
X-0.264 Y40.348 Z-9.076 R0.75
X1.064 Y39.652 Z-9.158 R0.75
X-0.264 Y40.348 Z-9.241 R0.75
X1.064 Y39.652 Z-9.323 R0.75
X-0.264 Y40.348 Z-9.405 R0.75
X1.064 Y39.652 Z-9.487 R0.75
X1.15 Y40. Z-9.5 R0.75
X-1.15 R1.15
X1.25 R1.2
X-1.25 R1.25
X1.25 R1.25
X1.066 Y40.049 R0.099
G1 X0.892 Y39.747
G3 X0.929 Y39.611 R0.099
X1.064 Y39.652 R0.099
X-0.264 Y40.348 Z-9.582 R0.75
X1.064 Y39.652 Z-9.665 R0.75
X-0.264 Y40.348 Z-9.747 R0.75
X1.064 Y39.652 Z-9.829 R0.75
X-0.264 Y40.348 Z-9.911 R0.75
X1.064 Y39.652 Z-9.994 R0.75
X-0.264 Y40.348 Z-10.076 R0.75
X1.064 Y39.652 Z-10.158 R0.75
X-0.264 Y40.348 Z-10.241 R0.75
X1.064 Y39.652 Z-10.323 R0.75
X-0.264 Y40.348 Z-10.405 R0.75
X1.064 Y39.652 Z-10.487 R0.75
X1.15 Y40. Z-10.5 R0.75
X-1.15 R1.15
X1.25 R1.2
X-1.25 R1.25
X1.25 R1.25
X1.066 Y40.049 R0.099
G1 X0.892 Y39.747
G3 X0.929 Y39.611 R0.099
X1.064 Y39.652 R0.099
X-0.264 Y40.348 Z-10.582 R0.75
X1.064 Y39.652 Z-10.665 R0.75
X-0.264 Y40.348 Z-10.747 R0.75
X1.064 Y39.652 Z-10.829 R0.75
X-0.264 Y40.348 Z-10.911 R0.75
X1.064 Y39.652 Z-10.994 R0.75
X-0.264 Y40.348 Z-11.076 R0.75
X1.064 Y39.652 Z-11.158 R0.75
X-0.264 Y40.348 Z-11.241 R0.75
X1.064 Y39.652 Z-11.323 R0.75
X-0.264 Y40.348 Z-11.405 R0.75
X1.064 Y39.652 Z-11.487 R0.75
X1.15 Y40. Z-11.5 R0.75
X-1.15 R1.15
X1.25 R1.2
X-1.25 R1.25
X1.25 R1.25
X1.066 Y40.049 R0.099
G1 X0.892 Y39.747
G3 X0.929 Y39.611 R0.099
X1.064 Y39.652 R0.099
X-0.264 Y40.348 Z-11.582 R0.75
X1.064 Y39.652 Z-11.665 R0.75
X-0.264 Y40.348 Z-11.747 R0.75
X1.064 Y39.652 Z-11.829 R0.75
X-0.264 Y40.348 Z-11.911 R0.75
X1.064 Y39.652 Z-11.994 R0.75
X-0.264 Y40.348 Z-12.076 R0.75
X1.064 Y39.652 Z-12.158 R0.75
X-0.264 Y40.348 Z-12.241 R0.75
X1.064 Y39.652 Z-12.323 R0.75
X-0.264 Y40.348 Z-12.405 R0.75
X1.064 Y39.652 Z-12.487 R0.75
X1.15 Y40. Z-12.5 R0.75
X-1.15 R1.15
X1.25 R1.2
X-1.25 R1.25
X1.25 R1.25
X1.066 Y40.049 R0.099
G1 X0.892 Y39.747
G3 X0.929 Y39.611 R0.099
X1.064 Y39.652 R0.099
X-0.264 Y40.348 Z-12.582 R0.75
X1.064 Y39.652 Z-12.665 R0.75
X-0.264 Y40.348 Z-12.747 R0.75
X1.064 Y39.652 Z-12.829 R0.75
X-0.264 Y40.348 Z-12.911 R0.75
X1.064 Y39.652 Z-12.994 R0.75
X-0.264 Y40.348 Z-13.076 R0.75
X1.064 Y39.652 Z-13.158 R0.75
X-0.264 Y40.348 Z-13.241 R0.75
X1.064 Y39.652 Z-13.323 R0.75
X-0.264 Y40.348 Z-13.405 R0.75
X1.064 Y39.652 Z-13.487 R0.75
X1.15 Y40. Z-13.5 R0.75
X-1.15 R1.15
X1.25 R1.2
X-1.25 R1.25
X1.25 R1.25
X1.066 Y40.049 R0.099
G1 X0.892 Y39.747
G3 X0.929 Y39.611 R0.099
X1.064 Y39.652 R0.099
X-0.264 Y40.348 Z-13.582 R0.75
X1.064 Y39.652 Z-13.665 R0.75
X-0.264 Y40.348 Z-13.747 R0.75
X1.064 Y39.652 Z-13.829 R0.75
X-0.264 Y40.348 Z-13.911 R0.75
X1.064 Y39.652 Z-13.994 R0.75
X-0.264 Y40.348 Z-14.076 R0.75
X1.064 Y39.652 Z-14.158 R0.75
X-0.264 Y40.348 Z-14.241 R0.75
X1.064 Y39.652 Z-14.323 R0.75
X-0.264 Y40.348 Z-14.405 R0.75
X1.064 Y39.652 Z-14.487 R0.75
X1.15 Y40. Z-14.5 R0.75
X-1.15 R1.15
X1.25 R1.2
X-1.25 R1.25
X1.25 R1.25
X1.152 Y40.032 R0.054
G1 X1.032 Y39.865
G3 X1.12 Y39.802 R0.054
X1.128 Y39.821 R0.054
X-0.328 Y40.179 Z-14.582 R0.75
X1.128 Y39.821 Z-14.665 R0.75
X-0.328 Y40.179 Z-14.747 R0.75
X1.128 Y39.821 Z-14.829 R0.75
X-0.328 Y40.179 Z-14.911 R0.75
X0.31 Y39.255 Z-14.956 R0.75
X1.15 Y40. Z-15. R0.75
X-1.15 R1.15
X1.25 R1.2
X-1.25 R1.25
X1.25 R1.25
G1 X0.49 Z-14.924
G0 Z5.
X0.962 Y-40.497
Z-0.5
G1 Z-5. F466.
G3 X-0.162 Y-39.503 Z-5.082 R0.75
X0.962 Y-40.497 Z-5.165 R0.75
X-0.162 Y-39.503 Z-5.247 R0.75
X0.962 Y-40.497 Z-5.329 R0.75
X-0.162 Y-39.503 Z-5.411 R0.75
X0.962 Y-40.497 Z-5.494 R0.75
X-0.162 Y-39.503 Z-5.576 R0.75
X0.962 Y-40.497 Z-5.658 R0.75
X-0.162 Y-39.503 Z-5.741 R0.75
X0.962 Y-40.497 Z-5.823 R0.75
X-0.162 Y-39.503 Z-5.905 R0.75
X0.962 Y-40.497 Z-5.987 R0.75
X-0.162 Y-39.503 Z-6.07 R0.75
X0.962 Y-40.497 Z-6.152 R0.75
X-0.162 Y-39.503 Z-6.234 R0.75
X0.962 Y-40.497 Z-6.316 R0.75
X-0.162 Y-39.503 Z-6.399 R0.75
X0.962 Y-40.497 Z-6.481 R0.75
X1.15 Y-40. Z-6.5 R0.75
X-1.15 R1.15
X1.25 R1.2
X-1.25 R1.25
X1.25 R1.25
X1.066 Y-39.951 R0.099
G1 X0.892 Y-40.253
G3 X0.929 Y-40.389 R0.099
X1.064 Y-40.348 R0.099
X-0.264 Y-39.652 Z-6.582 R0.75
X1.064 Y-40.348 Z-6.665 R0.75
X-0.264 Y-39.652 Z-6.747 R0.75
X1.064 Y-40.348 Z-6.829 R0.75
X-0.264 Y-39.652 Z-6.911 R0.75
X1.064 Y-40.348 Z-6.994 R0.75
X-0.264 Y-39.652 Z-7.076 R0.75
X1.064 Y-40.348 Z-7.158 R0.75
X-0.264 Y-39.652 Z-7.241 R0.75
X1.064 Y-40.348 Z-7.323 R0.75
X-0.264 Y-39.652 Z-7.405 R0.75
X1.064 Y-40.348 Z-7.487 R0.75
X1.15 Y-40. Z-7.5 R0.75
X-1.15 R1.15
X1.25 R1.2
X-1.25 R1.25
X1.25 R1.25
X1.066 Y-39.951 R0.099
G1 X0.892 Y-40.253
G3 X0.929 Y-40.389 R0.099
X1.064 Y-40.348 R0.099
X-0.264 Y-39.652 Z-7.582 R0.75
X1.064 Y-40.348 Z-7.665 R0.75
X-0.264 Y-39.652 Z-7.747 R0.75
X1.064 Y-40.348 Z-7.829 R0.75
X-0.264 Y-39.652 Z-7.911 R0.75
X1.064 Y-40.348 Z-7.994 R0.75
X-0.264 Y-39.652 Z-8.076 R0.75
X1.064 Y-40.348 Z-8.158 R0.75
X-0.264 Y-39.652 Z-8.241 R0.75
X1.064 Y-40.348 Z-8.323 R0.75
X-0.264 Y-39.652 Z-8.405 R0.75
X1.064 Y-40.348 Z-8.487 R0.75
X1.15 Y-40. Z-8.5 R0.75
X-1.15 R1.15
X1.25 R1.2
X-1.25 R1.25
X1.25 R1.25
X1.066 Y-39.951 R0.099
G1 X0.892 Y-40.253
G3 X0.929 Y-40.389 R0.099
X1.064 Y-40.348 R0.099
X-0.264 Y-39.652 Z-8.582 R0.75
X1.064 Y-40.348 Z-8.665 R0.75
X-0.264 Y-39.652 Z-8.747 R0.75
X1.064 Y-40.348 Z-8.829 R0.75
X-0.264 Y-39.652 Z-8.911 R0.75
X1.064 Y-40.348 Z-8.994 R0.75
X-0.264 Y-39.652 Z-9.076 R0.75
X1.064 Y-40.348 Z-9.158 R0.75
X-0.264 Y-39.652 Z-9.241 R0.75
X1.064 Y-40.348 Z-9.323 R0.75
X-0.264 Y-39.652 Z-9.405 R0.75
X1.064 Y-40.348 Z-9.487 R0.75
X1.15 Y-40. Z-9.5 R0.75
X-1.15 R1.15
X1.25 R1.2
X-1.25 R1.25
X1.25 R1.25
X1.066 Y-39.951 R0.099
G1 X0.892 Y-40.253
G3 X0.929 Y-40.389 R0.099
X1.064 Y-40.348 R0.099
X-0.264 Y-39.652 Z-9.582 R0.75
X1.064 Y-40.348 Z-9.665 R0.75
X-0.264 Y-39.652 Z-9.747 R0.75
X1.064 Y-40.348 Z-9.829 R0.75
X-0.264 Y-39.652 Z-9.911 R0.75
X1.064 Y-40.348 Z-9.994 R0.75
X-0.264 Y-39.652 Z-10.076 R0.75
X1.064 Y-40.348 Z-10.158 R0.75
X-0.264 Y-39.652 Z-10.241 R0.75
X1.064 Y-40.348 Z-10.323 R0.75
X-0.264 Y-39.652 Z-10.405 R0.75
X1.064 Y-40.348 Z-10.487 R0.75
X1.15 Y-40. Z-10.5 R0.75
X-1.15 R1.15
X1.25 R1.2
X-1.25 R1.25
X1.25 R1.25
X1.066 Y-39.951 R0.099
G1 X0.892 Y-40.253
G3 X0.929 Y-40.389 R0.099
X1.064 Y-40.348 R0.099
X-0.264 Y-39.652 Z-10.582 R0.75
X1.064 Y-40.348 Z-10.665 R0.75
X-0.264 Y-39.652 Z-10.747 R0.75
X1.064 Y-40.348 Z-10.829 R0.75
X-0.264 Y-39.652 Z-10.911 R0.75
X1.064 Y-40.348 Z-10.994 R0.75
X-0.264 Y-39.652 Z-11.076 R0.75
X1.064 Y-40.348 Z-11.158 R0.75
X-0.264 Y-39.652 Z-11.241 R0.75
X1.064 Y-40.348 Z-11.323 R0.75
X-0.264 Y-39.652 Z-11.405 R0.75
X1.064 Y-40.348 Z-11.487 R0.75
X1.15 Y-40. Z-11.5 R0.75
X-1.15 R1.15
X1.25 R1.2
X-1.25 R1.25
X1.25 R1.25
X1.066 Y-39.951 R0.099
G1 X0.892 Y-40.253
G3 X0.929 Y-40.389 R0.099
X1.064 Y-40.348 R0.099
X-0.264 Y-39.652 Z-11.582 R0.75
X1.064 Y-40.348 Z-11.665 R0.75
X-0.264 Y-39.652 Z-11.747 R0.75
X1.064 Y-40.348 Z-11.829 R0.75
X-0.264 Y-39.652 Z-11.911 R0.75
X1.064 Y-40.348 Z-11.994 R0.75
X-0.264 Y-39.652 Z-12.076 R0.75
X1.064 Y-40.348 Z-12.158 R0.75
X-0.264 Y-39.652 Z-12.241 R0.75
X1.064 Y-40.348 Z-12.323 R0.75
X-0.264 Y-39.652 Z-12.405 R0.75
X1.064 Y-40.348 Z-12.487 R0.75
X1.15 Y-40. Z-12.5 R0.75
X-1.15 R1.15
X1.25 R1.2
X-1.25 R1.25
X1.25 R1.25
X1.066 Y-39.951 R0.099
G1 X0.892 Y-40.253
G3 X0.929 Y-40.389 R0.099
X1.064 Y-40.348 R0.099
X-0.264 Y-39.652 Z-12.582 R0.75
X1.064 Y-40.348 Z-12.665 R0.75
X-0.264 Y-39.652 Z-12.747 R0.75
X1.064 Y-40.348 Z-12.829 R0.75
X-0.264 Y-39.652 Z-12.911 R0.75
X1.064 Y-40.348 Z-12.994 R0.75
X-0.264 Y-39.652 Z-13.076 R0.75
X1.064 Y-40.348 Z-13.158 R0.75
X-0.264 Y-39.652 Z-13.241 R0.75
X1.064 Y-40.348 Z-13.323 R0.75
X-0.264 Y-39.652 Z-13.405 R0.75
X1.064 Y-40.348 Z-13.487 R0.75
X1.15 Y-40. Z-13.5 R0.75
X-1.15 R1.15
X1.25 R1.2
X-1.25 R1.25
X1.25 R1.25
X1.066 Y-39.951 R0.099
G1 X0.892 Y-40.253
G3 X0.929 Y-40.389 R0.099
X1.064 Y-40.348 R0.099
X-0.264 Y-39.652 Z-13.582 R0.75
X1.064 Y-40.348 Z-13.665 R0.75
X-0.264 Y-39.652 Z-13.747 R0.75
X1.064 Y-40.348 Z-13.829 R0.75
X-0.264 Y-39.652 Z-13.911 R0.75
X1.064 Y-40.348 Z-13.994 R0.75
X-0.264 Y-39.652 Z-14.076 R0.75
X1.064 Y-40.348 Z-14.158 R0.75
X-0.264 Y-39.652 Z-14.241 R0.75
X1.064 Y-40.348 Z-14.323 R0.75
X-0.264 Y-39.652 Z-14.405 R0.75
X1.064 Y-40.348 Z-14.487 R0.75
X1.15 Y-40. Z-14.5 R0.75
X-1.15 R1.15
X1.25 R1.2
X-1.25 R1.25
X1.25 R1.25
X1.152 Y-39.968 R0.054
G1 X1.032 Y-40.135
G3 X1.12 Y-40.198 R0.054
X1.128 Y-40.179 R0.054
X-0.328 Y-39.821 Z-14.582 R0.75
X1.128 Y-40.179 Z-14.665 R0.75
X-0.328 Y-39.821 Z-14.747 R0.75
X1.128 Y-40.179 Z-14.829 R0.75
X-0.328 Y-39.821 Z-14.911 R0.75
X0.31 Y-40.745 Z-14.956 R0.75
X1.15 Y-40. Z-15. R0.75
X-1.15 R1.15
X1.25 R1.2
X-1.25 R1.25
X1.25 R1.25
G1 X0.49 Z-14.924
G0 Z15.

M9
M30
