(__1)
(T1  D=4. CR=0. - ZMIN=-20. - FLAT END MILL)
G90 G94 G91.1 G40 G49 G17
G21

(2D CONTOUR1)
M5
M9
T1
S7280 M3
G54
M8
G0 X-1.339 Y2.685
G43 Z15. H1
Z5.
G1 Z2. F30.
Z0.5
G3 X1.339 Y-2.685 Z0.171 R3. F466.
X-1.339 Y2.685 Z-0.158 R3.
X1.339 Y-2.685 Z-0.487 R3.
X-1.339 Y2.685 Z-0.816 R3.
X-2.4 Y-1.8 Z-1. R3.
X2.4 Y1.8 R3.
X-2.4 Y-1.8 R3.
X2.4 Y1.8 Z-1.329 R3.
X-2.4 Y-1.8 Z-1.658 R3.
X1.941 Y-2.287 Z-1.829 R3.
X2.166 Y2.076 Z-2. R3.
X-2.166 Y-2.076 R3.
X2.166 Y2.076 R3.
X-2.166 Y-2.076 Z-2.329 R3.
X2.166 Y2.076 Z-2.658 R3.
X-2.203 Y2.037 Z-2.829 R3.
X-1.9 Y-2.321 Z-3. R3.
X1.9 Y2.321 R3.
X-1.9 Y-2.321 R3.
X1.9 Y2.321 Z-3.329 R3.
X-1.9 Y-2.321 Z-3.658 R3.
X2.432 Y-1.757 Z-3.829 R3.
X1.607 Y2.533 Z-4. R3.
X-1.607 Y-2.533 R3.
X1.607 Y2.533 R3.
X-1.607 Y-2.533 Z-4.329 R3.
X1.607 Y2.533 Z-4.658 R3.
X-2.625 Y1.452 Z-4.829 R3.
X-1.291 Y-2.708 Z-5. R3.
X1.291 Y2.708 R3.
X-1.291 Y-2.708 R3.
X1.291 Y2.708 Z-5.329 R3.
X-2.781 Y1.125 Z-5.5 R3.
X2.781 Y-1.125 R3.
X-2.781 Y1.125 R3.
G0 Z5.
X-2.203 Y37.963
G1 Z2. F30.
Z0.5
G3 X2.203 Y42.037 Z0.171 R3. F466.
X-2.203 Y37.963 Z-0.158 R3.
X2.203 Y42.037 Z-0.487 R3.
X-2.203 Y37.963 Z-0.816 R3.
X2.4 Y38.2 Z-1. R3.
X-2.4 Y41.8 R3.
X2.4 Y38.2 R3.
X-2.4 Y41.8 Z-1.329 R3.
X2.4 Y38.2 Z-1.658 R3.
X1.652 Y42.504 Z-1.829 R3.
X-2.599 Y41.498 Z-2. R3.
X2.599 Y38.502 R3.
X-2.599 Y41.498 R3.
X2.599 Y38.502 Z-2.329 R3.
X-2.599 Y41.498 Z-2.658 R3.
X-1.339 Y37.315 Z-2.829 R3.
X2.761 Y38.826 Z-3. R3.
X-2.761 Y41.174 R3.
X2.761 Y38.826 R3.
X-2.761 Y41.174 Z-3.329 R3.
X2.761 Y38.826 Z-3.658 R3.
X1.006 Y42.826 Z-3.829 R3.
X-2.882 Y40.834 Z-4. R3.
X2.882 Y39.166 R3.
X-2.882 Y40.834 R3.
X2.882 Y39.166 Z-4.329 R3.
X-2.882 Y40.834 Z-4.658 R3.
X-0.658 Y37.073 Z-4.829 R3.
X2.961 Y39.519 Z-5. R3.
X-2.961 Y40.481 R3.
X2.961 Y39.519 R3.
X-2.961 Y40.481 Z-5.329 R3.
X-0.301 Y37.015 Z-5.5 R3.
X0.301 Y42.985 R3.
X-0.301 Y37.015 R3.
G0 Z5.
X-2.203 Y-42.037
G1 Z2. F30.
Z0.5
G3 X2.203 Y-37.963 Z0.171 R3. F466.
X-2.203 Y-42.037 Z-0.158 R3.
X2.203 Y-37.963 Z-0.487 R3.
X-2.203 Y-42.037 Z-0.816 R3.
X2.4 Y-41.8 Z-1. R3.
X-2.4 Y-38.2 R3.
X2.4 Y-41.8 R3.
X-2.4 Y-38.2 Z-1.329 R3.
X2.4 Y-41.8 Z-1.658 R3.
X1.652 Y-37.496 Z-1.829 R3.
X-2.599 Y-38.502 Z-2. R3.
X2.599 Y-41.498 R3.
X-2.599 Y-38.502 R3.
X2.599 Y-41.498 Z-2.329 R3.
X-2.599 Y-38.502 Z-2.658 R3.
X-1.339 Y-42.685 Z-2.829 R3.
X2.761 Y-41.174 Z-3. R3.
X-2.761 Y-38.826 R3.
X2.761 Y-41.174 R3.
X-2.761 Y-38.826 Z-3.329 R3.
X2.761 Y-41.174 Z-3.658 R3.
X1.006 Y-37.174 Z-3.829 R3.
X-2.882 Y-39.166 Z-4. R3.
X2.882 Y-40.834 R3.
X-2.882 Y-39.166 R3.
X2.882 Y-40.834 Z-4.329 R3.
X-2.882 Y-39.166 Z-4.658 R3.
X-0.658 Y-42.927 Z-4.829 R3.
X2.961 Y-40.481 Z-5. R3.
X-2.961 Y-39.519 R3.
X2.961 Y-40.481 R3.
X-2.961 Y-39.519 Z-5.329 R3.
X-0.301 Y-42.985 Z-5.5 R3.
X0.301 Y-37.015 R3.
X-0.301 Y-42.985 R3.
G0 Z15.

(2D POCKET2)
M8
G0 X0.712 Y-0.497
Z15.
Z-0.5
G1 Z-5. F466.
G3 X-0.412 Y0.497 Z-5.082 R0.75
X0.712 Y-0.497 Z-5.165 R0.75
X-0.412 Y0.497 Z-5.247 R0.75
X0.712 Y-0.497 Z-5.329 R0.75
X-0.412 Y0.497 Z-5.411 R0.75
X0.712 Y-0.497 Z-5.494 R0.75
X-0.412 Y0.497 Z-5.576 R0.75
X0.712 Y-0.497 Z-5.658 R0.75
X-0.412 Y0.497 Z-5.741 R0.75
X0.712 Y-0.497 Z-5.823 R0.75
X-0.412 Y0.497 Z-5.905 R0.75
X0.712 Y-0.497 Z-5.987 R0.75
X-0.412 Y0.497 Z-6.07 R0.75
X0.712 Y-0.497 Z-6.152 R0.75
X-0.412 Y0.497 Z-6.234 R0.75
X0.712 Y-0.497 Z-6.316 R0.75
X-0.412 Y0.497 Z-6.399 R0.75
X0.712 Y-0.497 Z-6.481 R0.75
X0.9 Y0. Z-6.5 R0.75
X-0.9 R0.9
X1. R0.95
X-1. R1.
X1. R1.
X0.816 Y0.049 R0.099
G1 X0.642 Y-0.253
G3 X0.679 Y-0.389 R0.099
X0.814 Y-0.348 R0.099
X-0.514 Y0.348 Z-6.582 R0.75
X0.814 Y-0.348 Z-6.665 R0.75
X-0.514 Y0.348 Z-6.747 R0.75
X0.814 Y-0.348 Z-6.829 R0.75
X-0.514 Y0.348 Z-6.911 R0.75
X0.814 Y-0.348 Z-6.994 R0.75
X-0.514 Y0.348 Z-7.076 R0.75
X0.814 Y-0.348 Z-7.158 R0.75
X-0.514 Y0.348 Z-7.241 R0.75
X0.814 Y-0.348 Z-7.323 R0.75
X-0.514 Y0.348 Z-7.405 R0.75
X0.814 Y-0.348 Z-7.487 R0.75
X0.9 Y0. Z-7.5 R0.75
X-0.9 R0.9
X1. R0.95
X-1. R1.
X1. R1.
X0.816 Y0.049 R0.099
G1 X0.642 Y-0.253
G3 X0.679 Y-0.389 R0.099
X0.814 Y-0.348 R0.099
X-0.514 Y0.348 Z-7.582 R0.75
X0.814 Y-0.348 Z-7.665 R0.75
X-0.514 Y0.348 Z-7.747 R0.75
X0.814 Y-0.348 Z-7.829 R0.75
X-0.514 Y0.348 Z-7.911 R0.75
X0.814 Y-0.348 Z-7.994 R0.75
X-0.514 Y0.348 Z-8.076 R0.75
X0.814 Y-0.348 Z-8.158 R0.75
X-0.514 Y0.348 Z-8.241 R0.75
X0.814 Y-0.348 Z-8.323 R0.75
X-0.514 Y0.348 Z-8.405 R0.75
X0.814 Y-0.348 Z-8.487 R0.75
X0.9 Y0. Z-8.5 R0.75
X-0.9 R0.9
X1. R0.95
X-1. R1.
X1. R1.
X0.816 Y0.049 R0.099
G1 X0.642 Y-0.253
G3 X0.679 Y-0.389 R0.099
X0.814 Y-0.348 R0.099
X-0.514 Y0.348 Z-8.582 R0.75
X0.814 Y-0.348 Z-8.665 R0.75
X-0.514 Y0.348 Z-8.747 R0.75
X0.814 Y-0.348 Z-8.829 R0.75
X-0.514 Y0.348 Z-8.911 R0.75
X0.814 Y-0.348 Z-8.994 R0.75
X-0.514 Y0.348 Z-9.076 R0.75
X0.814 Y-0.348 Z-9.158 R0.75
X-0.514 Y0.348 Z-9.241 R0.75
X0.814 Y-0.348 Z-9.323 R0.75
X-0.514 Y0.348 Z-9.405 R0.75
X0.814 Y-0.348 Z-9.487 R0.75
X0.9 Y0. Z-9.5 R0.75
X-0.9 R0.9
X1. R0.95
X-1. R1.
X1. R1.
X0.816 Y0.049 R0.099
G1 X0.642 Y-0.253
G3 X0.679 Y-0.389 R0.099
X0.814 Y-0.348 R0.099
X-0.514 Y0.348 Z-9.582 R0.75
X0.814 Y-0.348 Z-9.665 R0.75
X-0.514 Y0.348 Z-9.747 R0.75
X0.814 Y-0.348 Z-9.829 R0.75
X-0.514 Y0.348 Z-9.911 R0.75
X0.814 Y-0.348 Z-9.994 R0.75
X-0.514 Y0.348 Z-10.076 R0.75
X0.814 Y-0.348 Z-10.158 R0.75
X-0.514 Y0.348 Z-10.241 R0.75
X0.814 Y-0.348 Z-10.323 R0.75
X-0.514 Y0.348 Z-10.405 R0.75
X0.814 Y-0.348 Z-10.487 R0.75
X0.9 Y0. Z-10.5 R0.75
X-0.9 R0.9
X1. R0.95
X-1. R1.
X1. R1.
X0.816 Y0.049 R0.099
G1 X0.642 Y-0.253
G3 X0.679 Y-0.389 R0.099
X0.814 Y-0.348 R0.099
X-0.514 Y0.348 Z-10.582 R0.75
X0.814 Y-0.348 Z-10.665 R0.75
X-0.514 Y0.348 Z-10.747 R0.75
X0.814 Y-0.348 Z-10.829 R0.75
X-0.514 Y0.348 Z-10.911 R0.75
X0.814 Y-0.348 Z-10.994 R0.75
X-0.514 Y0.348 Z-11.076 R0.75
X0.814 Y-0.348 Z-11.158 R0.75
X-0.514 Y0.348 Z-11.241 R0.75
X0.814 Y-0.348 Z-11.323 R0.75
X-0.514 Y0.348 Z-11.405 R0.75
X0.814 Y-0.348 Z-11.487 R0.75
X0.9 Y0. Z-11.5 R0.75
X-0.9 R0.9
X1. R0.95
X-1. R1.
X1. R1.
X0.816 Y0.049 R0.099
G1 X0.642 Y-0.253
G3 X0.679 Y-0.389 R0.099
X0.814 Y-0.348 R0.099
X-0.514 Y0.348 Z-11.582 R0.75
X0.814 Y-0.348 Z-11.665 R0.75
X-0.514 Y0.348 Z-11.747 R0.75
X0.814 Y-0.348 Z-11.829 R0.75
X-0.514 Y0.348 Z-11.911 R0.75
X0.814 Y-0.348 Z-11.994 R0.75
X-0.514 Y0.348 Z-12.076 R0.75
X0.814 Y-0.348 Z-12.158 R0.75
X-0.514 Y0.348 Z-12.241 R0.75
X0.814 Y-0.348 Z-12.323 R0.75
X-0.514 Y0.348 Z-12.405 R0.75
X0.814 Y-0.348 Z-12.487 R0.75
X0.9 Y0. Z-12.5 R0.75
X-0.9 R0.9
X1. R0.95
X-1. R1.
X1. R1.
X0.816 Y0.049 R0.099
G1 X0.642 Y-0.253
G3 X0.679 Y-0.389 R0.099
X0.814 Y-0.348 R0.099
X-0.514 Y0.348 Z-12.582 R0.75
X0.814 Y-0.348 Z-12.665 R0.75
X-0.514 Y0.348 Z-12.747 R0.75
X0.814 Y-0.348 Z-12.829 R0.75
X-0.514 Y0.348 Z-12.911 R0.75
X0.814 Y-0.348 Z-12.994 R0.75
X-0.514 Y0.348 Z-13.076 R0.75
X0.814 Y-0.348 Z-13.158 R0.75
X-0.514 Y0.348 Z-13.241 R0.75
X0.814 Y-0.348 Z-13.323 R0.75
X-0.514 Y0.348 Z-13.405 R0.75
X0.814 Y-0.348 Z-13.487 R0.75
X0.9 Y0. Z-13.5 R0.75
X-0.9 R0.9
X1. R0.95
X-1. R1.
X1. R1.
X0.816 Y0.049 R0.099
G1 X0.642 Y-0.253
G3 X0.679 Y-0.389 R0.099
X0.814 Y-0.348 R0.099
X-0.514 Y0.348 Z-13.582 R0.75
X0.814 Y-0.348 Z-13.665 R0.75
X-0.514 Y0.348 Z-13.747 R0.75
X0.814 Y-0.348 Z-13.829 R0.75
X-0.514 Y0.348 Z-13.911 R0.75
X0.814 Y-0.348 Z-13.994 R0.75
X-0.514 Y0.348 Z-14.076 R0.75
X0.814 Y-0.348 Z-14.158 R0.75
X-0.514 Y0.348 Z-14.241 R0.75
X0.814 Y-0.348 Z-14.323 R0.75
X-0.514 Y0.348 Z-14.405 R0.75
X0.814 Y-0.348 Z-14.487 R0.75
X0.9 Y0. Z-14.5 R0.75
X-0.9 R0.9
X1. R0.95
X-1. R1.
X1. R1.
X0.902 Y0.032 R0.054
G1 X0.782 Y-0.135
G3 X0.87 Y-0.198 R0.054
X0.878 Y-0.179 R0.054
X-0.578 Y0.179 Z-14.582 R0.75
X0.878 Y-0.179 Z-14.665 R0.75
X-0.578 Y0.179 Z-14.747 R0.75
X0.878 Y-0.179 Z-14.829 R0.75
X-0.578 Y0.179 Z-14.911 R0.75
X0.06 Y-0.745 Z-14.956 R0.75
X0.9 Y0. Z-15. R0.75
X-0.9 R0.9
X1. R0.95
X-1. R1.
X1. R1.
G1 X0.24 Z-14.924
G0 Z5.
X0.712 Y39.503
Z-0.5
G1 Z-5. F466.
G3 X-0.412 Y40.497 Z-5.082 R0.75
X0.712 Y39.503 Z-5.165 R0.75
X-0.412 Y40.497 Z-5.247 R0.75
X0.712 Y39.503 Z-5.329 R0.75
X-0.412 Y40.497 Z-5.411 R0.75
X0.712 Y39.503 Z-5.494 R0.75
X-0.412 Y40.497 Z-5.576 R0.75
X0.712 Y39.503 Z-5.658 R0.75
X-0.412 Y40.497 Z-5.741 R0.75
X0.712 Y39.503 Z-5.823 R0.75
X-0.412 Y40.497 Z-5.905 R0.75
X0.712 Y39.503 Z-5.987 R0.75
X-0.412 Y40.497 Z-6.07 R0.75
X0.712 Y39.503 Z-6.152 R0.75
X-0.412 Y40.497 Z-6.234 R0.75
X0.712 Y39.503 Z-6.316 R0.75
X-0.412 Y40.497 Z-6.399 R0.75
X0.712 Y39.503 Z-6.481 R0.75
X0.9 Y40. Z-6.5 R0.75
X-0.9 R0.9
X1. R0.95
X-1. R1.
X1. R1.
X0.816 Y40.049 R0.099
G1 X0.642 Y39.747
G3 X0.679 Y39.611 R0.099
X0.814 Y39.652 R0.099
X-0.514 Y40.348 Z-6.582 R0.75
X0.814 Y39.652 Z-6.665 R0.75
X-0.514 Y40.348 Z-6.747 R0.75
X0.814 Y39.652 Z-6.829 R0.75
X-0.514 Y40.348 Z-6.911 R0.75
X0.814 Y39.652 Z-6.994 R0.75
X-0.514 Y40.348 Z-7.076 R0.75
X0.814 Y39.652 Z-7.158 R0.75
X-0.514 Y40.348 Z-7.241 R0.75
X0.814 Y39.652 Z-7.323 R0.75
X-0.514 Y40.348 Z-7.405 R0.75
X0.814 Y39.652 Z-7.487 R0.75
X0.9 Y40. Z-7.5 R0.75
X-0.9 R0.9
X1. R0.95
X-1. R1.
X1. R1.
X0.816 Y40.049 R0.099
G1 X0.642 Y39.747
G3 X0.679 Y39.611 R0.099
X0.814 Y39.652 R0.099
X-0.514 Y40.348 Z-7.582 R0.75
X0.814 Y39.652 Z-7.665 R0.75
X-0.514 Y40.348 Z-7.747 R0.75
X0.814 Y39.652 Z-7.829 R0.75
X-0.514 Y40.348 Z-7.911 R0.75
X0.814 Y39.652 Z-7.994 R0.75
X-0.514 Y40.348 Z-8.076 R0.75
X0.814 Y39.652 Z-8.158 R0.75
X-0.514 Y40.348 Z-8.241 R0.75
X0.814 Y39.652 Z-8.323 R0.75
X-0.514 Y40.348 Z-8.405 R0.75
X0.814 Y39.652 Z-8.487 R0.75
X0.9 Y40. Z-8.5 R0.75
X-0.9 R0.9
X1. R0.95
X-1. R1.
X1. R1.
X0.816 Y40.049 R0.099
G1 X0.642 Y39.747
G3 X0.679 Y39.611 R0.099
X0.814 Y39.652 R0.099
X-0.514 Y40.348 Z-8.582 R0.75
X0.814 Y39.652 Z-8.665 R0.75
X-0.514 Y40.348 Z-8.747 R0.75
X0.814 Y39.652 Z-8.829 R0.75
X-0.514 Y40.348 Z-8.911 R0.75
X0.814 Y39.652 Z-8.994 R0.75
X-0.514 Y40.348 Z-9.076 R0.75
X0.814 Y39.652 Z-9.158 R0.75
X-0.514 Y40.348 Z-9.241 R0.75
X0.814 Y39.652 Z-9.323 R0.75
X-0.514 Y40.348 Z-9.405 R0.75
X0.814 Y39.652 Z-9.487 R0.75
X0.9 Y40. Z-9.5 R0.75
X-0.9 R0.9
X1. R0.95
X-1. R1.
X1. R1.
X0.816 Y40.049 R0.099
G1 X0.642 Y39.747
G3 X0.679 Y39.611 R0.099
X0.814 Y39.652 R0.099
X-0.514 Y40.348 Z-9.582 R0.75
X0.814 Y39.652 Z-9.665 R0.75
X-0.514 Y40.348 Z-9.747 R0.75
X0.814 Y39.652 Z-9.829 R0.75
X-0.514 Y40.348 Z-9.911 R0.75
X0.814 Y39.652 Z-9.994 R0.75
X-0.514 Y40.348 Z-10.076 R0.75
X0.814 Y39.652 Z-10.158 R0.75
X-0.514 Y40.348 Z-10.241 R0.75
X0.814 Y39.652 Z-10.323 R0.75
X-0.514 Y40.348 Z-10.405 R0.75
X0.814 Y39.652 Z-10.487 R0.75
X0.9 Y40. Z-10.5 R0.75
X-0.9 R0.9
X1. R0.95
X-1. R1.
X1. R1.
X0.816 Y40.049 R0.099
G1 X0.642 Y39.747
G3 X0.679 Y39.611 R0.099
X0.814 Y39.652 R0.099
X-0.514 Y40.348 Z-10.582 R0.75
X0.814 Y39.652 Z-10.665 R0.75
X-0.514 Y40.348 Z-10.747 R0.75
X0.814 Y39.652 Z-10.829 R0.75
X-0.514 Y40.348 Z-10.911 R0.75
X0.814 Y39.652 Z-10.994 R0.75
X-0.514 Y40.348 Z-11.076 R0.75
X0.814 Y39.652 Z-11.158 R0.75
X-0.514 Y40.348 Z-11.241 R0.75
X0.814 Y39.652 Z-11.323 R0.75
X-0.514 Y40.348 Z-11.405 R0.75
X0.814 Y39.652 Z-11.487 R0.75
X0.9 Y40. Z-11.5 R0.75
X-0.9 R0.9
X1. R0.95
X-1. R1.
X1. R1.
X0.816 Y40.049 R0.099
G1 X0.642 Y39.747
G3 X0.679 Y39.611 R0.099
X0.814 Y39.652 R0.099
X-0.514 Y40.348 Z-11.582 R0.75
X0.814 Y39.652 Z-11.665 R0.75
X-0.514 Y40.348 Z-11.747 R0.75
X0.814 Y39.652 Z-11.829 R0.75
X-0.514 Y40.348 Z-11.911 R0.75
X0.814 Y39.652 Z-11.994 R0.75
X-0.514 Y40.348 Z-12.076 R0.75
X0.814 Y39.652 Z-12.158 R0.75
X-0.514 Y40.348 Z-12.241 R0.75
X0.814 Y39.652 Z-12.323 R0.75
X-0.514 Y40.348 Z-12.405 R0.75
X0.814 Y39.652 Z-12.487 R0.75
X0.9 Y40. Z-12.5 R0.75
X-0.9 R0.9
X1. R0.95
X-1. R1.
X1. R1.
X0.816 Y40.049 R0.099
G1 X0.642 Y39.747
G3 X0.679 Y39.611 R0.099
X0.814 Y39.652 R0.099
X-0.514 Y40.348 Z-12.582 R0.75
X0.814 Y39.652 Z-12.665 R0.75
X-0.514 Y40.348 Z-12.747 R0.75
X0.814 Y39.652 Z-12.829 R0.75
X-0.514 Y40.348 Z-12.911 R0.75
X0.814 Y39.652 Z-12.994 R0.75
X-0.514 Y40.348 Z-13.076 R0.75
X0.814 Y39.652 Z-13.158 R0.75
X-0.514 Y40.348 Z-13.241 R0.75
X0.814 Y39.652 Z-13.323 R0.75
X-0.514 Y40.348 Z-13.405 R0.75
X0.814 Y39.652 Z-13.487 R0.75
X0.9 Y40. Z-13.5 R0.75
X-0.9 R0.9
X1. R0.95
X-1. R1.
X1. R1.
X0.816 Y40.049 R0.099
G1 X0.642 Y39.747
G3 X0.679 Y39.611 R0.099
X0.814 Y39.652 R0.099
X-0.514 Y40.348 Z-13.582 R0.75
X0.814 Y39.652 Z-13.665 R0.75
X-0.514 Y40.348 Z-13.747 R0.75
X0.814 Y39.652 Z-13.829 R0.75
X-0.514 Y40.348 Z-13.911 R0.75
X0.814 Y39.652 Z-13.994 R0.75
X-0.514 Y40.348 Z-14.076 R0.75
X0.814 Y39.652 Z-14.158 R0.75
X-0.514 Y40.348 Z-14.241 R0.75
X0.814 Y39.652 Z-14.323 R0.75
X-0.514 Y40.348 Z-14.405 R0.75
X0.814 Y39.652 Z-14.487 R0.75
X0.9 Y40. Z-14.5 R0.75
X-0.9 R0.9
X1. R0.95
X-1. R1.
X1. R1.
X0.902 Y40.032 R0.054
G1 X0.782 Y39.865
G3 X0.87 Y39.802 R0.054
X0.878 Y39.821 R0.054
X-0.578 Y40.179 Z-14.582 R0.75
X0.878 Y39.821 Z-14.665 R0.75
X-0.578 Y40.179 Z-14.747 R0.75
X0.878 Y39.821 Z-14.829 R0.75
X-0.578 Y40.179 Z-14.911 R0.75
X0.06 Y39.255 Z-14.956 R0.75
X0.9 Y40. Z-15. R0.75
X-0.9 R0.9
X1. R0.95
X-1. R1.
X1. R1.
G1 X0.24 Z-14.924
G0 Z5.
X0.712 Y-40.497
Z-0.5
G1 Z-5. F466.
G3 X-0.412 Y-39.503 Z-5.082 R0.75
X0.712 Y-40.497 Z-5.165 R0.75
X-0.412 Y-39.503 Z-5.247 R0.75
X0.712 Y-40.497 Z-5.329 R0.75
X-0.412 Y-39.503 Z-5.411 R0.75
X0.712 Y-40.497 Z-5.494 R0.75
X-0.412 Y-39.503 Z-5.576 R0.75
X0.712 Y-40.497 Z-5.658 R0.75
X-0.412 Y-39.503 Z-5.741 R0.75
X0.712 Y-40.497 Z-5.823 R0.75
X-0.412 Y-39.503 Z-5.905 R0.75
X0.712 Y-40.497 Z-5.987 R0.75
X-0.412 Y-39.503 Z-6.07 R0.75
X0.712 Y-40.497 Z-6.152 R0.75
X-0.412 Y-39.503 Z-6.234 R0.75
X0.712 Y-40.497 Z-6.316 R0.75
X-0.412 Y-39.503 Z-6.399 R0.75
X0.712 Y-40.497 Z-6.481 R0.75
X0.9 Y-40. Z-6.5 R0.75
X-0.9 R0.9
X1. R0.95
X-1. R1.
X1. R1.
X0.816 Y-39.951 R0.099
G1 X0.642 Y-40.253
G3 X0.679 Y-40.389 R0.099
X0.814 Y-40.348 R0.099
X-0.514 Y-39.652 Z-6.582 R0.75
X0.814 Y-40.348 Z-6.665 R0.75
X-0.514 Y-39.652 Z-6.747 R0.75
X0.814 Y-40.348 Z-6.829 R0.75
X-0.514 Y-39.652 Z-6.911 R0.75
X0.814 Y-40.348 Z-6.994 R0.75
X-0.514 Y-39.652 Z-7.076 R0.75
X0.814 Y-40.348 Z-7.158 R0.75
X-0.514 Y-39.652 Z-7.241 R0.75
X0.814 Y-40.348 Z-7.323 R0.75
X-0.514 Y-39.652 Z-7.405 R0.75
X0.814 Y-40.348 Z-7.487 R0.75
X0.9 Y-40. Z-7.5 R0.75
X-0.9 R0.9
X1. R0.95
X-1. R1.
X1. R1.
X0.816 Y-39.951 R0.099
G1 X0.642 Y-40.253
G3 X0.679 Y-40.389 R0.099
X0.814 Y-40.348 R0.099
X-0.514 Y-39.652 Z-7.582 R0.75
X0.814 Y-40.348 Z-7.665 R0.75
X-0.514 Y-39.652 Z-7.747 R0.75
X0.814 Y-40.348 Z-7.829 R0.75
X-0.514 Y-39.652 Z-7.911 R0.75
X0.814 Y-40.348 Z-7.994 R0.75
X-0.514 Y-39.652 Z-8.076 R0.75
X0.814 Y-40.348 Z-8.158 R0.75
X-0.514 Y-39.652 Z-8.241 R0.75
X0.814 Y-40.348 Z-8.323 R0.75
X-0.514 Y-39.652 Z-8.405 R0.75
X0.814 Y-40.348 Z-8.487 R0.75
X0.9 Y-40. Z-8.5 R0.75
X-0.9 R0.9
X1. R0.95
X-1. R1.
X1. R1.
X0.816 Y-39.951 R0.099
G1 X0.642 Y-40.253
G3 X0.679 Y-40.389 R0.099
X0.814 Y-40.348 R0.099
X-0.514 Y-39.652 Z-8.582 R0.75
X0.814 Y-40.348 Z-8.665 R0.75
X-0.514 Y-39.652 Z-8.747 R0.75
X0.814 Y-40.348 Z-8.829 R0.75
X-0.514 Y-39.652 Z-8.911 R0.75
X0.814 Y-40.348 Z-8.994 R0.75
X-0.514 Y-39.652 Z-9.076 R0.75
X0.814 Y-40.348 Z-9.158 R0.75
X-0.514 Y-39.652 Z-9.241 R0.75
X0.814 Y-40.348 Z-9.323 R0.75
X-0.514 Y-39.652 Z-9.405 R0.75
X0.814 Y-40.348 Z-9.487 R0.75
X0.9 Y-40. Z-9.5 R0.75
X-0.9 R0.9
X1. R0.95
X-1. R1.
X1. R1.
X0.816 Y-39.951 R0.099
G1 X0.642 Y-40.253
G3 X0.679 Y-40.389 R0.099
X0.814 Y-40.348 R0.099
X-0.514 Y-39.652 Z-9.582 R0.75
X0.814 Y-40.348 Z-9.665 R0.75
X-0.514 Y-39.652 Z-9.747 R0.75
X0.814 Y-40.348 Z-9.829 R0.75
X-0.514 Y-39.652 Z-9.911 R0.75
X0.814 Y-40.348 Z-9.994 R0.75
X-0.514 Y-39.652 Z-10.076 R0.75
X0.814 Y-40.348 Z-10.158 R0.75
X-0.514 Y-39.652 Z-10.241 R0.75
X0.814 Y-40.348 Z-10.323 R0.75
X-0.514 Y-39.652 Z-10.405 R0.75
X0.814 Y-40.348 Z-10.487 R0.75
X0.9 Y-40. Z-10.5 R0.75
X-0.9 R0.9
X1. R0.95
X-1. R1.
X1. R1.
X0.816 Y-39.951 R0.099
G1 X0.642 Y-40.253
G3 X0.679 Y-40.389 R0.099
X0.814 Y-40.348 R0.099
X-0.514 Y-39.652 Z-10.582 R0.75
X0.814 Y-40.348 Z-10.665 R0.75
X-0.514 Y-39.652 Z-10.747 R0.75
X0.814 Y-40.348 Z-10.829 R0.75
X-0.514 Y-39.652 Z-10.911 R0.75
X0.814 Y-40.348 Z-10.994 R0.75
X-0.514 Y-39.652 Z-11.076 R0.75
X0.814 Y-40.348 Z-11.158 R0.75
X-0.514 Y-39.652 Z-11.241 R0.75
X0.814 Y-40.348 Z-11.323 R0.75
X-0.514 Y-39.652 Z-11.405 R0.75
X0.814 Y-40.348 Z-11.487 R0.75
X0.9 Y-40. Z-11.5 R0.75
X-0.9 R0.9
X1. R0.95
X-1. R1.
X1. R1.
X0.816 Y-39.951 R0.099
G1 X0.642 Y-40.253
G3 X0.679 Y-40.389 R0.099
X0.814 Y-40.348 R0.099
X-0.514 Y-39.652 Z-11.582 R0.75
X0.814 Y-40.348 Z-11.665 R0.75
X-0.514 Y-39.652 Z-11.747 R0.75
X0.814 Y-40.348 Z-11.829 R0.75
X-0.514 Y-39.652 Z-11.911 R0.75
X0.814 Y-40.348 Z-11.994 R0.75
X-0.514 Y-39.652 Z-12.076 R0.75
X0.814 Y-40.348 Z-12.158 R0.75
X-0.514 Y-39.652 Z-12.241 R0.75
X0.814 Y-40.348 Z-12.323 R0.75
X-0.514 Y-39.652 Z-12.405 R0.75
X0.814 Y-40.348 Z-12.487 R0.75
X0.9 Y-40. Z-12.5 R0.75
X-0.9 R0.9
X1. R0.95
X-1. R1.
X1. R1.
X0.816 Y-39.951 R0.099
G1 X0.642 Y-40.253
G3 X0.679 Y-40.389 R0.099
X0.814 Y-40.348 R0.099
X-0.514 Y-39.652 Z-12.582 R0.75
X0.814 Y-40.348 Z-12.665 R0.75
X-0.514 Y-39.652 Z-12.747 R0.75
X0.814 Y-40.348 Z-12.829 R0.75
X-0.514 Y-39.652 Z-12.911 R0.75
X0.814 Y-40.348 Z-12.994 R0.75
X-0.514 Y-39.652 Z-13.076 R0.75
X0.814 Y-40.348 Z-13.158 R0.75
X-0.514 Y-39.652 Z-13.241 R0.75
X0.814 Y-40.348 Z-13.323 R0.75
X-0.514 Y-39.652 Z-13.405 R0.75
X0.814 Y-40.348 Z-13.487 R0.75
X0.9 Y-40. Z-13.5 R0.75
X-0.9 R0.9
X1. R0.95
X-1. R1.
X1. R1.
X0.816 Y-39.951 R0.099
G1 X0.642 Y-40.253
G3 X0.679 Y-40.389 R0.099
X0.814 Y-40.348 R0.099
X-0.514 Y-39.652 Z-13.582 R0.75
X0.814 Y-40.348 Z-13.665 R0.75
X-0.514 Y-39.652 Z-13.747 R0.75
X0.814 Y-40.348 Z-13.829 R0.75
X-0.514 Y-39.652 Z-13.911 R0.75
X0.814 Y-40.348 Z-13.994 R0.75
X-0.514 Y-39.652 Z-14.076 R0.75
X0.814 Y-40.348 Z-14.158 R0.75
X-0.514 Y-39.652 Z-14.241 R0.75
X0.814 Y-40.348 Z-14.323 R0.75
X-0.514 Y-39.652 Z-14.405 R0.75
X0.814 Y-40.348 Z-14.487 R0.75
X0.9 Y-40. Z-14.5 R0.75
X-0.9 R0.9
X1. R0.95
X-1. R1.
X1. R1.
X0.902 Y-39.968 R0.054
G1 X0.782 Y-40.135
G3 X0.87 Y-40.198 R0.054
X0.878 Y-40.179 R0.054
X-0.578 Y-39.821 Z-14.582 R0.75
X0.878 Y-40.179 Z-14.665 R0.75
X-0.578 Y-39.821 Z-14.747 R0.75
X0.878 Y-40.179 Z-14.829 R0.75
X-0.578 Y-39.821 Z-14.911 R0.75
X0.06 Y-40.745 Z-14.956 R0.75
X0.9 Y-40. Z-15. R0.75
X-0.9 R0.9
X1. R0.95
X-1. R1.
X1. R1.
G1 X0.24 Z-14.924
G0 Z15.

(2D CONTOUR2)
M8
G0 X12. Y-53.
Z15.
Z5.
G1 Z3. F30.
Z-2.
X-12. F466.
X12. Y-52.
X-12. F100.
X12. Y-53. F466.
Z-4. F30.
X-12. F466.
X12. Y-52.
X-12. F100.
X12. Y-53. F466.
Z-6. F30.
X-12. F466.
X12. Y-52.
X-12. F100.
X12. Y-53. F466.
Z-8. F30.
X-12. F466.
X12. Y-52.
X-12. F100.
X12. Y-53. F466.
Z-10. F30.
X-12. F466.
X12. Y-52.
X-12. F100.
X12. Y-53. F466.
Z-12. F30.
X-12. F466.
X12. Y-52.
X-12. F100.
X12. Y-53. F466.
Z-14. F30.
X-12. F466.
X12. Y-52.
X-12. F100.
X12. Y-53. F466.
Z-16. F30.
X-12. F466.
X12. Y-52.
X-12. F100.
X12. Y-53. F466.
Z-18. F30.
X-12. F466.
X12. Y-52.
X-12. F100.
X12. Y-53. F466.
Z-20. F30.
X-12. F466.
X12. Y-52.
X-12. F100.
G0 Z15.

M9
M30
