(__2)
(T1  D=4. CR=0. - ZMIN=-20. - FLAT END MILL)
G90 G94 G91.1 G40 G49 G17
G21

(2D CONTOUR3)
M5
M9
T1
S7280 M3
G54
M8
G0 X-0.54 Y-22.951
G43 Z15. H1
Z5.
G1 Z2. F30.
Z0.5
G3 X0.54 Y-17.049 Z0.171 R3. F466.
X-0.54 Y-22.951 Z-0.158 R3.
X0.54 Y-17.049 Z-0.487 R3.
X-0.54 Y-22.951 Z-0.816 R3.
X3. Y-20. Z-1. R3.
X-3. R3.
X3. R3.
X-3. Z-1.329 R3.
X3. Z-1.658 R3.
X-0.181 Y-17.005 Z-1.829 R3.
X-2.978 Y-20.361 Z-2. R3.
X2.978 Y-19.639 R3.
X-2.978 Y-20.361 R3.
X2.978 Y-19.639 Z-2.329 R3.
X-2.978 Y-20.361 Z-2.658 R3.
X0.54 Y-22.951 Z-2.829 R3.
X2.913 Y-19.283 Z-3. R3.
X-2.913 Y-20.717 R3.
X2.913 Y-19.283 R3.
X-2.913 Y-20.717 Z-3.329 R3.
X2.913 Y-19.283 Z-3.658 R3.
X-0.891 Y-17.135 Z-3.829 R3.
X-2.806 Y-21.062 Z-4. R3.
X2.806 Y-18.938 R3.
X-2.806 Y-21.062 R3.
X2.806 Y-18.938 Z-4.329 R3.
X-2.806 Y-21.062 Z-4.658 R3.
X1.229 Y-22.737 Z-4.829 R3.
X2.657 Y-18.608 Z-5. R3.
X-2.657 Y-21.392 R3.
X2.657 Y-18.608 R3.
X-2.657 Y-21.392 Z-5.329 R3.
X1.55 Y-22.569 Z-5.5 R3.
X-1.55 Y-17.431 R3.
X1.55 Y-22.569 R3.
G0 Z5.
X-0.54 Y17.049
G1 Z2. F30.
Z0.5
G3 X0.54 Y22.951 Z0.171 R3. F466.
X-0.54 Y17.049 Z-0.158 R3.
X0.54 Y22.951 Z-0.487 R3.
X-0.54 Y17.049 Z-0.816 R3.
X3. Y20. Z-1. R3.
X-3. R3.
X3. R3.
X-3. Z-1.329 R3.
X3. Z-1.658 R3.
X-0.181 Y22.995 Z-1.829 R3.
X-2.978 Y19.639 Z-2. R3.
X2.978 Y20.361 R3.
X-2.978 Y19.639 R3.
X2.978 Y20.361 Z-2.329 R3.
X-2.978 Y19.639 Z-2.658 R3.
X0.54 Y17.049 Z-2.829 R3.
X2.913 Y20.717 Z-3. R3.
X-2.913 Y19.283 R3.
X2.913 Y20.717 R3.
X-2.913 Y19.283 Z-3.329 R3.
X2.913 Y20.717 Z-3.658 R3.
X-0.891 Y22.865 Z-3.829 R3.
X-2.806 Y18.938 Z-4. R3.
X2.806 Y21.062 R3.
X-2.806 Y18.938 R3.
X2.806 Y21.062 Z-4.329 R3.
X-2.806 Y18.938 Z-4.658 R3.
X1.229 Y17.263 Z-4.829 R3.
X2.657 Y21.392 Z-5. R3.
X-2.657 Y18.608 R3.
X2.657 Y21.392 R3.
X-2.657 Y18.608 Z-5.329 R3.
X1.55 Y17.431 Z-5.5 R3.
X-1.55 Y22.569 R3.
X1.55 Y17.431 R3.
G0 Z15.

(2D POCKET3)
M8
G0 X0.712 Y19.503
Z15.
Z0.
G1 Z-4.5 F466.
G3 X-0.412 Y20.497 Z-4.582 R0.75
X0.712 Y19.503 Z-4.665 R0.75
X-0.412 Y20.497 Z-4.747 R0.75
X0.712 Y19.503 Z-4.829 R0.75
X-0.412 Y20.497 Z-4.911 R0.75
X0.712 Y19.503 Z-4.994 R0.75
X-0.412 Y20.497 Z-5.076 R0.75
X0.712 Y19.503 Z-5.158 R0.75
X-0.412 Y20.497 Z-5.241 R0.75
X0.712 Y19.503 Z-5.323 R0.75
X-0.412 Y20.497 Z-5.405 R0.75
X0.712 Y19.503 Z-5.487 R0.75
X-0.412 Y20.497 Z-5.57 R0.75
X0.712 Y19.503 Z-5.652 R0.75
X-0.412 Y20.497 Z-5.734 R0.75
X0.712 Y19.503 Z-5.816 R0.75
X-0.412 Y20.497 Z-5.899 R0.75
X0.712 Y19.503 Z-5.981 R0.75
X0.9 Y20. Z-6. R0.75
X-0.9 R0.9
X1. R0.95
X-1. R1.
X1. R1.
X0.816 Y20.049 R0.099
G1 X0.642 Y19.747
G3 X0.679 Y19.611 R0.099
X0.814 Y19.652 R0.099
X-0.514 Y20.348 Z-6.082 R0.75
X0.814 Y19.652 Z-6.165 R0.75
X-0.514 Y20.348 Z-6.247 R0.75
X0.814 Y19.652 Z-6.329 R0.75
X-0.514 Y20.348 Z-6.411 R0.75
X0.814 Y19.652 Z-6.494 R0.75
X-0.514 Y20.348 Z-6.576 R0.75
X0.814 Y19.652 Z-6.658 R0.75
X-0.514 Y20.348 Z-6.741 R0.75
X0.814 Y19.652 Z-6.823 R0.75
X-0.514 Y20.348 Z-6.905 R0.75
X0.814 Y19.652 Z-6.987 R0.75
X0.9 Y20. Z-7. R0.75
X-0.9 R0.9
X1. R0.95
X-1. R1.
X1. R1.
X0.816 Y20.049 R0.099
G1 X0.642 Y19.747
G3 X0.679 Y19.611 R0.099
X0.814 Y19.652 R0.099
X-0.514 Y20.348 Z-7.082 R0.75
X0.814 Y19.652 Z-7.165 R0.75
X-0.514 Y20.348 Z-7.247 R0.75
X0.814 Y19.652 Z-7.329 R0.75
X-0.514 Y20.348 Z-7.411 R0.75
X0.814 Y19.652 Z-7.494 R0.75
X-0.514 Y20.348 Z-7.576 R0.75
X0.814 Y19.652 Z-7.658 R0.75
X-0.514 Y20.348 Z-7.741 R0.75
X0.814 Y19.652 Z-7.823 R0.75
X-0.514 Y20.348 Z-7.905 R0.75
X0.814 Y19.652 Z-7.987 R0.75
X0.9 Y20. Z-8. R0.75
X-0.9 R0.9
X1. R0.95
X-1. R1.
X1. R1.
X0.816 Y20.049 R0.099
G1 X0.642 Y19.747
G3 X0.679 Y19.611 R0.099
X0.814 Y19.652 R0.099
X-0.514 Y20.348 Z-8.082 R0.75
X0.814 Y19.652 Z-8.165 R0.75
X-0.514 Y20.348 Z-8.247 R0.75
X0.814 Y19.652 Z-8.329 R0.75
X-0.514 Y20.348 Z-8.411 R0.75
X0.814 Y19.652 Z-8.494 R0.75
X-0.514 Y20.348 Z-8.576 R0.75
X0.814 Y19.652 Z-8.658 R0.75
X-0.514 Y20.348 Z-8.741 R0.75
X0.814 Y19.652 Z-8.823 R0.75
X-0.514 Y20.348 Z-8.905 R0.75
X0.814 Y19.652 Z-8.987 R0.75
X0.9 Y20. Z-9. R0.75
X-0.9 R0.9
X1. R0.95
X-1. R1.
X1. R1.
X0.816 Y20.049 R0.099
G1 X0.642 Y19.747
G3 X0.679 Y19.611 R0.099
X0.814 Y19.652 R0.099
X-0.514 Y20.348 Z-9.082 R0.75
X0.814 Y19.652 Z-9.165 R0.75
X-0.514 Y20.348 Z-9.247 R0.75
X0.814 Y19.652 Z-9.329 R0.75
X-0.514 Y20.348 Z-9.411 R0.75
X0.814 Y19.652 Z-9.494 R0.75
X-0.514 Y20.348 Z-9.576 R0.75
X0.814 Y19.652 Z-9.658 R0.75
X-0.514 Y20.348 Z-9.741 R0.75
X0.814 Y19.652 Z-9.823 R0.75
X-0.514 Y20.348 Z-9.905 R0.75
X0.814 Y19.652 Z-9.987 R0.75
X0.9 Y20. Z-10. R0.75
X-0.9 R0.9
X1. R0.95
X-1. R1.
X1. R1.
X0.816 Y20.049 R0.099
G1 X0.642 Y19.747
G3 X0.679 Y19.611 R0.099
X0.814 Y19.652 R0.099
X-0.514 Y20.348 Z-10.082 R0.75
X0.814 Y19.652 Z-10.165 R0.75
X-0.514 Y20.348 Z-10.247 R0.75
X0.814 Y19.652 Z-10.329 R0.75
X-0.514 Y20.348 Z-10.411 R0.75
X0.814 Y19.652 Z-10.494 R0.75
X-0.514 Y20.348 Z-10.576 R0.75
X0.814 Y19.652 Z-10.658 R0.75
X-0.514 Y20.348 Z-10.741 R0.75
X0.814 Y19.652 Z-10.823 R0.75
X-0.514 Y20.348 Z-10.905 R0.75
X0.814 Y19.652 Z-10.987 R0.75
X0.9 Y20. Z-11. R0.75
X-0.9 R0.9
X1. R0.95
X-1. R1.
X1. R1.
X0.816 Y20.049 R0.099
G1 X0.642 Y19.747
G3 X0.679 Y19.611 R0.099
X0.814 Y19.652 R0.099
X-0.514 Y20.348 Z-11.082 R0.75
X0.814 Y19.652 Z-11.165 R0.75
X-0.514 Y20.348 Z-11.247 R0.75
X0.814 Y19.652 Z-11.329 R0.75
X-0.514 Y20.348 Z-11.411 R0.75
X0.814 Y19.652 Z-11.494 R0.75
X-0.514 Y20.348 Z-11.576 R0.75
X0.814 Y19.652 Z-11.658 R0.75
X-0.514 Y20.348 Z-11.741 R0.75
X0.814 Y19.652 Z-11.823 R0.75
X-0.514 Y20.348 Z-11.905 R0.75
X0.814 Y19.652 Z-11.987 R0.75
X0.9 Y20. Z-12. R0.75
X-0.9 R0.9
X1. R0.95
X-1. R1.
X1. R1.
X0.816 Y20.049 R0.099
G1 X0.642 Y19.747
G3 X0.679 Y19.611 R0.099
X0.814 Y19.652 R0.099
X-0.514 Y20.348 Z-12.082 R0.75
X0.814 Y19.652 Z-12.165 R0.75
X-0.514 Y20.348 Z-12.247 R0.75
X0.814 Y19.652 Z-12.329 R0.75
X-0.514 Y20.348 Z-12.411 R0.75
X0.814 Y19.652 Z-12.494 R0.75
X-0.514 Y20.348 Z-12.576 R0.75
X0.814 Y19.652 Z-12.658 R0.75
X-0.514 Y20.348 Z-12.741 R0.75
X0.814 Y19.652 Z-12.823 R0.75
X-0.514 Y20.348 Z-12.905 R0.75
X0.814 Y19.652 Z-12.987 R0.75
X0.9 Y20. Z-13. R0.75
X-0.9 R0.9
X1. R0.95
X-1. R1.
X1. R1.
X0.816 Y20.049 R0.099
G1 X0.642 Y19.747
G3 X0.679 Y19.611 R0.099
X0.814 Y19.652 R0.099
X-0.514 Y20.348 Z-13.082 R0.75
X0.814 Y19.652 Z-13.165 R0.75
X-0.514 Y20.348 Z-13.247 R0.75
X0.814 Y19.652 Z-13.329 R0.75
X-0.514 Y20.348 Z-13.411 R0.75
X0.814 Y19.652 Z-13.494 R0.75
X-0.514 Y20.348 Z-13.576 R0.75
X0.814 Y19.652 Z-13.658 R0.75
X-0.514 Y20.348 Z-13.741 R0.75
X0.814 Y19.652 Z-13.823 R0.75
X-0.514 Y20.348 Z-13.905 R0.75
X0.814 Y19.652 Z-13.987 R0.75
X0.9 Y20. Z-14. R0.75
X-0.9 R0.9
X1. R0.95
X-1. R1.
X1. R1.
X0.816 Y20.049 R0.099
G1 X0.642 Y19.747
G3 X0.679 Y19.611 R0.099
X0.814 Y19.652 R0.099
X-0.514 Y20.348 Z-14.082 R0.75
X0.814 Y19.652 Z-14.165 R0.75
X-0.514 Y20.348 Z-14.247 R0.75
X0.814 Y19.652 Z-14.329 R0.75
X-0.514 Y20.348 Z-14.411 R0.75
X0.814 Y19.652 Z-14.494 R0.75
X-0.514 Y20.348 Z-14.576 R0.75
X0.814 Y19.652 Z-14.658 R0.75
X-0.514 Y20.348 Z-14.741 R0.75
X0.814 Y19.652 Z-14.823 R0.75
X-0.514 Y20.348 Z-14.905 R0.75
X0.814 Y19.652 Z-14.987 R0.75
X0.9 Y20. Z-15. R0.75
X-0.9 R0.9
X1. R0.95
X-1. R1.
X1. R1.
G1 X0.24 Z-14.924
G0 Z5.
X0.712 Y-20.497
Z0.
G1 Z-4.5 F466.
G3 X-0.412 Y-19.503 Z-4.582 R0.75
X0.712 Y-20.497 Z-4.665 R0.75
X-0.412 Y-19.503 Z-4.747 R0.75
X0.712 Y-20.497 Z-4.829 R0.75
X-0.412 Y-19.503 Z-4.911 R0.75
X0.712 Y-20.497 Z-4.994 R0.75
X-0.412 Y-19.503 Z-5.076 R0.75
X0.712 Y-20.497 Z-5.158 R0.75
X-0.412 Y-19.503 Z-5.241 R0.75
X0.712 Y-20.497 Z-5.323 R0.75
X-0.412 Y-19.503 Z-5.405 R0.75
X0.712 Y-20.497 Z-5.487 R0.75
X-0.412 Y-19.503 Z-5.57 R0.75
X0.712 Y-20.497 Z-5.652 R0.75
X-0.412 Y-19.503 Z-5.734 R0.75
X0.712 Y-20.497 Z-5.816 R0.75
X-0.412 Y-19.503 Z-5.899 R0.75
X0.712 Y-20.497 Z-5.981 R0.75
X0.9 Y-20. Z-6. R0.75
X-0.9 R0.9
X1. R0.95
X-1. R1.
X1. R1.
X0.816 Y-19.951 R0.099
G1 X0.642 Y-20.253
G3 X0.679 Y-20.389 R0.099
X0.814 Y-20.348 R0.099
X-0.514 Y-19.652 Z-6.082 R0.75
X0.814 Y-20.348 Z-6.165 R0.75
X-0.514 Y-19.652 Z-6.247 R0.75
X0.814 Y-20.348 Z-6.329 R0.75
X-0.514 Y-19.652 Z-6.411 R0.75
X0.814 Y-20.348 Z-6.494 R0.75
X-0.514 Y-19.652 Z-6.576 R0.75
X0.814 Y-20.348 Z-6.658 R0.75
X-0.514 Y-19.652 Z-6.741 R0.75
X0.814 Y-20.348 Z-6.823 R0.75
X-0.514 Y-19.652 Z-6.905 R0.75
X0.814 Y-20.348 Z-6.987 R0.75
X0.9 Y-20. Z-7. R0.75
X-0.9 R0.9
X1. R0.95
X-1. R1.
X1. R1.
X0.816 Y-19.951 R0.099
G1 X0.642 Y-20.253
G3 X0.679 Y-20.389 R0.099
X0.814 Y-20.348 R0.099
X-0.514 Y-19.652 Z-7.082 R0.75
X0.814 Y-20.348 Z-7.165 R0.75
X-0.514 Y-19.652 Z-7.247 R0.75
X0.814 Y-20.348 Z-7.329 R0.75
X-0.514 Y-19.652 Z-7.411 R0.75
X0.814 Y-20.348 Z-7.494 R0.75
X-0.514 Y-19.652 Z-7.576 R0.75
X0.814 Y-20.348 Z-7.658 R0.75
X-0.514 Y-19.652 Z-7.741 R0.75
X0.814 Y-20.348 Z-7.823 R0.75
X-0.514 Y-19.652 Z-7.905 R0.75
X0.814 Y-20.348 Z-7.987 R0.75
X0.9 Y-20. Z-8. R0.75
X-0.9 R0.9
X1. R0.95
X-1. R1.
X1. R1.
X0.816 Y-19.951 R0.099
G1 X0.642 Y-20.253
G3 X0.679 Y-20.389 R0.099
X0.814 Y-20.348 R0.099
X-0.514 Y-19.652 Z-8.082 R0.75
X0.814 Y-20.348 Z-8.165 R0.75
X-0.514 Y-19.652 Z-8.247 R0.75
X0.814 Y-20.348 Z-8.329 R0.75
X-0.514 Y-19.652 Z-8.411 R0.75
X0.814 Y-20.348 Z-8.494 R0.75
X-0.514 Y-19.652 Z-8.576 R0.75
X0.814 Y-20.348 Z-8.658 R0.75
X-0.514 Y-19.652 Z-8.741 R0.75
X0.814 Y-20.348 Z-8.823 R0.75
X-0.514 Y-19.652 Z-8.905 R0.75
X0.814 Y-20.348 Z-8.987 R0.75
X0.9 Y-20. Z-9. R0.75
X-0.9 R0.9
X1. R0.95
X-1. R1.
X1. R1.
X0.816 Y-19.951 R0.099
G1 X0.642 Y-20.253
G3 X0.679 Y-20.389 R0.099
X0.814 Y-20.348 R0.099
X-0.514 Y-19.652 Z-9.082 R0.75
X0.814 Y-20.348 Z-9.165 R0.75
X-0.514 Y-19.652 Z-9.247 R0.75
X0.814 Y-20.348 Z-9.329 R0.75
X-0.514 Y-19.652 Z-9.411 R0.75
X0.814 Y-20.348 Z-9.494 R0.75
X-0.514 Y-19.652 Z-9.576 R0.75
X0.814 Y-20.348 Z-9.658 R0.75
X-0.514 Y-19.652 Z-9.741 R0.75
X0.814 Y-20.348 Z-9.823 R0.75
X-0.514 Y-19.652 Z-9.905 R0.75
X0.814 Y-20.348 Z-9.987 R0.75
X0.9 Y-20. Z-10. R0.75
X-0.9 R0.9
X1. R0.95
X-1. R1.
X1. R1.
X0.816 Y-19.951 R0.099
G1 X0.642 Y-20.253
G3 X0.679 Y-20.389 R0.099
X0.814 Y-20.348 R0.099
X-0.514 Y-19.652 Z-10.082 R0.75
X0.814 Y-20.348 Z-10.165 R0.75
X-0.514 Y-19.652 Z-10.247 R0.75
X0.814 Y-20.348 Z-10.329 R0.75
X-0.514 Y-19.652 Z-10.411 R0.75
X0.814 Y-20.348 Z-10.494 R0.75
X-0.514 Y-19.652 Z-10.576 R0.75
X0.814 Y-20.348 Z-10.658 R0.75
X-0.514 Y-19.652 Z-10.741 R0.75
X0.814 Y-20.348 Z-10.823 R0.75
X-0.514 Y-19.652 Z-10.905 R0.75
X0.814 Y-20.348 Z-10.987 R0.75
X0.9 Y-20. Z-11. R0.75
X-0.9 R0.9
X1. R0.95
X-1. R1.
X1. R1.
X0.816 Y-19.951 R0.099
G1 X0.642 Y-20.253
G3 X0.679 Y-20.389 R0.099
X0.814 Y-20.348 R0.099
X-0.514 Y-19.652 Z-11.082 R0.75
X0.814 Y-20.348 Z-11.165 R0.75
X-0.514 Y-19.652 Z-11.247 R0.75
X0.814 Y-20.348 Z-11.329 R0.75
X-0.514 Y-19.652 Z-11.411 R0.75
X0.814 Y-20.348 Z-11.494 R0.75
X-0.514 Y-19.652 Z-11.576 R0.75
X0.814 Y-20.348 Z-11.658 R0.75
X-0.514 Y-19.652 Z-11.741 R0.75
X0.814 Y-20.348 Z-11.823 R0.75
X-0.514 Y-19.652 Z-11.905 R0.75
X0.814 Y-20.348 Z-11.987 R0.75
X0.9 Y-20. Z-12. R0.75
X-0.9 R0.9
X1. R0.95
X-1. R1.
X1. R1.
X0.816 Y-19.951 R0.099
G1 X0.642 Y-20.253
G3 X0.679 Y-20.389 R0.099
X0.814 Y-20.348 R0.099
X-0.514 Y-19.652 Z-12.082 R0.75
X0.814 Y-20.348 Z-12.165 R0.75
X-0.514 Y-19.652 Z-12.247 R0.75
X0.814 Y-20.348 Z-12.329 R0.75
X-0.514 Y-19.652 Z-12.411 R0.75
X0.814 Y-20.348 Z-12.494 R0.75
X-0.514 Y-19.652 Z-12.576 R0.75
X0.814 Y-20.348 Z-12.658 R0.75
X-0.514 Y-19.652 Z-12.741 R0.75
X0.814 Y-20.348 Z-12.823 R0.75
X-0.514 Y-19.652 Z-12.905 R0.75
X0.814 Y-20.348 Z-12.987 R0.75
X0.9 Y-20. Z-13. R0.75
X-0.9 R0.9
X1. R0.95
X-1. R1.
X1. R1.
X0.816 Y-19.951 R0.099
G1 X0.642 Y-20.253
G3 X0.679 Y-20.389 R0.099
X0.814 Y-20.348 R0.099
X-0.514 Y-19.652 Z-13.082 R0.75
X0.814 Y-20.348 Z-13.165 R0.75
X-0.514 Y-19.652 Z-13.247 R0.75
X0.814 Y-20.348 Z-13.329 R0.75
X-0.514 Y-19.652 Z-13.411 R0.75
X0.814 Y-20.348 Z-13.494 R0.75
X-0.514 Y-19.652 Z-13.576 R0.75
X0.814 Y-20.348 Z-13.658 R0.75
X-0.514 Y-19.652 Z-13.741 R0.75
X0.814 Y-20.348 Z-13.823 R0.75
X-0.514 Y-19.652 Z-13.905 R0.75
X0.814 Y-20.348 Z-13.987 R0.75
X0.9 Y-20. Z-14. R0.75
X-0.9 R0.9
X1. R0.95
X-1. R1.
X1. R1.
X0.816 Y-19.951 R0.099
G1 X0.642 Y-20.253
G3 X0.679 Y-20.389 R0.099
X0.814 Y-20.348 R0.099
X-0.514 Y-19.652 Z-14.082 R0.75
X0.814 Y-20.348 Z-14.165 R0.75
X-0.514 Y-19.652 Z-14.247 R0.75
X0.814 Y-20.348 Z-14.329 R0.75
X-0.514 Y-19.652 Z-14.411 R0.75
X0.814 Y-20.348 Z-14.494 R0.75
X-0.514 Y-19.652 Z-14.576 R0.75
X0.814 Y-20.348 Z-14.658 R0.75
X-0.514 Y-19.652 Z-14.741 R0.75
X0.814 Y-20.348 Z-14.823 R0.75
X-0.514 Y-19.652 Z-14.905 R0.75
X0.814 Y-20.348 Z-14.987 R0.75
X0.9 Y-20. Z-15. R0.75
X-0.9 R0.9
X1. R0.95
X-1. R1.
X1. R1.
G1 X0.24 Z-14.924
G0 Z15.

(2D CONTOUR4)
M8
G0 X12. Y-53.
Z15.
Z5.
G1 Z3. F30.
Z-2.
X-12. F466.
X12. Y-52.
X-12. F100.
X12. Y-53. F466.
Z-4. F30.
X-12. F466.
X12. Y-52.
X-12. F100.
X12. Y-53. F466.
Z-6. F30.
X-12. F466.
X12. Y-52.
X-12. F100.
X12. Y-53. F466.
Z-8. F30.
X-12. F466.
X12. Y-52.
X-12. F100.
X12. Y-53. F466.
Z-10. F30.
X-12. F466.
X12. Y-52.
X-12. F100.
X12. Y-53. F466.
Z-12. F30.
X-12. F466.
X12. Y-52.
X-12. F100.
X12. Y-53. F466.
Z-14. F30.
X-12. F466.
X12. Y-52.
X-12. F100.
X12. Y-53. F466.
Z-16. F30.
X-12. F466.
X12. Y-52.
X-12. F100.
X12. Y-53. F466.
Z-18. F30.
X-12. F466.
X12. Y-52.
X-12. F100.
X12. Y-53. F466.
Z-20. F30.
X-12. F466.
X12. Y-52.
X-12. F100.
G0 Z15.

M9
M30
