(__2)
(T1  D=6. CR=0. - ZMIN=-20. - FLAT END MILL)
G90 G94 G91.1 G40 G49 G17
G21

(2D CONTOUR4)
M5
M9
T1
S10000 M3
G54
M8
G0 X-1.634 Y-11.153
G43 Z15. H1
Z5.
G1 Z3. F200.
Z2.5
G3 X1.634 Y-8.847 Z2.281 R2. F700.
X-1.634 Y-11.153 Z2.061 R2.
X1.634 Y-8.847 Z1.842 R2.
X-1.634 Y-11.153 Z1.622 R2.
X1.634 Y-8.847 Z1.403 R2.
X-1.634 Y-11.153 Z1.184 R2.
X1.634 Y-8.847 Z0.964 R2.
X-1.634 Y-11.153 Z0.745 R2.
X1.634 Y-8.847 Z0.525 R2.
X-1.634 Y-11.153 Z0.306 R2.
X1.634 Y-8.847 Z0.086 R2.
X-1.634 Y-11.153 Z-0.133 R2.
X1.634 Y-8.847 Z-0.352 R2.
X-1.634 Y-11.153 Z-0.572 R2.
X1.634 Y-8.847 Z-0.791 R2.
X-1.634 Y-11.153 Z-1.011 R2.
X1.634 Y-8.847 Z-1.23 R2.
X-1.634 Y-11.153 Z-1.449 R2.
X1.634 Y-8.847 Z-1.669 R2.
X-1.634 Y-11.153 Z-1.888 R2.
X1.2 Y-11.6 Z-2. R2.
X-1.2 Y-8.4 R2. F800.
X1.2 Y-11.6 R2.
X-1.2 Y-8.4 Z-2.219 R2. F700.
X1.2 Y-11.6 Z-2.439 R2.
X-1.2 Y-8.4 Z-2.658 R2.
X1.2 Y-11.6 Z-2.878 R2.
X-1.2 Y-8.4 Z-3.097 R2.
X1.2 Y-11.6 Z-3.316 R2.
X-1.2 Y-8.4 Z-3.536 R2.
X1.2 Y-11.6 Z-3.755 R2.
X-1.2 Y-8.4 Z-3.975 R2.
X-1.689 Y-8.929 Z-4. R2.
X1.689 Y-11.071 R2. F800.
X-1.689 Y-8.929 R2.
X1.689 Y-11.071 Z-4.219 R2. F700.
X-1.689 Y-8.929 Z-4.439 R2.
X1.689 Y-11.071 Z-4.658 R2.
X-1.689 Y-8.929 Z-4.878 R2.
X1.689 Y-11.071 Z-5.097 R2.
X-1.689 Y-8.929 Z-5.316 R2.
X0.944 Y-11.763 Z-5.5 R2.
X-0.944 Y-8.237 R2. F800.
X0.944 Y-11.763 R2.
G0 Z5.
X0.058 Y11.999
G1 Z3. F200.
Z2.5
G3 X-0.058 Y8.001 Z2.281 R2. F700.
X0.058 Y11.999 Z2.061 R2.
X-0.058 Y8.001 Z1.842 R2.
X0.058 Y11.999 Z1.622 R2.
X-0.058 Y8.001 Z1.403 R2.
X0.058 Y11.999 Z1.184 R2.
X-0.058 Y8.001 Z0.964 R2.
X0.058 Y11.999 Z0.745 R2.
X-0.058 Y8.001 Z0.525 R2.
X0.058 Y11.999 Z0.306 R2.
X-0.058 Y8.001 Z0.086 R2.
X0.058 Y11.999 Z-0.133 R2.
X-0.058 Y8.001 Z-0.352 R2.
X0.058 Y11.999 Z-0.572 R2.
X-0.058 Y8.001 Z-0.791 R2.
X0.058 Y11.999 Z-1.011 R2.
X-0.058 Y8.001 Z-1.23 R2.
X0.058 Y11.999 Z-1.449 R2.
X-0.058 Y8.001 Z-1.669 R2.
X0.058 Y11.999 Z-1.888 R2.
X-2. Y10. Z-2. R2.
X2. R2. F800.
X-2. R2.
X2. Z-2.219 R2. F700.
X-2. Z-2.439 R2.
X2. Z-2.658 R2.
X-2. Z-2.878 R2.
X2. Z-3.097 R2.
X-2. Z-3.316 R2.
X2. Z-3.536 R2.
X-2. Z-3.755 R2.
X2. Z-3.975 R2.
X1.87 Y10.708 Z-4. R2.
X-1.87 Y9.292 R2. F800.
X1.87 Y10.708 R2.
X-1.87 Y9.292 Z-4.219 R2. F700.
X1.87 Y10.708 Z-4.439 R2.
X-1.87 Y9.292 Z-4.658 R2.
X1.87 Y10.708 Z-4.878 R2.
X-1.87 Y9.292 Z-5.097 R2.
X1.87 Y10.708 Z-5.316 R2.
X-1.977 Y10.303 Z-5.5 R2.
X1.977 Y9.697 R2. F800.
X-1.977 Y10.303 R2.
G0 Z15.

(DRILL2)
M8
G0 X0. Y-10.
Z15.
Z5.
G98 G73 X0. Y-10. Z-15. R-0.5 Q1.5 F10.
Y10.
G80
Z15.

(2D CONTOUR5)
S18000 M3
M8
G0 X-4.136 Y-43.
Z15.
Z5.
G1 Z2.5 F300.
X14. Z1.867 F700.
X-14. Z0.889
X14. Z-0.089
X-14. Z-1.067
X14. Z-2.044
X-14. Z-3.022
X14. Z-4.
X-14. F800.
X14. Z-4.8 F700.
X-14. Z-5.6
X14. Z-6.4
X-14. Z-7.2
X14. Z-8.
X-14. F800.
X14. Z-8.8 F700.
X-14. Z-9.6
X14. Z-10.4
X-14. Z-11.2
X14. Z-12.
X-14. F800.
X14. Z-12.8 F700.
X-14. Z-13.6
X14. Z-14.4
X-14. Z-15.2
X14. Z-16.
X-14. F800.
X14. Z-16.8 F700.
X-14. Z-17.6
X14. Z-18.4
X-14. Z-19.2
X14. Z-20.
X-14. F800.
G0 Z15.

M9
M30
