(__GT2_2)
(T2  D=1. CR=0. - ZMIN=-6.5 - FLAT END MILL)
G90 G94 G91.1 G40 G49 G17
G21

(2D CONTOUR4)
M5
M9
T2
S10000 M3
G54
M9
G0 X-19.068 Y17.213
G43 Z15. H2
Z5.
G1 Z3. F400.
Z2.5
X-19.069 Y17.211
G3 X-19.105 Y17.134 Z2.485 R0.5
G1 X-19.12 Y17.094 Z2.477
G3 X-19.142 Y17.014 Z2.462 R0.5
G1 X-19.151 Y16.968 Z2.454
G3 X-19.16 Y16.883 Z2.439 R0.5
G1 Y16.839 Z2.431
G3 X-19.155 Y16.756 Z2.417 R0.5
G1 X-19.148 Y16.71 Z2.408
G3 X-19.128 Y16.628 Z2.393 R0.5
G1 X-19.114 Y16.587 Z2.386
G3 X-19.081 Y16.51 Z2.371 R0.5
G1 X-19.058 Y16.466 Z2.362
G3 X-19.041 Y16.437 Z2.356 R0.5
G1 X-18.967 Y16.317 Z2.332
X-18.911 Y16.219 Z2.312
X-18.977 Y16.141 Z2.294
X-19.006 Y16.151 Z2.288
X-19.012 Y16.153 Z2.287
X-19.078 Y16.178 Z2.275
X-19.135 Y16.202 Z2.264
X-19.187 Y16.225 Z2.254
G3 X-19.199 Y16.23 Z2.251 R0.5
G1 X-19.246 Y16.248 Z2.243
G3 X-19.301 Y16.267 Z2.232 R0.5
G1 X-19.337 Y16.277 Z2.226
G3 X-19.415 Y16.291 Z2.212 R0.5
G1 X-19.461 Y16.296 Z2.203
G3 X-19.546 Y16.298 Z2.188 R0.5
G1 X-19.589 Y16.295 Z2.181
G3 X-19.672 Y16.283 Z2.166 R0.5
G1 X-19.717 Y16.272 Z2.158
G3 X-19.798 Y16.245 Z2.143 R0.5
G1 X-19.838 Y16.228 Z2.135
G3 X-19.912 Y16.189 Z2.12 R0.5
G1 X-19.951 Y16.164 Z2.112
G3 X-20.009 Y16.121 Z2.1 R0.5
G1 X-20.031 Y16.102 Z2.094
G3 X-20.095 Y16.036 Z2.078 R0.5
X-20.284 Y15.796 Z2.024 R25.709
X-20.34 Y15.704 Z2.005 R0.5
G1 X-20.36 Y15.662 Z1.997
G3 X-20.39 Y15.583 Z1.982 R0.5
G1 X-20.402 Y15.541 Z1.975
G3 X-20.418 Y15.459 Z1.96 R0.5
G1 X-20.423 Y15.412 Z1.951
G3 X-20.425 Y15.328 Z1.937 R0.5
G1 X-20.422 Y15.285 Z1.929
G3 X-20.41 Y15.201 Z1.914 R0.5
G1 X-20.399 Y15.156 Z1.906
G3 X-20.374 Y15.077 Z1.891 R0.5
G1 X-20.357 Y15.037 Z1.883
G3 X-20.317 Y14.961 Z1.868 R0.5
G1 X-20.291 Y14.92 Z1.86
G3 X-20.272 Y14.892 Z1.854 R0.5
G1 X-20.189 Y14.779 Z1.829
X-20.125 Y14.685 Z1.809
X-20.185 Y14.602 Z1.791
X-20.214 Y14.61 Z1.786
X-20.22 Y14.611 Z1.785
X-20.288 Y14.632 Z1.772
X-20.347 Y14.651 Z1.761
X-20.401 Y14.669 Z1.751
G3 X-20.413 Y14.673 Z1.749 R0.5
G1 X-20.462 Y14.688 Z1.74
G3 X-20.517 Y14.702 Z1.73 R0.5
G1 X-20.554 Y14.709 Z1.723
G3 X-20.634 Y14.718 Z1.709 R0.5
G1 X-20.68 Y14.719 Z1.701
G3 X-20.764 Y14.714 Z1.686 R0.5
G1 X-20.806 Y14.708 Z1.678
G3 X-20.889 Y14.689 Z1.663 R0.5
G1 X-20.934 Y14.674 Z1.655
G3 X-21.011 Y14.642 Z1.64 R0.5
G1 X-21.05 Y14.622 Z1.633
G3 X-21.121 Y14.577 Z1.618 R0.5
G1 X-21.158 Y14.549 Z1.61
G3 X-21.212 Y14.501 Z1.597 R0.5
G1 X-21.233 Y14.48 Z1.592
G3 X-21.291 Y14.41 Z1.576 R0.5
X-21.46 Y14.156 Z1.522 R25.709
X-21.51 Y14.06 Z1.503 R0.5
G1 X-21.526 Y14.017 Z1.495
G3 X-21.55 Y13.935 Z1.48 R0.5
G1 X-21.559 Y13.893 Z1.472
G3 X-21.568 Y13.808 Z1.457 R0.5
G1 X-21.569 Y13.762 Z1.449
G3 X-21.565 Y13.678 Z1.434 R0.5
G1 X-21.559 Y13.636 Z1.426
G3 X-21.54 Y13.553 Z1.411 R0.5
G1 X-21.526 Y13.509 Z1.403
G3 X-21.494 Y13.431 Z1.388 R0.5
G1 X-21.474 Y13.393 Z1.381
G3 X-21.429 Y13.322 Z1.366 R0.5
G1 X-21.4 Y13.283 Z1.357
G3 X-21.378 Y13.255 Z1.351 R0.5
G1 X-21.286 Y13.149 Z1.326
X-21.215 Y13.061 Z1.306
X-21.269 Y12.974 Z1.288
X-21.299 Y12.979 Z1.283
X-21.304 Y12.98 Z1.282
X-21.374 Y12.995 Z1.269
X-21.434 Y13.009 Z1.259
X-21.49 Y13.024 Z1.248
G3 X-21.501 Y13.026 Z1.246 R0.5
G1 X-21.551 Y13.038 Z1.237
G3 X-21.608 Y13.047 Z1.227 R0.5
G1 X-21.645 Y13.051 Z1.221
G3 X-21.725 Y13.053 Z1.206 R0.5
G1 X-21.772 Y13.051 Z1.198
G3 X-21.855 Y13.039 Z1.183 R0.5
G1 X-21.897 Y13.03 Z1.176
G3 X-21.977 Y13.005 Z1.161 R0.5
G1 X-22.02 Y12.987 Z1.153
G3 X-22.095 Y12.949 Z1.138 R0.5
G1 X-22.131 Y12.926 Z1.13
G3 X-22.2 Y12.874 Z1.115 R0.5
G1 X-22.235 Y12.843 Z1.107
G3 X-22.284 Y12.793 Z1.095 R0.5
G1 X-22.303 Y12.77 Z1.089
G3 X-22.356 Y12.695 Z1.073 R0.5
X-22.505 Y12.428 Z1.019 R25.709
X-22.546 Y12.329 Z1. R0.5
G1 X-22.56 Y12.285 Z0.992
G3 X-22.577 Y12.201 Z0.977 R0.5
G1 X-22.582 Y12.158 Z0.969
G3 X-22.585 Y12.074 Z0.955 R0.5
G1 X-22.583 Y12.028 Z0.946
G3 X-22.571 Y11.944 Z0.931 R0.5
G1 X-22.562 Y11.901 Z0.924
G3 X-22.537 Y11.822 Z0.909 R0.5
G1 X-22.519 Y11.778 Z0.901
G3 X-22.482 Y11.704 Z0.886 R0.5
G1 X-22.459 Y11.667 Z0.878
G3 X-22.408 Y11.599 Z0.863 R0.5
G1 X-22.375 Y11.562 Z0.855
G3 X-22.352 Y11.538 Z0.849 R0.5
G1 X-22.252 Y11.439 Z0.824
X-22.174 Y11.356 Z0.804
X-22.221 Y11.265 Z0.786
X-22.252 Y11.268 Z0.78
X-22.257 Z0.779
X-22.328 Y11.278 Z0.767
X-22.388 Y11.288 Z0.756
X-22.444 Y11.297 Z0.746
G3 X-22.457 Y11.299 Z0.744 R0.5
G1 X-22.507 Y11.307 Z0.735
G3 X-22.566 Y11.312 Z0.724 R0.5
G1 X-22.603 Y11.313 Z0.718
G3 X-22.682 Y11.308 Z0.704 R0.5
G1 X-22.728 Y11.302 Z0.696
G3 X-22.809 Y11.285 Z0.681 R0.5
G1 X-22.851 Y11.272 Z0.673
G3 X-22.93 Y11.24 Z0.658 R0.5
G1 X-22.972 Y11.219 Z0.65
G3 X-23.044 Y11.175 Z0.635 R0.5
G1 X-23.078 Y11.149 Z0.628
G3 X-23.141 Y11.094 Z0.613 R0.5
G1 X-23.173 Y11.06 Z0.605
G3 X-23.219 Y11.005 Z0.592 R0.5
G1 X-23.236 Y10.981 Z0.587
G3 X-23.283 Y10.902 Z0.57 R0.5
X-23.411 Y10.624 Z0.517 R25.709
X-23.445 Y10.521 Z0.497 R0.5
G1 X-23.454 Y10.475 Z0.489
G3 X-23.465 Y10.393 Z0.475 R0.5
G1 X-23.466 Y10.35 Z0.467
G3 X-23.463 Y10.266 Z0.452 R0.5
G1 X-23.457 Y10.219 Z0.444
G3 X-23.439 Y10.136 Z0.429 R0.5
G1 X-23.426 Y10.094 Z0.421
G3 X-23.395 Y10.017 Z0.406 R0.5
G1 X-23.374 Y9.976 Z0.398
G3 X-23.33 Y9.903 Z0.383 R0.5
G1 X-23.304 Y9.869 Z0.376
G3 X-23.249 Y9.805 Z0.361 R0.5
G1 X-23.214 Y9.771 Z0.352
G3 X-23.189 Y9.748 Z0.346 R0.5
G1 X-23.081 Y9.658 Z0.321
X-22.997 Y9.582 Z0.301
X-23.036 Y9.487 Z0.283
X-23.067 Z0.278
X-23.073 Z0.277
X-23.143 Y9.491 Z0.264
X-23.205 Y9.496 Z0.253
X-23.262 Y9.501 Z0.243
G3 X-23.275 Y9.502 Z0.241 R0.5
G1 X-23.325 Y9.506 Z0.232
G3 X-23.383 Z0.222 R0.5
G1 X-23.42 Y9.504 Z0.215
G3 X-23.499 Y9.494 Z0.201 R0.5
G1 X-23.545 Y9.484 Z0.193
G3 X-23.625 Y9.46 Z0.178 R0.5
G1 X-23.666 Y9.444 Z0.171
G3 X-23.741 Y9.406 Z0.156 R0.5
G1 X-23.781 Y9.382 Z0.148
G3 X-23.849 Y9.332 Z0.133 R0.5
G1 X-23.882 Y9.304 Z0.125
G3 X-23.94 Y9.244 Z0.11 R0.5
G1 X-23.97 Y9.208 Z0.102
G3 X-24.011 Y9.149 Z0.089 R0.5
G1 X-24.027 Y9.124 Z0.084
G3 X-24.066 Y9.041 Z0.068 R0.5
X-24.172 Y8.755 Z0.014 R25.709
X-24.198 Y8.649 Z-0.005 R0.5
G1 X-24.204 Y8.603 Z-0.013
G3 X-24.208 Y8.52 Z-0.028 R0.5
G1 X-24.206 Y8.477 Z-0.036
G3 X-24.196 Y8.392 Z-0.051 R0.5
G1 X-24.186 Y8.347 Z-0.059
G3 X-24.162 Y8.267 Z-0.074 R0.5
G1 X-24.146 Y8.226 Z-0.081
G3 X-24.109 Y8.15 Z-0.096 R0.5
G1 X-24.084 Y8.11 Z-0.105
G3 X-24.035 Y8.043 Z-0.119 R0.5
G1 X-24.007 Y8.01 Z-0.127
G3 X-23.947 Y7.951 Z-0.142 R0.5
G1 X-23.909 Y7.919 Z-0.15
G3 X-23.882 Y7.899 Z-0.156 R0.5
G1 X-23.767 Y7.817 Z-0.181
X-23.678 Y7.748 Z-0.201
X-23.71 Y7.65 Z-0.219
X-23.74 Y7.648 Z-0.225
X-23.746 Z-0.226
X-23.817 Y7.646 Z-0.238
X-23.878 Z-0.249
X-23.936 Y7.647 Z-0.259
G3 X-23.948 Z-0.261 R0.5
G1 X-23.999 Y7.646 Z-0.27
G3 X-24.057 Y7.642 Z-0.281 R0.5
G1 X-24.094 Y7.638 Z-0.287
G3 X-24.172 Y7.621 Z-0.301 R0.5
G1 X-24.216 Y7.608 Z-0.309
G3 X-24.295 Y7.577 Z-0.324 R0.5
G1 X-24.333 Y7.558 Z-0.332
G3 X-24.406 Y7.515 Z-0.347 R0.5
G1 X-24.444 Y7.487 Z-0.355
G3 X-24.507 Y7.433 Z-0.37 R0.5
G1 X-24.538 Y7.402 Z-0.377
G3 X-24.592 Y7.336 Z-0.393 R0.5
G1 X-24.619 Y7.298 Z-0.401
G3 X-24.654 Y7.238 Z-0.413 R0.5
G1 X-24.668 Y7.212 Z-0.418
G3 X-24.702 Y7.125 Z-0.435 R0.5
X-24.784 Y6.831 Z-0.489 R25.709
X-24.802 Y6.725 Z-0.507 R0.5
G1 X-24.804 Y6.679 Z-0.516
G3 X-24.801 Y6.593 Z-0.531 R0.5
G1 X-24.796 Y6.55 Z-0.538
G3 X-24.78 Y6.468 Z-0.553 R0.5
G1 X-24.767 Y6.424 Z-0.561
G3 X-24.736 Y6.345 Z-0.576 R0.5
G1 X-24.717 Y6.307 Z-0.584
G3 X-24.674 Y6.234 Z-0.599 R0.5
G1 X-24.647 Y6.196 Z-0.607
G3 X-24.592 Y6.132 Z-0.622 R0.5
G1 X-24.562 Y6.102 Z-0.629
G3 X-24.496 Y6.047 Z-0.644 R0.5
G1 X-24.456 Y6.019 Z-0.653
G3 X-24.428 Y6.001 Z-0.659 R0.5
G1 X-24.308 Y5.928 Z-0.684
X-24.213 Y5.866 Z-0.704
X-24.237 Y5.766 Z-0.722
X-24.267 Y5.762 Z-0.727
X-24.273 Y5.761 Z-0.728
X-24.343 Y5.754 Z-0.741
X-24.405 Y5.749 Z-0.752
X-24.462 Y5.746 Z-0.762
G3 X-24.475 Y5.745 Z-0.764 R0.5
G1 X-24.525 Y5.74 Z-0.773
G3 X-24.582 Y5.731 Z-0.783 R0.5
G1 X-24.619 Y5.724 Z-0.79
G3 X-24.695 Y5.701 Z-0.804 R0.5
G1 X-24.739 Y5.684 Z-0.812
G3 X-24.814 Y5.648 Z-0.827 R0.5
G1 X-24.851 Y5.626 Z-0.834
G3 X-24.921 Y5.576 Z-0.849 R0.5
G1 X-24.956 Y5.546 Z-0.858
G3 X-25.016 Y5.486 Z-0.873 R0.5
G1 X-25.043 Y5.453 Z-0.88
G3 X-25.092 Y5.385 Z-0.895 R0.5
G1 X-25.115 Y5.344 Z-0.903
G3 X-25.146 Y5.282 Z-0.916 R0.5
G1 X-25.157 Y5.254 Z-0.921
G3 X-25.185 Y5.165 Z-0.937 R0.5
X-25.244 Y4.866 Z-0.991 R25.709
X-25.253 Y4.757 Z-1.01 R0.5
G1 X-25.252 Y4.711 Z-1.019
G3 X-25.243 Y4.628 Z-1.033 R0.5
G1 X-25.234 Y4.586 Z-1.041
G3 X-25.211 Y4.504 Z-1.056 R0.5
G1 X-25.194 Y4.46 Z-1.064
G3 X-25.157 Y4.384 Z-1.079 R0.5
G1 X-25.135 Y4.347 Z-1.087
G3 X-25.087 Y4.279 Z-1.101 R0.5
G1 X-25.057 Y4.243 Z-1.11
G3 X-24.997 Y4.184 Z-1.124 R0.5
G1 X-24.964 Y4.156 Z-1.132
G3 X-24.896 Y4.107 Z-1.147 R0.5
G1 X-24.853 Y4.082 Z-1.156
G3 X-24.823 Y4.066 Z-1.162 R0.5
G1 X-24.698 Y4.003 Z-1.186
X-24.599 Y3.948 Z-1.206
X-24.614 Y3.847 Z-1.224
X-24.644 Y3.84 Z-1.23
X-24.65 Y3.839 Z-1.231
X-24.72 Y3.826 Z-1.243
X-24.781 Y3.817 Z-1.254
X-24.837 Y3.809 Z-1.264
G3 X-24.85 Y3.807 Z-1.267 R0.5
G1 X-24.9 Y3.798 Z-1.275
G3 X-24.956 Y3.785 Z-1.286 R0.5
G1 X-24.992 Y3.774 Z-1.292
G3 X-25.066 Y3.746 Z-1.306 R0.5
G1 X-25.108 Y3.726 Z-1.314
G3 X-25.181 Y3.683 Z-1.329 R0.5
G1 X-25.217 Y3.658 Z-1.337
G3 X-25.281 Y3.604 Z-1.352 R0.5
G1 X-25.314 Y3.571 Z-1.36
G3 X-25.368 Y3.507 Z-1.375 R0.5
G1 X-25.394 Y3.472 Z-1.383
G3 X-25.437 Y3.4 Z-1.397 R0.5
G1 X-25.457 Y3.358 Z-1.406
G3 X-25.484 Y3.291 Z-1.418 R0.5
G1 X-25.493 Y3.263 Z-1.424
G3 X-25.512 Y3.173 Z-1.44 R0.5
X-25.548 Y2.87 Z-1.494 R25.709
Y2.762 Z-1.513 R0.5
G1 X-25.543 Y2.715 Z-1.521
G3 X-25.528 Y2.633 Z-1.536 R0.5
G1 X-25.516 Y2.591 Z-1.543
G3 X-25.487 Y2.513 Z-1.558 R0.5
G1 X-25.467 Y2.471 Z-1.566
G3 X-25.424 Y2.397 Z-1.581 R0.5
G1 X-25.399 Y2.362 Z-1.589
G3 X-25.345 Y2.297 Z-1.604 R0.5
G1 X-25.313 Y2.264 Z-1.612
G3 X-25.249 Y2.209 Z-1.627 R0.5
G1 X-25.214 Y2.184 Z-1.635
G3 X-25.141 Y2.141 Z-1.65 R0.5
G1 X-25.097 Y2.119 Z-1.658
G3 X-25.066 Y2.105 Z-1.664 R0.5
G1 X-24.936 Y2.053 Z-1.689
X-24.832 Y2.006 Z-1.709
X-24.84 Y1.904 Z-1.727
X-24.87 Y1.895 Z-1.732
X-24.875 Y1.893 Z-1.733
X-24.944 Y1.875 Z-1.746
X-25.004 Y1.861 Z-1.757
X-25.06 Y1.848 Z-1.767
G3 X-25.072 Y1.845 Z-1.769 R0.5
G1 X-25.121 Y1.833 Z-1.778
G3 X-25.176 Y1.815 Z-1.788 R0.5
G1 X-25.211 Y1.802 Z-1.795
G3 X-25.283 Y1.768 Z-1.809 R0.5
G1 X-25.323 Y1.744 Z-1.817
G3 X-25.392 Y1.697 Z-1.832 R0.5
G1 X-25.425 Y1.669 Z-1.84
G3 X-25.486 Y1.61 Z-1.854 R0.5
G1 X-25.516 Y1.574 Z-1.863
G3 X-25.566 Y1.506 Z-1.878 R0.5
G1 X-25.588 Y1.469 Z-1.885
G3 X-25.625 Y1.393 Z-1.9 R0.5
G1 X-25.642 Y1.35 Z-1.908
G3 X-25.663 Y1.282 Z-1.921 R0.5
G1 X-25.67 Y1.253 Z-1.926
G3 X-25.682 Y1.162 Z-1.942 R0.5
X-25.694 Y0.857 Z-1.996 R25.709
X-25.695 Y0.835 Z-2. R0.5
X-25.686 Y0.749 R0.5 F200.
G1 X-25.678 Y0.703
G3 X-25.656 Y0.622 R0.5
G1 X-25.641 Y0.581
G3 X-25.605 Y0.505 R0.5
G1 X-25.582 Y0.464
G3 X-25.534 Y0.395 R0.5
G1 X-25.506 Y0.362
G3 X-25.448 Y0.302 R0.5
G1 X-25.412 Y0.271
G3 X-25.344 Y0.221 R0.5
G1 X-25.307 Y0.199
G3 X-25.232 Y0.162 R0.5
G1 X-25.186 Y0.144
G3 X-25.154 Y0.132 R0.5
G1 X-25.02 Y0.09
X-24.913 Y0.052
Y-0.051
X-24.941 Y-0.062
X-24.947 Y-0.064
X-25.014 Y-0.088
X-25.073 Y-0.107
X-25.127 Y-0.124
G3 X-25.139 Y-0.128 R0.5
G1 X-25.187 Y-0.144
G3 X-25.241 Y-0.166 R0.5
G1 X-25.275 Y-0.182
G3 X-25.344 Y-0.221 R0.5
G1 X-25.382 Y-0.248
G3 X-25.447 Y-0.301 R0.5
G1 X-25.478 Y-0.331
G3 X-25.534 Y-0.395 R0.5
G1 X-25.561 Y-0.433
G3 X-25.605 Y-0.504 R0.5
G1 X-25.624 Y-0.543
G3 X-25.656 Y-0.622 R0.5
G1 X-25.669 Y-0.667
G3 X-25.684 Y-0.735 R0.5
G1 X-25.689 Y-0.764
G3 X-25.694 Y-0.857 R0.5
X-25.682 Y-1.162 R25.709
X-25.666 Y-1.269 R0.5
G1 X-25.654 Y-1.314
G3 X-25.625 Y-1.392 R0.5
G1 X-25.607 Y-1.432
G3 X-25.566 Y-1.506 R0.5
G1 X-25.539 Y-1.544
G3 X-25.486 Y-1.609 R0.5
G1 X-25.456 Y-1.64
G3 X-25.393 Y-1.696 R0.5
G1 X-25.355 Y-1.724
G3 X-25.283 Y-1.768 R0.5
G1 X-25.245 Y-1.787
G3 X-25.166 Y-1.818 R0.5
G1 X-25.119 Y-1.833
G3 X-25.087 Y-1.842 R0.5
G1 X-24.95 Y-1.873
X-24.841 Y-1.903
X-24.832 Y-2.005
X-24.86 Y-2.019
X-24.865 Y-2.022
X-24.93 Y-2.05
X-24.987 Y-2.074
X-25.04 Y-2.095
G3 X-25.052 Y-2.1 R0.5
G1 X-25.099 Y-2.12
G3 X-25.15 Y-2.146 R0.5
G1 X-25.183 Y-2.164
G3 X-25.248 Y-2.209 R0.5
G1 X-25.284 Y-2.239
G3 X-25.345 Y-2.297 R0.5
G1 X-25.374 Y-2.329
G3 X-25.424 Y-2.397 R0.5
G1 X-25.448 Y-2.437
G3 X-25.486 Y-2.512 R0.5
G1 X-25.503 Y-2.552
G3 X-25.527 Y-2.632 R0.5
G1 X-25.537 Y-2.677
G3 X-25.548 Y-2.749 R0.5
G1 X-25.55 Y-2.779
G3 X-25.548 Y-2.87 R0.5
X-25.512 Y-3.173 R25.709
X-25.487 Y-3.279 R0.5
G1 X-25.472 Y-3.323
G3 X-25.437 Y-3.399 R0.5
G1 X-25.416 Y-3.436
G3 X-25.368 Y-3.507 R0.5
G1 X-25.339 Y-3.544
G3 X-25.281 Y-3.604 R0.5
G1 X-25.249 Y-3.633
G3 X-25.182 Y-3.683 R0.5
G1 X-25.142 Y-3.708
G3 X-25.067 Y-3.746 R0.5
G1 X-25.027 Y-3.762
G3 X-24.946 Y-3.787 R0.5
G1 X-24.898 Y-3.798
G3 X-24.865 Y-3.804 R0.5
G1 X-24.726 Y-3.825
X-24.615 Y-3.846
X-24.599 Y-3.948
X-24.624 Y-3.963
X-24.629 Y-3.966
X-24.692 Y-4.
X-24.747 Y-4.028
X-24.799 Y-4.053
G3 X-24.81 Y-4.059 R0.5
G1 X-24.855 Y-4.082
G3 X-24.904 Y-4.112 R0.5
G1 X-24.935 Y-4.133
G3 X-24.997 Y-4.183 R0.5
G1 X-25.031 Y-4.215
G3 X-25.087 Y-4.278 R0.5
G1 X-25.113 Y-4.313
G3 X-25.157 Y-4.384 R0.5
G1 X-25.179 Y-4.426
G3 X-25.211 Y-4.504 R0.5
G1 X-25.224 Y-4.545
G3 X-25.242 Y-4.628 R0.5
G1 X-25.249 Y-4.674
G3 X-25.253 Y-4.743 R0.5
G1 Y-4.773
G3 X-25.244 Y-4.866 R0.5
X-25.185 Y-5.165 R25.709
X-25.151 Y-5.268 R0.5
G1 X-25.132 Y-5.311
G3 X-25.092 Y-5.385 R0.5
G1 X-25.068 Y-5.421
G3 X-25.015 Y-5.486 R0.5
G1 X-24.983 Y-5.52
G3 X-24.921 Y-5.576 R0.5
G1 X-24.886 Y-5.602
G3 X-24.815 Y-5.648 R0.5
G1 X-24.773 Y-5.669
G3 X-24.696 Y-5.701 R0.5
G1 X-24.655 Y-5.714
G3 X-24.572 Y-5.733 R0.5
G1 X-24.523 Y-5.74
G3 X-24.49 Y-5.743 R0.5
G1 X-24.349 Y-5.753
X-24.237 Y-5.766
X-24.213 Y-5.865
X-24.238 Y-5.883
X-24.242 Y-5.886
X-24.302 Y-5.925
X-24.355 Y-5.957
X-24.404 Y-5.986
G3 X-24.415 Y-5.993 R0.5
G1 X-24.458 Y-6.02
G3 X-24.505 Y-6.054 R0.5
G1 X-24.534 Y-6.077
G3 X-24.592 Y-6.131 R0.5
G1 X-24.623 Y-6.166
G3 X-24.674 Y-6.233 R0.5
G1 X-24.697 Y-6.27
G3 X-24.736 Y-6.344 R0.5
G1 X-24.754 Y-6.387
G3 X-24.78 Y-6.468 R0.5
G1 X-24.789 Y-6.511
G3 X-24.801 Y-6.594 R0.5
G1 X-24.804 Y-6.64
G3 X-24.803 Y-6.712 R0.5
G1 X-24.801 Y-6.741
G3 X-24.784 Y-6.831 R0.5
X-24.702 Y-7.125 R25.709
X-24.66 Y-7.226 R0.5
G1 X-24.638 Y-7.267
G3 X-24.592 Y-7.336 R0.5
G1 X-24.565 Y-7.37
G3 X-24.508 Y-7.432 R0.5
G1 X-24.473 Y-7.464
G3 X-24.406 Y-7.515 R0.5
G1 X-24.37 Y-7.538
G3 X-24.295 Y-7.577 R0.5
G1 X-24.252 Y-7.595
G3 X-24.172 Y-7.621 R0.5
G1 X-24.13 Y-7.631
G3 X-24.047 Y-7.643 R0.5
G1 X-23.997 Y-7.646
G3 X-23.963 Y-7.647 R0.5
G1 X-23.823 Y-7.646
X-23.71 Y-7.649
X-23.678 Y-7.747
X-23.702 Y-7.767
X-23.706 Y-7.77
X-23.762 Y-7.813
X-23.812 Y-7.849
X-23.859 Y-7.882
G3 X-23.869 Y-7.89 R0.5
G1 X-23.91 Y-7.92
G3 X-23.955 Y-7.958 R0.5
G1 X-23.982 Y-7.984
G3 X-24.035 Y-8.042 R0.5
G1 X-24.063 Y-8.079
G3 X-24.108 Y-8.149 R0.5
G1 X-24.129 Y-8.188
G3 X-24.162 Y-8.266 R0.5
G1 X-24.176 Y-8.311
G3 X-24.196 Y-8.392 R0.5
G1 X-24.202 Y-8.435
G3 X-24.208 Y-8.52 R0.5
G1 X-24.207 Y-8.566
G3 X-24.2 Y-8.635 R0.5
G1 X-24.196 Y-8.664
G3 X-24.172 Y-8.755 R0.5
X-24.066 Y-9.041 R25.709
X-24.018 Y-9.138 R0.5
G1 X-23.992 Y-9.177
G3 X-23.941 Y-9.243 R0.5
G1 X-23.911 Y-9.275
G3 X-23.849 Y-9.332 R0.5
G1 X-23.812 Y-9.361
G3 X-23.741 Y-9.406 R0.5
G1 X-23.703 Y-9.427
G3 X-23.626 Y-9.46 R0.5
G1 X-23.581 Y-9.474
G3 X-23.5 Y-9.494 R0.5
G1 X-23.457 Y-9.501
G3 X-23.373 Y-9.506 R0.5
G1 X-23.324 Y-9.505
G3 X-23.29 Y-9.504 R0.5
G1 X-23.15 Y-9.492
X-23.037 Y-9.486
X-22.997 Y-9.581
X-23.019 Y-9.603
X-23.023 Y-9.606
X-23.076 Y-9.654
X-23.123 Y-9.693
X-23.167 Y-9.73
G3 X-23.177 Y-9.739 R0.5
G1 X-23.215 Y-9.772
G3 X-23.256 Y-9.812 R0.5
G1 X-23.281 Y-9.84
G3 X-23.33 Y-9.903 R0.5
G1 X-23.355 Y-9.942
G3 X-23.395 Y-10.016 R0.5
G1 X-23.412 Y-10.056
G3 X-23.439 Y-10.136 R0.5
G1 X-23.45 Y-10.182
G3 X-23.463 Y-10.265 R0.5
G1 X-23.466 Y-10.308
G3 X-23.465 Y-10.392 R0.5
G1 X-23.46 Y-10.439
G3 X-23.448 Y-10.508 R0.5
G1 X-23.441 Y-10.537
G3 X-23.411 Y-10.624 R0.5
X-23.283 Y-10.902 R25.709
X-23.227 Y-10.994 R0.5
G1 X-23.198 Y-11.031
G3 X-23.142 Y-11.093 R0.5
G1 X-23.11 Y-11.123
G3 X-23.044 Y-11.174 R0.5
G1 X-23.005 Y-11.2
G3 X-22.931 Y-11.24 R0.5
G1 X-22.891 Y-11.257
G3 X-22.81 Y-11.284 R0.5
G1 X-22.765 Y-11.296
G3 X-22.683 Y-11.309 R0.5
G1 X-22.64 Y-11.312
G3 X-22.555 Y-11.311 R0.5
G1 X-22.506 Y-11.306
G3 X-22.472 Y-11.302 R0.5
G1 X-22.333 Y-11.279
X-22.221 Y-11.264
X-22.175 Y-11.356
X-22.195 Y-11.379
X-22.199 Y-11.383
X-22.248 Y-11.434
X-22.291 Y-11.478
X-22.332 Y-11.518
G3 X-22.342 Y-11.527 R0.5
G1 X-22.377 Y-11.564
G3 X-22.415 Y-11.607 R0.5
G1 X-22.438 Y-11.637
G3 X-22.48 Y-11.702 R0.5
G1 X-22.503 Y-11.743
G3 X-22.537 Y-11.821 R0.5
G1 X-22.551 Y-11.862
G3 X-22.571 Y-11.944 R0.5
G1 X-22.579 Y-11.99
G3 X-22.585 Y-12.074 R0.5
G1 Y-12.118
G3 X-22.577 Y-12.201 R0.5
G1 X-22.569 Y-12.247
G3 X-22.551 Y-12.316 R0.5
G1 X-22.542 Y-12.344
G3 X-22.505 Y-12.428 R0.5
X-22.356 Y-12.695 R25.709
X-22.292 Y-12.783 R0.5
G1 X-22.261 Y-12.817
G3 X-22.2 Y-12.874 R0.5
G1 X-22.167 Y-12.901
G3 X-22.095 Y-12.948 R0.5
G1 X-22.054 Y-12.971
G3 X-21.978 Y-13.004 R0.5
G1 X-21.937 Y-13.018
G3 X-21.856 Y-13.039 R0.5
G1 X-21.81 Y-13.047
G3 X-21.725 Y-13.053 R0.5
G1 X-21.681
G3 X-21.598 Y-13.046 R0.5
G1 X-21.55 Y-13.037
G3 X-21.516 Y-13.03 R0.5
G1 X-21.38 Y-12.996
X-21.269 Y-12.973
X-21.215 Y-13.061
X-21.233 Y-13.084
X-21.236 Y-13.089
X-21.282 Y-13.145
X-21.322 Y-13.191
X-21.36 Y-13.235
G3 X-21.368 Y-13.244 R0.5
G1 X-21.4 Y-13.283
G3 X-21.435 Y-13.329 R0.5
G1 X-21.455 Y-13.36
G3 X-21.494 Y-13.431 R0.5
G1 X-21.513 Y-13.474
G3 X-21.54 Y-13.552 R0.5
G1 X-21.551 Y-13.594
G3 X-21.565 Y-13.678 R0.5
G1 X-21.568 Y-13.724
G3 Y-13.809 R0.5
G1 X-21.564 Y-13.852
G3 X-21.55 Y-13.935 R0.5
G1 X-21.538 Y-13.98
G3 X-21.515 Y-14.048 R0.5
G1 X-21.504 Y-14.075
G3 X-21.46 Y-14.156 R0.5
X-21.291 Y-14.41 R25.709
X-21.221 Y-14.492 R0.5
G1 X-21.187 Y-14.524
G3 X-21.122 Y-14.577 R0.5
G1 X-21.086 Y-14.601
G3 X-21.012 Y-14.642 R0.5
G1 X-20.969 Y-14.661
G3 X-20.889 Y-14.689 R0.5
G1 X-20.847 Y-14.7
G3 X-20.764 Y-14.714 R0.5
G1 X-20.718 Y-14.718
G3 X-20.634 R0.5
G1 X-20.591 Y-14.714
G3 X-20.508 Y-14.7 R0.5
G1 X-20.46 Y-14.688
G3 X-20.428 Y-14.678 R0.5
G1 X-20.294 Y-14.634
X-20.186 Y-14.602
X-20.125 Y-14.685
X-20.141 Y-14.71
X-20.144 Y-14.715
X-20.185 Y-14.774
X-20.222 Y-14.824
X-20.256 Y-14.87
G3 X-20.263 Y-14.88 R0.5
G1 X-20.292 Y-14.921
G3 X-20.323 Y-14.97 R0.5
G1 X-20.341 Y-15.003
G3 X-20.373 Y-15.075 R0.5
G1 X-20.389 Y-15.119
G3 X-20.41 Y-15.201 R0.5
G1 X-20.418 Y-15.244
G3 X-20.425 Y-15.328 R0.5
G1 Y-15.375
G3 X-20.418 Y-15.458 R0.5
G1 X-20.411 Y-15.5
G3 X-20.39 Y-15.583 R0.5
G1 X-20.375 Y-15.627
G3 X-20.346 Y-15.693 R0.5
G1 X-20.333 Y-15.719
G3 X-20.284 Y-15.796 R0.5
X-20.095 Y-16.036 R25.709
X-20.018 Y-16.112 R0.5
G1 X-19.982 Y-16.142
G3 X-19.913 Y-16.189 R0.5
G1 X-19.875 Y-16.21
G3 X-19.797 Y-16.246 R0.5
G1 X-19.753 Y-16.261
G3 X-19.674 Y-16.282 R0.5
G1 X-19.631 Y-16.29
G3 X-19.545 Y-16.298 R0.5
G1 X-19.499
G3 X-19.416 Y-16.291 R0.5
G1 X-19.373 Y-16.284
G3 X-19.291 Y-16.264 R0.5
G1 X-19.245 Y-16.248
G3 X-19.213 Y-16.235 R0.5
G1 X-19.084 Y-16.181
X-18.978 Y-16.141
X-18.911 Y-16.219
X-18.925 Y-16.246
X-18.928 Y-16.251
X-18.964 Y-16.312
X-18.996 Y-16.365
X-19.027 Y-16.413
G3 X-19.033 Y-16.424 R0.5
G1 X-19.059 Y-16.467
G3 X-19.086 Y-16.519 R0.5
G1 X-19.101 Y-16.553
G3 X-19.128 Y-16.627 R0.5
G1 X-19.14 Y-16.672
G3 X-19.155 Y-16.756 R0.5
G1 X-19.159 Y-16.799
G3 Y-16.883 R0.5
G1 X-19.156 Y-16.929
G3 X-19.142 Y-17.013 R0.5
G1 X-19.132 Y-17.055
G3 X-19.105 Y-17.135 R0.5
G1 X-19.086 Y-17.177
G3 X-19.053 Y-17.24 R0.5
G1 X-19.038 Y-17.265
G3 X-18.982 Y-17.339 R0.5
X-18.775 Y-17.563 R25.709
X-18.692 Y-17.634 R0.5
G1 X-18.654 Y-17.66
G3 X-18.581 Y-17.701 R0.5
G1 X-18.542 Y-17.719
G3 X-18.463 Y-17.748 R0.5
G1 X-18.418 Y-17.761
G3 X-18.334 Y-17.776 R0.5
G1 X-18.291 Y-17.78
G3 X-18.207 Y-17.781 R0.5
G1 X-18.161 Y-17.777
G3 X-18.078 Y-17.764 R0.5
G1 X-18.036 Y-17.754
G3 X-17.956 Y-17.727 R0.5
G1 X-17.911 Y-17.707
G3 X-17.88 Y-17.693 R0.5
G1 X-17.755 Y-17.628
X-17.653 Y-17.58
X-17.58 Y-17.652
X-17.592 Y-17.68
X-17.594 Y-17.685
X-17.625 Y-17.75
X-17.654 Y-17.805
X-17.68 Y-17.855
G3 X-17.686 Y-17.867 R0.5
G1 X-17.708 Y-17.912
G3 X-17.731 Y-17.965 R0.5
G1 X-17.744 Y-18.001
G3 X-17.764 Y-18.077 R0.5
G1 X-17.773 Y-18.123
G3 X-17.781 Y-18.207 R0.5
G1 X-17.782 Y-18.25
G3 X-17.776 Y-18.334 R0.5
G1 X-17.769 Y-18.38
G3 X-17.748 Y-18.463 R0.5
G1 X-17.735 Y-18.504
G3 X-17.702 Y-18.58 R0.5
G1 X-17.68 Y-18.621
G3 X-17.642 Y-18.682 R0.5
G1 X-17.624 Y-18.706
G3 X-17.563 Y-18.775 R0.5
X-17.339 Y-18.982 R25.709
X-17.252 Y-19.045 R0.5
G1 X-17.211 Y-19.069
G3 X-17.134 Y-19.105 R0.5
G1 X-17.094 Y-19.12
G3 X-17.014 Y-19.142 R0.5
G1 X-16.968 Y-19.151
G3 X-16.883 Y-19.16 R0.5
G1 X-16.839
G3 X-16.756 Y-19.155 R0.5
G1 X-16.71 Y-19.148
G3 X-16.628 Y-19.128 R0.5
G1 X-16.587 Y-19.114
G3 X-16.51 Y-19.081 R0.5
G1 X-16.466 Y-19.058
G3 X-16.437 Y-19.041 R0.5
G1 X-16.317 Y-18.967
X-16.219 Y-18.911
X-16.141 Y-18.977
X-16.151 Y-19.006
X-16.153 Y-19.012
X-16.178 Y-19.078
X-16.202 Y-19.135
X-16.225 Y-19.187
G3 X-16.23 Y-19.199 R0.5
G1 X-16.248 Y-19.246
G3 X-16.267 Y-19.301 R0.5
G1 X-16.277 Y-19.337
G3 X-16.291 Y-19.415 R0.5
G1 X-16.296 Y-19.461
G3 X-16.298 Y-19.546 R0.5
G1 X-16.295 Y-19.589
G3 X-16.283 Y-19.672 R0.5
G1 X-16.272 Y-19.717
G3 X-16.245 Y-19.798 R0.5
G1 X-16.228 Y-19.838
G3 X-16.189 Y-19.912 R0.5
G1 X-16.164 Y-19.951
G3 X-16.121 Y-20.009 R0.5
G1 X-16.102 Y-20.031
G3 X-16.036 Y-20.095 R0.5
X-15.796 Y-20.284 R25.709
X-15.704 Y-20.34 R0.5
G1 X-15.662 Y-20.36
G3 X-15.583 Y-20.39 R0.5
G1 X-15.541 Y-20.402
G3 X-15.459 Y-20.418 R0.5
G1 X-15.412 Y-20.423
G3 X-15.328 Y-20.425 R0.5
G1 X-15.285 Y-20.422
G3 X-15.201 Y-20.41 R0.5
G1 X-15.156 Y-20.399
G3 X-15.077 Y-20.374 R0.5
G1 X-15.037 Y-20.357
G3 X-14.961 Y-20.317 R0.5
G1 X-14.92 Y-20.291
G3 X-14.892 Y-20.272 R0.5
G1 X-14.779 Y-20.189
X-14.685 Y-20.125
X-14.602 Y-20.185
X-14.61 Y-20.214
X-14.611 Y-20.22
X-14.632 Y-20.288
X-14.651 Y-20.347
X-14.669 Y-20.401
G3 X-14.673 Y-20.413 R0.5
G1 X-14.688 Y-20.462
G3 X-14.702 Y-20.517 R0.5
G1 X-14.709 Y-20.554
G3 X-14.718 Y-20.634 R0.5
G1 X-14.719 Y-20.68
G3 X-14.714 Y-20.764 R0.5
G1 X-14.708 Y-20.806
G3 X-14.689 Y-20.889 R0.5
G1 X-14.674 Y-20.934
G3 X-14.642 Y-21.011 R0.5
G1 X-14.622 Y-21.05
G3 X-14.577 Y-21.121 R0.5
G1 X-14.549 Y-21.158
G3 X-14.501 Y-21.212 R0.5
G1 X-14.48 Y-21.233
G3 X-14.41 Y-21.291 R0.5
X-14.156 Y-21.46 R25.709
X-14.06 Y-21.51 R0.5
G1 X-14.017 Y-21.526
G3 X-13.935 Y-21.55 R0.5
G1 X-13.893 Y-21.559
G3 X-13.808 Y-21.568 R0.5
G1 X-13.762 Y-21.569
G3 X-13.678 Y-21.565 R0.5
G1 X-13.636 Y-21.559
G3 X-13.553 Y-21.54 R0.5
G1 X-13.509 Y-21.526
G3 X-13.431 Y-21.494 R0.5
G1 X-13.393 Y-21.474
G3 X-13.322 Y-21.429 R0.5
G1 X-13.283 Y-21.4
G3 X-13.255 Y-21.378 R0.5
G1 X-13.149 Y-21.286
X-13.061 Y-21.215
X-12.974 Y-21.269
X-12.979 Y-21.299
X-12.98 Y-21.304
X-12.995 Y-21.374
X-13.009 Y-21.434
X-13.024 Y-21.49
G3 X-13.026 Y-21.501 R0.5
G1 X-13.038 Y-21.551
G3 X-13.047 Y-21.608 R0.5
G1 X-13.051 Y-21.645
G3 X-13.053 Y-21.725 R0.5
G1 X-13.051 Y-21.772
G3 X-13.039 Y-21.855 R0.5
G1 X-13.03 Y-21.897
G3 X-13.005 Y-21.977 R0.5
G1 X-12.987 Y-22.02
G3 X-12.949 Y-22.095 R0.5
G1 X-12.926 Y-22.131
G3 X-12.874 Y-22.2 R0.5
G1 X-12.843 Y-22.235
G3 X-12.793 Y-22.284 R0.5
G1 X-12.77 Y-22.303
G3 X-12.695 Y-22.356 R0.5
X-12.428 Y-22.505 R25.709
X-12.329 Y-22.546 R0.5
G1 X-12.285 Y-22.56
G3 X-12.201 Y-22.577 R0.5
G1 X-12.158 Y-22.582
G3 X-12.074 Y-22.585 R0.5
G1 X-12.028 Y-22.583
G3 X-11.944 Y-22.571 R0.5
G1 X-11.901 Y-22.562
G3 X-11.822 Y-22.537 R0.5
G1 X-11.778 Y-22.519
G3 X-11.704 Y-22.482 R0.5
G1 X-11.667 Y-22.459
G3 X-11.599 Y-22.408 R0.5
G1 X-11.562 Y-22.375
G3 X-11.538 Y-22.352 R0.5
G1 X-11.439 Y-22.252
X-11.356 Y-22.174
X-11.265 Y-22.221
X-11.268 Y-22.252
Y-22.257
X-11.278 Y-22.328
X-11.288 Y-22.388
X-11.297 Y-22.444
G3 X-11.299 Y-22.457 R0.5
G1 X-11.307 Y-22.507
G3 X-11.312 Y-22.566 R0.5
G1 X-11.313 Y-22.603
G3 X-11.308 Y-22.682 R0.5
G1 X-11.302 Y-22.728
G3 X-11.285 Y-22.809 R0.5
G1 X-11.272 Y-22.851
G3 X-11.24 Y-22.93 R0.5
G1 X-11.219 Y-22.972
G3 X-11.175 Y-23.044 R0.5
G1 X-11.149 Y-23.078
G3 X-11.094 Y-23.141 R0.5
G1 X-11.06 Y-23.173
G3 X-11.005 Y-23.219 R0.5
G1 X-10.981 Y-23.236
G3 X-10.902 Y-23.283 R0.5
X-10.624 Y-23.411 R25.709
X-10.521 Y-23.445 R0.5
G1 X-10.475 Y-23.454
G3 X-10.393 Y-23.465 R0.5
G1 X-10.35 Y-23.466
G3 X-10.266 Y-23.463 R0.5
G1 X-10.219 Y-23.457
G3 X-10.136 Y-23.439 R0.5
G1 X-10.094 Y-23.426
G3 X-10.017 Y-23.395 R0.5
G1 X-9.976 Y-23.374
G3 X-9.903 Y-23.33 R0.5
G1 X-9.869 Y-23.304
G3 X-9.805 Y-23.249 R0.5
G1 X-9.771 Y-23.214
G3 X-9.748 Y-23.189 R0.5
G1 X-9.658 Y-23.081
X-9.582 Y-22.997
X-9.487 Y-23.036
Y-23.067
Y-23.073
X-9.491 Y-23.143
X-9.496 Y-23.205
X-9.501 Y-23.262
G3 X-9.502 Y-23.275 R0.5
G1 X-9.506 Y-23.325
G3 Y-23.383 R0.5
G1 X-9.504 Y-23.42
G3 X-9.494 Y-23.499 R0.5
G1 X-9.484 Y-23.545
G3 X-9.46 Y-23.625 R0.5
G1 X-9.444 Y-23.666
G3 X-9.406 Y-23.741 R0.5
G1 X-9.382 Y-23.781
G3 X-9.332 Y-23.849 R0.5
G1 X-9.304 Y-23.882
G3 X-9.244 Y-23.94 R0.5
G1 X-9.208 Y-23.97
G3 X-9.149 Y-24.011 R0.5
G1 X-9.124 Y-24.027
G3 X-9.041 Y-24.066 R0.5
X-8.755 Y-24.172 R25.709
X-8.649 Y-24.198 R0.5
G1 X-8.603 Y-24.204
G3 X-8.52 Y-24.208 R0.5
G1 X-8.477 Y-24.206
G3 X-8.392 Y-24.196 R0.5
G1 X-8.347 Y-24.186
G3 X-8.267 Y-24.162 R0.5
G1 X-8.226 Y-24.146
G3 X-8.15 Y-24.109 R0.5
G1 X-8.11 Y-24.084
G3 X-8.043 Y-24.035 R0.5
G1 X-8.01 Y-24.007
G3 X-7.951 Y-23.947 R0.5
G1 X-7.919 Y-23.909
G3 X-7.899 Y-23.882 R0.5
G1 X-7.817 Y-23.767
X-7.748 Y-23.678
X-7.65 Y-23.71
X-7.648 Y-23.74
Y-23.746
X-7.646 Y-23.817
Y-23.878
X-7.647 Y-23.936
G3 Y-23.948 R0.5
G1 X-7.646 Y-23.999
G3 X-7.642 Y-24.057 R0.5
G1 X-7.638 Y-24.094
G3 X-7.621 Y-24.172 R0.5
G1 X-7.608 Y-24.216
G3 X-7.577 Y-24.295 R0.5
G1 X-7.558 Y-24.333
G3 X-7.515 Y-24.406 R0.5
G1 X-7.487 Y-24.444
G3 X-7.433 Y-24.507 R0.5
G1 X-7.402 Y-24.538
G3 X-7.336 Y-24.592 R0.5
G1 X-7.298 Y-24.619
G3 X-7.238 Y-24.654 R0.5
G1 X-7.212 Y-24.668
G3 X-7.125 Y-24.702 R0.5
X-6.831 Y-24.784 R25.709
X-6.725 Y-24.802 R0.5
G1 X-6.679 Y-24.804
G3 X-6.593 Y-24.801 R0.5
G1 X-6.55 Y-24.796
G3 X-6.468 Y-24.78 R0.5
G1 X-6.424 Y-24.767
G3 X-6.345 Y-24.736 R0.5
G1 X-6.307 Y-24.717
G3 X-6.234 Y-24.674 R0.5
G1 X-6.196 Y-24.647
G3 X-6.132 Y-24.592 R0.5
G1 X-6.102 Y-24.562
G3 X-6.047 Y-24.496 R0.5
G1 X-6.019 Y-24.456
G3 X-6.001 Y-24.428 R0.5
G1 X-5.928 Y-24.308
X-5.866 Y-24.213
X-5.766 Y-24.237
X-5.762 Y-24.267
X-5.761 Y-24.273
X-5.754 Y-24.343
X-5.749 Y-24.405
X-5.746 Y-24.462
G3 X-5.745 Y-24.475 R0.5
G1 X-5.74 Y-24.525
G3 X-5.731 Y-24.582 R0.5
G1 X-5.724 Y-24.619
G3 X-5.701 Y-24.695 R0.5
G1 X-5.684 Y-24.739
G3 X-5.648 Y-24.814 R0.5
G1 X-5.626 Y-24.851
G3 X-5.576 Y-24.921 R0.5
G1 X-5.546 Y-24.956
G3 X-5.486 Y-25.016 R0.5
G1 X-5.453 Y-25.043
G3 X-5.385 Y-25.092 R0.5
G1 X-5.344 Y-25.115
G3 X-5.282 Y-25.146 R0.5
G1 X-5.254 Y-25.157
G3 X-5.165 Y-25.185 R0.5
X-4.866 Y-25.244 R25.709
X-4.757 Y-25.253 R0.5
G1 X-4.711 Y-25.252
G3 X-4.628 Y-25.243 R0.5
G1 X-4.586 Y-25.234
G3 X-4.504 Y-25.211 R0.5
G1 X-4.46 Y-25.194
G3 X-4.384 Y-25.157 R0.5
G1 X-4.347 Y-25.135
G3 X-4.279 Y-25.087 R0.5
G1 X-4.243 Y-25.057
G3 X-4.184 Y-24.997 R0.5
G1 X-4.156 Y-24.964
G3 X-4.107 Y-24.896 R0.5
G1 X-4.082 Y-24.853
G3 X-4.066 Y-24.823 R0.5
G1 X-4.003 Y-24.698
X-3.948 Y-24.599
X-3.847 Y-24.614
X-3.84 Y-24.644
X-3.839 Y-24.65
X-3.826 Y-24.72
X-3.817 Y-24.781
X-3.809 Y-24.837
G3 X-3.807 Y-24.85 R0.5
G1 X-3.798 Y-24.9
G3 X-3.785 Y-24.956 R0.5
G1 X-3.774 Y-24.992
G3 X-3.746 Y-25.066 R0.5
G1 X-3.726 Y-25.108
G3 X-3.683 Y-25.181 R0.5
G1 X-3.658 Y-25.217
G3 X-3.604 Y-25.281 R0.5
G1 X-3.571 Y-25.314
G3 X-3.507 Y-25.368 R0.5
G1 X-3.472 Y-25.394
G3 X-3.4 Y-25.437 R0.5
G1 X-3.358 Y-25.457
G3 X-3.291 Y-25.484 R0.5
G1 X-3.263 Y-25.493
G3 X-3.173 Y-25.512 R0.5
X-2.87 Y-25.548 R25.709
X-2.762 R0.5
G1 X-2.715 Y-25.543
G3 X-2.633 Y-25.528 R0.5
G1 X-2.591 Y-25.516
G3 X-2.513 Y-25.487 R0.5
G1 X-2.471 Y-25.467
G3 X-2.397 Y-25.424 R0.5
G1 X-2.362 Y-25.399
G3 X-2.297 Y-25.345 R0.5
G1 X-2.264 Y-25.313
G3 X-2.209 Y-25.249 R0.5
G1 X-2.184 Y-25.214
G3 X-2.141 Y-25.141 R0.5
G1 X-2.119 Y-25.097
G3 X-2.105 Y-25.066 R0.5
G1 X-2.053 Y-24.936
X-2.006 Y-24.832
X-1.904 Y-24.84
X-1.895 Y-24.87
X-1.893 Y-24.875
X-1.875 Y-24.944
X-1.861 Y-25.004
X-1.848 Y-25.06
G3 X-1.845 Y-25.072 R0.5
G1 X-1.833 Y-25.121
G3 X-1.815 Y-25.176 R0.5
G1 X-1.802 Y-25.211
G3 X-1.768 Y-25.283 R0.5
G1 X-1.744 Y-25.323
G3 X-1.697 Y-25.392 R0.5
G1 X-1.669 Y-25.425
G3 X-1.61 Y-25.486 R0.5
G1 X-1.574 Y-25.516
G3 X-1.506 Y-25.566 R0.5
G1 X-1.469 Y-25.588
G3 X-1.393 Y-25.625 R0.5
G1 X-1.35 Y-25.642
G3 X-1.282 Y-25.663 R0.5
G1 X-1.253 Y-25.67
G3 X-1.162 Y-25.682 R0.5
X-0.857 Y-25.694 R25.709
X-0.749 Y-25.686 R0.5
G1 X-0.703 Y-25.678
G3 X-0.622 Y-25.656 R0.5
G1 X-0.581 Y-25.641
G3 X-0.505 Y-25.605 R0.5
G1 X-0.464 Y-25.582
G3 X-0.395 Y-25.534 R0.5
G1 X-0.362 Y-25.506
G3 X-0.302 Y-25.448 R0.5
G1 X-0.271 Y-25.412
G3 X-0.221 Y-25.344 R0.5
G1 X-0.199 Y-25.307
G3 X-0.162 Y-25.232 R0.5
G1 X-0.144 Y-25.186
G3 X-0.132 Y-25.154 R0.5
G1 X-0.09 Y-25.02
X-0.052 Y-24.913
X0.051
X0.062 Y-24.941
X0.064 Y-24.947
X0.088 Y-25.014
X0.107 Y-25.073
X0.124 Y-25.127
G3 X0.128 Y-25.139 R0.5
G1 X0.144 Y-25.187
G3 X0.166 Y-25.241 R0.5
G1 X0.182 Y-25.275
G3 X0.221 Y-25.344 R0.5
G1 X0.248 Y-25.382
G3 X0.301 Y-25.447 R0.5
G1 X0.331 Y-25.478
G3 X0.395 Y-25.534 R0.5
G1 X0.433 Y-25.561
G3 X0.504 Y-25.605 R0.5
G1 X0.543 Y-25.624
G3 X0.622 Y-25.656 R0.5
G1 X0.667 Y-25.669
G3 X0.735 Y-25.684 R0.5
G1 X0.764 Y-25.689
G3 X0.857 Y-25.694 R0.5
X1.162 Y-25.682 R25.709
X1.269 Y-25.666 R0.5
G1 X1.314 Y-25.654
G3 X1.392 Y-25.625 R0.5
G1 X1.432 Y-25.607
G3 X1.506 Y-25.566 R0.5
G1 X1.544 Y-25.539
G3 X1.609 Y-25.486 R0.5
G1 X1.64 Y-25.456
G3 X1.696 Y-25.393 R0.5
G1 X1.724 Y-25.355
G3 X1.768 Y-25.283 R0.5
G1 X1.787 Y-25.245
G3 X1.818 Y-25.166 R0.5
G1 X1.833 Y-25.119
G3 X1.842 Y-25.087 R0.5
G1 X1.873 Y-24.95
X1.903 Y-24.841
X2.005 Y-24.832
X2.019 Y-24.86
X2.022 Y-24.865
X2.05 Y-24.93
X2.074 Y-24.987
X2.095 Y-25.04
G3 X2.1 Y-25.052 R0.5
G1 X2.12 Y-25.099
G3 X2.146 Y-25.15 R0.5
G1 X2.164 Y-25.183
G3 X2.209 Y-25.248 R0.5
G1 X2.239 Y-25.284
G3 X2.297 Y-25.345 R0.5
G1 X2.329 Y-25.374
G3 X2.397 Y-25.424 R0.5
G1 X2.437 Y-25.448
G3 X2.512 Y-25.486 R0.5
G1 X2.552 Y-25.503
G3 X2.632 Y-25.527 R0.5
G1 X2.677 Y-25.537
G3 X2.749 Y-25.548 R0.5
G1 X2.779 Y-25.55
G3 X2.87 Y-25.548 R0.5
X3.173 Y-25.512 R25.709
X3.279 Y-25.487 R0.5
G1 X3.323 Y-25.472
G3 X3.399 Y-25.437 R0.5
G1 X3.436 Y-25.416
G3 X3.507 Y-25.368 R0.5
G1 X3.544 Y-25.339
G3 X3.604 Y-25.281 R0.5
G1 X3.633 Y-25.249
G3 X3.683 Y-25.182 R0.5
G1 X3.708 Y-25.142
G3 X3.746 Y-25.067 R0.5
G1 X3.762 Y-25.027
G3 X3.787 Y-24.946 R0.5
G1 X3.798 Y-24.898
G3 X3.804 Y-24.865 R0.5
G1 X3.825 Y-24.726
X3.846 Y-24.615
X3.948 Y-24.599
X3.963 Y-24.624
X3.966 Y-24.629
X4. Y-24.692
X4.028 Y-24.747
X4.053 Y-24.799
G3 X4.059 Y-24.81 R0.5
G1 X4.082 Y-24.855
G3 X4.112 Y-24.904 R0.5
G1 X4.133 Y-24.935
G3 X4.183 Y-24.997 R0.5
G1 X4.215 Y-25.031
G3 X4.278 Y-25.087 R0.5
G1 X4.313 Y-25.113
G3 X4.384 Y-25.157 R0.5
G1 X4.426 Y-25.179
G3 X4.504 Y-25.211 R0.5
G1 X4.545 Y-25.224
G3 X4.628 Y-25.242 R0.5
G1 X4.674 Y-25.249
G3 X4.743 Y-25.253 R0.5
G1 X4.773
G3 X4.866 Y-25.244 R0.5
X5.165 Y-25.185 R25.709
X5.268 Y-25.151 R0.5
G1 X5.311 Y-25.132
G3 X5.385 Y-25.092 R0.5
G1 X5.421 Y-25.068
G3 X5.486 Y-25.015 R0.5
G1 X5.52 Y-24.983
G3 X5.576 Y-24.921 R0.5
G1 X5.602 Y-24.886
G3 X5.648 Y-24.815 R0.5
G1 X5.669 Y-24.773
G3 X5.701 Y-24.696 R0.5
G1 X5.714 Y-24.655
G3 X5.733 Y-24.572 R0.5
G1 X5.74 Y-24.523
G3 X5.743 Y-24.49 R0.5
G1 X5.753 Y-24.349
X5.766 Y-24.237
X5.865 Y-24.213
X5.883 Y-24.238
X5.886 Y-24.242
X5.925 Y-24.302
X5.957 Y-24.355
X5.986 Y-24.404
G3 X5.993 Y-24.415 R0.5
G1 X6.02 Y-24.458
G3 X6.054 Y-24.505 R0.5
G1 X6.077 Y-24.534
G3 X6.131 Y-24.592 R0.5
G1 X6.166 Y-24.623
G3 X6.233 Y-24.674 R0.5
G1 X6.27 Y-24.697
G3 X6.344 Y-24.736 R0.5
G1 X6.387 Y-24.754
G3 X6.468 Y-24.78 R0.5
G1 X6.511 Y-24.789
G3 X6.594 Y-24.801 R0.5
G1 X6.64 Y-24.804
G3 X6.712 Y-24.803 R0.5
G1 X6.741 Y-24.801
G3 X6.831 Y-24.784 R0.5
X7.125 Y-24.702 R25.709
X7.226 Y-24.66 R0.5
G1 X7.267 Y-24.638
G3 X7.336 Y-24.592 R0.5
G1 X7.37 Y-24.565
G3 X7.432 Y-24.508 R0.5
G1 X7.464 Y-24.473
G3 X7.515 Y-24.406 R0.5
G1 X7.538 Y-24.37
G3 X7.577 Y-24.295 R0.5
G1 X7.595 Y-24.252
G3 X7.621 Y-24.172 R0.5
G1 X7.631 Y-24.13
G3 X7.643 Y-24.047 R0.5
G1 X7.646 Y-23.997
G3 X7.647 Y-23.963 R0.5
G1 X7.646 Y-23.823
X7.649 Y-23.71
X7.747 Y-23.678
X7.767 Y-23.702
X7.77 Y-23.706
X7.813 Y-23.762
X7.849 Y-23.812
X7.882 Y-23.859
G3 X7.89 Y-23.869 R0.5
G1 X7.92 Y-23.91
G3 X7.958 Y-23.955 R0.5
G1 X7.984 Y-23.982
G3 X8.042 Y-24.035 R0.5
G1 X8.079 Y-24.063
G3 X8.149 Y-24.108 R0.5
G1 X8.188 Y-24.129
G3 X8.266 Y-24.162 R0.5
G1 X8.311 Y-24.176
G3 X8.392 Y-24.196 R0.5
G1 X8.435 Y-24.202
G3 X8.52 Y-24.208 R0.5
G1 X8.566 Y-24.207
G3 X8.635 Y-24.2 R0.5
G1 X8.664 Y-24.196
G3 X8.755 Y-24.172 R0.5
X9.041 Y-24.066 R25.709
X9.138 Y-24.018 R0.5
G1 X9.177 Y-23.992
G3 X9.243 Y-23.941 R0.5
G1 X9.275 Y-23.911
G3 X9.332 Y-23.849 R0.5
G1 X9.361 Y-23.812
G3 X9.406 Y-23.741 R0.5
G1 X9.427 Y-23.703
G3 X9.46 Y-23.626 R0.5
G1 X9.474 Y-23.581
G3 X9.494 Y-23.5 R0.5
G1 X9.501 Y-23.457
G3 X9.506 Y-23.373 R0.5
G1 X9.505 Y-23.324
G3 X9.504 Y-23.29 R0.5
G1 X9.492 Y-23.15
X9.486 Y-23.037
X9.581 Y-22.997
X9.603 Y-23.019
X9.606 Y-23.023
X9.654 Y-23.076
X9.693 Y-23.123
X9.73 Y-23.167
G3 X9.739 Y-23.177 R0.5
G1 X9.772 Y-23.215
G3 X9.812 Y-23.256 R0.5
G1 X9.84 Y-23.281
G3 X9.903 Y-23.33 R0.5
G1 X9.942 Y-23.355
G3 X10.016 Y-23.395 R0.5
G1 X10.056 Y-23.412
G3 X10.136 Y-23.439 R0.5
G1 X10.182 Y-23.45
G3 X10.265 Y-23.463 R0.5
G1 X10.308 Y-23.466
G3 X10.392 Y-23.465 R0.5
G1 X10.439 Y-23.46
G3 X10.508 Y-23.448 R0.5
G1 X10.537 Y-23.441
G3 X10.624 Y-23.411 R0.5
X10.902 Y-23.283 R25.709
X10.994 Y-23.227 R0.5
G1 X11.031 Y-23.198
G3 X11.093 Y-23.142 R0.5
G1 X11.123 Y-23.11
G3 X11.174 Y-23.044 R0.5
G1 X11.2 Y-23.005
G3 X11.24 Y-22.931 R0.5
G1 X11.257 Y-22.891
G3 X11.284 Y-22.81 R0.5
G1 X11.296 Y-22.765
G3 X11.309 Y-22.683 R0.5
G1 X11.312 Y-22.64
G3 X11.311 Y-22.555 R0.5
G1 X11.306 Y-22.506
G3 X11.302 Y-22.472 R0.5
G1 X11.279 Y-22.333
X11.264 Y-22.221
X11.356 Y-22.175
X11.379 Y-22.195
X11.383 Y-22.199
X11.434 Y-22.248
X11.478 Y-22.291
X11.518 Y-22.332
G3 X11.527 Y-22.342 R0.5
G1 X11.564 Y-22.377
G3 X11.607 Y-22.415 R0.5
G1 X11.637 Y-22.438
G3 X11.702 Y-22.48 R0.5
G1 X11.743 Y-22.503
G3 X11.821 Y-22.537 R0.5
G1 X11.862 Y-22.551
G3 X11.944 Y-22.571 R0.5
G1 X11.99 Y-22.579
G3 X12.074 Y-22.585 R0.5
G1 X12.118
G3 X12.201 Y-22.577 R0.5
G1 X12.247 Y-22.569
G3 X12.316 Y-22.551 R0.5
G1 X12.344 Y-22.542
G3 X12.428 Y-22.505 R0.5
X12.695 Y-22.356 R25.709
X12.783 Y-22.292 R0.5
G1 X12.817 Y-22.261
G3 X12.874 Y-22.2 R0.5
G1 X12.901 Y-22.167
G3 X12.948 Y-22.095 R0.5
G1 X12.971 Y-22.054
G3 X13.004 Y-21.978 R0.5
G1 X13.018 Y-21.937
G3 X13.039 Y-21.856 R0.5
G1 X13.047 Y-21.81
G3 X13.053 Y-21.725 R0.5
G1 Y-21.681
G3 X13.046 Y-21.598 R0.5
G1 X13.037 Y-21.55
G3 X13.03 Y-21.516 R0.5
G1 X12.996 Y-21.38
X12.973 Y-21.269
X13.061 Y-21.215
X13.084 Y-21.233
X13.089 Y-21.236
X13.145 Y-21.282
X13.191 Y-21.322
X13.235 Y-21.36
G3 X13.244 Y-21.368 R0.5
G1 X13.283 Y-21.4
G3 X13.329 Y-21.435 R0.5
G1 X13.36 Y-21.455
G3 X13.431 Y-21.494 R0.5
G1 X13.474 Y-21.513
G3 X13.552 Y-21.54 R0.5
G1 X13.594 Y-21.551
G3 X13.678 Y-21.565 R0.5
G1 X13.724 Y-21.568
G3 X13.809 R0.5
G1 X13.852 Y-21.564
G3 X13.935 Y-21.55 R0.5
G1 X13.98 Y-21.538
G3 X14.048 Y-21.515 R0.5
G1 X14.075 Y-21.504
G3 X14.156 Y-21.46 R0.5
X14.41 Y-21.291 R25.709
X14.492 Y-21.221 R0.5
G1 X14.524 Y-21.187
G3 X14.577 Y-21.122 R0.5
G1 X14.601 Y-21.086
G3 X14.642 Y-21.012 R0.5
G1 X14.661 Y-20.969
G3 X14.689 Y-20.889 R0.5
G1 X14.7 Y-20.847
G3 X14.714 Y-20.764 R0.5
G1 X14.718 Y-20.718
G3 Y-20.634 R0.5
G1 X14.714 Y-20.591
G3 X14.7 Y-20.508 R0.5
G1 X14.688 Y-20.46
G3 X14.678 Y-20.428 R0.5
G1 X14.634 Y-20.294
X14.602 Y-20.186
X14.685 Y-20.125
X14.71 Y-20.141
X14.715 Y-20.144
X14.774 Y-20.185
X14.824 Y-20.222
X14.87 Y-20.256
G3 X14.88 Y-20.263 R0.5
G1 X14.921 Y-20.292
G3 X14.97 Y-20.323 R0.5
G1 X15.003 Y-20.341
G3 X15.075 Y-20.373 R0.5
G1 X15.119 Y-20.389
G3 X15.201 Y-20.41 R0.5
G1 X15.244 Y-20.418
G3 X15.328 Y-20.425 R0.5
G1 X15.375
G3 X15.458 Y-20.418 R0.5
G1 X15.5 Y-20.411
G3 X15.583 Y-20.39 R0.5
G1 X15.627 Y-20.375
G3 X15.693 Y-20.346 R0.5
G1 X15.719 Y-20.333
G3 X15.796 Y-20.284 R0.5
X16.036 Y-20.095 R25.709
X16.112 Y-20.018 R0.5
G1 X16.142 Y-19.982
G3 X16.189 Y-19.913 R0.5
G1 X16.21 Y-19.875
G3 X16.246 Y-19.797 R0.5
G1 X16.261 Y-19.753
G3 X16.282 Y-19.674 R0.5
G1 X16.29 Y-19.631
G3 X16.298 Y-19.545 R0.5
G1 Y-19.499
G3 X16.291 Y-19.416 R0.5
G1 X16.284 Y-19.373
G3 X16.264 Y-19.291 R0.5
G1 X16.248 Y-19.245
G3 X16.235 Y-19.213 R0.5
G1 X16.181 Y-19.084
X16.141 Y-18.978
X16.219 Y-18.911
X16.246 Y-18.925
X16.251 Y-18.928
X16.312 Y-18.964
X16.365 Y-18.996
X16.413 Y-19.027
G3 X16.424 Y-19.033 R0.5
G1 X16.467 Y-19.059
G3 X16.519 Y-19.086 R0.5
G1 X16.553 Y-19.101
G3 X16.627 Y-19.128 R0.5
G1 X16.672 Y-19.14
G3 X16.756 Y-19.155 R0.5
G1 X16.799 Y-19.159
G3 X16.883 R0.5
G1 X16.929 Y-19.156
G3 X17.013 Y-19.142 R0.5
G1 X17.055 Y-19.132
G3 X17.135 Y-19.105 R0.5
G1 X17.177 Y-19.086
G3 X17.24 Y-19.053 R0.5
G1 X17.265 Y-19.038
G3 X17.339 Y-18.982 R0.5
X17.563 Y-18.775 R25.709
X17.634 Y-18.692 R0.5
G1 X17.66 Y-18.654
G3 X17.701 Y-18.581 R0.5
G1 X17.719 Y-18.542
G3 X17.748 Y-18.463 R0.5
G1 X17.761 Y-18.418
G3 X17.776 Y-18.334 R0.5
G1 X17.78 Y-18.291
G3 X17.781 Y-18.207 R0.5
G1 X17.777 Y-18.161
G3 X17.764 Y-18.078 R0.5
G1 X17.754 Y-18.036
G3 X17.727 Y-17.956 R0.5
G1 X17.707 Y-17.911
G3 X17.693 Y-17.88 R0.5
G1 X17.628 Y-17.755
X17.58 Y-17.653
X17.652 Y-17.58
X17.68 Y-17.592
X17.685 Y-17.594
X17.75 Y-17.625
X17.805 Y-17.654
X17.855 Y-17.68
G3 X17.867 Y-17.686 R0.5
G1 X17.912 Y-17.708
G3 X17.965 Y-17.731 R0.5
G1 X18.001 Y-17.744
G3 X18.077 Y-17.764 R0.5
G1 X18.123 Y-17.773
G3 X18.207 Y-17.781 R0.5
G1 X18.25 Y-17.782
G3 X18.334 Y-17.776 R0.5
G1 X18.38 Y-17.769
G3 X18.463 Y-17.748 R0.5
G1 X18.504 Y-17.735
G3 X18.58 Y-17.702 R0.5
G1 X18.621 Y-17.68
G3 X18.682 Y-17.642 R0.5
G1 X18.706 Y-17.624
G3 X18.775 Y-17.563 R0.5
X18.982 Y-17.339 R25.709
X19.045 Y-17.252 R0.5
G1 X19.069 Y-17.211
G3 X19.105 Y-17.134 R0.5
G1 X19.12 Y-17.094
G3 X19.142 Y-17.014 R0.5
G1 X19.151 Y-16.968
G3 X19.16 Y-16.883 R0.5
G1 Y-16.839
G3 X19.155 Y-16.756 R0.5
G1 X19.148 Y-16.71
G3 X19.128 Y-16.628 R0.5
G1 X19.114 Y-16.587
G3 X19.081 Y-16.51 R0.5
G1 X19.058 Y-16.466
G3 X19.041 Y-16.437 R0.5
G1 X18.967 Y-16.317
X18.911 Y-16.219
X18.977 Y-16.141
X19.006 Y-16.151
X19.012 Y-16.153
X19.078 Y-16.178
X19.135 Y-16.202
X19.187 Y-16.225
G3 X19.199 Y-16.23 R0.5
G1 X19.246 Y-16.248
G3 X19.301 Y-16.267 R0.5
G1 X19.337 Y-16.277
G3 X19.415 Y-16.291 R0.5
G1 X19.461 Y-16.296
G3 X19.546 Y-16.298 R0.5
G1 X19.589 Y-16.295
G3 X19.672 Y-16.283 R0.5
G1 X19.717 Y-16.272
G3 X19.798 Y-16.245 R0.5
G1 X19.838 Y-16.228
G3 X19.912 Y-16.189 R0.5
G1 X19.951 Y-16.164
G3 X20.009 Y-16.121 R0.5
G1 X20.031 Y-16.102
G3 X20.095 Y-16.036 R0.5
X20.284 Y-15.796 R25.709
X20.34 Y-15.704 R0.5
G1 X20.36 Y-15.662
G3 X20.39 Y-15.583 R0.5
G1 X20.402 Y-15.541
G3 X20.418 Y-15.459 R0.5
G1 X20.423 Y-15.412
G3 X20.425 Y-15.328 R0.5
G1 X20.422 Y-15.285
G3 X20.41 Y-15.201 R0.5
G1 X20.399 Y-15.156
G3 X20.374 Y-15.077 R0.5
G1 X20.357 Y-15.037
G3 X20.317 Y-14.961 R0.5
G1 X20.291 Y-14.92
G3 X20.272 Y-14.892 R0.5
G1 X20.189 Y-14.779
X20.125 Y-14.685
X20.185 Y-14.602
X20.214 Y-14.61
X20.22 Y-14.611
X20.288 Y-14.632
X20.347 Y-14.651
X20.401 Y-14.669
G3 X20.413 Y-14.673 R0.5
G1 X20.462 Y-14.688
G3 X20.517 Y-14.702 R0.5
G1 X20.554 Y-14.709
G3 X20.634 Y-14.718 R0.5
G1 X20.68 Y-14.719
G3 X20.764 Y-14.714 R0.5
G1 X20.806 Y-14.708
G3 X20.889 Y-14.689 R0.5
G1 X20.934 Y-14.674
G3 X21.011 Y-14.642 R0.5
G1 X21.05 Y-14.622
G3 X21.121 Y-14.577 R0.5
G1 X21.158 Y-14.549
G3 X21.212 Y-14.501 R0.5
G1 X21.233 Y-14.48
G3 X21.291 Y-14.41 R0.5
X21.46 Y-14.156 R25.709
X21.51 Y-14.06 R0.5
G1 X21.526 Y-14.017
G3 X21.55 Y-13.935 R0.5
G1 X21.559 Y-13.893
G3 X21.568 Y-13.808 R0.5
G1 X21.569 Y-13.762
G3 X21.565 Y-13.678 R0.5
G1 X21.559 Y-13.636
G3 X21.54 Y-13.553 R0.5
G1 X21.526 Y-13.509
G3 X21.494 Y-13.431 R0.5
G1 X21.474 Y-13.393
G3 X21.429 Y-13.322 R0.5
G1 X21.4 Y-13.283
G3 X21.378 Y-13.255 R0.5
G1 X21.286 Y-13.149
X21.215 Y-13.061
X21.269 Y-12.974
X21.299 Y-12.979
X21.304 Y-12.98
X21.374 Y-12.995
X21.434 Y-13.009
X21.49 Y-13.024
G3 X21.501 Y-13.026 R0.5
G1 X21.551 Y-13.038
G3 X21.608 Y-13.047 R0.5
G1 X21.645 Y-13.051
G3 X21.725 Y-13.053 R0.5
G1 X21.772 Y-13.051
G3 X21.855 Y-13.039 R0.5
G1 X21.897 Y-13.03
G3 X21.977 Y-13.005 R0.5
G1 X22.02 Y-12.987
G3 X22.095 Y-12.949 R0.5
G1 X22.131 Y-12.926
G3 X22.2 Y-12.874 R0.5
G1 X22.235 Y-12.843
G3 X22.284 Y-12.793 R0.5
G1 X22.303 Y-12.77
G3 X22.356 Y-12.695 R0.5
X22.505 Y-12.428 R25.709
X22.546 Y-12.329 R0.5
G1 X22.56 Y-12.285
G3 X22.577 Y-12.201 R0.5
G1 X22.582 Y-12.158
G3 X22.585 Y-12.074 R0.5
G1 X22.583 Y-12.028
G3 X22.571 Y-11.944 R0.5
G1 X22.562 Y-11.901
G3 X22.537 Y-11.822 R0.5
G1 X22.519 Y-11.778
G3 X22.482 Y-11.704 R0.5
G1 X22.459 Y-11.667
G3 X22.408 Y-11.599 R0.5
G1 X22.375 Y-11.562
G3 X22.352 Y-11.538 R0.5
G1 X22.252 Y-11.439
X22.174 Y-11.356
X22.221 Y-11.265
X22.252 Y-11.268
X22.257
X22.328 Y-11.278
X22.388 Y-11.288
X22.444 Y-11.297
G3 X22.457 Y-11.299 R0.5
G1 X22.507 Y-11.307
G3 X22.566 Y-11.312 R0.5
G1 X22.603 Y-11.313
G3 X22.682 Y-11.308 R0.5
G1 X22.728 Y-11.302
G3 X22.809 Y-11.285 R0.5
G1 X22.851 Y-11.272
G3 X22.93 Y-11.24 R0.5
G1 X22.972 Y-11.219
G3 X23.044 Y-11.175 R0.5
G1 X23.078 Y-11.149
G3 X23.141 Y-11.094 R0.5
G1 X23.173 Y-11.06
G3 X23.219 Y-11.005 R0.5
G1 X23.236 Y-10.981
G3 X23.283 Y-10.902 R0.5
X23.411 Y-10.624 R25.709
X23.445 Y-10.521 R0.5
G1 X23.454 Y-10.475
G3 X23.465 Y-10.393 R0.5
G1 X23.466 Y-10.35
G3 X23.463 Y-10.266 R0.5
G1 X23.457 Y-10.219
G3 X23.439 Y-10.136 R0.5
G1 X23.426 Y-10.094
G3 X23.395 Y-10.017 R0.5
G1 X23.374 Y-9.976
G3 X23.33 Y-9.903 R0.5
G1 X23.304 Y-9.869
G3 X23.249 Y-9.805 R0.5
G1 X23.214 Y-9.771
G3 X23.189 Y-9.748 R0.5
G1 X23.081 Y-9.658
X22.997 Y-9.582
X23.036 Y-9.487
X23.067
X23.073
X23.143 Y-9.491
X23.205 Y-9.496
X23.262 Y-9.501
G3 X23.275 Y-9.502 R0.5
G1 X23.325 Y-9.506
G3 X23.383 R0.5
G1 X23.42 Y-9.504
G3 X23.499 Y-9.494 R0.5
G1 X23.545 Y-9.484
G3 X23.625 Y-9.46 R0.5
G1 X23.666 Y-9.444
G3 X23.741 Y-9.406 R0.5
G1 X23.781 Y-9.382
G3 X23.849 Y-9.332 R0.5
G1 X23.882 Y-9.304
G3 X23.94 Y-9.244 R0.5
G1 X23.97 Y-9.208
G3 X24.011 Y-9.149 R0.5
G1 X24.027 Y-9.124
G3 X24.066 Y-9.041 R0.5
X24.172 Y-8.755 R25.709
X24.198 Y-8.649 R0.5
G1 X24.204 Y-8.603
G3 X24.208 Y-8.52 R0.5
G1 X24.206 Y-8.477
G3 X24.196 Y-8.392 R0.5
G1 X24.186 Y-8.347
G3 X24.162 Y-8.267 R0.5
G1 X24.146 Y-8.226
G3 X24.109 Y-8.15 R0.5
G1 X24.084 Y-8.11
G3 X24.035 Y-8.043 R0.5
G1 X24.007 Y-8.01
G3 X23.947 Y-7.951 R0.5
G1 X23.909 Y-7.919
G3 X23.882 Y-7.899 R0.5
G1 X23.767 Y-7.817
X23.678 Y-7.748
X23.71 Y-7.65
X23.74 Y-7.648
X23.746
X23.817 Y-7.646
X23.878
X23.936 Y-7.647
G3 X23.948 R0.5
G1 X23.999 Y-7.646
G3 X24.057 Y-7.642 R0.5
G1 X24.094 Y-7.638
G3 X24.172 Y-7.621 R0.5
G1 X24.216 Y-7.608
G3 X24.295 Y-7.577 R0.5
G1 X24.333 Y-7.558
G3 X24.406 Y-7.515 R0.5
G1 X24.444 Y-7.487
G3 X24.507 Y-7.433 R0.5
G1 X24.538 Y-7.402
G3 X24.592 Y-7.336 R0.5
G1 X24.619 Y-7.298
G3 X24.654 Y-7.238 R0.5
G1 X24.668 Y-7.212
G3 X24.702 Y-7.125 R0.5
X24.784 Y-6.831 R25.709
X24.802 Y-6.725 R0.5
G1 X24.804 Y-6.679
G3 X24.801 Y-6.593 R0.5
G1 X24.796 Y-6.55
G3 X24.78 Y-6.468 R0.5
G1 X24.767 Y-6.424
G3 X24.736 Y-6.345 R0.5
G1 X24.717 Y-6.307
G3 X24.674 Y-6.234 R0.5
G1 X24.647 Y-6.196
G3 X24.592 Y-6.132 R0.5
G1 X24.562 Y-6.102
G3 X24.496 Y-6.047 R0.5
G1 X24.456 Y-6.019
G3 X24.428 Y-6.001 R0.5
G1 X24.308 Y-5.928
X24.213 Y-5.866
X24.237 Y-5.766
X24.267 Y-5.762
X24.273 Y-5.761
X24.343 Y-5.754
X24.405 Y-5.749
X24.462 Y-5.746
G3 X24.475 Y-5.745 R0.5
G1 X24.525 Y-5.74
G3 X24.582 Y-5.731 R0.5
G1 X24.619 Y-5.724
G3 X24.695 Y-5.701 R0.5
G1 X24.739 Y-5.684
G3 X24.814 Y-5.648 R0.5
G1 X24.851 Y-5.626
G3 X24.921 Y-5.576 R0.5
G1 X24.956 Y-5.546
G3 X25.016 Y-5.486 R0.5
G1 X25.043 Y-5.453
G3 X25.092 Y-5.385 R0.5
G1 X25.115 Y-5.344
G3 X25.146 Y-5.282 R0.5
G1 X25.157 Y-5.254
G3 X25.185 Y-5.165 R0.5
X25.244 Y-4.866 R25.709
X25.253 Y-4.757 R0.5
G1 X25.252 Y-4.711
G3 X25.243 Y-4.628 R0.5
G1 X25.234 Y-4.586
G3 X25.211 Y-4.504 R0.5
G1 X25.194 Y-4.46
G3 X25.157 Y-4.384 R0.5
G1 X25.135 Y-4.347
G3 X25.087 Y-4.279 R0.5
G1 X25.057 Y-4.243
G3 X24.997 Y-4.184 R0.5
G1 X24.964 Y-4.156
G3 X24.896 Y-4.107 R0.5
G1 X24.853 Y-4.082
G3 X24.823 Y-4.066 R0.5
G1 X24.698 Y-4.003
X24.599 Y-3.948
X24.614 Y-3.847
X24.644 Y-3.84
X24.65 Y-3.839
X24.72 Y-3.826
X24.781 Y-3.817
X24.837 Y-3.809
G3 X24.85 Y-3.807 R0.5
G1 X24.9 Y-3.798
G3 X24.956 Y-3.785 R0.5
G1 X24.992 Y-3.774
G3 X25.066 Y-3.746 R0.5
G1 X25.108 Y-3.726
G3 X25.181 Y-3.683 R0.5
G1 X25.217 Y-3.658
G3 X25.281 Y-3.604 R0.5
G1 X25.314 Y-3.571
G3 X25.368 Y-3.507 R0.5
G1 X25.394 Y-3.472
G3 X25.437 Y-3.4 R0.5
G1 X25.457 Y-3.358
G3 X25.484 Y-3.291 R0.5
G1 X25.493 Y-3.263
G3 X25.512 Y-3.173 R0.5
X25.548 Y-2.87 R25.709
Y-2.762 R0.5
G1 X25.543 Y-2.715
G3 X25.528 Y-2.633 R0.5
G1 X25.516 Y-2.591
G3 X25.487 Y-2.513 R0.5
G1 X25.467 Y-2.471
G3 X25.424 Y-2.397 R0.5
G1 X25.399 Y-2.362
G3 X25.345 Y-2.297 R0.5
G1 X25.313 Y-2.264
G3 X25.249 Y-2.209 R0.5
G1 X25.214 Y-2.184
G3 X25.141 Y-2.141 R0.5
G1 X25.097 Y-2.119
G3 X25.066 Y-2.105 R0.5
G1 X24.936 Y-2.053
X24.832 Y-2.006
X24.84 Y-1.904
X24.87 Y-1.895
X24.875 Y-1.893
X24.944 Y-1.875
X25.004 Y-1.861
X25.06 Y-1.848
G3 X25.072 Y-1.845 R0.5
G1 X25.121 Y-1.833
G3 X25.176 Y-1.815 R0.5
G1 X25.211 Y-1.802
G3 X25.283 Y-1.768 R0.5
G1 X25.323 Y-1.744
G3 X25.392 Y-1.697 R0.5
G1 X25.425 Y-1.669
G3 X25.486 Y-1.61 R0.5
G1 X25.516 Y-1.574
G3 X25.566 Y-1.506 R0.5
G1 X25.588 Y-1.469
G3 X25.625 Y-1.393 R0.5
G1 X25.642 Y-1.35
G3 X25.663 Y-1.282 R0.5
G1 X25.67 Y-1.253
G3 X25.682 Y-1.162 R0.5
X25.694 Y-0.857 R25.709
X25.686 Y-0.749 R0.5
G1 X25.678 Y-0.703
G3 X25.656 Y-0.622 R0.5
G1 X25.641 Y-0.581
G3 X25.605 Y-0.505 R0.5
G1 X25.582 Y-0.464
G3 X25.534 Y-0.395 R0.5
G1 X25.506 Y-0.362
G3 X25.448 Y-0.302 R0.5
G1 X25.412 Y-0.271
G3 X25.344 Y-0.221 R0.5
G1 X25.307 Y-0.199
G3 X25.232 Y-0.162 R0.5
G1 X25.186 Y-0.144
G3 X25.154 Y-0.132 R0.5
G1 X25.02 Y-0.09
X24.913 Y-0.052
Y0.051
X24.941 Y0.062
X24.947 Y0.064
X25.014 Y0.088
X25.073 Y0.107
X25.127 Y0.124
G3 X25.139 Y0.128 R0.5
G1 X25.187 Y0.144
G3 X25.241 Y0.166 R0.5
G1 X25.275 Y0.182
G3 X25.344 Y0.221 R0.5
G1 X25.382 Y0.248
G3 X25.447 Y0.301 R0.5
G1 X25.478 Y0.331
G3 X25.534 Y0.395 R0.5
G1 X25.561 Y0.433
G3 X25.605 Y0.504 R0.5
G1 X25.624 Y0.543
G3 X25.656 Y0.622 R0.5
G1 X25.669 Y0.667
G3 X25.684 Y0.735 R0.5
G1 X25.689 Y0.764
G3 X25.694 Y0.857 R0.5
X25.682 Y1.162 R25.709
X25.666 Y1.269 R0.5
G1 X25.654 Y1.314
G3 X25.625 Y1.392 R0.5
G1 X25.607 Y1.432
G3 X25.566 Y1.506 R0.5
G1 X25.539 Y1.544
G3 X25.486 Y1.609 R0.5
G1 X25.456 Y1.64
G3 X25.393 Y1.696 R0.5
G1 X25.355 Y1.724
G3 X25.283 Y1.768 R0.5
G1 X25.245 Y1.787
G3 X25.166 Y1.818 R0.5
G1 X25.119 Y1.833
G3 X25.087 Y1.842 R0.5
G1 X24.95 Y1.873
X24.841 Y1.903
X24.832 Y2.005
X24.86 Y2.019
X24.865 Y2.022
X24.93 Y2.05
X24.987 Y2.074
X25.04 Y2.095
G3 X25.052 Y2.1 R0.5
G1 X25.099 Y2.12
G3 X25.15 Y2.146 R0.5
G1 X25.183 Y2.164
G3 X25.248 Y2.209 R0.5
G1 X25.284 Y2.239
G3 X25.345 Y2.297 R0.5
G1 X25.374 Y2.329
G3 X25.424 Y2.397 R0.5
G1 X25.448 Y2.437
G3 X25.486 Y2.512 R0.5
G1 X25.503 Y2.552
G3 X25.527 Y2.632 R0.5
G1 X25.537 Y2.677
G3 X25.548 Y2.749 R0.5
G1 X25.55 Y2.779
G3 X25.548 Y2.87 R0.5
X25.512 Y3.173 R25.709
X25.487 Y3.279 R0.5
G1 X25.472 Y3.323
G3 X25.437 Y3.399 R0.5
G1 X25.416 Y3.436
G3 X25.368 Y3.507 R0.5
G1 X25.339 Y3.544
G3 X25.281 Y3.604 R0.5
G1 X25.249 Y3.633
G3 X25.182 Y3.683 R0.5
G1 X25.142 Y3.708
G3 X25.067 Y3.746 R0.5
G1 X25.027 Y3.762
G3 X24.946 Y3.787 R0.5
G1 X24.898 Y3.798
G3 X24.865 Y3.804 R0.5
G1 X24.726 Y3.825
X24.615 Y3.846
X24.599 Y3.948
X24.624 Y3.963
X24.629 Y3.966
X24.692 Y4.
X24.747 Y4.028
X24.799 Y4.053
G3 X24.81 Y4.059 R0.5
G1 X24.855 Y4.082
G3 X24.904 Y4.112 R0.5
G1 X24.935 Y4.133
G3 X24.997 Y4.183 R0.5
G1 X25.031 Y4.215
G3 X25.087 Y4.278 R0.5
G1 X25.113 Y4.313
G3 X25.157 Y4.384 R0.5
G1 X25.179 Y4.426
G3 X25.211 Y4.504 R0.5
G1 X25.224 Y4.545
G3 X25.242 Y4.628 R0.5
G1 X25.249 Y4.674
G3 X25.253 Y4.743 R0.5
G1 Y4.773
G3 X25.244 Y4.866 R0.5
X25.185 Y5.165 R25.709
X25.151 Y5.268 R0.5
G1 X25.132 Y5.311
G3 X25.092 Y5.385 R0.5
G1 X25.068 Y5.421
G3 X25.015 Y5.486 R0.5
G1 X24.983 Y5.52
G3 X24.921 Y5.576 R0.5
G1 X24.886 Y5.602
G3 X24.815 Y5.648 R0.5
G1 X24.773 Y5.669
G3 X24.696 Y5.701 R0.5
G1 X24.655 Y5.714
G3 X24.572 Y5.733 R0.5
G1 X24.523 Y5.74
G3 X24.49 Y5.743 R0.5
G1 X24.349 Y5.753
X24.237 Y5.766
X24.213 Y5.865
X24.238 Y5.883
X24.242 Y5.886
X24.302 Y5.925
X24.355 Y5.957
X24.404 Y5.986
G3 X24.415 Y5.993 R0.5
G1 X24.458 Y6.02
G3 X24.505 Y6.054 R0.5
G1 X24.534 Y6.077
G3 X24.592 Y6.131 R0.5
G1 X24.623 Y6.166
G3 X24.674 Y6.233 R0.5
G1 X24.697 Y6.27
G3 X24.736 Y6.344 R0.5
G1 X24.754 Y6.387
G3 X24.78 Y6.468 R0.5
G1 X24.789 Y6.511
G3 X24.801 Y6.594 R0.5
G1 X24.804 Y6.64
G3 X24.803 Y6.712 R0.5
G1 X24.801 Y6.741
G3 X24.784 Y6.831 R0.5
X24.702 Y7.125 R25.709
X24.66 Y7.226 R0.5
G1 X24.638 Y7.267
G3 X24.592 Y7.336 R0.5
G1 X24.565 Y7.37
G3 X24.508 Y7.432 R0.5
G1 X24.473 Y7.464
G3 X24.406 Y7.515 R0.5
G1 X24.37 Y7.538
G3 X24.295 Y7.577 R0.5
G1 X24.252 Y7.595
G3 X24.172 Y7.621 R0.5
G1 X24.13 Y7.631
G3 X24.047 Y7.643 R0.5
G1 X23.997 Y7.646
G3 X23.963 Y7.647 R0.5
G1 X23.823 Y7.646
X23.71 Y7.649
X23.678 Y7.747
X23.702 Y7.767
X23.706 Y7.77
X23.762 Y7.813
X23.812 Y7.849
X23.859 Y7.882
G3 X23.869 Y7.89 R0.5
G1 X23.91 Y7.92
G3 X23.955 Y7.958 R0.5
G1 X23.982 Y7.984
G3 X24.035 Y8.042 R0.5
G1 X24.063 Y8.079
G3 X24.108 Y8.149 R0.5
G1 X24.129 Y8.188
G3 X24.162 Y8.266 R0.5
G1 X24.176 Y8.311
G3 X24.196 Y8.392 R0.5
G1 X24.202 Y8.435
G3 X24.208 Y8.52 R0.5
G1 X24.207 Y8.566
G3 X24.2 Y8.635 R0.5
G1 X24.196 Y8.664
G3 X24.172 Y8.755 R0.5
X24.066 Y9.041 R25.709
X24.018 Y9.138 R0.5
G1 X23.992 Y9.177
G3 X23.941 Y9.243 R0.5
G1 X23.911 Y9.275
G3 X23.849 Y9.332 R0.5
G1 X23.812 Y9.361
G3 X23.741 Y9.406 R0.5
G1 X23.703 Y9.427
G3 X23.626 Y9.46 R0.5
G1 X23.581 Y9.474
G3 X23.5 Y9.494 R0.5
G1 X23.457 Y9.501
G3 X23.373 Y9.506 R0.5
G1 X23.324 Y9.505
G3 X23.29 Y9.504 R0.5
G1 X23.15 Y9.492
X23.037 Y9.486
X22.997 Y9.581
X23.019 Y9.603
X23.023 Y9.606
X23.076 Y9.654
X23.123 Y9.693
X23.167 Y9.73
G3 X23.177 Y9.739 R0.5
G1 X23.215 Y9.772
G3 X23.256 Y9.812 R0.5
G1 X23.281 Y9.84
G3 X23.33 Y9.903 R0.5
G1 X23.355 Y9.942
G3 X23.395 Y10.016 R0.5
G1 X23.412 Y10.056
G3 X23.439 Y10.136 R0.5
G1 X23.45 Y10.182
G3 X23.463 Y10.265 R0.5
G1 X23.466 Y10.308
G3 X23.465 Y10.392 R0.5
G1 X23.46 Y10.439
G3 X23.448 Y10.508 R0.5
G1 X23.441 Y10.537
G3 X23.411 Y10.624 R0.5
X23.283 Y10.902 R25.709
X23.227 Y10.994 R0.5
G1 X23.198 Y11.031
G3 X23.142 Y11.093 R0.5
G1 X23.11 Y11.123
G3 X23.044 Y11.174 R0.5
G1 X23.005 Y11.2
G3 X22.931 Y11.24 R0.5
G1 X22.891 Y11.257
G3 X22.81 Y11.284 R0.5
G1 X22.765 Y11.296
G3 X22.683 Y11.309 R0.5
G1 X22.64 Y11.312
G3 X22.555 Y11.311 R0.5
G1 X22.506 Y11.306
G3 X22.472 Y11.302 R0.5
G1 X22.333 Y11.279
X22.221 Y11.264
X22.175 Y11.356
X22.195 Y11.379
X22.199 Y11.383
X22.248 Y11.434
X22.291 Y11.478
X22.332 Y11.518
G3 X22.342 Y11.527 R0.5
G1 X22.377 Y11.564
G3 X22.415 Y11.607 R0.5
G1 X22.438 Y11.637
G3 X22.48 Y11.702 R0.5
G1 X22.503 Y11.743
G3 X22.537 Y11.821 R0.5
G1 X22.551 Y11.862
G3 X22.571 Y11.944 R0.5
G1 X22.579 Y11.99
G3 X22.585 Y12.074 R0.5
G1 Y12.118
G3 X22.577 Y12.201 R0.5
G1 X22.569 Y12.247
G3 X22.551 Y12.316 R0.5
G1 X22.542 Y12.344
G3 X22.505 Y12.428 R0.5
X22.356 Y12.695 R25.709
X22.292 Y12.783 R0.5
G1 X22.261 Y12.817
G3 X22.2 Y12.874 R0.5
G1 X22.167 Y12.901
G3 X22.095 Y12.948 R0.5
G1 X22.054 Y12.971
G3 X21.978 Y13.004 R0.5
G1 X21.937 Y13.018
G3 X21.856 Y13.039 R0.5
G1 X21.81 Y13.047
G3 X21.725 Y13.053 R0.5
G1 X21.681
G3 X21.598 Y13.046 R0.5
G1 X21.55 Y13.037
G3 X21.516 Y13.03 R0.5
G1 X21.38 Y12.996
X21.269 Y12.973
X21.215 Y13.061
X21.233 Y13.084
X21.236 Y13.089
X21.282 Y13.145
X21.322 Y13.191
X21.36 Y13.235
G3 X21.368 Y13.244 R0.5
G1 X21.4 Y13.283
G3 X21.435 Y13.329 R0.5
G1 X21.455 Y13.36
G3 X21.494 Y13.431 R0.5
G1 X21.513 Y13.474
G3 X21.54 Y13.552 R0.5
G1 X21.551 Y13.594
G3 X21.565 Y13.678 R0.5
G1 X21.568 Y13.724
G3 Y13.809 R0.5
G1 X21.564 Y13.852
G3 X21.55 Y13.935 R0.5
G1 X21.538 Y13.98
G3 X21.515 Y14.048 R0.5
G1 X21.504 Y14.075
G3 X21.46 Y14.156 R0.5
X21.291 Y14.41 R25.709
X21.221 Y14.492 R0.5
G1 X21.187 Y14.524
G3 X21.122 Y14.577 R0.5
G1 X21.086 Y14.601
G3 X21.012 Y14.642 R0.5
G1 X20.969 Y14.661
G3 X20.889 Y14.689 R0.5
G1 X20.847 Y14.7
G3 X20.764 Y14.714 R0.5
G1 X20.718 Y14.718
G3 X20.634 R0.5
G1 X20.591 Y14.714
G3 X20.508 Y14.7 R0.5
G1 X20.46 Y14.688
G3 X20.428 Y14.678 R0.5
G1 X20.294 Y14.634
X20.186 Y14.602
X20.125 Y14.685
X20.141 Y14.71
X20.144 Y14.715
X20.185 Y14.774
X20.222 Y14.824
X20.256 Y14.87
G3 X20.263 Y14.88 R0.5
G1 X20.292 Y14.921
G3 X20.323 Y14.97 R0.5
G1 X20.341 Y15.003
G3 X20.373 Y15.075 R0.5
G1 X20.389 Y15.119
G3 X20.41 Y15.201 R0.5
G1 X20.418 Y15.244
G3 X20.425 Y15.328 R0.5
G1 Y15.375
G3 X20.418 Y15.458 R0.5
G1 X20.411 Y15.5
G3 X20.39 Y15.583 R0.5
G1 X20.375 Y15.627
G3 X20.346 Y15.693 R0.5
G1 X20.333 Y15.719
G3 X20.284 Y15.796 R0.5
X20.095 Y16.036 R25.709
X20.018 Y16.112 R0.5
G1 X19.982 Y16.142
G3 X19.913 Y16.189 R0.5
G1 X19.875 Y16.21
G3 X19.797 Y16.246 R0.5
G1 X19.753 Y16.261
G3 X19.674 Y16.282 R0.5
G1 X19.631 Y16.29
G3 X19.545 Y16.298 R0.5
G1 X19.499
G3 X19.416 Y16.291 R0.5
G1 X19.373 Y16.284
G3 X19.291 Y16.264 R0.5
G1 X19.245 Y16.248
G3 X19.213 Y16.235 R0.5
G1 X19.084 Y16.181
X18.978 Y16.141
X18.911 Y16.219
X18.925 Y16.246
X18.928 Y16.251
X18.964 Y16.312
X18.996 Y16.365
X19.027 Y16.413
G3 X19.033 Y16.424 R0.5
G1 X19.059 Y16.467
G3 X19.086 Y16.519 R0.5
G1 X19.101 Y16.553
G3 X19.128 Y16.627 R0.5
G1 X19.14 Y16.672
G3 X19.155 Y16.756 R0.5
G1 X19.159 Y16.799
G3 Y16.883 R0.5
G1 X19.156 Y16.929
G3 X19.142 Y17.013 R0.5
G1 X19.132 Y17.055
G3 X19.105 Y17.135 R0.5
G1 X19.086 Y17.177
G3 X19.053 Y17.24 R0.5
G1 X19.038 Y17.265
G3 X18.982 Y17.339 R0.5
X18.775 Y17.563 R25.709
X18.692 Y17.634 R0.5
G1 X18.654 Y17.66
G3 X18.581 Y17.701 R0.5
G1 X18.542 Y17.719
G3 X18.463 Y17.748 R0.5
G1 X18.418 Y17.761
G3 X18.334 Y17.776 R0.5
G1 X18.291 Y17.78
G3 X18.207 Y17.781 R0.5
G1 X18.161 Y17.777
G3 X18.078 Y17.764 R0.5
G1 X18.036 Y17.754
G3 X17.956 Y17.727 R0.5
G1 X17.911 Y17.707
G3 X17.88 Y17.693 R0.5
G1 X17.755 Y17.628
X17.653 Y17.58
X17.58 Y17.652
X17.592 Y17.68
X17.594 Y17.685
X17.625 Y17.75
X17.654 Y17.805
X17.68 Y17.855
G3 X17.686 Y17.867 R0.5
G1 X17.708 Y17.912
G3 X17.731 Y17.965 R0.5
G1 X17.744 Y18.001
G3 X17.764 Y18.077 R0.5
G1 X17.773 Y18.123
G3 X17.781 Y18.207 R0.5
G1 X17.782 Y18.25
G3 X17.776 Y18.334 R0.5
G1 X17.769 Y18.38
G3 X17.748 Y18.463 R0.5
G1 X17.735 Y18.504
G3 X17.702 Y18.58 R0.5
G1 X17.68 Y18.621
G3 X17.642 Y18.682 R0.5
G1 X17.624 Y18.706
G3 X17.563 Y18.775 R0.5
X17.339 Y18.982 R25.709
X17.252 Y19.045 R0.5
G1 X17.211 Y19.069
G3 X17.134 Y19.105 R0.5
G1 X17.094 Y19.12
G3 X17.014 Y19.142 R0.5
G1 X16.968 Y19.151
G3 X16.883 Y19.16 R0.5
G1 X16.839
G3 X16.756 Y19.155 R0.5
G1 X16.71 Y19.148
G3 X16.628 Y19.128 R0.5
G1 X16.587 Y19.114
G3 X16.51 Y19.081 R0.5
G1 X16.466 Y19.058
G3 X16.437 Y19.041 R0.5
G1 X16.317 Y18.967
X16.219 Y18.911
X16.141 Y18.977
X16.151 Y19.006
X16.153 Y19.012
X16.178 Y19.078
X16.202 Y19.135
X16.225 Y19.187
G3 X16.23 Y19.199 R0.5
G1 X16.248 Y19.246
G3 X16.267 Y19.301 R0.5
G1 X16.277 Y19.337
G3 X16.291 Y19.415 R0.5
G1 X16.296 Y19.461
G3 X16.298 Y19.546 R0.5
G1 X16.295 Y19.589
G3 X16.283 Y19.672 R0.5
G1 X16.272 Y19.717
G3 X16.245 Y19.798 R0.5
G1 X16.228 Y19.838
G3 X16.189 Y19.912 R0.5
G1 X16.164 Y19.951
G3 X16.121 Y20.009 R0.5
G1 X16.102 Y20.031
G3 X16.036 Y20.095 R0.5
X15.796 Y20.284 R25.709
X15.704 Y20.34 R0.5
G1 X15.662 Y20.36
G3 X15.583 Y20.39 R0.5
G1 X15.541 Y20.402
G3 X15.459 Y20.418 R0.5
G1 X15.412 Y20.423
G3 X15.328 Y20.425 R0.5
G1 X15.285 Y20.422
G3 X15.201 Y20.41 R0.5
G1 X15.156 Y20.399
G3 X15.077 Y20.374 R0.5
G1 X15.037 Y20.357
G3 X14.961 Y20.317 R0.5
G1 X14.92 Y20.291
G3 X14.892 Y20.272 R0.5
G1 X14.779 Y20.189
X14.685 Y20.125
X14.602 Y20.185
X14.61 Y20.214
X14.611 Y20.22
X14.632 Y20.288
X14.651 Y20.347
X14.669 Y20.401
G3 X14.673 Y20.413 R0.5
G1 X14.688 Y20.462
G3 X14.702 Y20.517 R0.5
G1 X14.709 Y20.554
G3 X14.718 Y20.634 R0.5
G1 X14.719 Y20.68
G3 X14.714 Y20.764 R0.5
G1 X14.708 Y20.806
G3 X14.689 Y20.889 R0.5
G1 X14.674 Y20.934
G3 X14.642 Y21.011 R0.5
G1 X14.622 Y21.05
G3 X14.577 Y21.121 R0.5
G1 X14.549 Y21.158
G3 X14.501 Y21.212 R0.5
G1 X14.48 Y21.233
G3 X14.41 Y21.291 R0.5
X14.156 Y21.46 R25.709
X14.06 Y21.51 R0.5
G1 X14.017 Y21.526
G3 X13.935 Y21.55 R0.5
G1 X13.893 Y21.559
G3 X13.808 Y21.568 R0.5
G1 X13.762 Y21.569
G3 X13.678 Y21.565 R0.5
G1 X13.636 Y21.559
G3 X13.553 Y21.54 R0.5
G1 X13.509 Y21.526
G3 X13.431 Y21.494 R0.5
G1 X13.393 Y21.474
G3 X13.322 Y21.429 R0.5
G1 X13.283 Y21.4
G3 X13.255 Y21.378 R0.5
G1 X13.149 Y21.286
X13.061 Y21.215
X12.974 Y21.269
X12.979 Y21.299
X12.98 Y21.304
X12.995 Y21.374
X13.009 Y21.434
X13.024 Y21.49
G3 X13.026 Y21.501 R0.5
G1 X13.038 Y21.551
G3 X13.047 Y21.608 R0.5
G1 X13.051 Y21.645
G3 X13.053 Y21.725 R0.5
G1 X13.051 Y21.772
G3 X13.039 Y21.855 R0.5
G1 X13.03 Y21.897
G3 X13.005 Y21.977 R0.5
G1 X12.987 Y22.02
G3 X12.949 Y22.095 R0.5
G1 X12.926 Y22.131
G3 X12.874 Y22.2 R0.5
G1 X12.843 Y22.235
G3 X12.793 Y22.284 R0.5
G1 X12.77 Y22.303
G3 X12.695 Y22.356 R0.5
X12.428 Y22.505 R25.709
X12.329 Y22.546 R0.5
G1 X12.285 Y22.56
G3 X12.201 Y22.577 R0.5
G1 X12.158 Y22.582
G3 X12.074 Y22.585 R0.5
G1 X12.028 Y22.583
G3 X11.944 Y22.571 R0.5
G1 X11.901 Y22.562
G3 X11.822 Y22.537 R0.5
G1 X11.778 Y22.519
G3 X11.704 Y22.482 R0.5
G1 X11.667 Y22.459
G3 X11.599 Y22.408 R0.5
G1 X11.562 Y22.375
G3 X11.538 Y22.352 R0.5
G1 X11.439 Y22.252
X11.356 Y22.174
X11.265 Y22.221
X11.268 Y22.252
Y22.257
X11.278 Y22.328
X11.288 Y22.388
X11.297 Y22.444
G3 X11.299 Y22.457 R0.5
G1 X11.307 Y22.507
G3 X11.312 Y22.566 R0.5
G1 X11.313 Y22.603
G3 X11.308 Y22.682 R0.5
G1 X11.302 Y22.728
G3 X11.285 Y22.809 R0.5
G1 X11.272 Y22.851
G3 X11.24 Y22.93 R0.5
G1 X11.219 Y22.972
G3 X11.175 Y23.044 R0.5
G1 X11.149 Y23.078
G3 X11.094 Y23.141 R0.5
G1 X11.06 Y23.173
G3 X11.005 Y23.219 R0.5
G1 X10.981 Y23.236
G3 X10.902 Y23.283 R0.5
X10.624 Y23.411 R25.709
X10.521 Y23.445 R0.5
G1 X10.475 Y23.454
G3 X10.393 Y23.465 R0.5
G1 X10.35 Y23.466
G3 X10.266 Y23.463 R0.5
G1 X10.219 Y23.457
G3 X10.136 Y23.439 R0.5
G1 X10.094 Y23.426
G3 X10.017 Y23.395 R0.5
G1 X9.976 Y23.374
G3 X9.903 Y23.33 R0.5
G1 X9.869 Y23.304
G3 X9.805 Y23.249 R0.5
G1 X9.771 Y23.214
G3 X9.748 Y23.189 R0.5
G1 X9.658 Y23.081
X9.582 Y22.997
X9.487 Y23.036
Y23.067
Y23.073
X9.491 Y23.143
X9.496 Y23.205
X9.501 Y23.262
G3 X9.502 Y23.275 R0.5
G1 X9.506 Y23.325
G3 Y23.383 R0.5
G1 X9.504 Y23.42
G3 X9.494 Y23.499 R0.5
G1 X9.484 Y23.545
G3 X9.46 Y23.625 R0.5
G1 X9.444 Y23.666
G3 X9.406 Y23.741 R0.5
G1 X9.382 Y23.781
G3 X9.332 Y23.849 R0.5
G1 X9.304 Y23.882
G3 X9.244 Y23.94 R0.5
G1 X9.208 Y23.97
G3 X9.149 Y24.011 R0.5
G1 X9.124 Y24.027
G3 X9.041 Y24.066 R0.5
X8.755 Y24.172 R25.709
X8.649 Y24.198 R0.5
G1 X8.603 Y24.204
G3 X8.52 Y24.208 R0.5
G1 X8.477 Y24.206
G3 X8.392 Y24.196 R0.5
G1 X8.347 Y24.186
G3 X8.267 Y24.162 R0.5
G1 X8.226 Y24.146
G3 X8.15 Y24.109 R0.5
G1 X8.11 Y24.084
G3 X8.043 Y24.035 R0.5
G1 X8.01 Y24.007
G3 X7.951 Y23.947 R0.5
G1 X7.919 Y23.909
G3 X7.899 Y23.882 R0.5
G1 X7.817 Y23.767
X7.748 Y23.678
X7.65 Y23.71
X7.648 Y23.74
Y23.746
X7.646 Y23.817
Y23.878
X7.647 Y23.936
G3 Y23.948 R0.5
G1 X7.646 Y23.999
G3 X7.642 Y24.057 R0.5
G1 X7.638 Y24.094
G3 X7.621 Y24.172 R0.5
G1 X7.608 Y24.216
G3 X7.577 Y24.295 R0.5
G1 X7.558 Y24.333
G3 X7.515 Y24.406 R0.5
G1 X7.487 Y24.444
G3 X7.433 Y24.507 R0.5
G1 X7.402 Y24.538
G3 X7.336 Y24.592 R0.5
G1 X7.298 Y24.619
G3 X7.238 Y24.654 R0.5
G1 X7.212 Y24.668
G3 X7.125 Y24.702 R0.5
X6.831 Y24.784 R25.709
X6.725 Y24.802 R0.5
G1 X6.679 Y24.804
G3 X6.593 Y24.801 R0.5
G1 X6.55 Y24.796
G3 X6.468 Y24.78 R0.5
G1 X6.424 Y24.767
G3 X6.345 Y24.736 R0.5
G1 X6.307 Y24.717
G3 X6.234 Y24.674 R0.5
G1 X6.196 Y24.647
G3 X6.132 Y24.592 R0.5
G1 X6.102 Y24.562
G3 X6.047 Y24.496 R0.5
G1 X6.019 Y24.456
G3 X6.001 Y24.428 R0.5
G1 X5.928 Y24.308
X5.866 Y24.213
X5.766 Y24.237
X5.762 Y24.267
X5.761 Y24.273
X5.754 Y24.343
X5.749 Y24.405
X5.746 Y24.462
G3 X5.745 Y24.475 R0.5
G1 X5.74 Y24.525
G3 X5.731 Y24.582 R0.5
G1 X5.724 Y24.619
G3 X5.701 Y24.695 R0.5
G1 X5.684 Y24.739
G3 X5.648 Y24.814 R0.5
G1 X5.626 Y24.851
G3 X5.576 Y24.921 R0.5
G1 X5.546 Y24.956
G3 X5.486 Y25.016 R0.5
G1 X5.453 Y25.043
G3 X5.385 Y25.092 R0.5
G1 X5.344 Y25.115
G3 X5.282 Y25.146 R0.5
G1 X5.254 Y25.157
G3 X5.165 Y25.185 R0.5
X4.866 Y25.244 R25.709
X4.757 Y25.253 R0.5
G1 X4.711 Y25.252
G3 X4.628 Y25.243 R0.5
G1 X4.586 Y25.234
G3 X4.504 Y25.211 R0.5
G1 X4.46 Y25.194
G3 X4.384 Y25.157 R0.5
G1 X4.347 Y25.135
G3 X4.279 Y25.087 R0.5
G1 X4.243 Y25.057
G3 X4.184 Y24.997 R0.5
G1 X4.156 Y24.964
G3 X4.107 Y24.896 R0.5
G1 X4.082 Y24.853
G3 X4.066 Y24.823 R0.5
G1 X4.003 Y24.698
X3.948 Y24.599
X3.847 Y24.614
X3.84 Y24.644
X3.839 Y24.65
X3.826 Y24.72
X3.817 Y24.781
X3.809 Y24.837
G3 X3.807 Y24.85 R0.5
G1 X3.798 Y24.9
G3 X3.785 Y24.956 R0.5
G1 X3.774 Y24.992
G3 X3.746 Y25.066 R0.5
G1 X3.726 Y25.108
G3 X3.683 Y25.181 R0.5
G1 X3.658 Y25.217
G3 X3.604 Y25.281 R0.5
G1 X3.571 Y25.314
G3 X3.507 Y25.368 R0.5
G1 X3.472 Y25.394
G3 X3.4 Y25.437 R0.5
G1 X3.358 Y25.457
G3 X3.291 Y25.484 R0.5
G1 X3.263 Y25.493
G3 X3.173 Y25.512 R0.5
X2.87 Y25.548 R25.709
X2.762 R0.5
G1 X2.715 Y25.543
G3 X2.633 Y25.528 R0.5
G1 X2.591 Y25.516
G3 X2.513 Y25.487 R0.5
G1 X2.471 Y25.467
G3 X2.397 Y25.424 R0.5
G1 X2.362 Y25.399
G3 X2.297 Y25.345 R0.5
G1 X2.264 Y25.313
G3 X2.209 Y25.249 R0.5
G1 X2.184 Y25.214
G3 X2.141 Y25.141 R0.5
G1 X2.119 Y25.097
G3 X2.105 Y25.066 R0.5
G1 X2.053 Y24.936
X2.006 Y24.832
X1.904 Y24.84
X1.895 Y24.87
X1.893 Y24.875
X1.875 Y24.944
X1.861 Y25.004
X1.848 Y25.06
G3 X1.845 Y25.072 R0.5
G1 X1.833 Y25.121
G3 X1.815 Y25.176 R0.5
G1 X1.802 Y25.211
G3 X1.768 Y25.283 R0.5
G1 X1.744 Y25.323
G3 X1.697 Y25.392 R0.5
G1 X1.669 Y25.425
G3 X1.61 Y25.486 R0.5
G1 X1.574 Y25.516
G3 X1.506 Y25.566 R0.5
G1 X1.469 Y25.588
G3 X1.393 Y25.625 R0.5
G1 X1.35 Y25.642
G3 X1.282 Y25.663 R0.5
G1 X1.253 Y25.67
G3 X1.162 Y25.682 R0.5
X0.857 Y25.694 R25.709
X0.749 Y25.686 R0.5
G1 X0.703 Y25.678
G3 X0.622 Y25.656 R0.5
G1 X0.581 Y25.641
G3 X0.505 Y25.605 R0.5
G1 X0.464 Y25.582
G3 X0.395 Y25.534 R0.5
G1 X0.362 Y25.506
G3 X0.302 Y25.448 R0.5
G1 X0.271 Y25.412
G3 X0.221 Y25.344 R0.5
G1 X0.199 Y25.307
G3 X0.162 Y25.232 R0.5
G1 X0.144 Y25.186
G3 X0.132 Y25.154 R0.5
G1 X0.09 Y25.02
X0.052 Y24.913
X-0.051
X-0.062 Y24.941
X-0.064 Y24.947
X-0.088 Y25.014
X-0.107 Y25.073
X-0.124 Y25.127
G3 X-0.128 Y25.139 R0.5
G1 X-0.144 Y25.187
G3 X-0.166 Y25.241 R0.5
G1 X-0.182 Y25.275
G3 X-0.221 Y25.344 R0.5
G1 X-0.248 Y25.382
G3 X-0.301 Y25.447 R0.5
G1 X-0.331 Y25.478
G3 X-0.395 Y25.534 R0.5
G1 X-0.433 Y25.561
G3 X-0.504 Y25.605 R0.5
G1 X-0.543 Y25.624
G3 X-0.622 Y25.656 R0.5
G1 X-0.667 Y25.669
G3 X-0.735 Y25.684 R0.5
G1 X-0.764 Y25.689
G3 X-0.857 Y25.694 R0.5
X-1.162 Y25.682 R25.709
X-1.269 Y25.666 R0.5
G1 X-1.314 Y25.654
G3 X-1.392 Y25.625 R0.5
G1 X-1.432 Y25.607
G3 X-1.506 Y25.566 R0.5
G1 X-1.544 Y25.539
G3 X-1.609 Y25.486 R0.5
G1 X-1.64 Y25.456
G3 X-1.696 Y25.393 R0.5
G1 X-1.724 Y25.355
G3 X-1.768 Y25.283 R0.5
G1 X-1.787 Y25.245
G3 X-1.818 Y25.166 R0.5
G1 X-1.833 Y25.119
G3 X-1.842 Y25.087 R0.5
G1 X-1.873 Y24.95
X-1.903 Y24.841
X-2.005 Y24.832
X-2.019 Y24.86
X-2.022 Y24.865
X-2.05 Y24.93
X-2.074 Y24.987
X-2.095 Y25.04
G3 X-2.1 Y25.052 R0.5
G1 X-2.12 Y25.099
G3 X-2.146 Y25.15 R0.5
G1 X-2.164 Y25.183
G3 X-2.209 Y25.248 R0.5
G1 X-2.239 Y25.284
G3 X-2.297 Y25.345 R0.5
G1 X-2.329 Y25.374
G3 X-2.397 Y25.424 R0.5
G1 X-2.437 Y25.448
G3 X-2.512 Y25.486 R0.5
G1 X-2.552 Y25.503
G3 X-2.632 Y25.527 R0.5
G1 X-2.677 Y25.537
G3 X-2.749 Y25.548 R0.5
G1 X-2.779 Y25.55
G3 X-2.87 Y25.548 R0.5
X-3.173 Y25.512 R25.709
X-3.279 Y25.487 R0.5
G1 X-3.323 Y25.472
G3 X-3.399 Y25.437 R0.5
G1 X-3.436 Y25.416
G3 X-3.507 Y25.368 R0.5
G1 X-3.544 Y25.339
G3 X-3.604 Y25.281 R0.5
G1 X-3.633 Y25.249
G3 X-3.683 Y25.182 R0.5
G1 X-3.708 Y25.142
G3 X-3.746 Y25.067 R0.5
G1 X-3.762 Y25.027
G3 X-3.787 Y24.946 R0.5
G1 X-3.798 Y24.898
G3 X-3.804 Y24.865 R0.5
G1 X-3.825 Y24.726
X-3.846 Y24.615
X-3.948 Y24.599
X-3.963 Y24.624
X-3.966 Y24.629
X-4. Y24.692
X-4.028 Y24.747
X-4.053 Y24.799
G3 X-4.059 Y24.81 R0.5
G1 X-4.082 Y24.855
G3 X-4.112 Y24.904 R0.5
G1 X-4.133 Y24.935
G3 X-4.183 Y24.997 R0.5
G1 X-4.215 Y25.031
G3 X-4.278 Y25.087 R0.5
G1 X-4.313 Y25.113
G3 X-4.384 Y25.157 R0.5
G1 X-4.426 Y25.179
G3 X-4.504 Y25.211 R0.5
G1 X-4.545 Y25.224
G3 X-4.628 Y25.242 R0.5
G1 X-4.674 Y25.249
G3 X-4.743 Y25.253 R0.5
G1 X-4.773
G3 X-4.866 Y25.244 R0.5
X-5.165 Y25.185 R25.709
X-5.268 Y25.151 R0.5
G1 X-5.311 Y25.132
G3 X-5.385 Y25.092 R0.5
G1 X-5.421 Y25.068
G3 X-5.486 Y25.015 R0.5
G1 X-5.52 Y24.983
G3 X-5.576 Y24.921 R0.5
G1 X-5.602 Y24.886
G3 X-5.648 Y24.815 R0.5
G1 X-5.669 Y24.773
G3 X-5.701 Y24.696 R0.5
G1 X-5.714 Y24.655
G3 X-5.733 Y24.572 R0.5
G1 X-5.74 Y24.523
G3 X-5.743 Y24.49 R0.5
G1 X-5.753 Y24.349
X-5.766 Y24.237
X-5.865 Y24.213
X-5.883 Y24.238
X-5.886 Y24.242
X-5.925 Y24.302
X-5.957 Y24.355
X-5.986 Y24.404
G3 X-5.993 Y24.415 R0.5
G1 X-6.02 Y24.458
G3 X-6.054 Y24.505 R0.5
G1 X-6.077 Y24.534
G3 X-6.131 Y24.592 R0.5
G1 X-6.166 Y24.623
G3 X-6.233 Y24.674 R0.5
G1 X-6.27 Y24.697
G3 X-6.344 Y24.736 R0.5
G1 X-6.387 Y24.754
G3 X-6.468 Y24.78 R0.5
G1 X-6.511 Y24.789
G3 X-6.594 Y24.801 R0.5
G1 X-6.64 Y24.804
G3 X-6.712 Y24.803 R0.5
G1 X-6.741 Y24.801
G3 X-6.831 Y24.784 R0.5
X-7.125 Y24.702 R25.709
X-7.226 Y24.66 R0.5
G1 X-7.267 Y24.638
G3 X-7.336 Y24.592 R0.5
G1 X-7.37 Y24.565
G3 X-7.432 Y24.508 R0.5
G1 X-7.464 Y24.473
G3 X-7.515 Y24.406 R0.5
G1 X-7.538 Y24.37
G3 X-7.577 Y24.295 R0.5
G1 X-7.595 Y24.252
G3 X-7.621 Y24.172 R0.5
G1 X-7.631 Y24.13
G3 X-7.643 Y24.047 R0.5
G1 X-7.646 Y23.997
G3 X-7.647 Y23.963 R0.5
G1 X-7.646 Y23.823
X-7.649 Y23.71
X-7.747 Y23.678
X-7.767 Y23.702
X-7.77 Y23.706
X-7.813 Y23.762
X-7.849 Y23.812
X-7.882 Y23.859
G3 X-7.89 Y23.869 R0.5
G1 X-7.92 Y23.91
G3 X-7.958 Y23.955 R0.5
G1 X-7.984 Y23.982
G3 X-8.042 Y24.035 R0.5
G1 X-8.079 Y24.063
G3 X-8.149 Y24.108 R0.5
G1 X-8.188 Y24.129
G3 X-8.266 Y24.162 R0.5
G1 X-8.311 Y24.176
G3 X-8.392 Y24.196 R0.5
G1 X-8.435 Y24.202
G3 X-8.52 Y24.208 R0.5
G1 X-8.566 Y24.207
G3 X-8.635 Y24.2 R0.5
G1 X-8.664 Y24.196
G3 X-8.755 Y24.172 R0.5
X-9.041 Y24.066 R25.709
X-9.138 Y24.018 R0.5
G1 X-9.177 Y23.992
G3 X-9.243 Y23.941 R0.5
G1 X-9.275 Y23.911
G3 X-9.332 Y23.849 R0.5
G1 X-9.361 Y23.812
G3 X-9.406 Y23.741 R0.5
G1 X-9.427 Y23.703
G3 X-9.46 Y23.626 R0.5
G1 X-9.474 Y23.581
G3 X-9.494 Y23.5 R0.5
G1 X-9.501 Y23.457
G3 X-9.506 Y23.373 R0.5
G1 X-9.505 Y23.324
G3 X-9.504 Y23.29 R0.5
G1 X-9.492 Y23.15
X-9.486 Y23.037
X-9.581 Y22.997
X-9.603 Y23.019
X-9.606 Y23.023
X-9.654 Y23.076
X-9.693 Y23.123
X-9.73 Y23.167
G3 X-9.739 Y23.177 R0.5
G1 X-9.772 Y23.215
G3 X-9.812 Y23.256 R0.5
G1 X-9.84 Y23.281
G3 X-9.903 Y23.33 R0.5
G1 X-9.942 Y23.355
G3 X-10.016 Y23.395 R0.5
G1 X-10.056 Y23.412
G3 X-10.136 Y23.439 R0.5
G1 X-10.182 Y23.45
G3 X-10.265 Y23.463 R0.5
G1 X-10.308 Y23.466
G3 X-10.392 Y23.465 R0.5
G1 X-10.439 Y23.46
G3 X-10.508 Y23.448 R0.5
G1 X-10.537 Y23.441
G3 X-10.624 Y23.411 R0.5
X-10.902 Y23.283 R25.709
X-10.994 Y23.227 R0.5
G1 X-11.031 Y23.198
G3 X-11.093 Y23.142 R0.5
G1 X-11.123 Y23.11
G3 X-11.174 Y23.044 R0.5
G1 X-11.2 Y23.005
G3 X-11.24 Y22.931 R0.5
G1 X-11.257 Y22.891
G3 X-11.284 Y22.81 R0.5
G1 X-11.296 Y22.765
G3 X-11.309 Y22.683 R0.5
G1 X-11.312 Y22.64
G3 X-11.311 Y22.555 R0.5
G1 X-11.306 Y22.506
G3 X-11.302 Y22.472 R0.5
G1 X-11.279 Y22.333
X-11.264 Y22.221
X-11.356 Y22.175
X-11.379 Y22.195
X-11.383 Y22.199
X-11.434 Y22.248
X-11.478 Y22.291
X-11.518 Y22.332
G3 X-11.527 Y22.342 R0.5
G1 X-11.564 Y22.377
G3 X-11.607 Y22.415 R0.5
G1 X-11.637 Y22.438
G3 X-11.702 Y22.48 R0.5
G1 X-11.743 Y22.503
G3 X-11.821 Y22.537 R0.5
G1 X-11.862 Y22.551
G3 X-11.944 Y22.571 R0.5
G1 X-11.99 Y22.579
G3 X-12.074 Y22.585 R0.5
G1 X-12.118
G3 X-12.201 Y22.577 R0.5
G1 X-12.247 Y22.569
G3 X-12.316 Y22.551 R0.5
G1 X-12.344 Y22.542
G3 X-12.428 Y22.505 R0.5
X-12.695 Y22.356 R25.709
X-12.783 Y22.292 R0.5
G1 X-12.817 Y22.261
G3 X-12.874 Y22.2 R0.5
G1 X-12.901 Y22.167
G3 X-12.948 Y22.095 R0.5
G1 X-12.971 Y22.054
G3 X-13.004 Y21.978 R0.5
G1 X-13.018 Y21.937
G3 X-13.039 Y21.856 R0.5
G1 X-13.047 Y21.81
G3 X-13.053 Y21.725 R0.5
G1 Y21.681
G3 X-13.046 Y21.598 R0.5
G1 X-13.037 Y21.55
G3 X-13.03 Y21.516 R0.5
G1 X-12.996 Y21.38
X-12.973 Y21.269
X-13.061 Y21.215
X-13.084 Y21.233
X-13.089 Y21.236
X-13.145 Y21.282
X-13.191 Y21.322
X-13.235 Y21.36
G3 X-13.244 Y21.368 R0.5
G1 X-13.283 Y21.4
G3 X-13.329 Y21.435 R0.5
G1 X-13.36 Y21.455
G3 X-13.431 Y21.494 R0.5
G1 X-13.474 Y21.513
G3 X-13.552 Y21.54 R0.5
G1 X-13.594 Y21.551
G3 X-13.678 Y21.565 R0.5
G1 X-13.724 Y21.568
G3 X-13.809 R0.5
G1 X-13.852 Y21.564
G3 X-13.935 Y21.55 R0.5
G1 X-13.98 Y21.538
G3 X-14.048 Y21.515 R0.5
G1 X-14.075 Y21.504
G3 X-14.156 Y21.46 R0.5
X-14.41 Y21.291 R25.709
X-14.492 Y21.221 R0.5
G1 X-14.524 Y21.187
G3 X-14.577 Y21.122 R0.5
G1 X-14.601 Y21.086
G3 X-14.642 Y21.012 R0.5
G1 X-14.661 Y20.969
G3 X-14.689 Y20.889 R0.5
G1 X-14.7 Y20.847
G3 X-14.714 Y20.764 R0.5
G1 X-14.718 Y20.718
G3 Y20.634 R0.5
G1 X-14.714 Y20.591
G3 X-14.7 Y20.508 R0.5
G1 X-14.688 Y20.46
G3 X-14.678 Y20.428 R0.5
G1 X-14.634 Y20.294
X-14.602 Y20.186
X-14.685 Y20.125
X-14.71 Y20.141
X-14.715 Y20.144
X-14.774 Y20.185
X-14.824 Y20.222
X-14.87 Y20.256
G3 X-14.88 Y20.263 R0.5
G1 X-14.921 Y20.292
G3 X-14.97 Y20.323 R0.5
G1 X-15.003 Y20.341
G3 X-15.075 Y20.373 R0.5
G1 X-15.119 Y20.389
G3 X-15.201 Y20.41 R0.5
G1 X-15.244 Y20.418
G3 X-15.328 Y20.425 R0.5
G1 X-15.375
G3 X-15.458 Y20.418 R0.5
G1 X-15.5 Y20.411
G3 X-15.583 Y20.39 R0.5
G1 X-15.627 Y20.375
G3 X-15.693 Y20.346 R0.5
G1 X-15.719 Y20.333
G3 X-15.796 Y20.284 R0.5
X-16.036 Y20.095 R25.709
X-16.112 Y20.018 R0.5
G1 X-16.142 Y19.982
G3 X-16.189 Y19.913 R0.5
G1 X-16.21 Y19.875
G3 X-16.246 Y19.797 R0.5
G1 X-16.261 Y19.753
G3 X-16.282 Y19.674 R0.5
G1 X-16.29 Y19.631
G3 X-16.298 Y19.545 R0.5
G1 Y19.499
G3 X-16.291 Y19.416 R0.5
G1 X-16.284 Y19.373
G3 X-16.264 Y19.291 R0.5
G1 X-16.248 Y19.245
G3 X-16.235 Y19.213 R0.5
G1 X-16.181 Y19.084
X-16.141 Y18.978
X-16.219 Y18.911
X-16.246 Y18.925
X-16.251 Y18.928
X-16.312 Y18.964
X-16.365 Y18.996
X-16.413 Y19.027
G3 X-16.424 Y19.033 R0.5
G1 X-16.467 Y19.059
G3 X-16.519 Y19.086 R0.5
G1 X-16.553 Y19.101
G3 X-16.627 Y19.128 R0.5
G1 X-16.672 Y19.14
G3 X-16.756 Y19.155 R0.5
G1 X-16.799 Y19.159
G3 X-16.883 R0.5
G1 X-16.929 Y19.156
G3 X-17.013 Y19.142 R0.5
G1 X-17.055 Y19.132
G3 X-17.135 Y19.105 R0.5
G1 X-17.177 Y19.086
G3 X-17.24 Y19.053 R0.5
G1 X-17.265 Y19.038
G3 X-17.339 Y18.982 R0.5
X-17.563 Y18.775 R25.709
X-17.634 Y18.692 R0.5
G1 X-17.66 Y18.654
G3 X-17.701 Y18.581 R0.5
G1 X-17.719 Y18.542
G3 X-17.748 Y18.463 R0.5
G1 X-17.761 Y18.418
G3 X-17.776 Y18.334 R0.5
G1 X-17.78 Y18.291
G3 X-17.781 Y18.207 R0.5
G1 X-17.777 Y18.161
G3 X-17.764 Y18.078 R0.5
G1 X-17.754 Y18.036
G3 X-17.727 Y17.956 R0.5
G1 X-17.707 Y17.911
G3 X-17.693 Y17.88 R0.5
G1 X-17.628 Y17.755
X-17.58 Y17.653
X-17.652 Y17.58
X-17.68 Y17.592
X-17.685 Y17.594
X-17.75 Y17.625
X-17.805 Y17.654
X-17.855 Y17.68
G3 X-17.867 Y17.686 R0.5
G1 X-17.912 Y17.708
G3 X-17.965 Y17.731 R0.5
G1 X-18.001 Y17.744
G3 X-18.077 Y17.764 R0.5
G1 X-18.123 Y17.773
G3 X-18.207 Y17.781 R0.5
G1 X-18.25 Y17.782
G3 X-18.334 Y17.776 R0.5
G1 X-18.38 Y17.769
G3 X-18.463 Y17.748 R0.5
G1 X-18.504 Y17.735
G3 X-18.58 Y17.702 R0.5
G1 X-18.621 Y17.68
G3 X-18.682 Y17.642 R0.5
G1 X-18.706 Y17.624
G3 X-18.775 Y17.563 R0.5
X-18.982 Y17.339 R25.709
X-19.045 Y17.252 R0.5
G1 X-19.069 Y17.211
G3 X-19.105 Y17.134 R0.5
G1 X-19.12 Y17.094
G3 X-19.142 Y17.014 R0.5
G1 X-19.151 Y16.968
G3 X-19.16 Y16.883 R0.5
G1 Y16.839
G3 X-19.155 Y16.756 R0.5
G1 X-19.148 Y16.71
G3 X-19.128 Y16.628 R0.5
G1 X-19.114 Y16.587
G3 X-19.081 Y16.51 R0.5
G1 X-19.058 Y16.466
G3 X-19.041 Y16.437 R0.5
G1 X-18.967 Y16.317
X-18.911 Y16.219
X-18.977 Y16.141
X-19.006 Y16.151
X-19.012 Y16.153
X-19.078 Y16.178
X-19.135 Y16.202
X-19.187 Y16.225
G3 X-19.199 Y16.23 R0.5
G1 X-19.246 Y16.248
G3 X-19.301 Y16.267 R0.5
G1 X-19.337 Y16.277
G3 X-19.415 Y16.291 R0.5
G1 X-19.461 Y16.296
G3 X-19.546 Y16.298 R0.5
G1 X-19.589 Y16.295
G3 X-19.672 Y16.283 R0.5
G1 X-19.717 Y16.272
G3 X-19.798 Y16.245 R0.5
G1 X-19.838 Y16.228
G3 X-19.912 Y16.189 R0.5
G1 X-19.951 Y16.164
G3 X-20.009 Y16.121 R0.5
G1 X-20.031 Y16.102
G3 X-20.095 Y16.036 R0.5
X-20.284 Y15.796 R25.709
X-20.34 Y15.704 R0.5
G1 X-20.36 Y15.662
G3 X-20.39 Y15.583 R0.5
G1 X-20.402 Y15.541
G3 X-20.418 Y15.459 R0.5
G1 X-20.423 Y15.412
G3 X-20.425 Y15.328 R0.5
G1 X-20.422 Y15.285
G3 X-20.41 Y15.201 R0.5
G1 X-20.399 Y15.156
G3 X-20.374 Y15.077 R0.5
G1 X-20.357 Y15.037
G3 X-20.317 Y14.961 R0.5
G1 X-20.291 Y14.92
G3 X-20.272 Y14.892 R0.5
G1 X-20.189 Y14.779
X-20.125 Y14.685
X-20.185 Y14.602
X-20.214 Y14.61
X-20.22 Y14.611
X-20.288 Y14.632
X-20.347 Y14.651
X-20.401 Y14.669
G3 X-20.413 Y14.673 R0.5
G1 X-20.462 Y14.688
G3 X-20.517 Y14.702 R0.5
G1 X-20.554 Y14.709
G3 X-20.634 Y14.718 R0.5
G1 X-20.68 Y14.719
G3 X-20.764 Y14.714 R0.5
G1 X-20.806 Y14.708
G3 X-20.889 Y14.689 R0.5
G1 X-20.934 Y14.674
G3 X-21.011 Y14.642 R0.5
G1 X-21.05 Y14.622
G3 X-21.121 Y14.577 R0.5
G1 X-21.158 Y14.549
G3 X-21.212 Y14.501 R0.5
G1 X-21.233 Y14.48
G3 X-21.291 Y14.41 R0.5
X-21.46 Y14.156 R25.709
X-21.51 Y14.06 R0.5
G1 X-21.526 Y14.017
G3 X-21.55 Y13.935 R0.5
G1 X-21.559 Y13.893
G3 X-21.568 Y13.808 R0.5
G1 X-21.569 Y13.762
G3 X-21.565 Y13.678 R0.5
G1 X-21.559 Y13.636
G3 X-21.54 Y13.553 R0.5
G1 X-21.526 Y13.509
G3 X-21.494 Y13.431 R0.5
G1 X-21.474 Y13.393
G3 X-21.429 Y13.322 R0.5
G1 X-21.4 Y13.283
G3 X-21.378 Y13.255 R0.5
G1 X-21.286 Y13.149
X-21.215 Y13.061
X-21.269 Y12.974
X-21.299 Y12.979
X-21.304 Y12.98
X-21.374 Y12.995
X-21.434 Y13.009
X-21.49 Y13.024
G3 X-21.501 Y13.026 R0.5
G1 X-21.551 Y13.038
G3 X-21.608 Y13.047 R0.5
G1 X-21.645 Y13.051
G3 X-21.725 Y13.053 R0.5
G1 X-21.772 Y13.051
G3 X-21.855 Y13.039 R0.5
G1 X-21.897 Y13.03
G3 X-21.977 Y13.005 R0.5
G1 X-22.02 Y12.987
G3 X-22.095 Y12.949 R0.5
G1 X-22.131 Y12.926
G3 X-22.2 Y12.874 R0.5
G1 X-22.235 Y12.843
G3 X-22.284 Y12.793 R0.5
G1 X-22.303 Y12.77
G3 X-22.356 Y12.695 R0.5
X-22.505 Y12.428 R25.709
X-22.546 Y12.329 R0.5
G1 X-22.56 Y12.285
G3 X-22.577 Y12.201 R0.5
G1 X-22.582 Y12.158
G3 X-22.585 Y12.074 R0.5
G1 X-22.583 Y12.028
G3 X-22.571 Y11.944 R0.5
G1 X-22.562 Y11.901
G3 X-22.537 Y11.822 R0.5
G1 X-22.519 Y11.778
G3 X-22.482 Y11.704 R0.5
G1 X-22.459 Y11.667
G3 X-22.408 Y11.599 R0.5
G1 X-22.375 Y11.562
G3 X-22.352 Y11.538 R0.5
G1 X-22.252 Y11.439
X-22.174 Y11.356
X-22.221 Y11.265
X-22.252 Y11.268
X-22.257
X-22.328 Y11.278
X-22.388 Y11.288
X-22.444 Y11.297
G3 X-22.457 Y11.299 R0.5
G1 X-22.507 Y11.307
G3 X-22.566 Y11.312 R0.5
G1 X-22.603 Y11.313
G3 X-22.682 Y11.308 R0.5
G1 X-22.728 Y11.302
G3 X-22.809 Y11.285 R0.5
G1 X-22.851 Y11.272
G3 X-22.93 Y11.24 R0.5
G1 X-22.972 Y11.219
G3 X-23.044 Y11.175 R0.5
G1 X-23.078 Y11.149
G3 X-23.141 Y11.094 R0.5
G1 X-23.173 Y11.06
G3 X-23.219 Y11.005 R0.5
G1 X-23.236 Y10.981
G3 X-23.283 Y10.902 R0.5
X-23.411 Y10.624 R25.709
X-23.445 Y10.521 R0.5
G1 X-23.454 Y10.475
G3 X-23.465 Y10.393 R0.5
G1 X-23.466 Y10.35
G3 X-23.463 Y10.266 R0.5
G1 X-23.457 Y10.219
G3 X-23.439 Y10.136 R0.5
G1 X-23.426 Y10.094
G3 X-23.395 Y10.017 R0.5
G1 X-23.374 Y9.976
G3 X-23.33 Y9.903 R0.5
G1 X-23.304 Y9.869
G3 X-23.249 Y9.805 R0.5
G1 X-23.214 Y9.771
G3 X-23.189 Y9.748 R0.5
G1 X-23.081 Y9.658
X-22.997 Y9.582
X-23.036 Y9.487
X-23.067
X-23.073
X-23.143 Y9.491
X-23.205 Y9.496
X-23.262 Y9.501
G3 X-23.275 Y9.502 R0.5
G1 X-23.325 Y9.506
G3 X-23.383 R0.5
G1 X-23.42 Y9.504
G3 X-23.499 Y9.494 R0.5
G1 X-23.545 Y9.484
G3 X-23.625 Y9.46 R0.5
G1 X-23.666 Y9.444
G3 X-23.741 Y9.406 R0.5
G1 X-23.781 Y9.382
G3 X-23.849 Y9.332 R0.5
G1 X-23.882 Y9.304
G3 X-23.94 Y9.244 R0.5
G1 X-23.97 Y9.208
G3 X-24.011 Y9.149 R0.5
G1 X-24.027 Y9.124
G3 X-24.066 Y9.041 R0.5
X-24.172 Y8.755 R25.709
X-24.198 Y8.649 R0.5
G1 X-24.204 Y8.603
G3 X-24.208 Y8.52 R0.5
G1 X-24.206 Y8.477
G3 X-24.196 Y8.392 R0.5
G1 X-24.186 Y8.347
G3 X-24.162 Y8.267 R0.5
G1 X-24.146 Y8.226
G3 X-24.109 Y8.15 R0.5
G1 X-24.084 Y8.11
G3 X-24.035 Y8.043 R0.5
G1 X-24.007 Y8.01
G3 X-23.947 Y7.951 R0.5
G1 X-23.909 Y7.919
G3 X-23.882 Y7.899 R0.5
G1 X-23.767 Y7.817
X-23.678 Y7.748
X-23.71 Y7.65
X-23.74 Y7.648
X-23.746
X-23.817 Y7.646
X-23.878
X-23.936 Y7.647
G3 X-23.948 R0.5
G1 X-23.999 Y7.646
G3 X-24.057 Y7.642 R0.5
G1 X-24.094 Y7.638
G3 X-24.172 Y7.621 R0.5
G1 X-24.216 Y7.608
G3 X-24.295 Y7.577 R0.5
G1 X-24.333 Y7.558
G3 X-24.406 Y7.515 R0.5
G1 X-24.444 Y7.487
G3 X-24.507 Y7.433 R0.5
G1 X-24.538 Y7.402
G3 X-24.592 Y7.336 R0.5
G1 X-24.619 Y7.298
G3 X-24.654 Y7.238 R0.5
G1 X-24.668 Y7.212
G3 X-24.702 Y7.125 R0.5
X-24.784 Y6.831 R25.709
X-24.802 Y6.725 R0.5
G1 X-24.804 Y6.679
G3 X-24.801 Y6.593 R0.5
G1 X-24.796 Y6.55
G3 X-24.78 Y6.468 R0.5
G1 X-24.767 Y6.424
G3 X-24.736 Y6.345 R0.5
G1 X-24.717 Y6.307
G3 X-24.674 Y6.234 R0.5
G1 X-24.647 Y6.196
G3 X-24.592 Y6.132 R0.5
G1 X-24.562 Y6.102
G3 X-24.496 Y6.047 R0.5
G1 X-24.456 Y6.019
G3 X-24.428 Y6.001 R0.5
G1 X-24.308 Y5.928
X-24.213 Y5.866
X-24.237 Y5.766
X-24.267 Y5.762
X-24.273 Y5.761
X-24.343 Y5.754
X-24.405 Y5.749
X-24.462 Y5.746
G3 X-24.475 Y5.745 R0.5
G1 X-24.525 Y5.74
G3 X-24.582 Y5.731 R0.5
G1 X-24.619 Y5.724
G3 X-24.695 Y5.701 R0.5
G1 X-24.739 Y5.684
G3 X-24.814 Y5.648 R0.5
G1 X-24.851 Y5.626
G3 X-24.921 Y5.576 R0.5
G1 X-24.956 Y5.546
G3 X-25.016 Y5.486 R0.5
G1 X-25.043 Y5.453
G3 X-25.092 Y5.385 R0.5
G1 X-25.115 Y5.344
G3 X-25.146 Y5.282 R0.5
G1 X-25.157 Y5.254
G3 X-25.185 Y5.165 R0.5
X-25.244 Y4.866 R25.709
X-25.253 Y4.757 R0.5
G1 X-25.252 Y4.711
G3 X-25.243 Y4.628 R0.5
G1 X-25.234 Y4.586
G3 X-25.211 Y4.504 R0.5
G1 X-25.194 Y4.46
G3 X-25.157 Y4.384 R0.5
G1 X-25.135 Y4.347
G3 X-25.087 Y4.279 R0.5
G1 X-25.057 Y4.243
G3 X-24.997 Y4.184 R0.5
G1 X-24.964 Y4.156
G3 X-24.896 Y4.107 R0.5
G1 X-24.853 Y4.082
G3 X-24.823 Y4.066 R0.5
G1 X-24.698 Y4.003
X-24.599 Y3.948
X-24.614 Y3.847
X-24.644 Y3.84
X-24.65 Y3.839
X-24.72 Y3.826
X-24.781 Y3.817
X-24.837 Y3.809
G3 X-24.85 Y3.807 R0.5
G1 X-24.9 Y3.798
G3 X-24.956 Y3.785 R0.5
G1 X-24.992 Y3.774
G3 X-25.066 Y3.746 R0.5
G1 X-25.108 Y3.726
G3 X-25.181 Y3.683 R0.5
G1 X-25.217 Y3.658
G3 X-25.281 Y3.604 R0.5
G1 X-25.314 Y3.571
G3 X-25.368 Y3.507 R0.5
G1 X-25.394 Y3.472
G3 X-25.437 Y3.4 R0.5
G1 X-25.457 Y3.358
G3 X-25.484 Y3.291 R0.5
G1 X-25.493 Y3.263
G3 X-25.512 Y3.173 R0.5
X-25.548 Y2.87 R25.709
Y2.762 R0.5
G1 X-25.543 Y2.715
G3 X-25.528 Y2.633 R0.5
G1 X-25.516 Y2.591
G3 X-25.487 Y2.513 R0.5
G1 X-25.467 Y2.471
G3 X-25.424 Y2.397 R0.5
G1 X-25.399 Y2.362
G3 X-25.345 Y2.297 R0.5
G1 X-25.313 Y2.264
G3 X-25.249 Y2.209 R0.5
G1 X-25.214 Y2.184
G3 X-25.141 Y2.141 R0.5
G1 X-25.097 Y2.119
G3 X-25.066 Y2.105 R0.5
G1 X-24.936 Y2.053
X-24.832 Y2.006
X-24.84 Y1.904
X-24.87 Y1.895
X-24.875 Y1.893
X-24.944 Y1.875
X-25.004 Y1.861
X-25.06 Y1.848
G3 X-25.072 Y1.845 R0.5
G1 X-25.121 Y1.833
G3 X-25.176 Y1.815 R0.5
G1 X-25.211 Y1.802
G3 X-25.283 Y1.768 R0.5
G1 X-25.323 Y1.744
G3 X-25.392 Y1.697 R0.5
G1 X-25.425 Y1.669
G3 X-25.486 Y1.61 R0.5
G1 X-25.516 Y1.574
G3 X-25.566 Y1.506 R0.5
G1 X-25.588 Y1.469
G3 X-25.625 Y1.393 R0.5
G1 X-25.642 Y1.35
G3 X-25.663 Y1.282 R0.5
G1 X-25.67 Y1.253
G3 X-25.682 Y1.162 R0.5
X-25.694 Y0.857 R25.709
X-25.695 Y0.835 R0.5
X-25.686 Y0.749 Z-2.004 R0.5 F400.
G1 X-25.678 Y0.703 Z-2.006
G3 X-25.656 Y0.622 Z-2.01 R0.5
G1 X-25.641 Y0.581 Z-2.011
G3 X-25.605 Y0.505 Z-2.015 R0.5
G1 X-25.582 Y0.464 Z-2.017
G3 X-25.534 Y0.395 Z-2.021 R0.5
G1 X-25.506 Y0.362 Z-2.023
G3 X-25.448 Y0.302 Z-2.026 R0.5
G1 X-25.412 Y0.271 Z-2.029
G3 X-25.344 Y0.221 Z-2.032 R0.5
G1 X-25.307 Y0.199 Z-2.034
G3 X-25.232 Y0.162 Z-2.038 R0.5
G1 X-25.186 Y0.144 Z-2.04
G3 X-25.154 Y0.132 Z-2.041 R0.5
G1 X-25.02 Y0.09 Z-2.048
X-24.913 Y0.052 Z-2.053
Y-0.051 Z-2.057
X-24.941 Y-0.062 Z-2.058
X-24.947 Y-0.064 Z-2.059
X-25.014 Y-0.088 Z-2.062
X-25.073 Y-0.107 Z-2.065
X-25.127 Y-0.124 Z-2.067
G3 X-25.139 Y-0.128 Z-2.068 R0.5
G1 X-25.187 Y-0.144 Z-2.07
G3 X-25.241 Y-0.166 Z-2.072 R0.5
G1 X-25.275 Y-0.182 Z-2.074
G3 X-25.344 Y-0.221 Z-2.077 R0.5
G1 X-25.382 Y-0.248 Z-2.08
G3 X-25.447 Y-0.301 Z-2.083 R0.5
G1 X-25.478 Y-0.331 Z-2.085
G3 X-25.534 Y-0.395 Z-2.089 R0.5
G1 X-25.561 Y-0.433 Z-2.091
G3 X-25.605 Y-0.504 Z-2.095 R0.5
G1 X-25.624 Y-0.543 Z-2.096
G3 X-25.656 Y-0.622 Z-2.1 R0.5
G1 X-25.669 Y-0.667 Z-2.102
G3 X-25.684 Y-0.735 Z-2.105 R0.5
G1 X-25.689 Y-0.764 Z-2.107
G3 X-25.694 Y-0.857 Z-2.111 R0.5
X-25.682 Y-1.162 Z-2.124 R25.709
X-25.666 Y-1.269 Z-2.129 R0.5
G1 X-25.654 Y-1.314 Z-2.131
G3 X-25.625 Y-1.392 Z-2.135 R0.5
G1 X-25.607 Y-1.432 Z-2.136
G3 X-25.566 Y-1.506 Z-2.14 R0.5
G1 X-25.539 Y-1.544 Z-2.142
G3 X-25.486 Y-1.609 Z-2.146 R0.5
G1 X-25.456 Y-1.64 Z-2.148
G3 X-25.393 Y-1.696 Z-2.151 R0.5
G1 X-25.355 Y-1.724 Z-2.154
G3 X-25.283 Y-1.768 Z-2.157 R0.5
G1 X-25.245 Y-1.787 Z-2.159
G3 X-25.166 Y-1.818 Z-2.163 R0.5
G1 X-25.119 Y-1.833 Z-2.165
G3 X-25.087 Y-1.842 Z-2.166 R0.5
G1 X-24.95 Y-1.873 Z-2.173
X-24.841 Y-1.903 Z-2.178
X-24.832 Y-2.005 Z-2.182
X-24.86 Y-2.019 Z-2.183
X-24.865 Y-2.022 Z-2.184
X-24.93 Y-2.05 Z-2.187
X-24.987 Y-2.074 Z-2.189
X-25.04 Y-2.095 Z-2.192
G3 X-25.052 Y-2.1 Z-2.193 R0.5
G1 X-25.099 Y-2.12 Z-2.195
G3 X-25.15 Y-2.146 Z-2.197 R0.5
G1 X-25.183 Y-2.164 Z-2.199
G3 X-25.248 Y-2.209 Z-2.202 R0.5
G1 X-25.284 Y-2.239 Z-2.205
G3 X-25.345 Y-2.297 Z-2.208 R0.5
G1 X-25.374 Y-2.329 Z-2.21
G3 X-25.424 Y-2.397 Z-2.214 R0.5
G1 X-25.448 Y-2.437 Z-2.216
G3 X-25.486 Y-2.512 Z-2.22 R0.5
G1 X-25.503 Y-2.552 Z-2.221
G3 X-25.527 Y-2.632 Z-2.225 R0.5
G1 X-25.537 Y-2.677 Z-2.227
G3 X-25.548 Y-2.749 Z-2.23 R0.5
G1 X-25.55 Y-2.779 Z-2.232
G3 X-25.548 Y-2.87 Z-2.236 R0.5
X-25.512 Y-3.173 Z-2.249 R25.709
X-25.487 Y-3.279 Z-2.254 R0.5
G1 X-25.472 Y-3.323 Z-2.256
G3 X-25.437 Y-3.399 Z-2.26 R0.5
G1 X-25.416 Y-3.436 Z-2.261
G3 X-25.368 Y-3.507 Z-2.265 R0.5
G1 X-25.339 Y-3.544 Z-2.267
G3 X-25.281 Y-3.604 Z-2.271 R0.5
G1 X-25.249 Y-3.633 Z-2.273
G3 X-25.182 Y-3.683 Z-2.276 R0.5
G1 X-25.142 Y-3.708 Z-2.279
G3 X-25.067 Y-3.746 Z-2.282 R0.5
G1 X-25.027 Y-3.762 Z-2.284
G3 X-24.946 Y-3.787 Z-2.288 R0.5
G1 X-24.898 Y-3.798 Z-2.29
G3 X-24.865 Y-3.804 Z-2.291 R0.5
G1 X-24.726 Y-3.825 Z-2.298
X-24.615 Y-3.846 Z-2.303
X-24.599 Y-3.948 Z-2.307
X-24.624 Y-3.963 Z-2.308
X-24.629 Y-3.966 Z-2.309
X-24.692 Y-4. Z-2.312
X-24.747 Y-4.028 Z-2.315
X-24.799 Y-4.053 Z-2.317
G3 X-24.81 Y-4.059 Z-2.318 R0.5
G1 X-24.855 Y-4.082 Z-2.32
G3 X-24.904 Y-4.112 Z-2.322 R0.5
G1 X-24.935 Y-4.133 Z-2.324
G3 X-24.997 Y-4.183 Z-2.327 R0.5
G1 X-25.031 Y-4.215 Z-2.33
G3 X-25.087 Y-4.278 Z-2.333 R0.5
G1 X-25.113 Y-4.313 Z-2.335
G3 X-25.157 Y-4.384 Z-2.339 R0.5
G1 X-25.179 Y-4.426 Z-2.341
G3 X-25.211 Y-4.504 Z-2.345 R0.5
G1 X-25.224 Y-4.545 Z-2.346
G3 X-25.242 Y-4.628 Z-2.35 R0.5
G1 X-25.249 Y-4.674 Z-2.352
G3 X-25.253 Y-4.743 Z-2.355 R0.5
G1 Y-4.773 Z-2.357
G3 X-25.244 Y-4.866 Z-2.361 R0.5
X-25.185 Y-5.165 Z-2.374 R25.709
X-25.151 Y-5.268 Z-2.379 R0.5
G1 X-25.132 Y-5.311 Z-2.381
G3 X-25.092 Y-5.385 Z-2.385 R0.5
G1 X-25.068 Y-5.421 Z-2.386
G3 X-25.015 Y-5.486 Z-2.39 R0.5
G1 X-24.983 Y-5.52 Z-2.392
G3 X-24.921 Y-5.576 Z-2.396 R0.5
G1 X-24.886 Y-5.602 Z-2.398
G3 X-24.815 Y-5.648 Z-2.401 R0.5
G1 X-24.773 Y-5.669 Z-2.404
G3 X-24.696 Y-5.701 Z-2.407 R0.5
G1 X-24.655 Y-5.714 Z-2.409
G3 X-24.572 Y-5.733 Z-2.413 R0.5
G1 X-24.523 Y-5.74 Z-2.415
G3 X-24.49 Y-5.743 Z-2.416 R0.5
G1 X-24.349 Y-5.753 Z-2.423
X-24.237 Y-5.766 Z-2.428
X-24.213 Y-5.865 Z-2.432
X-24.238 Y-5.883 Z-2.433
X-24.242 Y-5.886 Z-2.434
X-24.302 Y-5.925 Z-2.437
X-24.355 Y-5.957 Z-2.439
X-24.404 Y-5.986 Z-2.442
G3 X-24.415 Y-5.993 Z-2.443 R0.5
G1 X-24.458 Y-6.02 Z-2.445
G3 X-24.505 Y-6.054 Z-2.447 R0.5
G1 X-24.534 Y-6.077 Z-2.449
G3 X-24.592 Y-6.131 Z-2.452 R0.5
G1 X-24.623 Y-6.166 Z-2.454
G3 X-24.674 Y-6.233 Z-2.458 R0.5
G1 X-24.697 Y-6.27 Z-2.46
G3 X-24.736 Y-6.344 Z-2.464 R0.5
G1 X-24.754 Y-6.387 Z-2.466
G3 X-24.78 Y-6.468 Z-2.47 R0.5
G1 X-24.789 Y-6.511 Z-2.471
G3 X-24.801 Y-6.594 Z-2.475 R0.5
G1 X-24.804 Y-6.64 Z-2.477
G3 X-24.803 Y-6.712 Z-2.48 R0.5
G1 X-24.801 Y-6.741 Z-2.482
G3 X-24.784 Y-6.831 Z-2.486 R0.5
X-24.702 Y-7.125 Z-2.499 R25.709
X-24.66 Y-7.226 Z-2.504 R0.5
G1 X-24.638 Y-7.267 Z-2.506
G3 X-24.592 Y-7.336 Z-2.51 R0.5
G1 X-24.565 Y-7.37 Z-2.511
G3 X-24.508 Y-7.432 Z-2.515 R0.5
G1 X-24.473 Y-7.464 Z-2.517
G3 X-24.406 Y-7.515 Z-2.521 R0.5
G1 X-24.37 Y-7.538 Z-2.523
G3 X-24.295 Y-7.577 Z-2.526 R0.5
G1 X-24.252 Y-7.595 Z-2.529
G3 X-24.172 Y-7.621 Z-2.532 R0.5
G1 X-24.13 Y-7.631 Z-2.534
G3 X-24.047 Y-7.643 Z-2.538 R0.5
G1 X-23.997 Y-7.646 Z-2.54
G3 X-23.963 Y-7.647 Z-2.541 R0.5
G1 X-23.823 Y-7.646 Z-2.548
X-23.71 Y-7.649 Z-2.553
X-23.678 Y-7.747 Z-2.557
X-23.702 Y-7.767 Z-2.558
X-23.706 Y-7.77 Z-2.559
X-23.762 Y-7.813 Z-2.562
X-23.812 Y-7.849 Z-2.564
X-23.859 Y-7.882 Z-2.567
G3 X-23.869 Y-7.89 Z-2.568 R0.5
G1 X-23.91 Y-7.92 Z-2.57
G3 X-23.955 Y-7.958 Z-2.572 R0.5
G1 X-23.982 Y-7.984 Z-2.574
G3 X-24.035 Y-8.042 Z-2.577 R0.5
G1 X-24.063 Y-8.079 Z-2.579
G3 X-24.108 Y-8.149 Z-2.583 R0.5
G1 X-24.129 Y-8.188 Z-2.585
G3 X-24.162 Y-8.266 Z-2.589 R0.5
G1 X-24.176 Y-8.311 Z-2.591
G3 X-24.196 Y-8.392 Z-2.595 R0.5
G1 X-24.202 Y-8.435 Z-2.596
G3 X-24.208 Y-8.52 Z-2.6 R0.5
G1 X-24.207 Y-8.566 Z-2.602
G3 X-24.2 Y-8.635 Z-2.605 R0.5
G1 X-24.196 Y-8.664 Z-2.607
G3 X-24.172 Y-8.755 Z-2.611 R0.5
X-24.066 Y-9.041 Z-2.624 R25.709
X-24.018 Y-9.138 Z-2.629 R0.5
G1 X-23.992 Y-9.177 Z-2.631
G3 X-23.941 Y-9.243 Z-2.635 R0.5
G1 X-23.911 Y-9.275 Z-2.636
G3 X-23.849 Y-9.332 Z-2.64 R0.5
G1 X-23.812 Y-9.361 Z-2.642
G3 X-23.741 Y-9.406 Z-2.646 R0.5
G1 X-23.703 Y-9.427 Z-2.648
G3 X-23.626 Y-9.46 Z-2.651 R0.5
G1 X-23.581 Y-9.474 Z-2.654
G3 X-23.5 Y-9.494 Z-2.657 R0.5
G1 X-23.457 Y-9.501 Z-2.659
G3 X-23.373 Y-9.506 Z-2.663 R0.5
G1 X-23.324 Y-9.505 Z-2.665
G3 X-23.29 Y-9.504 Z-2.666 R0.5
G1 X-23.15 Y-9.492 Z-2.673
X-23.037 Y-9.486 Z-2.678
X-22.997 Y-9.581 Z-2.682
X-23.019 Y-9.603 Z-2.683
X-23.023 Y-9.606 Z-2.684
X-23.076 Y-9.654 Z-2.687
X-23.123 Y-9.693 Z-2.689
X-23.167 Y-9.73 Z-2.692
G3 X-23.177 Y-9.739 Z-2.693 R0.5
G1 X-23.215 Y-9.772 Z-2.695
G3 X-23.256 Y-9.812 Z-2.697 R0.5
G1 X-23.281 Y-9.84 Z-2.699
G3 X-23.33 Y-9.903 Z-2.702 R0.5
G1 X-23.355 Y-9.942 Z-2.704
G3 X-23.395 Y-10.016 Z-2.708 R0.5
G1 X-23.412 Y-10.056 Z-2.71
G3 X-23.439 Y-10.136 Z-2.714 R0.5
G1 X-23.45 Y-10.182 Z-2.716
G3 X-23.463 Y-10.265 Z-2.72 R0.5
G1 X-23.466 Y-10.308 Z-2.721
G3 X-23.465 Y-10.392 Z-2.725 R0.5
G1 X-23.46 Y-10.439 Z-2.727
G3 X-23.448 Y-10.508 Z-2.73 R0.5
G1 X-23.441 Y-10.537 Z-2.732
G3 X-23.411 Y-10.624 Z-2.736 R0.5
X-23.283 Y-10.902 Z-2.749 R25.709
X-23.227 Y-10.994 Z-2.754 R0.5
G1 X-23.198 Y-11.031 Z-2.756
G3 X-23.142 Y-11.093 Z-2.76 R0.5
G1 X-23.11 Y-11.123 Z-2.761
G3 X-23.044 Y-11.174 Z-2.765 R0.5
G1 X-23.005 Y-11.2 Z-2.767
G3 X-22.931 Y-11.24 Z-2.771 R0.5
G1 X-22.891 Y-11.257 Z-2.773
G3 X-22.81 Y-11.284 Z-2.776 R0.5
G1 X-22.765 Y-11.296 Z-2.779
G3 X-22.683 Y-11.309 Z-2.782 R0.5
G1 X-22.64 Y-11.312 Z-2.784
G3 X-22.555 Y-11.311 Z-2.788 R0.5
G1 X-22.506 Y-11.306 Z-2.79
G3 X-22.472 Y-11.302 Z-2.791 R0.5
G1 X-22.333 Y-11.279 Z-2.798
X-22.221 Y-11.264 Z-2.803
X-22.175 Y-11.356 Z-2.807
X-22.195 Y-11.379 Z-2.808
X-22.199 Y-11.383 Z-2.809
X-22.248 Y-11.434 Z-2.812
X-22.291 Y-11.478 Z-2.814
X-22.332 Y-11.518 Z-2.817
G3 X-22.342 Y-11.527 Z-2.818 R0.5
G1 X-22.377 Y-11.564 Z-2.82
G3 X-22.415 Y-11.607 Z-2.822 R0.5
G1 X-22.438 Y-11.637 Z-2.824
G3 X-22.48 Y-11.702 Z-2.827 R0.5
G1 X-22.503 Y-11.743 Z-2.829
G3 X-22.537 Y-11.821 Z-2.833 R0.5
G1 X-22.551 Y-11.862 Z-2.835
G3 X-22.571 Y-11.944 Z-2.839 R0.5
G1 X-22.579 Y-11.99 Z-2.841
G3 X-22.585 Y-12.074 Z-2.845 R0.5
G1 Y-12.118 Z-2.846
G3 X-22.577 Y-12.201 Z-2.85 R0.5
G1 X-22.569 Y-12.247 Z-2.852
G3 X-22.551 Y-12.316 Z-2.855 R0.5
G1 X-22.542 Y-12.344 Z-2.857
G3 X-22.505 Y-12.428 Z-2.861 R0.5
X-22.356 Y-12.695 Z-2.874 R25.709
X-22.292 Y-12.783 Z-2.879 R0.5
G1 X-22.261 Y-12.817 Z-2.881
G3 X-22.2 Y-12.874 Z-2.884 R0.5
G1 X-22.167 Y-12.901 Z-2.886
G3 X-22.095 Y-12.948 Z-2.89 R0.5
G1 X-22.054 Y-12.971 Z-2.892
G3 X-21.978 Y-13.004 Z-2.896 R0.5
G1 X-21.937 Y-13.018 Z-2.898
G3 X-21.856 Y-13.039 Z-2.901 R0.5
G1 X-21.81 Y-13.047 Z-2.903
G3 X-21.725 Y-13.053 Z-2.907 R0.5
G1 X-21.681 Z-2.909
G3 X-21.598 Y-13.046 Z-2.913 R0.5
G1 X-21.55 Y-13.037 Z-2.915
G3 X-21.516 Y-13.03 Z-2.916 R0.5
G1 X-21.38 Y-12.996 Z-2.923
X-21.269 Y-12.973 Z-2.928
X-21.215 Y-13.061 Z-2.932
X-21.233 Y-13.084 Z-2.933
X-21.236 Y-13.089 Z-2.934
X-21.282 Y-13.145 Z-2.937
X-21.322 Y-13.191 Z-2.94
X-21.36 Y-13.235 Z-2.942
G3 X-21.368 Y-13.244 Z-2.943 R0.5
G1 X-21.4 Y-13.283 Z-2.945
G3 X-21.435 Y-13.329 Z-2.947 R0.5
G1 X-21.455 Y-13.36 Z-2.949
G3 X-21.494 Y-13.431 Z-2.952 R0.5
G1 X-21.513 Y-13.474 Z-2.955
G3 X-21.54 Y-13.552 Z-2.958 R0.5
G1 X-21.551 Y-13.594 Z-2.96
G3 X-21.565 Y-13.678 Z-2.964 R0.5
G1 X-21.568 Y-13.724 Z-2.966
G3 Y-13.809 Z-2.97 R0.5
G1 X-21.564 Y-13.852 Z-2.971
G3 X-21.55 Y-13.935 Z-2.975 R0.5
G1 X-21.538 Y-13.98 Z-2.977
G3 X-21.515 Y-14.048 Z-2.98 R0.5
G1 X-21.504 Y-14.075 Z-2.982
G3 X-21.46 Y-14.156 Z-2.986 R0.5
X-21.291 Y-14.41 Z-2.999 R25.709
X-21.221 Y-14.492 Z-3.004 R0.5
G1 X-21.187 Y-14.524 Z-3.006
G3 X-21.122 Y-14.577 Z-3.01 R0.5
G1 X-21.086 Y-14.601 Z-3.011
G3 X-21.012 Y-14.642 Z-3.015 R0.5
G1 X-20.969 Y-14.661 Z-3.017
G3 X-20.889 Y-14.689 Z-3.021 R0.5
G1 X-20.847 Y-14.7 Z-3.023
G3 X-20.764 Y-14.714 Z-3.026 R0.5
G1 X-20.718 Y-14.718 Z-3.029
G3 X-20.634 Z-3.032 R0.5
G1 X-20.591 Y-14.714 Z-3.034
G3 X-20.508 Y-14.7 Z-3.038 R0.5
G1 X-20.46 Y-14.688 Z-3.04
G3 X-20.428 Y-14.678 Z-3.041 R0.5
G1 X-20.294 Y-14.634 Z-3.048
X-20.186 Y-14.602 Z-3.053
X-20.125 Y-14.685 Z-3.057
X-20.141 Y-14.71 Z-3.058
X-20.144 Y-14.715 Z-3.059
X-20.185 Y-14.774 Z-3.062
X-20.222 Y-14.824 Z-3.065
X-20.256 Y-14.87 Z-3.067
G3 X-20.263 Y-14.88 Z-3.068 R0.5
G1 X-20.292 Y-14.921 Z-3.07
G3 X-20.323 Y-14.97 Z-3.072 R0.5
G1 X-20.341 Y-15.003 Z-3.074
G3 X-20.373 Y-15.075 Z-3.077 R0.5
G1 X-20.389 Y-15.119 Z-3.079
G3 X-20.41 Y-15.201 Z-3.083 R0.5
G1 X-20.418 Y-15.244 Z-3.085
G3 X-20.425 Y-15.328 Z-3.089 R0.5
G1 Y-15.375 Z-3.091
G3 X-20.418 Y-15.458 Z-3.095 R0.5
G1 X-20.411 Y-15.5 Z-3.096
G3 X-20.39 Y-15.583 Z-3.1 R0.5
G1 X-20.375 Y-15.627 Z-3.102
G3 X-20.346 Y-15.693 Z-3.105 R0.5
G1 X-20.333 Y-15.719 Z-3.107
G3 X-20.284 Y-15.796 Z-3.111 R0.5
X-20.095 Y-16.036 Z-3.124 R25.709
X-20.018 Y-16.112 Z-3.129 R0.5
G1 X-19.982 Y-16.142 Z-3.131
G3 X-19.913 Y-16.189 Z-3.135 R0.5
G1 X-19.875 Y-16.21 Z-3.136
G3 X-19.797 Y-16.246 Z-3.14 R0.5
G1 X-19.753 Y-16.261 Z-3.142
G3 X-19.674 Y-16.282 Z-3.146 R0.5
G1 X-19.631 Y-16.29 Z-3.148
G3 X-19.545 Y-16.298 Z-3.152 R0.5
G1 X-19.499 Z-3.154
G3 X-19.416 Y-16.291 Z-3.157 R0.5
G1 X-19.373 Y-16.284 Z-3.159
G3 X-19.291 Y-16.264 Z-3.163 R0.5
G1 X-19.245 Y-16.248 Z-3.165
G3 X-19.213 Y-16.235 Z-3.166 R0.5
G1 X-19.084 Y-16.181 Z-3.173
X-18.978 Y-16.141 Z-3.178
X-18.911 Y-16.219 Z-3.182
X-18.925 Y-16.246 Z-3.183
X-18.928 Y-16.251 Z-3.184
X-18.964 Y-16.312 Z-3.187
X-18.996 Y-16.365 Z-3.19
X-19.027 Y-16.413 Z-3.192
G3 X-19.033 Y-16.424 Z-3.193 R0.5
G1 X-19.059 Y-16.467 Z-3.195
G3 X-19.086 Y-16.519 Z-3.197 R0.5
G1 X-19.101 Y-16.553 Z-3.199
G3 X-19.128 Y-16.627 Z-3.202 R0.5
G1 X-19.14 Y-16.672 Z-3.204
G3 X-19.155 Y-16.756 Z-3.208 R0.5
G1 X-19.159 Y-16.799 Z-3.21
G3 Y-16.883 Z-3.214 R0.5
G1 X-19.156 Y-16.929 Z-3.216
G3 X-19.142 Y-17.013 Z-3.22 R0.5
G1 X-19.132 Y-17.055 Z-3.221
G3 X-19.105 Y-17.135 Z-3.225 R0.5
G1 X-19.086 Y-17.177 Z-3.227
G3 X-19.053 Y-17.24 Z-3.23 R0.5
G1 X-19.038 Y-17.265 Z-3.232
G3 X-18.982 Y-17.339 Z-3.236 R0.5
X-18.775 Y-17.563 Z-3.249 R25.709
X-18.692 Y-17.634 Z-3.254 R0.5
G1 X-18.654 Y-17.66 Z-3.256
G3 X-18.581 Y-17.701 Z-3.26 R0.5
G1 X-18.542 Y-17.719 Z-3.261
G3 X-18.463 Y-17.748 Z-3.265 R0.5
G1 X-18.418 Y-17.761 Z-3.267
G3 X-18.334 Y-17.776 Z-3.271 R0.5
G1 X-18.291 Y-17.78 Z-3.273
G3 X-18.207 Y-17.781 Z-3.276 R0.5
G1 X-18.161 Y-17.777 Z-3.279
G3 X-18.078 Y-17.764 Z-3.282 R0.5
G1 X-18.036 Y-17.754 Z-3.284
G3 X-17.956 Y-17.727 Z-3.288 R0.5
G1 X-17.911 Y-17.707 Z-3.29
G3 X-17.88 Y-17.693 Z-3.291 R0.5
G1 X-17.755 Y-17.628 Z-3.298
X-17.653 Y-17.58 Z-3.303
X-17.58 Y-17.652 Z-3.307
X-17.592 Y-17.68 Z-3.308
X-17.594 Y-17.685 Z-3.309
X-17.625 Y-17.75 Z-3.312
X-17.654 Y-17.805 Z-3.314
X-17.68 Y-17.855 Z-3.317
G3 X-17.686 Y-17.867 Z-3.318 R0.5
G1 X-17.708 Y-17.912 Z-3.32
G3 X-17.731 Y-17.965 Z-3.322 R0.5
G1 X-17.744 Y-18.001 Z-3.324
G3 X-17.764 Y-18.077 Z-3.327 R0.5
G1 X-17.773 Y-18.123 Z-3.329
G3 X-17.781 Y-18.207 Z-3.333 R0.5
G1 X-17.782 Y-18.25 Z-3.335
G3 X-17.776 Y-18.334 Z-3.339 R0.5
G1 X-17.769 Y-18.38 Z-3.341
G3 X-17.748 Y-18.463 Z-3.345 R0.5
G1 X-17.735 Y-18.504 Z-3.346
G3 X-17.702 Y-18.58 Z-3.35 R0.5
G1 X-17.68 Y-18.621 Z-3.352
G3 X-17.642 Y-18.682 Z-3.355 R0.5
G1 X-17.624 Y-18.706 Z-3.357
G3 X-17.563 Y-18.775 Z-3.361 R0.5
X-17.339 Y-18.982 Z-3.374 R25.709
X-17.252 Y-19.045 Z-3.379 R0.5
G1 X-17.211 Y-19.069 Z-3.381
G3 X-17.134 Y-19.105 Z-3.385 R0.5
G1 X-17.094 Y-19.12 Z-3.386
G3 X-17.014 Y-19.142 Z-3.39 R0.5
G1 X-16.968 Y-19.151 Z-3.392
G3 X-16.883 Y-19.16 Z-3.396 R0.5
G1 X-16.839 Z-3.398
G3 X-16.756 Y-19.155 Z-3.401 R0.5
G1 X-16.71 Y-19.148 Z-3.404
G3 X-16.628 Y-19.128 Z-3.407 R0.5
G1 X-16.587 Y-19.114 Z-3.409
G3 X-16.51 Y-19.081 Z-3.413 R0.5
G1 X-16.466 Y-19.058 Z-3.415
G3 X-16.437 Y-19.041 Z-3.416 R0.5
G1 X-16.317 Y-18.967 Z-3.423
X-16.219 Y-18.911 Z-3.428
X-16.141 Y-18.977 Z-3.432
X-16.151 Y-19.006 Z-3.433
X-16.153 Y-19.012 Z-3.434
X-16.178 Y-19.078 Z-3.437
X-16.202 Y-19.135 Z-3.439
X-16.225 Y-19.187 Z-3.442
G3 X-16.23 Y-19.199 Z-3.443 R0.5
G1 X-16.248 Y-19.246 Z-3.445
G3 X-16.267 Y-19.301 Z-3.447 R0.5
G1 X-16.277 Y-19.337 Z-3.449
G3 X-16.291 Y-19.415 Z-3.452 R0.5
G1 X-16.296 Y-19.461 Z-3.454
G3 X-16.298 Y-19.546 Z-3.458 R0.5
G1 X-16.295 Y-19.589 Z-3.46
G3 X-16.283 Y-19.672 Z-3.464 R0.5
G1 X-16.272 Y-19.717 Z-3.466
G3 X-16.245 Y-19.798 Z-3.47 R0.5
G1 X-16.228 Y-19.838 Z-3.471
G3 X-16.189 Y-19.912 Z-3.475 R0.5
G1 X-16.164 Y-19.951 Z-3.477
G3 X-16.121 Y-20.009 Z-3.48 R0.5
G1 X-16.102 Y-20.031 Z-3.482
G3 X-16.036 Y-20.095 Z-3.486 R0.5
X-15.796 Y-20.284 Z-3.499 R25.709
X-15.704 Y-20.34 Z-3.504 R0.5
G1 X-15.662 Y-20.36 Z-3.506
G3 X-15.583 Y-20.39 Z-3.51 R0.5
G1 X-15.541 Y-20.402 Z-3.511
G3 X-15.459 Y-20.418 Z-3.515 R0.5
G1 X-15.412 Y-20.423 Z-3.517
G3 X-15.328 Y-20.425 Z-3.521 R0.5
G1 X-15.285 Y-20.422 Z-3.523
G3 X-15.201 Y-20.41 Z-3.526 R0.5
G1 X-15.156 Y-20.399 Z-3.529
G3 X-15.077 Y-20.374 Z-3.532 R0.5
G1 X-15.037 Y-20.357 Z-3.534
G3 X-14.961 Y-20.317 Z-3.538 R0.5
G1 X-14.92 Y-20.291 Z-3.54
G3 X-14.892 Y-20.272 Z-3.541 R0.5
G1 X-14.779 Y-20.189 Z-3.548
X-14.685 Y-20.125 Z-3.553
X-14.602 Y-20.185 Z-3.557
X-14.61 Y-20.214 Z-3.558
X-14.611 Y-20.22 Z-3.559
X-14.632 Y-20.288 Z-3.562
X-14.651 Y-20.347 Z-3.564
X-14.669 Y-20.401 Z-3.567
G3 X-14.673 Y-20.413 Z-3.568 R0.5
G1 X-14.688 Y-20.462 Z-3.57
G3 X-14.702 Y-20.517 Z-3.572 R0.5
G1 X-14.709 Y-20.554 Z-3.574
G3 X-14.718 Y-20.634 Z-3.577 R0.5
G1 X-14.719 Y-20.68 Z-3.58
G3 X-14.714 Y-20.764 Z-3.583 R0.5
G1 X-14.708 Y-20.806 Z-3.585
G3 X-14.689 Y-20.889 Z-3.589 R0.5
G1 X-14.674 Y-20.934 Z-3.591
G3 X-14.642 Y-21.011 Z-3.595 R0.5
G1 X-14.622 Y-21.05 Z-3.596
G3 X-14.577 Y-21.121 Z-3.6 R0.5
G1 X-14.549 Y-21.158 Z-3.602
G3 X-14.501 Y-21.212 Z-3.605 R0.5
G1 X-14.48 Y-21.233 Z-3.607
G3 X-14.41 Y-21.291 Z-3.611 R0.5
X-14.156 Y-21.46 Z-3.624 R25.709
X-14.06 Y-21.51 Z-3.629 R0.5
G1 X-14.017 Y-21.526 Z-3.631
G3 X-13.935 Y-21.55 Z-3.635 R0.5
G1 X-13.893 Y-21.559 Z-3.636
G3 X-13.808 Y-21.568 Z-3.64 R0.5
G1 X-13.762 Y-21.569 Z-3.642
G3 X-13.678 Y-21.565 Z-3.646 R0.5
G1 X-13.636 Y-21.559 Z-3.648
G3 X-13.553 Y-21.54 Z-3.651 R0.5
G1 X-13.509 Y-21.526 Z-3.654
G3 X-13.431 Y-21.494 Z-3.657 R0.5
G1 X-13.393 Y-21.474 Z-3.659
G3 X-13.322 Y-21.429 Z-3.663 R0.5
G1 X-13.283 Y-21.4 Z-3.665
G3 X-13.255 Y-21.378 Z-3.666 R0.5
G1 X-13.149 Y-21.286 Z-3.673
X-13.061 Y-21.215 Z-3.678
X-12.974 Y-21.269 Z-3.682
X-12.979 Y-21.299 Z-3.683
X-12.98 Y-21.304 Z-3.684
X-12.995 Y-21.374 Z-3.687
X-13.009 Y-21.434 Z-3.69
X-13.024 Y-21.49 Z-3.692
G3 X-13.026 Y-21.501 Z-3.693 R0.5
G1 X-13.038 Y-21.551 Z-3.695
G3 X-13.047 Y-21.608 Z-3.697 R0.5
G1 X-13.051 Y-21.645 Z-3.699
G3 X-13.053 Y-21.725 Z-3.702 R0.5
G1 X-13.051 Y-21.772 Z-3.705
G3 X-13.039 Y-21.855 Z-3.708 R0.5
G1 X-13.03 Y-21.897 Z-3.71
G3 X-13.005 Y-21.977 Z-3.714 R0.5
G1 X-12.987 Y-22.02 Z-3.716
G3 X-12.949 Y-22.095 Z-3.72 R0.5
G1 X-12.926 Y-22.131 Z-3.721
G3 X-12.874 Y-22.2 Z-3.725 R0.5
G1 X-12.843 Y-22.235 Z-3.727
G3 X-12.793 Y-22.284 Z-3.73 R0.5
G1 X-12.77 Y-22.303 Z-3.732
G3 X-12.695 Y-22.356 Z-3.736 R0.5
X-12.428 Y-22.505 Z-3.749 R25.709
X-12.329 Y-22.546 Z-3.754 R0.5
G1 X-12.285 Y-22.56 Z-3.756
G3 X-12.201 Y-22.577 Z-3.76 R0.5
G1 X-12.158 Y-22.582 Z-3.761
G3 X-12.074 Y-22.585 Z-3.765 R0.5
G1 X-12.028 Y-22.583 Z-3.767
G3 X-11.944 Y-22.571 Z-3.771 R0.5
G1 X-11.901 Y-22.562 Z-3.773
G3 X-11.822 Y-22.537 Z-3.776 R0.5
G1 X-11.778 Y-22.519 Z-3.779
G3 X-11.704 Y-22.482 Z-3.782 R0.5
G1 X-11.667 Y-22.459 Z-3.784
G3 X-11.599 Y-22.408 Z-3.788 R0.5
G1 X-11.562 Y-22.375 Z-3.79
G3 X-11.538 Y-22.352 Z-3.791 R0.5
G1 X-11.439 Y-22.252 Z-3.798
X-11.356 Y-22.174 Z-3.803
X-11.265 Y-22.221 Z-3.807
X-11.268 Y-22.252 Z-3.808
Y-22.257 Z-3.809
X-11.278 Y-22.328 Z-3.812
X-11.288 Y-22.388 Z-3.814
X-11.297 Y-22.444 Z-3.817
G3 X-11.299 Y-22.457 Z-3.818 R0.5
G1 X-11.307 Y-22.507 Z-3.82
G3 X-11.312 Y-22.566 Z-3.822 R0.5
G1 X-11.313 Y-22.603 Z-3.824
G3 X-11.308 Y-22.682 Z-3.827 R0.5
G1 X-11.302 Y-22.728 Z-3.83
G3 X-11.285 Y-22.809 Z-3.833 R0.5
G1 X-11.272 Y-22.851 Z-3.835
G3 X-11.24 Y-22.93 Z-3.839 R0.5
G1 X-11.219 Y-22.972 Z-3.841
G3 X-11.175 Y-23.044 Z-3.845 R0.5
G1 X-11.149 Y-23.078 Z-3.846
G3 X-11.094 Y-23.141 Z-3.85 R0.5
G1 X-11.06 Y-23.173 Z-3.852
G3 X-11.005 Y-23.219 Z-3.855 R0.5
G1 X-10.981 Y-23.236 Z-3.857
G3 X-10.902 Y-23.283 Z-3.861 R0.5
X-10.624 Y-23.411 Z-3.874 R25.709
X-10.521 Y-23.445 Z-3.879 R0.5
G1 X-10.475 Y-23.454 Z-3.881
G3 X-10.393 Y-23.465 Z-3.885 R0.5
G1 X-10.35 Y-23.466 Z-3.886
G3 X-10.266 Y-23.463 Z-3.89 R0.5
G1 X-10.219 Y-23.457 Z-3.892
G3 X-10.136 Y-23.439 Z-3.896 R0.5
G1 X-10.094 Y-23.426 Z-3.898
G3 X-10.017 Y-23.395 Z-3.901 R0.5
G1 X-9.976 Y-23.374 Z-3.904
G3 X-9.903 Y-23.33 Z-3.907 R0.5
G1 X-9.869 Y-23.304 Z-3.909
G3 X-9.805 Y-23.249 Z-3.913 R0.5
G1 X-9.771 Y-23.214 Z-3.915
G3 X-9.748 Y-23.189 Z-3.916 R0.5
G1 X-9.658 Y-23.081 Z-3.923
X-9.582 Y-22.997 Z-3.928
X-9.487 Y-23.036 Z-3.932
Y-23.067 Z-3.933
Y-23.073 Z-3.934
X-9.491 Y-23.143 Z-3.937
X-9.496 Y-23.205 Z-3.939
X-9.501 Y-23.262 Z-3.942
G3 X-9.502 Y-23.275 Z-3.943 R0.5
G1 X-9.506 Y-23.325 Z-3.945
G3 Y-23.383 Z-3.947 R0.5
G1 X-9.504 Y-23.42 Z-3.949
G3 X-9.494 Y-23.499 Z-3.952 R0.5
G1 X-9.484 Y-23.545 Z-3.954
G3 X-9.46 Y-23.625 Z-3.958 R0.5
G1 X-9.444 Y-23.666 Z-3.96
G3 X-9.406 Y-23.741 Z-3.964 R0.5
G1 X-9.382 Y-23.781 Z-3.966
G3 X-9.332 Y-23.849 Z-3.97 R0.5
G1 X-9.304 Y-23.882 Z-3.971
G3 X-9.244 Y-23.94 Z-3.975 R0.5
G1 X-9.208 Y-23.97 Z-3.977
G3 X-9.149 Y-24.011 Z-3.98 R0.5
G1 X-9.124 Y-24.027 Z-3.982
G3 X-9.041 Y-24.066 Z-3.986 R0.5
X-8.755 Y-24.172 Z-3.999 R25.709
X-8.734 Y-24.179 Z-4. R0.5
X-8.649 Y-24.198 R0.5 F200.
G1 X-8.603 Y-24.204
G3 X-8.52 Y-24.208 R0.5
G1 X-8.477 Y-24.206
G3 X-8.392 Y-24.196 R0.5
G1 X-8.347 Y-24.186
G3 X-8.267 Y-24.162 R0.5
G1 X-8.226 Y-24.146
G3 X-8.15 Y-24.109 R0.5
G1 X-8.11 Y-24.084
G3 X-8.043 Y-24.035 R0.5
G1 X-8.01 Y-24.007
G3 X-7.951 Y-23.947 R0.5
G1 X-7.919 Y-23.909
G3 X-7.899 Y-23.882 R0.5
G1 X-7.817 Y-23.767
X-7.748 Y-23.678
X-7.65 Y-23.71
X-7.648 Y-23.74
Y-23.746
X-7.646 Y-23.817
Y-23.878
X-7.647 Y-23.936
G3 Y-23.948 R0.5
G1 X-7.646 Y-23.999
G3 X-7.642 Y-24.057 R0.5
G1 X-7.638 Y-24.094
G3 X-7.621 Y-24.172 R0.5
G1 X-7.608 Y-24.216
G3 X-7.577 Y-24.295 R0.5
G1 X-7.558 Y-24.333
G3 X-7.515 Y-24.406 R0.5
G1 X-7.487 Y-24.444
G3 X-7.433 Y-24.507 R0.5
G1 X-7.402 Y-24.538
G3 X-7.336 Y-24.592 R0.5
G1 X-7.298 Y-24.619
G3 X-7.238 Y-24.654 R0.5
G1 X-7.212 Y-24.668
G3 X-7.125 Y-24.702 R0.5
X-6.831 Y-24.784 R25.709
X-6.725 Y-24.802 R0.5
G1 X-6.679 Y-24.804
G3 X-6.593 Y-24.801 R0.5
G1 X-6.55 Y-24.796
G3 X-6.468 Y-24.78 R0.5
G1 X-6.424 Y-24.767
G3 X-6.345 Y-24.736 R0.5
G1 X-6.307 Y-24.717
G3 X-6.234 Y-24.674 R0.5
G1 X-6.196 Y-24.647
G3 X-6.132 Y-24.592 R0.5
G1 X-6.102 Y-24.562
G3 X-6.047 Y-24.496 R0.5
G1 X-6.019 Y-24.456
G3 X-6.001 Y-24.428 R0.5
G1 X-5.928 Y-24.308
X-5.866 Y-24.213
X-5.766 Y-24.237
X-5.762 Y-24.267
X-5.761 Y-24.273
X-5.754 Y-24.343
X-5.749 Y-24.405
X-5.746 Y-24.462
G3 X-5.745 Y-24.475 R0.5
G1 X-5.74 Y-24.525
G3 X-5.731 Y-24.582 R0.5
G1 X-5.724 Y-24.619
G3 X-5.701 Y-24.695 R0.5
G1 X-5.684 Y-24.739
G3 X-5.648 Y-24.814 R0.5
G1 X-5.626 Y-24.851
G3 X-5.576 Y-24.921 R0.5
G1 X-5.546 Y-24.956
G3 X-5.486 Y-25.016 R0.5
G1 X-5.453 Y-25.043
G3 X-5.385 Y-25.092 R0.5
G1 X-5.344 Y-25.115
G3 X-5.282 Y-25.146 R0.5
G1 X-5.254 Y-25.157
G3 X-5.165 Y-25.185 R0.5
X-4.866 Y-25.244 R25.709
X-4.757 Y-25.253 R0.5
G1 X-4.711 Y-25.252
G3 X-4.628 Y-25.243 R0.5
G1 X-4.586 Y-25.234
G3 X-4.504 Y-25.211 R0.5
G1 X-4.46 Y-25.194
G3 X-4.384 Y-25.157 R0.5
G1 X-4.347 Y-25.135
G3 X-4.279 Y-25.087 R0.5
G1 X-4.243 Y-25.057
G3 X-4.184 Y-24.997 R0.5
G1 X-4.156 Y-24.964
G3 X-4.107 Y-24.896 R0.5
