(2D CONTOUR9)
(T1  D=3.175 CR=0. - ZMIN=-8. - FLAT END MILL)
G90 G94 G91.1 G40 G49 G17
G21

(2D CONTOUR9)
M5
M9
T1
S10000 M3
G54
M8
G0 X-23.949 Y34.
G43 Z10. H1
Z5.
G1 Z3. F762.
Z2.5
G2 X0. Y41.588 Z-2. R41.588
Y-41.588 R41.588
Y41.588 R41.588
X34.756 Y22.837 Z-4. R41.587
X-34.756 Y-22.837 R41.587
X34.756 Y22.837 R41.587
X38.171 Y-16.507 Z-6. R41.587
X-38.171 Y16.507 R41.587
X38.171 Y-16.507 R41.587
X7.165 Y-40.966 Z-8. R41.587
X-7.165 Y40.966 R41.587
X7.165 Y-40.966 R41.587
G0 Z10.

M9
M30
