(___GT2_1)
(T1  D=3.175 CR=0. - ZMIN=-8. - FLAT END MILL)
G90 G94 G91.1 G40 G49 G17
G21

(DRILL3)
M5
M9
T1
S10000 M3
G54
M8
G0 X0. Y-16.5
G43 Z15. H1
Z5.
G98 G81 X0. Y-16.5 Z-8. R5. F200.
X16.5 Y0.
X0. Y16.5
X-16.5 Y0.
G80
Z15.

(2D POCKET1)
M8
G0 X-1.805 Y1.413
Z15.
Z5.
G1 Z2.5 F762.
G3 X-0.752 Y-1.413 Z1.665 R1.508
X-1.805 Y1.413 Z0.829 R1.508
X-0.752 Y-1.413 Z-0.006 R1.508
X-1.805 Y1.413 Z-0.842 R1.508
X-0.752 Y-1.413 Z-1.677 R1.508
X0.23 Y0. Z-2. R1.508
X-0.23 R0.23
X3.246 R1.738
X-3.246 R3.246
X6.262 R4.754
X-6.262 R6.262
X9.279 R7.771
X-9.279 R9.279
X12.295 R10.787
X-12.295 R12.295
X12.295 R12.295
X10.284 Y1.422 Z-2.403 R1.508
G1 X2.241 Y-1.422 Z-3.597
G2 X0.23 Y0. Z-4. R1.508
G3 X-0.23 R0.23
X3.246 R1.738
X-3.246 R3.246
X6.262 R4.754
X-6.262 R6.262
X9.279 R7.771
X-9.279 R9.279
X12.295 R10.787
X-12.295 R12.295
X12.295 R12.295
X10.284 Y1.422 Z-4.403 R1.508
G1 X2.241 Y-1.422 Z-5.597
G2 X0.23 Y0. Z-6. R1.508
G3 X-0.23 R0.23
X3.246 R1.738
X-3.246 R3.246
X6.262 R4.754
X-6.262 R6.262
X9.279 R7.771
X-9.279 R9.279
X12.295 R10.787
X-12.295 R12.295
X12.295 R12.295
X10.284 Y1.422 Z-6.202 R1.508
G1 X2.241 Y-1.422 Z-6.798
G2 X0.23 Y0. Z-7. R1.508
G3 X-0.23 R0.23
X3.246 R1.738
X-3.246 R3.246
X6.262 R4.754
X-6.262 R6.262
X9.279 R7.771
X-9.279 R9.279
X12.295 R10.787
X-12.295 R12.295
X12.413 R12.354
X-12.413 R12.413
X12.413 R12.413
G1 X11.809 Z-6.94
G0 Z15.

(2D CONTOUR7)
M8
G0 X-15.535 Y21.823
Z15.
Z5.
G1 Z3. F762.
Z2.5
G3 X-15.563 Y21.783 Z2.492 R1.688
G1 X-15.587 Y21.748 Z2.484
G3 X-15.683 Y21.585 Z2.451 R1.687
G1 X-15.695 Y21.583 Z2.448
G3 X-15.974 Y21.511 Z2.398 R1.688
G1 X-16.018 Y21.496 Z2.389
G3 X-16.24 Y21.4 Z2.347 R1.688
G1 X-16.266 Y21.387 Z2.342
G3 X-16.525 Y21.221 Z2.287 R1.688
X-16.776 Y21.023 Z2.231 R26.896
X-17.035 Y20.766 Z2.166 R1.688
G1 X-17.065 Y20.73 Z2.158
G3 X-17.224 Y20.495 Z2.108 R1.688
G1 X-17.245 Y20.457 Z2.1
G3 X-17.328 Y20.288 Z2.067 R1.687
G1 X-17.342 Y20.284 Z2.065
G3 X-17.612 Y20.192 Z2.014 R1.688
G1 X-17.655 Y20.173 Z2.006
G3 X-17.866 Y20.062 Z1.964 R1.688
G1 X-17.891 Y20.047 Z1.959
G3 X-18.139 Y19.859 Z1.904 R1.687
X-18.374 Y19.642 Z1.847 R26.896
X-18.613 Y19.364 Z1.783 R1.687
G1 X-18.639 Y19.325 Z1.774
G3 X-18.778 Y19.082 Z1.725 R1.688
G1 X-18.796 Y19.042 Z1.717
G3 X-18.867 Y18.865 Z1.684 R1.688
G1 X-18.882 Y18.86 Z1.681
G3 X-19.14 Y18.749 Z1.631 R1.688
G1 X-19.181 Y18.727 Z1.623
G3 X-19.385 Y18.598 Z1.58 R1.688
G1 X-19.409 Y18.581 Z1.575
G3 X-19.642 Y18.374 Z1.52 R1.687
X-19.859 Y18.139 Z1.464 R26.896
X-20.074 Y17.846 Z1.4 R1.687
G1 X-20.097 Y17.806 Z1.391
G3 X-20.219 Y17.546 Z1.341 R1.687
G1 X-20.234 Y17.505 Z1.333
G3 X-20.289 Y17.327 Z1.3 R1.688
G1 X-20.304 Y17.321 Z1.297
G3 X-20.552 Y17.189 Z1.248 R1.687
G1 X-20.591 Y17.164 Z1.24
G3 X-20.786 Y17.019 Z1.197 R1.688
G1 X-20.808 Y17. Z1.191
G3 X-21.023 Y16.776 Z1.137 R1.688
X-21.221 Y16.525 Z1.08 R26.896
X-21.412 Y16.216 Z1.016 R1.688
G1 X-21.432 Y16.174 Z1.008
G3 X-21.533 Y15.907 Z0.958 R1.687
G1 X-21.544 Y15.865 Z0.95
G3 X-21.586 Y15.682 Z0.917 R1.688
G1 X-21.598 Y15.675 Z0.914
G3 X-21.838 Y15.524 Z0.864 R1.688
G1 X-21.875 Y15.496 Z0.856
G3 X-22.058 Y15.335 Z0.813 R1.687
G1 X-22.078 Y15.314 Z0.808
G3 X-22.274 Y15.075 Z0.753 R1.687
X-22.452 Y14.81 Z0.697 R26.896
X-22.618 Y14.487 Z0.633 R1.688
G1 X-22.634 Y14.444 Z0.625
G3 X-22.714 Y14.169 Z0.574 R1.688
G1 X-22.723 Y14.126 Z0.567
G3 X-22.75 Y13.94 Z0.533 R1.688
G1 X-22.759 Y13.934 Z0.531
G3 X-22.991 Y13.76 Z0.48 R1.687
G1 X-23.026 Y13.729 Z0.472
G3 X-23.191 Y13.559 Z0.43 R1.688
G1 X-23.21 Y13.537 Z0.425
G3 X-23.388 Y13.281 Z0.37 R1.687
X-23.544 Y13.003 Z0.314 R26.896
X-23.685 Y12.668 Z0.25 R1.688
G1 X-23.698 Y12.623 Z0.241
G3 X-23.756 Y12.341 Z0.19 R1.687
G1 X-23.761 Y12.298 Z0.183
G3 X-23.773 Y12.112 Z0.15 R1.688
G1 X-23.786 Y12.103 Z0.147
G3 X-23.997 Y11.917 Z0.097 R1.688
G1 X-24.029 Y11.883 Z0.089
G3 X-24.184 Y11.697 Z0.046 R1.688
G1 X-24.202 Y11.673 Z0.041
G3 X-24.358 Y11.405 Z-0.013 R1.687
X-24.492 Y11.115 Z-0.07 R26.896
X-24.607 Y10.765 Z-0.135 R1.687
G1 X-24.616 Y10.72 Z-0.143
G3 X-24.651 Y10.442 Z-0.192 R1.687
G1 X-24.653 Y10.399 Z-0.2
G3 X-24.65 Y10.209 Z-0.234 R1.688
G1 X-24.661 Y10.2 Z-0.236
G3 X-24.859 Y9.996 Z-0.286 R1.687
G1 X-24.888 Y9.96 Z-0.294
G3 X-25.028 Y9.762 Z-0.337 R1.687
G1 X-25.044 Y9.737 Z-0.342
G3 X-25.178 Y9.459 Z-0.397 R1.687
X-25.289 Y9.16 Z-0.453 R26.896
X-25.375 Y8.802 Z-0.518 R1.688
G1 X-25.381 Y8.756 Z-0.527
G3 X-25.394 Y8.476 Z-0.576 R1.687
G1 X-25.393 Y8.433 Z-0.584
G3 X-25.375 Y8.244 Z-0.617 R1.688
G1 X-25.384 Y8.235 Z-0.619
G3 X-25.568 Y8.013 Z-0.67 R1.688
G1 X-25.595 Y7.975 Z-0.678
G3 X-25.714 Y7.774 Z-0.72 R1.688
G1 X-25.728 Y7.747 Z-0.725
G3 X-25.843 Y7.454 Z-0.78 R1.687
X-25.929 Y7.146 Z-0.837 R26.896
X-25.987 Y6.789 Z-0.901 R1.687
G1 X-25.99 Y6.742 Z-0.909
G3 X-25.981 Y6.453 Z-0.96 R1.688
G1 X-25.976 Y6.41 Z-0.968
G3 X-25.944 Y6.228 Z-1. R1.687
G1 X-25.954 Y6.216 Z-1.003
G3 X-26.117 Y5.984 Z-1.053 R1.687
G1 X-26.14 Y5.944 Z-1.061
G3 X-26.245 Y5.733 Z-1.103 R1.688
G1 X-26.256 Y5.705 Z-1.108
G3 X-26.348 Y5.404 Z-1.164 R1.688
X-26.41 Y5.09 Z-1.22 R26.896
X-26.44 Y4.724 Z-1.285 R1.687
G1 X-26.439 Y4.677 Z-1.293
G3 X-26.408 Y4.401 Z-1.343 R1.688
G1 X-26.4 Y4.358 Z-1.35
G3 X-26.352 Y4.173 Z-1.384 R1.688
G1 X-26.36 Y4.163 Z-1.386
G3 X-26.505 Y3.917 Z-1.436 R1.688
G1 X-26.526 Y3.875 Z-1.445
G3 X-26.616 Y3.65 Z-1.488 R1.687
G1 X-26.625 Y3.621 Z-1.493
G3 X-26.69 Y3.32 Z-1.547 R1.688
X-26.728 Y3.003 Z-1.604 R26.896
X-26.729 Y2.637 Z-1.668 R1.687
G1 X-26.724 Y2.591 Z-1.676
G3 X-26.671 Y2.311 Z-1.727 R1.688
G1 X-26.659 Y2.27 Z-1.734
G3 X-26.598 Y2.093 Z-1.767 R1.687
G1 X-26.606 Y2.08 Z-1.77
G3 X-26.732 Y1.824 Z-1.82 R1.687
G1 X-26.748 Y1.781 Z-1.828
G3 X-26.82 Y1.552 Z-1.871 R1.687
G1 X-26.826 Y1.523 Z-1.876
G3 X-26.869 Y1.216 Z-1.931 R1.688
X-26.881 Y0.897 Z-1.987 R26.896
X-26.882 Y0.823 Z-2. R1.688
X-26.854 Y0.532 R1.687
G1 X-26.845 Y0.487
G3 X-26.77 Y0.213 R1.688
G1 X-26.755 Y0.172
G3 X-26.681 Y-0.001 R1.687
G1 X-26.686 Y-0.011
G3 X-26.793 Y-0.28 R1.688
G1 X-26.806 Y-0.325
G3 X-26.858 Y-0.553 R1.687
G1 X-26.862 Y-0.582
G3 X-26.881 Y-0.897 R1.687
X-26.869 Y-1.216 R26.896
X-26.813 Y-1.577 R1.688
G1 X-26.801 Y-1.622
G3 X-26.705 Y-1.887 R1.688
G1 X-26.687 Y-1.926
G3 X-26.598 Y-2.094 R1.688
G1 X-26.604 Y-2.108
G3 X-26.687 Y-2.377 R1.688
G1 X-26.697 Y-2.422
G3 X-26.732 Y-2.665 R1.687
G1 X-26.734 Y-2.694
G3 X-26.728 Y-3.003 R1.687
X-26.69 Y-3.32 R26.896
X-26.606 Y-3.676 R1.687
G1 X-26.591 Y-3.72
G3 X-26.475 Y-3.976 R1.687
G1 X-26.454 Y-4.013
G3 X-26.352 Y-4.175 R1.688
G1 X-26.357 Y-4.189
G3 X-26.419 Y-4.467 R1.688
G1 X-26.425 Y-4.513
G3 X-26.441 Y-4.747 R1.688
G1 Y-4.777
G3 X-26.41 Y-5.09 R1.688
X-26.348 Y-5.404 R26.896
X-26.236 Y-5.752 R1.687
G1 X-26.217 Y-5.795
G3 X-26.08 Y-6.043 R1.688
G1 X-26.056 Y-6.079
G3 X-25.943 Y-6.229 R1.688
G1 X-25.947 Y-6.245
G3 X-25.987 Y-6.525 R1.687
G1 X-25.99 Y-6.571
G3 X-25.986 Y-6.812 R1.688
G1 X-25.984 Y-6.842
G3 X-25.929 Y-7.146 R1.687
X-25.843 Y-7.454 R26.896
X-25.703 Y-7.793 R1.687
G1 X-25.681 Y-7.834
G3 X-25.526 Y-8.07 R1.687
G1 X-25.5 Y-8.104
G3 X-25.375 Y-8.246 R1.688
G1 X-25.377 Y-8.26
G3 X-25.395 Y-8.545 R1.687
G1 X-25.394 Y-8.592
G3 X-25.373 Y-8.825 R1.688
G1 X-25.368 Y-8.854
G3 X-25.289 Y-9.16 R1.688
X-25.178 Y-9.459 R26.896
X-25.014 Y-9.785 R1.687
G1 X-24.988 Y-9.824
G3 X-24.814 Y-10.048 R1.687
G1 X-24.785 Y-10.08
G3 X-24.649 Y-10.211 R1.687
G1 X-24.65 Y-10.226
G3 X-24.646 Y-10.51 R1.688
G1 X-24.642 Y-10.556
G3 X-24.602 Y-10.79 R1.688
G1 X-24.595 Y-10.819
G3 X-24.492 Y-11.115 R1.687
X-24.358 Y-11.405 R26.896
X-24.169 Y-11.717 R1.688
G1 X-24.14 Y-11.754
G3 X-23.949 Y-11.964 R1.687
G1 X-23.917 Y-11.993
G3 X-23.772 Y-12.114 R1.688
G1 Y-12.128
G3 X-23.746 Y-12.41 R1.688
G1 X-23.738 Y-12.456
G3 X-23.678 Y-12.691 R1.688
G1 X-23.669 Y-12.719
G3 X-23.544 Y-13.003 R1.688
X-23.388 Y-13.281 R26.896
X-23.174 Y-13.578 R1.687
G1 X-23.143 Y-13.613
G3 X-22.939 Y-13.804 R1.687
G1 X-22.905 Y-13.831
G3 X-22.749 Y-13.941 R1.687
G1 X-22.747 Y-13.956
G3 X-22.699 Y-14.236 R1.688
G1 X-22.687 Y-14.281
G3 X-22.609 Y-14.51 R1.687
G1 X-22.597 Y-14.538
G3 X-22.452 Y-14.81 R1.688
X-22.274 Y-15.075 R26.896
X-22.039 Y-15.353 R1.687
G1 X-22.005 Y-15.385
G3 X-21.783 Y-15.563 R1.688
G1 X-21.748 Y-15.587
G3 X-21.585 Y-15.683 R1.687
G1 X-21.583 Y-15.695
G3 X-21.511 Y-15.974 R1.688
G1 X-21.496 Y-16.018
G3 X-21.4 Y-16.24 R1.688
G1 X-21.387 Y-16.266
G3 X-21.221 Y-16.525 R1.688
X-21.023 Y-16.776 R26.896
X-20.766 Y-17.035 R1.688
G1 X-20.73 Y-17.065
G3 X-20.495 Y-17.224 R1.688
G1 X-20.457 Y-17.245
G3 X-20.288 Y-17.328 R1.687
G1 X-20.284 Y-17.342
G3 X-20.192 Y-17.612 R1.688
G1 X-20.173 Y-17.655
G3 X-20.062 Y-17.866 R1.688
G1 X-20.047 Y-17.891
G3 X-19.859 Y-18.139 R1.687
X-19.642 Y-18.374 R26.896
X-19.364 Y-18.613 R1.687
G1 X-19.325 Y-18.639
G3 X-19.082 Y-18.778 R1.688
G1 X-19.042 Y-18.796
G3 X-18.865 Y-18.867 R1.688
G1 X-18.86 Y-18.882
G3 X-18.749 Y-19.14 R1.688
G1 X-18.727 Y-19.181
G3 X-18.598 Y-19.385 R1.688
G1 X-18.581 Y-19.409
G3 X-18.374 Y-19.642 R1.687
X-18.139 Y-19.859 R26.896
X-17.846 Y-20.074 R1.687
G1 X-17.806 Y-20.097
G3 X-17.546 Y-20.219 R1.687
G1 X-17.505 Y-20.234
G3 X-17.327 Y-20.289 R1.688
G1 X-17.321 Y-20.304
G3 X-17.189 Y-20.552 R1.687
G1 X-17.164 Y-20.591
G3 X-17.019 Y-20.786 R1.688
G1 X-17. Y-20.808
G3 X-16.776 Y-21.023 R1.688
X-16.525 Y-21.221 R26.896
X-16.216 Y-21.412 R1.688
G1 X-16.174 Y-21.432
G3 X-15.907 Y-21.533 R1.687
G1 X-15.865 Y-21.544
G3 X-15.682 Y-21.586 R1.688
G1 X-15.675 Y-21.598
G3 X-15.524 Y-21.838 R1.688
G1 X-15.496 Y-21.875
G3 X-15.335 Y-22.058 R1.687
G1 X-15.314 Y-22.078
G3 X-15.075 Y-22.274 R1.687
X-14.81 Y-22.452 R26.896
X-14.487 Y-22.618 R1.688
G1 X-14.444 Y-22.634
G3 X-14.169 Y-22.714 R1.688
G1 X-14.126 Y-22.723
G3 X-13.94 Y-22.75 R1.688
G1 X-13.934 Y-22.759
G3 X-13.76 Y-22.991 R1.687
G1 X-13.729 Y-23.026
G3 X-13.559 Y-23.191 R1.688
G1 X-13.537 Y-23.21
G3 X-13.281 Y-23.388 R1.687
X-13.003 Y-23.544 R26.896
X-12.668 Y-23.685 R1.688
G1 X-12.623 Y-23.698
G3 X-12.341 Y-23.756 R1.687
G1 X-12.298 Y-23.761
G3 X-12.112 Y-23.773 R1.688
G1 X-12.103 Y-23.786
G3 X-11.917 Y-23.997 R1.688
G1 X-11.883 Y-24.029
G3 X-11.697 Y-24.184 R1.688
G1 X-11.673 Y-24.202
G3 X-11.405 Y-24.358 R1.687
X-11.115 Y-24.492 R26.896
X-10.765 Y-24.607 R1.687
G1 X-10.72 Y-24.616
G3 X-10.442 Y-24.651 R1.687
G1 X-10.399 Y-24.653
G3 X-10.209 Y-24.65 R1.688
G1 X-10.2 Y-24.661
G3 X-9.996 Y-24.859 R1.687
G1 X-9.96 Y-24.888
G3 X-9.762 Y-25.028 R1.687
G1 X-9.737 Y-25.044
G3 X-9.459 Y-25.178 R1.687
X-9.16 Y-25.289 R26.896
X-8.802 Y-25.375 R1.688
G1 X-8.756 Y-25.381
G3 X-8.476 Y-25.394 R1.687
G1 X-8.433 Y-25.393
G3 X-8.244 Y-25.375 R1.688
G1 X-8.235 Y-25.384
G3 X-8.013 Y-25.568 R1.688
G1 X-7.975 Y-25.595
G3 X-7.774 Y-25.714 R1.688
G1 X-7.747 Y-25.728
G3 X-7.454 Y-25.843 R1.687
X-7.146 Y-25.929 R26.896
X-6.789 Y-25.987 R1.687
G1 X-6.742 Y-25.99
G3 X-6.453 Y-25.981 R1.688
G1 X-6.41 Y-25.976
G3 X-6.228 Y-25.944 R1.687
G1 X-6.216 Y-25.954
G3 X-5.984 Y-26.117 R1.687
G1 X-5.944 Y-26.14
G3 X-5.733 Y-26.245 R1.688
G1 X-5.705 Y-26.256
G3 X-5.404 Y-26.348 R1.688
X-5.09 Y-26.41 R26.896
X-4.724 Y-26.44 R1.687
G1 X-4.677 Y-26.439
G3 X-4.401 Y-26.408 R1.688
G1 X-4.358 Y-26.4
G3 X-4.173 Y-26.352 R1.688
G1 X-4.163 Y-26.36
G3 X-3.917 Y-26.505 R1.688
G1 X-3.875 Y-26.526
G3 X-3.65 Y-26.616 R1.687
G1 X-3.621 Y-26.625
G3 X-3.32 Y-26.69 R1.688
X-3.003 Y-26.728 R26.896
X-2.637 Y-26.729 R1.687
G1 X-2.591 Y-26.724
G3 X-2.311 Y-26.671 R1.688
G1 X-2.27 Y-26.659
G3 X-2.093 Y-26.598 R1.687
G1 X-2.08 Y-26.606
G3 X-1.824 Y-26.732 R1.687
G1 X-1.781 Y-26.748
G3 X-1.552 Y-26.82 R1.687
G1 X-1.523 Y-26.826
G3 X-1.216 Y-26.869 R1.688
X-0.897 Y-26.881 R26.896
X-0.532 Y-26.854 R1.687
G1 X-0.487 Y-26.845
G3 X-0.213 Y-26.77 R1.688
G1 X-0.172 Y-26.755
G3 X0.001 Y-26.681 R1.687
G1 X0.011 Y-26.686
G3 X0.28 Y-26.793 R1.688
G1 X0.325 Y-26.806
G3 X0.553 Y-26.858 R1.687
G1 X0.582 Y-26.862
G3 X0.897 Y-26.881 R1.687
X1.216 Y-26.869 R26.896
X1.577 Y-26.813 R1.688
G1 X1.622 Y-26.801
G3 X1.887 Y-26.705 R1.688
G1 X1.926 Y-26.687
G3 X2.094 Y-26.598 R1.688
G1 X2.108 Y-26.604
G3 X2.377 Y-26.687 R1.688
G1 X2.422 Y-26.697
G3 X2.665 Y-26.732 R1.687
G1 X2.694 Y-26.734
G3 X3.003 Y-26.728 R1.687
X3.32 Y-26.69 R26.896
X3.676 Y-26.606 R1.687
G1 X3.72 Y-26.591
G3 X3.976 Y-26.475 R1.687
G1 X4.013 Y-26.454
G3 X4.175 Y-26.352 R1.688
G1 X4.189 Y-26.357
G3 X4.467 Y-26.419 R1.688
G1 X4.513 Y-26.425
G3 X4.747 Y-26.441 R1.688
G1 X4.777
G3 X5.09 Y-26.41 R1.688
X5.404 Y-26.348 R26.896
X5.752 Y-26.236 R1.687
G1 X5.795 Y-26.217
G3 X6.043 Y-26.08 R1.688
G1 X6.079 Y-26.056
G3 X6.229 Y-25.943 R1.688
G1 X6.245 Y-25.947
G3 X6.525 Y-25.987 R1.687
G1 X6.571 Y-25.99
G3 X6.812 Y-25.986 R1.688
G1 X6.842 Y-25.984
G3 X7.146 Y-25.929 R1.687
X7.454 Y-25.843 R26.896
X7.793 Y-25.703 R1.687
G1 X7.834 Y-25.681
G3 X8.07 Y-25.526 R1.687
G1 X8.104 Y-25.5
G3 X8.246 Y-25.375 R1.688
G1 X8.26 Y-25.377
G3 X8.545 Y-25.395 R1.687
G1 X8.592 Y-25.394
G3 X8.825 Y-25.373 R1.688
G1 X8.854 Y-25.368
G3 X9.16 Y-25.289 R1.688
X9.459 Y-25.178 R26.896
X9.785 Y-25.014 R1.687
G1 X9.824 Y-24.988
G3 X10.048 Y-24.814 R1.687
G1 X10.08 Y-24.785
G3 X10.211 Y-24.649 R1.687
G1 X10.226 Y-24.65
G3 X10.51 Y-24.646 R1.688
G1 X10.556 Y-24.642
G3 X10.79 Y-24.602 R1.688
G1 X10.819 Y-24.595
G3 X11.115 Y-24.492 R1.687
X11.405 Y-24.358 R26.896
X11.717 Y-24.169 R1.688
G1 X11.754 Y-24.14
G3 X11.964 Y-23.949 R1.687
G1 X11.993 Y-23.917
G3 X12.114 Y-23.772 R1.688
G1 X12.128
G3 X12.41 Y-23.746 R1.688
G1 X12.456 Y-23.738
G3 X12.691 Y-23.678 R1.688
G1 X12.719 Y-23.669
G3 X13.003 Y-23.544 R1.688
X13.281 Y-23.388 R26.896
X13.578 Y-23.174 R1.687
G1 X13.613 Y-23.143
G3 X13.804 Y-22.939 R1.687
G1 X13.831 Y-22.905
G3 X13.941 Y-22.749 R1.687
G1 X13.956 Y-22.747
G3 X14.236 Y-22.699 R1.688
G1 X14.281 Y-22.687
G3 X14.51 Y-22.609 R1.687
G1 X14.538 Y-22.597
G3 X14.81 Y-22.452 R1.688
X15.075 Y-22.274 R26.896
X15.353 Y-22.039 R1.687
G1 X15.385 Y-22.005
G3 X15.563 Y-21.783 R1.688
G1 X15.587 Y-21.748
G3 X15.683 Y-21.585 R1.687
G1 X15.695 Y-21.583
G3 X15.974 Y-21.511 R1.688
G1 X16.018 Y-21.496
G3 X16.24 Y-21.4 R1.688
G1 X16.266 Y-21.387
G3 X16.525 Y-21.221 R1.688
X16.776 Y-21.023 R26.896
X17.035 Y-20.766 R1.688
G1 X17.065 Y-20.73
G3 X17.224 Y-20.495 R1.688
G1 X17.245 Y-20.457
G3 X17.328 Y-20.288 R1.687
G1 X17.342 Y-20.284
G3 X17.612 Y-20.192 R1.688
G1 X17.655 Y-20.173
G3 X17.866 Y-20.062 R1.688
G1 X17.891 Y-20.047
G3 X18.139 Y-19.859 R1.687
X18.374 Y-19.642 R26.896
X18.613 Y-19.364 R1.687
G1 X18.639 Y-19.325
G3 X18.778 Y-19.082 R1.688
G1 X18.796 Y-19.042
G3 X18.867 Y-18.865 R1.688
G1 X18.882 Y-18.86
G3 X19.14 Y-18.749 R1.688
G1 X19.181 Y-18.727
G3 X19.385 Y-18.598 R1.688
G1 X19.409 Y-18.581
G3 X19.642 Y-18.374 R1.687
X19.859 Y-18.139 R26.896
X20.074 Y-17.846 R1.687
G1 X20.097 Y-17.806
G3 X20.219 Y-17.546 R1.687
G1 X20.234 Y-17.505
G3 X20.289 Y-17.327 R1.688
G1 X20.304 Y-17.321
G3 X20.552 Y-17.189 R1.687
G1 X20.591 Y-17.164
G3 X20.786 Y-17.019 R1.688
G1 X20.808 Y-17.
G3 X21.023 Y-16.776 R1.688
X21.221 Y-16.525 R26.896
X21.412 Y-16.216 R1.688
G1 X21.432 Y-16.174
G3 X21.533 Y-15.907 R1.687
G1 X21.544 Y-15.865
G3 X21.586 Y-15.682 R1.688
G1 X21.598 Y-15.675
G3 X21.838 Y-15.524 R1.688
G1 X21.875 Y-15.496
G3 X22.058 Y-15.335 R1.687
G1 X22.078 Y-15.314
G3 X22.274 Y-15.075 R1.687
X22.452 Y-14.81 R26.896
X22.618 Y-14.487 R1.688
G1 X22.634 Y-14.444
G3 X22.714 Y-14.169 R1.688
G1 X22.723 Y-14.126
G3 X22.75 Y-13.94 R1.688
G1 X22.759 Y-13.934
G3 X22.991 Y-13.76 R1.687
G1 X23.026 Y-13.729
G3 X23.191 Y-13.559 R1.688
G1 X23.21 Y-13.537
G3 X23.388 Y-13.281 R1.687
X23.544 Y-13.003 R26.896
X23.685 Y-12.668 R1.688
G1 X23.698 Y-12.623
G3 X23.756 Y-12.341 R1.687
G1 X23.761 Y-12.298
G3 X23.773 Y-12.112 R1.688
G1 X23.786 Y-12.103
G3 X23.997 Y-11.917 R1.688
G1 X24.029 Y-11.883
G3 X24.184 Y-11.697 R1.688
G1 X24.202 Y-11.673
G3 X24.358 Y-11.405 R1.687
X24.492 Y-11.115 R26.896
X24.607 Y-10.765 R1.687
G1 X24.616 Y-10.72
G3 X24.651 Y-10.442 R1.687
G1 X24.653 Y-10.399
G3 X24.65 Y-10.209 R1.688
G1 X24.661 Y-10.2
G3 X24.859 Y-9.996 R1.687
G1 X24.888 Y-9.96
G3 X25.028 Y-9.762 R1.687
G1 X25.044 Y-9.737
G3 X25.178 Y-9.459 R1.687
X25.289 Y-9.16 R26.896
X25.375 Y-8.802 R1.688
G1 X25.381 Y-8.756
G3 X25.394 Y-8.476 R1.687
G1 X25.393 Y-8.433
G3 X25.375 Y-8.244 R1.688
G1 X25.384 Y-8.235
G3 X25.568 Y-8.013 R1.688
G1 X25.595 Y-7.975
G3 X25.714 Y-7.774 R1.688
G1 X25.728 Y-7.747
G3 X25.843 Y-7.454 R1.687
X25.929 Y-7.146 R26.896
X25.987 Y-6.789 R1.687
G1 X25.99 Y-6.742
G3 X25.981 Y-6.453 R1.688
G1 X25.976 Y-6.41
G3 X25.944 Y-6.228 R1.687
G1 X25.954 Y-6.216
G3 X26.117 Y-5.984 R1.687
G1 X26.14 Y-5.944
G3 X26.245 Y-5.733 R1.688
G1 X26.256 Y-5.705
G3 X26.348 Y-5.404 R1.688
X26.41 Y-5.09 R26.896
X26.44 Y-4.724 R1.687
G1 X26.439 Y-4.677
G3 X26.408 Y-4.401 R1.688
G1 X26.4 Y-4.358
G3 X26.352 Y-4.173 R1.688
G1 X26.36 Y-4.163
G3 X26.505 Y-3.917 R1.688
G1 X26.526 Y-3.875
G3 X26.616 Y-3.65 R1.687
G1 X26.625 Y-3.621
G3 X26.69 Y-3.32 R1.688
X26.728 Y-3.003 R26.896
X26.729 Y-2.637 R1.687
G1 X26.724 Y-2.591
G3 X26.671 Y-2.311 R1.688
G1 X26.659 Y-2.27
G3 X26.598 Y-2.093 R1.687
G1 X26.606 Y-2.08
G3 X26.732 Y-1.824 R1.687
G1 X26.748 Y-1.781
G3 X26.82 Y-1.552 R1.687
G1 X26.826 Y-1.523
G3 X26.869 Y-1.216 R1.688
X26.881 Y-0.897 R26.896
X26.854 Y-0.532 R1.687
G1 X26.845 Y-0.487
G3 X26.77 Y-0.213 R1.688
G1 X26.755 Y-0.172
G3 X26.681 Y0.001 R1.687
G1 X26.686 Y0.011
G3 X26.793 Y0.28 R1.688
G1 X26.806 Y0.325
G3 X26.858 Y0.553 R1.687
G1 X26.862 Y0.582
G3 X26.881 Y0.897 R1.687
X26.869 Y1.216 R26.896
X26.813 Y1.577 R1.688
G1 X26.801 Y1.622
G3 X26.705 Y1.887 R1.688
G1 X26.687 Y1.926
G3 X26.598 Y2.094 R1.688
G1 X26.604 Y2.108
G3 X26.687 Y2.377 R1.688
G1 X26.697 Y2.422
G3 X26.732 Y2.665 R1.687
G1 X26.734 Y2.694
G3 X26.728 Y3.003 R1.687
X26.69 Y3.32 R26.896
X26.606 Y3.676 R1.687
G1 X26.591 Y3.72
G3 X26.475 Y3.976 R1.687
G1 X26.454 Y4.013
G3 X26.352 Y4.175 R1.688
G1 X26.357 Y4.189
G3 X26.419 Y4.467 R1.688
G1 X26.425 Y4.513
G3 X26.441 Y4.747 R1.688
G1 Y4.777
G3 X26.41 Y5.09 R1.688
X26.348 Y5.404 R26.896
X26.236 Y5.752 R1.687
G1 X26.217 Y5.795
G3 X26.08 Y6.043 R1.688
G1 X26.056 Y6.079
G3 X25.943 Y6.229 R1.688
G1 X25.947 Y6.245
G3 X25.987 Y6.525 R1.687
G1 X25.99 Y6.571
G3 X25.986 Y6.812 R1.688
G1 X25.984 Y6.842
G3 X25.929 Y7.146 R1.687
X25.843 Y7.454 R26.896
X25.703 Y7.793 R1.687
G1 X25.681 Y7.834
G3 X25.526 Y8.07 R1.687
G1 X25.5 Y8.104
G3 X25.375 Y8.246 R1.688
G1 X25.377 Y8.26
G3 X25.395 Y8.545 R1.687
G1 X25.394 Y8.592
G3 X25.373 Y8.825 R1.688
G1 X25.368 Y8.854
G3 X25.289 Y9.16 R1.688
X25.178 Y9.459 R26.896
X25.014 Y9.785 R1.687
G1 X24.988 Y9.824
G3 X24.814 Y10.048 R1.687
G1 X24.785 Y10.08
G3 X24.649 Y10.211 R1.687
G1 X24.65 Y10.226
G3 X24.646 Y10.51 R1.688
G1 X24.642 Y10.556
G3 X24.602 Y10.79 R1.688
G1 X24.595 Y10.819
G3 X24.492 Y11.115 R1.687
X24.358 Y11.405 R26.896
X24.169 Y11.717 R1.688
G1 X24.14 Y11.754
G3 X23.949 Y11.964 R1.687
G1 X23.917 Y11.993
G3 X23.772 Y12.114 R1.688
G1 Y12.128
G3 X23.746 Y12.41 R1.688
G1 X23.738 Y12.456
G3 X23.678 Y12.691 R1.688
G1 X23.669 Y12.719
G3 X23.544 Y13.003 R1.688
X23.388 Y13.281 R26.896
X23.174 Y13.578 R1.687
G1 X23.143 Y13.613
G3 X22.939 Y13.804 R1.687
G1 X22.905 Y13.831
G3 X22.749 Y13.941 R1.687
G1 X22.747 Y13.956
G3 X22.699 Y14.236 R1.688
G1 X22.687 Y14.281
G3 X22.609 Y14.51 R1.687
G1 X22.597 Y14.538
G3 X22.452 Y14.81 R1.688
X22.274 Y15.075 R26.896
X22.039 Y15.353 R1.687
G1 X22.005 Y15.385
G3 X21.783 Y15.563 R1.688
G1 X21.748 Y15.587
G3 X21.585 Y15.683 R1.687
G1 X21.583 Y15.695
G3 X21.511 Y15.974 R1.688
G1 X21.496 Y16.018
G3 X21.4 Y16.24 R1.688
G1 X21.387 Y16.266
G3 X21.221 Y16.525 R1.688
X21.023 Y16.776 R26.896
X20.766 Y17.035 R1.688
G1 X20.73 Y17.065
G3 X20.495 Y17.224 R1.688
G1 X20.457 Y17.245
G3 X20.288 Y17.328 R1.687
G1 X20.284 Y17.342
G3 X20.192 Y17.612 R1.688
G1 X20.173 Y17.655
G3 X20.062 Y17.866 R1.688
G1 X20.047 Y17.891
G3 X19.859 Y18.139 R1.687
X19.642 Y18.374 R26.896
X19.364 Y18.613 R1.687
G1 X19.325 Y18.639
G3 X19.082 Y18.778 R1.688
G1 X19.042 Y18.796
G3 X18.865 Y18.867 R1.688
G1 X18.86 Y18.882
G3 X18.749 Y19.14 R1.688
G1 X18.727 Y19.181
G3 X18.598 Y19.385 R1.688
G1 X18.581 Y19.409
G3 X18.374 Y19.642 R1.687
X18.139 Y19.859 R26.896
X17.846 Y20.074 R1.687
G1 X17.806 Y20.097
G3 X17.546 Y20.219 R1.687
G1 X17.505 Y20.234
G3 X17.327 Y20.289 R1.688
G1 X17.321 Y20.304
G3 X17.189 Y20.552 R1.687
G1 X17.164 Y20.591
G3 X17.019 Y20.786 R1.688
G1 X17. Y20.808
G3 X16.776 Y21.023 R1.688
X16.525 Y21.221 R26.896
X16.216 Y21.412 R1.688
G1 X16.174 Y21.432
G3 X15.907 Y21.533 R1.687
G1 X15.865 Y21.544
G3 X15.682 Y21.586 R1.688
G1 X15.675 Y21.598
G3 X15.524 Y21.838 R1.688
G1 X15.496 Y21.875
G3 X15.335 Y22.058 R1.687
G1 X15.314 Y22.078
G3 X15.075 Y22.274 R1.687
X14.81 Y22.452 R26.896
X14.487 Y22.618 R1.688
G1 X14.444 Y22.634
G3 X14.169 Y22.714 R1.688
G1 X14.126 Y22.723
G3 X13.94 Y22.75 R1.688
G1 X13.934 Y22.759
G3 X13.76 Y22.991 R1.687
G1 X13.729 Y23.026
G3 X13.559 Y23.191 R1.688
G1 X13.537 Y23.21
G3 X13.281 Y23.388 R1.687
X13.003 Y23.544 R26.896
X12.668 Y23.685 R1.688
G1 X12.623 Y23.698
G3 X12.341 Y23.756 R1.687
G1 X12.298 Y23.761
G3 X12.112 Y23.773 R1.688
G1 X12.103 Y23.786
G3 X11.917 Y23.997 R1.688
G1 X11.883 Y24.029
G3 X11.697 Y24.184 R1.688
G1 X11.673 Y24.202
G3 X11.405 Y24.358 R1.687
X11.115 Y24.492 R26.896
X10.765 Y24.607 R1.687
G1 X10.72 Y24.616
G3 X10.442 Y24.651 R1.687
G1 X10.399 Y24.653
G3 X10.209 Y24.65 R1.688
G1 X10.2 Y24.661
G3 X9.996 Y24.859 R1.687
G1 X9.96 Y24.888
G3 X9.762 Y25.028 R1.687
G1 X9.737 Y25.044
G3 X9.459 Y25.178 R1.687
X9.16 Y25.289 R26.896
X8.802 Y25.375 R1.688
G1 X8.756 Y25.381
G3 X8.476 Y25.394 R1.687
G1 X8.433 Y25.393
G3 X8.244 Y25.375 R1.688
G1 X8.235 Y25.384
G3 X8.013 Y25.568 R1.688
G1 X7.975 Y25.595
G3 X7.774 Y25.714 R1.688
G1 X7.747 Y25.728
G3 X7.454 Y25.843 R1.687
X7.146 Y25.929 R26.896
X6.789 Y25.987 R1.687
G1 X6.742 Y25.99
G3 X6.453 Y25.981 R1.688
G1 X6.41 Y25.976
G3 X6.228 Y25.944 R1.687
G1 X6.216 Y25.954
G3 X5.984 Y26.117 R1.687
G1 X5.944 Y26.14
G3 X5.733 Y26.245 R1.688
G1 X5.705 Y26.256
G3 X5.404 Y26.348 R1.688
X5.09 Y26.41 R26.896
X4.724 Y26.44 R1.687
G1 X4.677 Y26.439
G3 X4.401 Y26.408 R1.688
G1 X4.358 Y26.4
G3 X4.173 Y26.352 R1.688
G1 X4.163 Y26.36
G3 X3.917 Y26.505 R1.688
G1 X3.875 Y26.526
G3 X3.65 Y26.616 R1.687
G1 X3.621 Y26.625
G3 X3.32 Y26.69 R1.688
X3.003 Y26.728 R26.896
X2.637 Y26.729 R1.687
G1 X2.591 Y26.724
G3 X2.311 Y26.671 R1.688
G1 X2.27 Y26.659
G3 X2.093 Y26.598 R1.687
G1 X2.08 Y26.606
G3 X1.824 Y26.732 R1.687
G1 X1.781 Y26.748
G3 X1.552 Y26.82 R1.687
G1 X1.523 Y26.826
G3 X1.216 Y26.869 R1.688
X0.897 Y26.881 R26.896
X0.532 Y26.854 R1.687
G1 X0.487 Y26.845
G3 X0.213 Y26.77 R1.688
G1 X0.172 Y26.755
G3 X-0.001 Y26.681 R1.687
G1 X-0.011 Y26.686
G3 X-0.28 Y26.793 R1.688
G1 X-0.325 Y26.806
G3 X-0.553 Y26.858 R1.687
G1 X-0.582 Y26.862
G3 X-0.897 Y26.881 R1.687
X-1.216 Y26.869 R26.896
X-1.577 Y26.813 R1.688
G1 X-1.622 Y26.801
G3 X-1.887 Y26.705 R1.688
G1 X-1.926 Y26.687
G3 X-2.094 Y26.598 R1.688
G1 X-2.108 Y26.604
G3 X-2.377 Y26.687 R1.688
G1 X-2.422 Y26.697
G3 X-2.665 Y26.732 R1.687
G1 X-2.694 Y26.734
G3 X-3.003 Y26.728 R1.687
X-3.32 Y26.69 R26.896
X-3.676 Y26.606 R1.687
G1 X-3.72 Y26.591
G3 X-3.976 Y26.475 R1.687
G1 X-4.013 Y26.454
G3 X-4.175 Y26.352 R1.688
G1 X-4.189 Y26.357
G3 X-4.467 Y26.419 R1.688
G1 X-4.513 Y26.425
G3 X-4.747 Y26.441 R1.688
G1 X-4.777
G3 X-5.09 Y26.41 R1.688
X-5.404 Y26.348 R26.896
X-5.752 Y26.236 R1.687
G1 X-5.795 Y26.217
G3 X-6.043 Y26.08 R1.688
G1 X-6.079 Y26.056
G3 X-6.229 Y25.943 R1.688
G1 X-6.245 Y25.947
G3 X-6.525 Y25.987 R1.687
G1 X-6.571 Y25.99
G3 X-6.812 Y25.986 R1.688
G1 X-6.842 Y25.984
G3 X-7.146 Y25.929 R1.687
X-7.454 Y25.843 R26.896
X-7.793 Y25.703 R1.687
G1 X-7.834 Y25.681
G3 X-8.07 Y25.526 R1.687
G1 X-8.104 Y25.5
G3 X-8.246 Y25.375 R1.688
G1 X-8.26 Y25.377
G3 X-8.545 Y25.395 R1.687
G1 X-8.592 Y25.394
G3 X-8.825 Y25.373 R1.688
G1 X-8.854 Y25.368
G3 X-9.16 Y25.289 R1.688
X-9.459 Y25.178 R26.896
X-9.785 Y25.014 R1.687
G1 X-9.824 Y24.988
G3 X-10.048 Y24.814 R1.687
G1 X-10.08 Y24.785
G3 X-10.211 Y24.649 R1.687
G1 X-10.226 Y24.65
G3 X-10.51 Y24.646 R1.688
G1 X-10.556 Y24.642
G3 X-10.79 Y24.602 R1.688
G1 X-10.819 Y24.595
G3 X-11.115 Y24.492 R1.687
X-11.405 Y24.358 R26.896
X-11.717 Y24.169 R1.688
G1 X-11.754 Y24.14
G3 X-11.964 Y23.949 R1.687
G1 X-11.993 Y23.917
G3 X-12.114 Y23.772 R1.688
G1 X-12.128
G3 X-12.41 Y23.746 R1.688
G1 X-12.456 Y23.738
G3 X-12.691 Y23.678 R1.688
G1 X-12.719 Y23.669
G3 X-13.003 Y23.544 R1.688
X-13.281 Y23.388 R26.896
X-13.578 Y23.174 R1.687
G1 X-13.613 Y23.143
G3 X-13.804 Y22.939 R1.687
G1 X-13.831 Y22.905
G3 X-13.941 Y22.749 R1.687
G1 X-13.956 Y22.747
G3 X-14.236 Y22.699 R1.688
G1 X-14.281 Y22.687
G3 X-14.51 Y22.609 R1.687
G1 X-14.538 Y22.597
G3 X-14.81 Y22.452 R1.688
X-15.075 Y22.274 R26.896
X-15.353 Y22.039 R1.687
G1 X-15.385 Y22.005
G3 X-15.563 Y21.783 R1.688
G1 X-15.587 Y21.748
G3 X-15.683 Y21.585 R1.687
G1 X-15.695 Y21.583
G3 X-15.974 Y21.511 R1.688
G1 X-16.018 Y21.496
G3 X-16.24 Y21.4 R1.688
G1 X-16.266 Y21.387
G3 X-16.525 Y21.221 R1.688
X-16.776 Y21.023 R26.896
X-17.035 Y20.766 R1.688
G1 X-17.065 Y20.73
G3 X-17.224 Y20.495 R1.688
G1 X-17.245 Y20.457
G3 X-17.328 Y20.288 R1.687
G1 X-17.342 Y20.284
G3 X-17.612 Y20.192 R1.688
G1 X-17.655 Y20.173
G3 X-17.866 Y20.062 R1.688
G1 X-17.891 Y20.047
G3 X-18.139 Y19.859 R1.687
X-18.374 Y19.642 R26.896
X-18.613 Y19.364 R1.687
G1 X-18.639 Y19.325
G3 X-18.778 Y19.082 R1.688
G1 X-18.796 Y19.042
G3 X-18.867 Y18.865 R1.688
G1 X-18.882 Y18.86
G3 X-19.14 Y18.749 R1.688
G1 X-19.181 Y18.727
G3 X-19.385 Y18.598 R1.688
G1 X-19.409 Y18.581
G3 X-19.642 Y18.374 R1.687
X-19.859 Y18.139 R26.896
X-20.074 Y17.846 R1.687
G1 X-20.097 Y17.806
G3 X-20.219 Y17.546 R1.687
G1 X-20.234 Y17.505
G3 X-20.289 Y17.327 R1.688
G1 X-20.304 Y17.321
G3 X-20.552 Y17.189 R1.687
G1 X-20.591 Y17.164
G3 X-20.786 Y17.019 R1.688
G1 X-20.808 Y17.
G3 X-21.023 Y16.776 R1.688
X-21.221 Y16.525 R26.896
X-21.412 Y16.216 R1.688
G1 X-21.432 Y16.174
G3 X-21.533 Y15.907 R1.687
G1 X-21.544 Y15.865
G3 X-21.586 Y15.682 R1.688
G1 X-21.598 Y15.675
G3 X-21.838 Y15.524 R1.688
G1 X-21.875 Y15.496
G3 X-22.058 Y15.335 R1.687
G1 X-22.078 Y15.314
G3 X-22.274 Y15.075 R1.687
X-22.452 Y14.81 R26.896
X-22.618 Y14.487 R1.688
G1 X-22.634 Y14.444
G3 X-22.714 Y14.169 R1.688
G1 X-22.723 Y14.126
G3 X-22.75 Y13.94 R1.688
G1 X-22.759 Y13.934
G3 X-22.991 Y13.76 R1.687
G1 X-23.026 Y13.729
G3 X-23.191 Y13.559 R1.688
G1 X-23.21 Y13.537
G3 X-23.388 Y13.281 R1.687
X-23.544 Y13.003 R26.896
X-23.685 Y12.668 R1.688
G1 X-23.698 Y12.623
G3 X-23.756 Y12.341 R1.687
G1 X-23.761 Y12.298
G3 X-23.773 Y12.112 R1.688
G1 X-23.786 Y12.103
G3 X-23.997 Y11.917 R1.688
G1 X-24.029 Y11.883
G3 X-24.184 Y11.697 R1.688
G1 X-24.202 Y11.673
G3 X-24.358 Y11.405 R1.687
X-24.492 Y11.115 R26.896
X-24.607 Y10.765 R1.687
G1 X-24.616 Y10.72
G3 X-24.651 Y10.442 R1.687
G1 X-24.653 Y10.399
G3 X-24.65 Y10.209 R1.688
G1 X-24.661 Y10.2
G3 X-24.859 Y9.996 R1.687
G1 X-24.888 Y9.96
G3 X-25.028 Y9.762 R1.687
G1 X-25.044 Y9.737
G3 X-25.178 Y9.459 R1.687
X-25.289 Y9.16 R26.896
X-25.375 Y8.802 R1.688
G1 X-25.381 Y8.756
G3 X-25.394 Y8.476 R1.687
G1 X-25.393 Y8.433
G3 X-25.375 Y8.244 R1.688
G1 X-25.384 Y8.235
G3 X-25.568 Y8.013 R1.688
G1 X-25.595 Y7.975
G3 X-25.714 Y7.774 R1.688
G1 X-25.728 Y7.747
G3 X-25.843 Y7.454 R1.687
X-25.929 Y7.146 R26.896
X-25.987 Y6.789 R1.687
G1 X-25.99 Y6.742
G3 X-25.981 Y6.453 R1.688
G1 X-25.976 Y6.41
G3 X-25.944 Y6.228 R1.687
G1 X-25.954 Y6.216
G3 X-26.117 Y5.984 R1.687
G1 X-26.14 Y5.944
G3 X-26.245 Y5.733 R1.688
G1 X-26.256 Y5.705
G3 X-26.348 Y5.404 R1.688
X-26.41 Y5.09 R26.896
X-26.44 Y4.724 R1.687
G1 X-26.439 Y4.677
G3 X-26.408 Y4.401 R1.688
G1 X-26.4 Y4.358
G3 X-26.352 Y4.173 R1.688
G1 X-26.36 Y4.163
G3 X-26.505 Y3.917 R1.688
G1 X-26.526 Y3.875
G3 X-26.616 Y3.65 R1.687
G1 X-26.625 Y3.621
G3 X-26.69 Y3.32 R1.688
X-26.728 Y3.003 R26.896
X-26.729 Y2.637 R1.687
G1 X-26.724 Y2.591
G3 X-26.671 Y2.311 R1.688
G1 X-26.659 Y2.27
G3 X-26.598 Y2.093 R1.687
G1 X-26.606 Y2.08
G3 X-26.732 Y1.824 R1.687
G1 X-26.748 Y1.781
G3 X-26.82 Y1.552 R1.687
G1 X-26.826 Y1.523
G3 X-26.869 Y1.216 R1.688
X-26.881 Y0.897 R26.896
X-26.882 Y0.823 R1.688
X-26.854 Y0.532 Z-2.021 R1.687
G1 X-26.845 Y0.487 Z-2.025
G3 X-26.77 Y0.213 Z-2.045 R1.688
G1 X-26.755 Y0.172 Z-2.049
G3 X-26.681 Y-0.001 Z-2.062 R1.687
G1 X-26.686 Y-0.011 Z-2.063
G3 X-26.793 Y-0.28 Z-2.084 R1.688
G1 X-26.806 Y-0.325 Z-2.088
G3 X-26.858 Y-0.553 Z-2.105 R1.687
G1 X-26.862 Y-0.582 Z-2.107
G3 X-26.881 Y-0.897 Z-2.13 R1.687
X-26.869 Y-1.216 Z-2.153 R26.896
X-26.813 Y-1.577 Z-2.18 R1.688
G1 X-26.801 Y-1.622 Z-2.184
G3 X-26.705 Y-1.887 Z-2.204 R1.688
G1 X-26.687 Y-1.926 Z-2.207
G3 X-26.598 Y-2.094 Z-2.221 R1.688
G1 X-26.604 Y-2.108 Z-2.222
G3 X-26.687 Y-2.377 Z-2.243 R1.688
G1 X-26.697 Y-2.422 Z-2.246
G3 X-26.732 Y-2.665 Z-2.264 R1.687
G1 X-26.734 Y-2.694 Z-2.266
G3 X-26.728 Y-3.003 Z-2.289 R1.687
X-26.69 Y-3.32 Z-2.312 R26.896
X-26.606 Y-3.676 Z-2.339 R1.687
G1 X-26.591 Y-3.72 Z-2.342
G3 X-26.475 Y-3.976 Z-2.363 R1.687
G1 X-26.454 Y-4.013 Z-2.366
G3 X-26.352 Y-4.175 Z-2.38 R1.688
G1 X-26.357 Y-4.189 Z-2.381
G3 X-26.419 Y-4.467 Z-2.402 R1.688
G1 X-26.425 Y-4.513 Z-2.405
G3 X-26.441 Y-4.747 Z-2.422 R1.688
G1 Y-4.777 Z-2.425
G3 X-26.41 Y-5.09 Z-2.448 R1.688
X-26.348 Y-5.404 Z-2.471 R26.896
X-26.236 Y-5.752 Z-2.498 R1.687
G1 X-26.217 Y-5.795 Z-2.501
G3 X-26.08 Y-6.043 Z-2.522 R1.688
G1 X-26.056 Y-6.079 Z-2.525
G3 X-25.943 Y-6.229 Z-2.539 R1.688
G1 X-25.947 Y-6.245 Z-2.54
G3 X-25.987 Y-6.525 Z-2.56 R1.687
G1 X-25.99 Y-6.571 Z-2.564
G3 X-25.986 Y-6.812 Z-2.581 R1.688
G1 X-25.984 Y-6.842 Z-2.584
G3 X-25.929 Y-7.146 Z-2.606 R1.687
X-25.843 Y-7.454 Z-2.63 R26.896
X-25.703 Y-7.793 Z-2.656 R1.687
G1 X-25.681 Y-7.834 Z-2.66
G3 X-25.526 Y-8.07 Z-2.68 R1.687
G1 X-25.5 Y-8.104 Z-2.684
G3 X-25.375 Y-8.246 Z-2.697 R1.688
G1 X-25.377 Y-8.26 Z-2.698
G3 X-25.395 Y-8.545 Z-2.719 R1.687
G1 X-25.394 Y-8.592 Z-2.723
G3 X-25.373 Y-8.825 Z-2.74 R1.688
G1 X-25.368 Y-8.854 Z-2.742
G3 X-25.289 Y-9.16 Z-2.765 R1.688
X-25.178 Y-9.459 Z-2.788 R26.896
X-25.014 Y-9.785 Z-2.815 R1.687
G1 X-24.988 Y-9.824 Z-2.818
G3 X-24.814 Y-10.048 Z-2.839 R1.687
G1 X-24.785 Y-10.08 Z-2.842
G3 X-24.649 Y-10.211 Z-2.856 R1.687
G1 X-24.65 Y-10.226 Z-2.857
G3 X-24.646 Y-10.51 Z-2.878 R1.688
G1 X-24.642 Y-10.556 Z-2.881
G3 X-24.602 Y-10.79 Z-2.899 R1.688
G1 X-24.595 Y-10.819 Z-2.901
G3 X-24.492 Y-11.115 Z-2.924 R1.687
X-24.358 Y-11.405 Z-2.947 R26.896
X-24.169 Y-11.717 Z-2.974 R1.688
G1 X-24.14 Y-11.754 Z-2.977
G3 X-23.949 Y-11.964 Z-2.998 R1.687
G1 X-23.917 Y-11.993 Z-3.001
G3 X-23.772 Y-12.114 Z-3.015 R1.688
G1 Y-12.128 Z-3.016
G3 X-23.746 Y-12.41 Z-3.037 R1.688
G1 X-23.738 Y-12.456 Z-3.04
G3 X-23.678 Y-12.691 Z-3.058 R1.688
G1 X-23.669 Y-12.719 Z-3.06
G3 X-23.544 Y-13.003 Z-3.083 R1.688
X-23.388 Y-13.281 Z-3.106 R26.896
X-23.174 Y-13.578 Z-3.133 R1.687
G1 X-23.143 Y-13.613 Z-3.136
G3 X-22.939 Y-13.804 Z-3.157 R1.687
G1 X-22.905 Y-13.831 Z-3.16
G3 X-22.749 Y-13.941 Z-3.174 R1.687
G1 X-22.747 Y-13.956 Z-3.175
G3 X-22.699 Y-14.236 Z-3.196 R1.688
G1 X-22.687 Y-14.281 Z-3.199
G3 X-22.609 Y-14.51 Z-3.217 R1.687
G1 X-22.597 Y-14.538 Z-3.219
G3 X-22.452 Y-14.81 Z-3.241 R1.688
X-22.274 Y-15.075 Z-3.265 R26.896
X-22.039 Y-15.353 Z-3.291 R1.687
G1 X-22.005 Y-15.385 Z-3.295
G3 X-21.783 Y-15.563 Z-3.315 R1.688
G1 X-21.748 Y-15.587 Z-3.319
G3 X-21.585 Y-15.683 Z-3.332 R1.687
G1 X-21.583 Y-15.695 Z-3.333
G3 X-21.511 Y-15.974 Z-3.354 R1.688
G1 X-21.496 Y-16.018 Z-3.358
G3 X-21.4 Y-16.24 Z-3.375 R1.688
G1 X-21.387 Y-16.266 Z-3.378
G3 X-21.221 Y-16.525 Z-3.4 R1.688
X-21.023 Y-16.776 Z-3.423 R26.896
X-20.766 Y-17.035 Z-3.45 R1.688
G1 X-20.73 Y-17.065 Z-3.453
G3 X-20.495 Y-17.224 Z-3.474 R1.688
G1 X-20.457 Y-17.245 Z-3.477
G3 X-20.288 Y-17.328 Z-3.491 R1.687
G1 X-20.284 Y-17.342 Z-3.492
G3 X-20.192 Y-17.612 Z-3.513 R1.688
G1 X-20.173 Y-17.655 Z-3.516
G3 X-20.062 Y-17.866 Z-3.534 R1.688
G1 X-20.047 Y-17.891 Z-3.536
G3 X-19.859 Y-18.139 Z-3.559 R1.687
X-19.642 Y-18.374 Z-3.582 R26.896
X-19.364 Y-18.613 Z-3.609 R1.687
G1 X-19.325 Y-18.639 Z-3.612
G3 X-19.082 Y-18.778 Z-3.633 R1.688
G1 X-19.042 Y-18.796 Z-3.636
G3 X-18.865 Y-18.867 Z-3.65 R1.688
G1 X-18.86 Y-18.882 Z-3.651
G3 X-18.749 Y-19.14 Z-3.672 R1.688
G1 X-18.727 Y-19.181 Z-3.675
G3 X-18.598 Y-19.385 Z-3.693 R1.688
G1 X-18.581 Y-19.409 Z-3.695
G3 X-18.374 Y-19.642 Z-3.718 R1.687
X-18.139 Y-19.859 Z-3.741 R26.896
X-17.846 Y-20.074 Z-3.767 R1.687
G1 X-17.806 Y-20.097 Z-3.771
G3 X-17.546 Y-20.219 Z-3.792 R1.687
G1 X-17.505 Y-20.234 Z-3.795
G3 X-17.327 Y-20.289 Z-3.809 R1.688
G1 X-17.321 Y-20.304 Z-3.81
G3 X-17.189 Y-20.552 Z-3.83 R1.687
G1 X-17.164 Y-20.591 Z-3.834
G3 X-17.019 Y-20.786 Z-3.852 R1.688
G1 X-17. Y-20.808 Z-3.854
G3 X-16.776 Y-21.023 Z-3.876 R1.688
X-16.525 Y-21.221 Z-3.9 R26.896
X-16.216 Y-21.412 Z-3.926 R1.688
G1 X-16.174 Y-21.432 Z-3.93
G3 X-15.907 Y-21.533 Z-3.95 R1.687
G1 X-15.865 Y-21.544 Z-3.954
G3 X-15.682 Y-21.586 Z-3.967 R1.688
G1 X-15.675 Y-21.598 Z-3.968
G3 X-15.524 Y-21.838 Z-3.989 R1.688
G1 X-15.496 Y-21.875 Z-3.993
G3 X-15.432 Y-21.954 Z-4. R1.687
X-15.335 Y-22.058 R1.687
G1 X-15.314 Y-22.078
G3 X-15.075 Y-22.274 R1.687
X-14.81 Y-22.452 R26.896
X-14.487 Y-22.618 R1.688
G1 X-14.444 Y-22.634
G3 X-14.169 Y-22.714 R1.688
G1 X-14.126 Y-22.723
G3 X-13.94 Y-22.75 R1.688
G1 X-13.934 Y-22.759
G3 X-13.76 Y-22.991 R1.687
G1 X-13.729 Y-23.026
G3 X-13.559 Y-23.191 R1.688
G1 X-13.537 Y-23.21
G3 X-13.281 Y-23.388 R1.687
X-13.003 Y-23.544 R26.896
X-12.668 Y-23.685 R1.688
G1 X-12.623 Y-23.698
G3 X-12.341 Y-23.756 R1.687
G1 X-12.298 Y-23.761
G3 X-12.112 Y-23.773 R1.688
G1 X-12.103 Y-23.786
G3 X-11.917 Y-23.997 R1.688
G1 X-11.883 Y-24.029
G3 X-11.697 Y-24.184 R1.688
G1 X-11.673 Y-24.202
G3 X-11.405 Y-24.358 R1.687
X-11.115 Y-24.492 R26.896
X-10.765 Y-24.607 R1.687
G1 X-10.72 Y-24.616
G3 X-10.442 Y-24.651 R1.687
G1 X-10.399 Y-24.653
G3 X-10.209 Y-24.65 R1.688
G1 X-10.2 Y-24.661
G3 X-9.996 Y-24.859 R1.687
G1 X-9.96 Y-24.888
G3 X-9.762 Y-25.028 R1.687
G1 X-9.737 Y-25.044
G3 X-9.459 Y-25.178 R1.687
X-9.16 Y-25.289 R26.896
X-8.802 Y-25.375 R1.688
G1 X-8.756 Y-25.381
G3 X-8.476 Y-25.394 R1.687
G1 X-8.433 Y-25.393
G3 X-8.244 Y-25.375 R1.688
G1 X-8.235 Y-25.384
G3 X-8.013 Y-25.568 R1.688
G1 X-7.975 Y-25.595
G3 X-7.774 Y-25.714 R1.688
G1 X-7.747 Y-25.728
G3 X-7.454 Y-25.843 R1.687
X-7.146 Y-25.929 R26.896
X-6.789 Y-25.987 R1.687
G1 X-6.742 Y-25.99
G3 X-6.453 Y-25.981 R1.688
G1 X-6.41 Y-25.976
G3 X-6.228 Y-25.944 R1.687
G1 X-6.216 Y-25.954
G3 X-5.984 Y-26.117 R1.687
G1 X-5.944 Y-26.14
G3 X-5.733 Y-26.245 R1.688
G1 X-5.705 Y-26.256
G3 X-5.404 Y-26.348 R1.688
X-5.09 Y-26.41 R26.896
X-4.724 Y-26.44 R1.687
G1 X-4.677 Y-26.439
G3 X-4.401 Y-26.408 R1.688
G1 X-4.358 Y-26.4
G3 X-4.173 Y-26.352 R1.688
G1 X-4.163 Y-26.36
G3 X-3.917 Y-26.505 R1.688
G1 X-3.875 Y-26.526
G3 X-3.65 Y-26.616 R1.687
G1 X-3.621 Y-26.625
G3 X-3.32 Y-26.69 R1.688
X-3.003 Y-26.728 R26.896
X-2.637 Y-26.729 R1.687
G1 X-2.591 Y-26.724
G3 X-2.311 Y-26.671 R1.688
G1 X-2.27 Y-26.659
G3 X-2.093 Y-26.598 R1.687
G1 X-2.08 Y-26.606
G3 X-1.824 Y-26.732 R1.687
G1 X-1.781 Y-26.748
G3 X-1.552 Y-26.82 R1.687
G1 X-1.523 Y-26.826
G3 X-1.216 Y-26.869 R1.688
X-0.897 Y-26.881 R26.896
X-0.532 Y-26.854 R1.687
G1 X-0.487 Y-26.845
G3 X-0.213 Y-26.77 R1.688
G1 X-0.172 Y-26.755
G3 X0.001 Y-26.681 R1.687
G1 X0.011 Y-26.686
G3 X0.28 Y-26.793 R1.688
G1 X0.325 Y-26.806
G3 X0.553 Y-26.858 R1.687
G1 X0.582 Y-26.862
G3 X0.897 Y-26.881 R1.687
X1.216 Y-26.869 R26.896
X1.577 Y-26.813 R1.688
G1 X1.622 Y-26.801
G3 X1.887 Y-26.705 R1.688
G1 X1.926 Y-26.687
G3 X2.094 Y-26.598 R1.688
G1 X2.108 Y-26.604
G3 X2.377 Y-26.687 R1.688
G1 X2.422 Y-26.697
G3 X2.665 Y-26.732 R1.687
G1 X2.694 Y-26.734
G3 X3.003 Y-26.728 R1.687
X3.32 Y-26.69 R26.896
X3.676 Y-26.606 R1.687
G1 X3.72 Y-26.591
G3 X3.976 Y-26.475 R1.687
G1 X4.013 Y-26.454
G3 X4.175 Y-26.352 R1.688
G1 X4.189 Y-26.357
G3 X4.467 Y-26.419 R1.688
G1 X4.513 Y-26.425
G3 X4.747 Y-26.441 R1.688
G1 X4.777
G3 X5.09 Y-26.41 R1.688
X5.404 Y-26.348 R26.896
X5.752 Y-26.236 R1.687
G1 X5.795 Y-26.217
G3 X6.043 Y-26.08 R1.688
G1 X6.079 Y-26.056
G3 X6.229 Y-25.943 R1.688
G1 X6.245 Y-25.947
G3 X6.525 Y-25.987 R1.687
G1 X6.571 Y-25.99
G3 X6.812 Y-25.986 R1.688
G1 X6.842 Y-25.984
G3 X7.146 Y-25.929 R1.687
X7.454 Y-25.843 R26.896
X7.793 Y-25.703 R1.687
G1 X7.834 Y-25.681
G3 X8.07 Y-25.526 R1.687
G1 X8.104 Y-25.5
G3 X8.246 Y-25.375 R1.688
G1 X8.26 Y-25.377
G3 X8.545 Y-25.395 R1.687
G1 X8.592 Y-25.394
G3 X8.825 Y-25.373 R1.688
G1 X8.854 Y-25.368
G3 X9.16 Y-25.289 R1.688
X9.459 Y-25.178 R26.896
X9.785 Y-25.014 R1.687
G1 X9.824 Y-24.988
G3 X10.048 Y-24.814 R1.687
G1 X10.08 Y-24.785
G3 X10.211 Y-24.649 R1.687
G1 X10.226 Y-24.65
G3 X10.51 Y-24.646 R1.688
G1 X10.556 Y-24.642
G3 X10.79 Y-24.602 R1.688
G1 X10.819 Y-24.595
G3 X11.115 Y-24.492 R1.687
X11.405 Y-24.358 R26.896
X11.717 Y-24.169 R1.688
G1 X11.754 Y-24.14
G3 X11.964 Y-23.949 R1.687
G1 X11.993 Y-23.917
G3 X12.114 Y-23.772 R1.688
G1 X12.128
G3 X12.41 Y-23.746 R1.688
G1 X12.456 Y-23.738
G3 X12.691 Y-23.678 R1.688
G1 X12.719 Y-23.669
G3 X13.003 Y-23.544 R1.688
X13.281 Y-23.388 R26.896
X13.578 Y-23.174 R1.687
G1 X13.613 Y-23.143
G3 X13.804 Y-22.939 R1.687
G1 X13.831 Y-22.905
G3 X13.941 Y-22.749 R1.687
G1 X13.956 Y-22.747
G3 X14.236 Y-22.699 R1.688
G1 X14.281 Y-22.687
G3 X14.51 Y-22.609 R1.687
G1 X14.538 Y-22.597
G3 X14.81 Y-22.452 R1.688
X15.075 Y-22.274 R26.896
X15.353 Y-22.039 R1.687
G1 X15.385 Y-22.005
G3 X15.563 Y-21.783 R1.688
G1 X15.587 Y-21.748
G3 X15.683 Y-21.585 R1.687
G1 X15.695 Y-21.583
G3 X15.974 Y-21.511 R1.688
G1 X16.018 Y-21.496
G3 X16.24 Y-21.4 R1.688
G1 X16.266 Y-21.387
G3 X16.525 Y-21.221 R1.688
X16.776 Y-21.023 R26.896
X17.035 Y-20.766 R1.688
G1 X17.065 Y-20.73
G3 X17.224 Y-20.495 R1.688
G1 X17.245 Y-20.457
G3 X17.328 Y-20.288 R1.687
G1 X17.342 Y-20.284
G3 X17.612 Y-20.192 R1.688
G1 X17.655 Y-20.173
G3 X17.866 Y-20.062 R1.688
G1 X17.891 Y-20.047
G3 X18.139 Y-19.859 R1.687
X18.374 Y-19.642 R26.896
X18.613 Y-19.364 R1.687
G1 X18.639 Y-19.325
G3 X18.778 Y-19.082 R1.688
G1 X18.796 Y-19.042
G3 X18.867 Y-18.865 R1.688
G1 X18.882 Y-18.86
G3 X19.14 Y-18.749 R1.688
G1 X19.181 Y-18.727
G3 X19.385 Y-18.598 R1.688
G1 X19.409 Y-18.581
G3 X19.642 Y-18.374 R1.687
X19.859 Y-18.139 R26.896
X20.074 Y-17.846 R1.687
G1 X20.097 Y-17.806
G3 X20.219 Y-17.546 R1.687
G1 X20.234 Y-17.505
G3 X20.289 Y-17.327 R1.688
G1 X20.304 Y-17.321
G3 X20.552 Y-17.189 R1.687
G1 X20.591 Y-17.164
G3 X20.786 Y-17.019 R1.688
G1 X20.808 Y-17.
G3 X21.023 Y-16.776 R1.688
X21.221 Y-16.525 R26.896
X21.412 Y-16.216 R1.688
G1 X21.432 Y-16.174
G3 X21.533 Y-15.907 R1.687
G1 X21.544 Y-15.865
G3 X21.586 Y-15.682 R1.688
G1 X21.598 Y-15.675
G3 X21.838 Y-15.524 R1.688
G1 X21.875 Y-15.496
G3 X22.058 Y-15.335 R1.687
G1 X22.078 Y-15.314
G3 X22.274 Y-15.075 R1.687
X22.452 Y-14.81 R26.896
X22.618 Y-14.487 R1.688
G1 X22.634 Y-14.444
G3 X22.714 Y-14.169 R1.688
G1 X22.723 Y-14.126
G3 X22.75 Y-13.94 R1.688
G1 X22.759 Y-13.934
G3 X22.991 Y-13.76 R1.687
G1 X23.026 Y-13.729
G3 X23.191 Y-13.559 R1.688
G1 X23.21 Y-13.537
G3 X23.388 Y-13.281 R1.687
X23.544 Y-13.003 R26.896
X23.685 Y-12.668 R1.688
G1 X23.698 Y-12.623
G3 X23.756 Y-12.341 R1.687
G1 X23.761 Y-12.298
G3 X23.773 Y-12.112 R1.688
G1 X23.786 Y-12.103
G3 X23.997 Y-11.917 R1.688
G1 X24.029 Y-11.883
G3 X24.184 Y-11.697 R1.688
G1 X24.202 Y-11.673
G3 X24.358 Y-11.405 R1.687
X24.492 Y-11.115 R26.896
X24.607 Y-10.765 R1.687
G1 X24.616 Y-10.72
G3 X24.651 Y-10.442 R1.687
G1 X24.653 Y-10.399
G3 X24.65 Y-10.209 R1.688
G1 X24.661 Y-10.2
G3 X24.859 Y-9.996 R1.687
G1 X24.888 Y-9.96
G3 X25.028 Y-9.762 R1.687
G1 X25.044 Y-9.737
G3 X25.178 Y-9.459 R1.687
X25.289 Y-9.16 R26.896
X25.375 Y-8.802 R1.688
G1 X25.381 Y-8.756
G3 X25.394 Y-8.476 R1.687
G1 X25.393 Y-8.433
G3 X25.375 Y-8.244 R1.688
G1 X25.384 Y-8.235
G3 X25.568 Y-8.013 R1.688
G1 X25.595 Y-7.975
G3 X25.714 Y-7.774 R1.688
G1 X25.728 Y-7.747
G3 X25.843 Y-7.454 R1.687
X25.929 Y-7.146 R26.896
X25.987 Y-6.789 R1.687
G1 X25.99 Y-6.742
G3 X25.981 Y-6.453 R1.688
G1 X25.976 Y-6.41
G3 X25.944 Y-6.228 R1.687
G1 X25.954 Y-6.216
G3 X26.117 Y-5.984 R1.687
G1 X26.14 Y-5.944
G3 X26.245 Y-5.733 R1.688
G1 X26.256 Y-5.705
G3 X26.348 Y-5.404 R1.688
X26.41 Y-5.09 R26.896
X26.44 Y-4.724 R1.687
G1 X26.439 Y-4.677
G3 X26.408 Y-4.401 R1.688
G1 X26.4 Y-4.358
G3 X26.352 Y-4.173 R1.688
G1 X26.36 Y-4.163
G3 X26.505 Y-3.917 R1.688
G1 X26.526 Y-3.875
G3 X26.616 Y-3.65 R1.687
G1 X26.625 Y-3.621
G3 X26.69 Y-3.32 R1.688
X26.728 Y-3.003 R26.896
X26.729 Y-2.637 R1.687
G1 X26.724 Y-2.591
G3 X26.671 Y-2.311 R1.688
G1 X26.659 Y-2.27
G3 X26.598 Y-2.093 R1.687
G1 X26.606 Y-2.08
G3 X26.732 Y-1.824 R1.687
G1 X26.748 Y-1.781
G3 X26.82 Y-1.552 R1.687
G1 X26.826 Y-1.523
G3 X26.869 Y-1.216 R1.688
X26.881 Y-0.897 R26.896
X26.854 Y-0.532 R1.687
G1 X26.845 Y-0.487
G3 X26.77 Y-0.213 R1.688
G1 X26.755 Y-0.172
G3 X26.681 Y0.001 R1.687
G1 X26.686 Y0.011
G3 X26.793 Y0.28 R1.688
G1 X26.806 Y0.325
G3 X26.858 Y0.553 R1.687
G1 X26.862 Y0.582
G3 X26.881 Y0.897 R1.687
X26.869 Y1.216 R26.896
X26.813 Y1.577 R1.688
G1 X26.801 Y1.622
G3 X26.705 Y1.887 R1.688
G1 X26.687 Y1.926
G3 X26.598 Y2.094 R1.688
G1 X26.604 Y2.108
G3 X26.687 Y2.377 R1.688
G1 X26.697 Y2.422
G3 X26.732 Y2.665 R1.687
G1 X26.734 Y2.694
G3 X26.728 Y3.003 R1.687
X26.69 Y3.32 R26.896
X26.606 Y3.676 R1.687
G1 X26.591 Y3.72
G3 X26.475 Y3.976 R1.687
G1 X26.454 Y4.013
G3 X26.352 Y4.175 R1.688
G1 X26.357 Y4.189
G3 X26.419 Y4.467 R1.688
G1 X26.425 Y4.513
G3 X26.441 Y4.747 R1.688
G1 Y4.777
G3 X26.41 Y5.09 R1.688
X26.348 Y5.404 R26.896
X26.236 Y5.752 R1.687
G1 X26.217 Y5.795
G3 X26.08 Y6.043 R1.688
G1 X26.056 Y6.079
G3 X25.943 Y6.229 R1.688
G1 X25.947 Y6.245
G3 X25.987 Y6.525 R1.687
G1 X25.99 Y6.571
G3 X25.986 Y6.812 R1.688
G1 X25.984 Y6.842
G3 X25.929 Y7.146 R1.687
X25.843 Y7.454 R26.896
X25.703 Y7.793 R1.687
G1 X25.681 Y7.834
G3 X25.526 Y8.07 R1.687
G1 X25.5 Y8.104
G3 X25.375 Y8.246 R1.688
G1 X25.377 Y8.26
G3 X25.395 Y8.545 R1.687
G1 X25.394 Y8.592
G3 X25.373 Y8.825 R1.688
G1 X25.368 Y8.854
G3 X25.289 Y9.16 R1.688
X25.178 Y9.459 R26.896
X25.014 Y9.785 R1.687
G1 X24.988 Y9.824
G3 X24.814 Y10.048 R1.687
G1 X24.785 Y10.08
G3 X24.649 Y10.211 R1.687
G1 X24.65 Y10.226
G3 X24.646 Y10.51 R1.688
G1 X24.642 Y10.556
G3 X24.602 Y10.79 R1.688
G1 X24.595 Y10.819
G3 X24.492 Y11.115 R1.687
X24.358 Y11.405 R26.896
X24.169 Y11.717 R1.688
G1 X24.14 Y11.754
G3 X23.949 Y11.964 R1.687
G1 X23.917 Y11.993
G3 X23.772 Y12.114 R1.688
G1 Y12.128
G3 X23.746 Y12.41 R1.688
G1 X23.738 Y12.456
G3 X23.678 Y12.691 R1.688
G1 X23.669 Y12.719
G3 X23.544 Y13.003 R1.688
X23.388 Y13.281 R26.896
X23.174 Y13.578 R1.687
G1 X23.143 Y13.613
G3 X22.939 Y13.804 R1.687
G1 X22.905 Y13.831
G3 X22.749 Y13.941 R1.687
G1 X22.747 Y13.956
G3 X22.699 Y14.236 R1.688
G1 X22.687 Y14.281
G3 X22.609 Y14.51 R1.687
G1 X22.597 Y14.538
G3 X22.452 Y14.81 R1.688
X22.274 Y15.075 R26.896
X22.039 Y15.353 R1.687
G1 X22.005 Y15.385
G3 X21.783 Y15.563 R1.688
G1 X21.748 Y15.587
G3 X21.585 Y15.683 R1.687
G1 X21.583 Y15.695
G3 X21.511 Y15.974 R1.688
G1 X21.496 Y16.018
G3 X21.4 Y16.24 R1.688
G1 X21.387 Y16.266
G3 X21.221 Y16.525 R1.688
X21.023 Y16.776 R26.896
X20.766 Y17.035 R1.688
G1 X20.73 Y17.065
G3 X20.495 Y17.224 R1.688
G1 X20.457 Y17.245
G3 X20.288 Y17.328 R1.687
G1 X20.284 Y17.342
G3 X20.192 Y17.612 R1.688
G1 X20.173 Y17.655
G3 X20.062 Y17.866 R1.688
G1 X20.047 Y17.891
G3 X19.859 Y18.139 R1.687
X19.642 Y18.374 R26.896
X19.364 Y18.613 R1.687
G1 X19.325 Y18.639
G3 X19.082 Y18.778 R1.688
G1 X19.042 Y18.796
G3 X18.865 Y18.867 R1.688
G1 X18.86 Y18.882
G3 X18.749 Y19.14 R1.688
G1 X18.727 Y19.181
G3 X18.598 Y19.385 R1.688
G1 X18.581 Y19.409
G3 X18.374 Y19.642 R1.687
X18.139 Y19.859 R26.896
X17.846 Y20.074 R1.687
G1 X17.806 Y20.097
G3 X17.546 Y20.219 R1.687
G1 X17.505 Y20.234
G3 X17.327 Y20.289 R1.688
G1 X17.321 Y20.304
G3 X17.189 Y20.552 R1.687
G1 X17.164 Y20.591
G3 X17.019 Y20.786 R1.688
G1 X17. Y20.808
G3 X16.776 Y21.023 R1.688
X16.525 Y21.221 R26.896
X16.216 Y21.412 R1.688
G1 X16.174 Y21.432
G3 X15.907 Y21.533 R1.687
G1 X15.865 Y21.544
G3 X15.682 Y21.586 R1.688
G1 X15.675 Y21.598
G3 X15.524 Y21.838 R1.688
G1 X15.496 Y21.875
G3 X15.335 Y22.058 R1.687
G1 X15.314 Y22.078
G3 X15.075 Y22.274 R1.687
X14.81 Y22.452 R26.896
X14.487 Y22.618 R1.688
G1 X14.444 Y22.634
G3 X14.169 Y22.714 R1.688
G1 X14.126 Y22.723
G3 X13.94 Y22.75 R1.688
G1 X13.934 Y22.759
G3 X13.76 Y22.991 R1.687
G1 X13.729 Y23.026
G3 X13.559 Y23.191 R1.688
G1 X13.537 Y23.21
G3 X13.281 Y23.388 R1.687
X13.003 Y23.544 R26.896
X12.668 Y23.685 R1.688
G1 X12.623 Y23.698
G3 X12.341 Y23.756 R1.687
G1 X12.298 Y23.761
G3 X12.112 Y23.773 R1.688
G1 X12.103 Y23.786
G3 X11.917 Y23.997 R1.688
G1 X11.883 Y24.029
G3 X11.697 Y24.184 R1.688
G1 X11.673 Y24.202
G3 X11.405 Y24.358 R1.687
X11.115 Y24.492 R26.896
X10.765 Y24.607 R1.687
G1 X10.72 Y24.616
G3 X10.442 Y24.651 R1.687
G1 X10.399 Y24.653
G3 X10.209 Y24.65 R1.688
G1 X10.2 Y24.661
G3 X9.996 Y24.859 R1.687
G1 X9.96 Y24.888
G3 X9.762 Y25.028 R1.687
G1 X9.737 Y25.044
G3 X9.459 Y25.178 R1.687
X9.16 Y25.289 R26.896
X8.802 Y25.375 R1.688
G1 X8.756 Y25.381
G3 X8.476 Y25.394 R1.687
G1 X8.433 Y25.393
G3 X8.244 Y25.375 R1.688
G1 X8.235 Y25.384
G3 X8.013 Y25.568 R1.688
G1 X7.975 Y25.595
G3 X7.774 Y25.714 R1.688
G1 X7.747 Y25.728
G3 X7.454 Y25.843 R1.687
X7.146 Y25.929 R26.896
X6.789 Y25.987 R1.687
G1 X6.742 Y25.99
G3 X6.453 Y25.981 R1.688
G1 X6.41 Y25.976
G3 X6.228 Y25.944 R1.687
G1 X6.216 Y25.954
G3 X5.984 Y26.117 R1.687
G1 X5.944 Y26.14
G3 X5.733 Y26.245 R1.688
G1 X5.705 Y26.256
G3 X5.404 Y26.348 R1.688
X5.09 Y26.41 R26.896
X4.724 Y26.44 R1.687
G1 X4.677 Y26.439
G3 X4.401 Y26.408 R1.688
G1 X4.358 Y26.4
G3 X4.173 Y26.352 R1.688
G1 X4.163 Y26.36
G3 X3.917 Y26.505 R1.688
G1 X3.875 Y26.526
G3 X3.65 Y26.616 R1.687
G1 X3.621 Y26.625
G3 X3.32 Y26.69 R1.688
X3.003 Y26.728 R26.896
X2.637 Y26.729 R1.687
G1 X2.591 Y26.724
G3 X2.311 Y26.671 R1.688
G1 X2.27 Y26.659
G3 X2.093 Y26.598 R1.687
G1 X2.08 Y26.606
G3 X1.824 Y26.732 R1.687
G1 X1.781 Y26.748
G3 X1.552 Y26.82 R1.687
G1 X1.523 Y26.826
G3 X1.216 Y26.869 R1.688
X0.897 Y26.881 R26.896
X0.532 Y26.854 R1.687
G1 X0.487 Y26.845
G3 X0.213 Y26.77 R1.688
G1 X0.172 Y26.755
G3 X-0.001 Y26.681 R1.687
G1 X-0.011 Y26.686
G3 X-0.28 Y26.793 R1.688
G1 X-0.325 Y26.806
G3 X-0.553 Y26.858 R1.687
G1 X-0.582 Y26.862
G3 X-0.897 Y26.881 R1.687
X-1.216 Y26.869 R26.896
X-1.577 Y26.813 R1.688
G1 X-1.622 Y26.801
G3 X-1.887 Y26.705 R1.688
G1 X-1.926 Y26.687
G3 X-2.094 Y26.598 R1.688
G1 X-2.108 Y26.604
G3 X-2.377 Y26.687 R1.688
G1 X-2.422 Y26.697
G3 X-2.665 Y26.732 R1.687
G1 X-2.694 Y26.734
G3 X-3.003 Y26.728 R1.687
X-3.32 Y26.69 R26.896
X-3.676 Y26.606 R1.687
G1 X-3.72 Y26.591
G3 X-3.976 Y26.475 R1.687
G1 X-4.013 Y26.454
G3 X-4.175 Y26.352 R1.688
G1 X-4.189 Y26.357
G3 X-4.467 Y26.419 R1.688
G1 X-4.513 Y26.425
G3 X-4.747 Y26.441 R1.688
G1 X-4.777
G3 X-5.09 Y26.41 R1.688
X-5.404 Y26.348 R26.896
X-5.752 Y26.236 R1.687
G1 X-5.795 Y26.217
G3 X-6.043 Y26.08 R1.688
G1 X-6.079 Y26.056
G3 X-6.229 Y25.943 R1.688
G1 X-6.245 Y25.947
G3 X-6.525 Y25.987 R1.687
G1 X-6.571 Y25.99
G3 X-6.812 Y25.986 R1.688
G1 X-6.842 Y25.984
G3 X-7.146 Y25.929 R1.687
X-7.454 Y25.843 R26.896
X-7.793 Y25.703 R1.687
G1 X-7.834 Y25.681
G3 X-8.07 Y25.526 R1.687
G1 X-8.104 Y25.5
G3 X-8.246 Y25.375 R1.688
G1 X-8.26 Y25.377
G3 X-8.545 Y25.395 R1.687
G1 X-8.592 Y25.394
G3 X-8.825 Y25.373 R1.688
G1 X-8.854 Y25.368
G3 X-9.16 Y25.289 R1.688
X-9.459 Y25.178 R26.896
X-9.785 Y25.014 R1.687
G1 X-9.824 Y24.988
G3 X-10.048 Y24.814 R1.687
G1 X-10.08 Y24.785
G3 X-10.211 Y24.649 R1.687
G1 X-10.226 Y24.65
G3 X-10.51 Y24.646 R1.688
G1 X-10.556 Y24.642
G3 X-10.79 Y24.602 R1.688
G1 X-10.819 Y24.595
G3 X-11.115 Y24.492 R1.687
X-11.405 Y24.358 R26.896
X-11.717 Y24.169 R1.688
G1 X-11.754 Y24.14
G3 X-11.964 Y23.949 R1.687
G1 X-11.993 Y23.917
G3 X-12.114 Y23.772 R1.688
G1 X-12.128
G3 X-12.41 Y23.746 R1.688
G1 X-12.456 Y23.738
G3 X-12.691 Y23.678 R1.688
G1 X-12.719 Y23.669
G3 X-13.003 Y23.544 R1.688
X-13.281 Y23.388 R26.896
X-13.578 Y23.174 R1.687
G1 X-13.613 Y23.143
G3 X-13.804 Y22.939 R1.687
G1 X-13.831 Y22.905
G3 X-13.941 Y22.749 R1.687
G1 X-13.956 Y22.747
G3 X-14.236 Y22.699 R1.688
G1 X-14.281 Y22.687
G3 X-14.51 Y22.609 R1.687
G1 X-14.538 Y22.597
G3 X-14.81 Y22.452 R1.688
X-15.075 Y22.274 R26.896
X-15.353 Y22.039 R1.687
G1 X-15.385 Y22.005
G3 X-15.563 Y21.783 R1.688
G1 X-15.587 Y21.748
G3 X-15.683 Y21.585 R1.687
G1 X-15.695 Y21.583
G3 X-15.974 Y21.511 R1.688
G1 X-16.018 Y21.496
G3 X-16.24 Y21.4 R1.688
G1 X-16.266 Y21.387
G3 X-16.525 Y21.221 R1.688
X-16.776 Y21.023 R26.896
X-17.035 Y20.766 R1.688
G1 X-17.065 Y20.73
G3 X-17.224 Y20.495 R1.688
G1 X-17.245 Y20.457
G3 X-17.328 Y20.288 R1.687
G1 X-17.342 Y20.284
G3 X-17.612 Y20.192 R1.688
G1 X-17.655 Y20.173
G3 X-17.866 Y20.062 R1.688
G1 X-17.891 Y20.047
G3 X-18.139 Y19.859 R1.687
X-18.374 Y19.642 R26.896
X-18.613 Y19.364 R1.687
G1 X-18.639 Y19.325
G3 X-18.778 Y19.082 R1.688
G1 X-18.796 Y19.042
G3 X-18.867 Y18.865 R1.688
G1 X-18.882 Y18.86
G3 X-19.14 Y18.749 R1.688
G1 X-19.181 Y18.727
G3 X-19.385 Y18.598 R1.688
G1 X-19.409 Y18.581
G3 X-19.642 Y18.374 R1.687
X-19.859 Y18.139 R26.896
X-20.074 Y17.846 R1.687
G1 X-20.097 Y17.806
G3 X-20.219 Y17.546 R1.687
G1 X-20.234 Y17.505
G3 X-20.289 Y17.327 R1.688
G1 X-20.304 Y17.321
G3 X-20.552 Y17.189 R1.687
G1 X-20.591 Y17.164
G3 X-20.786 Y17.019 R1.688
G1 X-20.808 Y17.
G3 X-21.023 Y16.776 R1.688
X-21.221 Y16.525 R26.896
X-21.412 Y16.216 R1.688
G1 X-21.432 Y16.174
G3 X-21.533 Y15.907 R1.687
G1 X-21.544 Y15.865
G3 X-21.586 Y15.682 R1.688
G1 X-21.598 Y15.675
G3 X-21.838 Y15.524 R1.688
G1 X-21.875 Y15.496
G3 X-22.058 Y15.335 R1.687
G1 X-22.078 Y15.314
G3 X-22.274 Y15.075 R1.687
X-22.452 Y14.81 R26.896
X-22.618 Y14.487 R1.688
G1 X-22.634 Y14.444
G3 X-22.714 Y14.169 R1.688
G1 X-22.723 Y14.126
G3 X-22.75 Y13.94 R1.688
G1 X-22.759 Y13.934
G3 X-22.991 Y13.76 R1.687
G1 X-23.026 Y13.729
G3 X-23.191 Y13.559 R1.688
G1 X-23.21 Y13.537
G3 X-23.388 Y13.281 R1.687
X-23.544 Y13.003 R26.896
X-23.685 Y12.668 R1.688
G1 X-23.698 Y12.623
G3 X-23.756 Y12.341 R1.687
G1 X-23.761 Y12.298
G3 X-23.773 Y12.112 R1.688
G1 X-23.786 Y12.103
G3 X-23.997 Y11.917 R1.688
G1 X-24.029 Y11.883
G3 X-24.184 Y11.697 R1.688
G1 X-24.202 Y11.673
G3 X-24.358 Y11.405 R1.687
X-24.492 Y11.115 R26.896
X-24.607 Y10.765 R1.687
G1 X-24.616 Y10.72
G3 X-24.651 Y10.442 R1.687
G1 X-24.653 Y10.399
G3 X-24.65 Y10.209 R1.688
G1 X-24.661 Y10.2
G3 X-24.859 Y9.996 R1.687
G1 X-24.888 Y9.96
G3 X-25.028 Y9.762 R1.687
G1 X-25.044 Y9.737
G3 X-25.178 Y9.459 R1.687
X-25.289 Y9.16 R26.896
X-25.375 Y8.802 R1.688
G1 X-25.381 Y8.756
G3 X-25.394 Y8.476 R1.687
G1 X-25.393 Y8.433
G3 X-25.375 Y8.244 R1.688
G1 X-25.384 Y8.235
G3 X-25.568 Y8.013 R1.688
G1 X-25.595 Y7.975
G3 X-25.714 Y7.774 R1.688
G1 X-25.728 Y7.747
G3 X-25.843 Y7.454 R1.687
X-25.929 Y7.146 R26.896
X-25.987 Y6.789 R1.687
G1 X-25.99 Y6.742
G3 X-25.981 Y6.453 R1.688
G1 X-25.976 Y6.41
G3 X-25.944 Y6.228 R1.687
G1 X-25.954 Y6.216
G3 X-26.117 Y5.984 R1.687
G1 X-26.14 Y5.944
G3 X-26.245 Y5.733 R1.688
G1 X-26.256 Y5.705
G3 X-26.348 Y5.404 R1.688
X-26.41 Y5.09 R26.896
X-26.44 Y4.724 R1.687
G1 X-26.439 Y4.677
G3 X-26.408 Y4.401 R1.688
G1 X-26.4 Y4.358
G3 X-26.352 Y4.173 R1.688
G1 X-26.36 Y4.163
G3 X-26.505 Y3.917 R1.688
G1 X-26.526 Y3.875
G3 X-26.616 Y3.65 R1.687
G1 X-26.625 Y3.621
G3 X-26.69 Y3.32 R1.688
X-26.728 Y3.003 R26.896
X-26.729 Y2.637 R1.687
G1 X-26.724 Y2.591
G3 X-26.671 Y2.311 R1.688
G1 X-26.659 Y2.27
G3 X-26.598 Y2.093 R1.687
G1 X-26.606 Y2.08
G3 X-26.732 Y1.824 R1.687
G1 X-26.748 Y1.781
G3 X-26.82 Y1.552 R1.687
G1 X-26.826 Y1.523
G3 X-26.869 Y1.216 R1.688
X-26.881 Y0.897 R26.896
X-26.854 Y0.532 R1.687
G1 X-26.845 Y0.487
G3 X-26.77 Y0.213 R1.688
G1 X-26.755 Y0.172
G3 X-26.681 Y-0.001 R1.687
G1 X-26.686 Y-0.011
G3 X-26.793 Y-0.28 R1.688
G1 X-26.806 Y-0.325
G3 X-26.858 Y-0.553 R1.687
G1 X-26.862 Y-0.582
G3 X-26.881 Y-0.897 R1.687
X-26.869 Y-1.216 R26.896
X-26.813 Y-1.577 R1.688
G1 X-26.801 Y-1.622
G3 X-26.705 Y-1.887 R1.688
G1 X-26.687 Y-1.926
G3 X-26.598 Y-2.094 R1.688
G1 X-26.604 Y-2.108
G3 X-26.687 Y-2.377 R1.688
G1 X-26.697 Y-2.422
G3 X-26.732 Y-2.665 R1.687
G1 X-26.734 Y-2.694
G3 X-26.728 Y-3.003 R1.687
X-26.69 Y-3.32 R26.896
X-26.606 Y-3.676 R1.687
G1 X-26.591 Y-3.72
G3 X-26.475 Y-3.976 R1.687
G1 X-26.454 Y-4.013
G3 X-26.352 Y-4.175 R1.688
G1 X-26.357 Y-4.189
G3 X-26.419 Y-4.467 R1.688
G1 X-26.425 Y-4.513
G3 X-26.441 Y-4.747 R1.688
G1 Y-4.777
G3 X-26.41 Y-5.09 R1.688
X-26.348 Y-5.404 R26.896
X-26.236 Y-5.752 R1.687
G1 X-26.217 Y-5.795
G3 X-26.08 Y-6.043 R1.688
G1 X-26.056 Y-6.079
G3 X-25.943 Y-6.229 R1.688
G1 X-25.947 Y-6.245
G3 X-25.987 Y-6.525 R1.687
G1 X-25.99 Y-6.571
G3 X-25.986 Y-6.812 R1.688
G1 X-25.984 Y-6.842
G3 X-25.929 Y-7.146 R1.687
X-25.843 Y-7.454 R26.896
X-25.703 Y-7.793 R1.687
G1 X-25.681 Y-7.834
G3 X-25.526 Y-8.07 R1.687
G1 X-25.5 Y-8.104
G3 X-25.375 Y-8.246 R1.688
G1 X-25.377 Y-8.26
G3 X-25.395 Y-8.545 R1.687
G1 X-25.394 Y-8.592
G3 X-25.373 Y-8.825 R1.688
G1 X-25.368 Y-8.854
G3 X-25.289 Y-9.16 R1.688
X-25.178 Y-9.459 R26.896
X-25.014 Y-9.785 R1.687
G1 X-24.988 Y-9.824
G3 X-24.814 Y-10.048 R1.687
G1 X-24.785 Y-10.08
G3 X-24.649 Y-10.211 R1.687
G1 X-24.65 Y-10.226
G3 X-24.646 Y-10.51 R1.688
G1 X-24.642 Y-10.556
G3 X-24.602 Y-10.79 R1.688
G1 X-24.595 Y-10.819
G3 X-24.492 Y-11.115 R1.687
X-24.358 Y-11.405 R26.896
X-24.169 Y-11.717 R1.688
G1 X-24.14 Y-11.754
G3 X-23.949 Y-11.964 R1.687
G1 X-23.917 Y-11.993
G3 X-23.772 Y-12.114 R1.688
G1 Y-12.128
G3 X-23.746 Y-12.41 R1.688
G1 X-23.738 Y-12.456
G3 X-23.678 Y-12.691 R1.688
G1 X-23.669 Y-12.719
G3 X-23.544 Y-13.003 R1.688
X-23.388 Y-13.281 R26.896
X-23.174 Y-13.578 R1.687
G1 X-23.143 Y-13.613
G3 X-22.939 Y-13.804 R1.687
G1 X-22.905 Y-13.831
G3 X-22.749 Y-13.941 R1.687
G1 X-22.747 Y-13.956
G3 X-22.699 Y-14.236 R1.688
G1 X-22.687 Y-14.281
G3 X-22.609 Y-14.51 R1.687
G1 X-22.597 Y-14.538
G3 X-22.452 Y-14.81 R1.688
X-22.274 Y-15.075 R26.896
X-22.039 Y-15.353 R1.687
G1 X-22.005 Y-15.385
G3 X-21.783 Y-15.563 R1.688
G1 X-21.748 Y-15.587
G3 X-21.585 Y-15.683 R1.687
G1 X-21.583 Y-15.695
G3 X-21.511 Y-15.974 R1.688
G1 X-21.496 Y-16.018
G3 X-21.4 Y-16.24 R1.688
G1 X-21.387 Y-16.266
G3 X-21.221 Y-16.525 R1.688
X-21.023 Y-16.776 R26.896
X-20.766 Y-17.035 R1.688
G1 X-20.73 Y-17.065
G3 X-20.495 Y-17.224 R1.688
G1 X-20.457 Y-17.245
G3 X-20.288 Y-17.328 R1.687
G1 X-20.284 Y-17.342
G3 X-20.192 Y-17.612 R1.688
G1 X-20.173 Y-17.655
G3 X-20.062 Y-17.866 R1.688
G1 X-20.047 Y-17.891
G3 X-19.859 Y-18.139 R1.687
X-19.642 Y-18.374 R26.896
X-19.364 Y-18.613 R1.687
G1 X-19.325 Y-18.639
G3 X-19.082 Y-18.778 R1.688
G1 X-19.042 Y-18.796
G3 X-18.865 Y-18.867 R1.688
G1 X-18.86 Y-18.882
G3 X-18.749 Y-19.14 R1.688
G1 X-18.727 Y-19.181
G3 X-18.598 Y-19.385 R1.688
G1 X-18.581 Y-19.409
G3 X-18.374 Y-19.642 R1.687
X-18.139 Y-19.859 R26.896
X-17.846 Y-20.074 R1.687
G1 X-17.806 Y-20.097
G3 X-17.546 Y-20.219 R1.687
G1 X-17.505 Y-20.234
G3 X-17.327 Y-20.289 R1.688
G1 X-17.321 Y-20.304
G3 X-17.189 Y-20.552 R1.687
G1 X-17.164 Y-20.591
G3 X-17.019 Y-20.786 R1.688
G1 X-17. Y-20.808
G3 X-16.776 Y-21.023 R1.688
X-16.525 Y-21.221 R26.896
X-16.216 Y-21.412 R1.688
G1 X-16.174 Y-21.432
G3 X-15.907 Y-21.533 R1.687
G1 X-15.865 Y-21.544
G3 X-15.682 Y-21.586 R1.688
G1 X-15.675 Y-21.598
G3 X-15.524 Y-21.838 R1.688
G1 X-15.496 Y-21.875
G3 X-15.432 Y-21.954 R1.687
X-15.335 Y-22.058 Z-4.01 R1.687
G1 X-15.314 Y-22.078 Z-4.012
G3 X-15.075 Y-22.274 Z-4.035 R1.687
X-14.81 Y-22.452 Z-4.058 R26.896
X-14.487 Y-22.618 Z-4.085 R1.688
G1 X-14.444 Y-22.634 Z-4.088
G3 X-14.169 Y-22.714 Z-4.109 R1.688
G1 X-14.126 Y-22.723 Z-4.112
G3 X-13.94 Y-22.75 Z-4.126 R1.688
G1 X-13.934 Y-22.759 Z-4.127
G3 X-13.76 Y-22.991 Z-4.148 R1.687
G1 X-13.729 Y-23.026 Z-4.152
G3 X-13.559 Y-23.191 Z-4.169 R1.688
G1 X-13.537 Y-23.21 Z-4.171
G3 X-13.281 Y-23.388 Z-4.194 R1.687
X-13.003 Y-23.544 Z-4.217 R26.896
X-12.668 Y-23.685 Z-4.244 R1.688
G1 X-12.623 Y-23.698 Z-4.247
G3 X-12.341 Y-23.756 Z-4.268 R1.687
G1 X-12.298 Y-23.761 Z-4.271
G3 X-12.112 Y-23.773 Z-4.285 R1.688
G1 X-12.103 Y-23.786 Z-4.286
G3 X-11.917 Y-23.997 Z-4.307 R1.688
G1 X-11.883 Y-24.029 Z-4.31
G3 X-11.697 Y-24.184 Z-4.328 R1.688
G1 X-11.673 Y-24.202 Z-4.33
G3 X-11.405 Y-24.358 Z-4.353 R1.687
X-11.115 Y-24.492 Z-4.376 R26.896
X-10.765 Y-24.607 Z-4.403 R1.687
G1 X-10.72 Y-24.616 Z-4.406
G3 X-10.442 Y-24.651 Z-4.427 R1.687
G1 X-10.399 Y-24.653 Z-4.43
G3 X-10.209 Y-24.65 Z-4.444 R1.688
G1 X-10.2 Y-24.661 Z-4.445
G3 X-9.996 Y-24.859 Z-4.465 R1.687
G1 X-9.96 Y-24.888 Z-4.469
G3 X-9.762 Y-25.028 Z-4.487 R1.687
G1 X-9.737 Y-25.044 Z-4.489
G3 X-9.459 Y-25.178 Z-4.511 R1.687
X-9.16 Y-25.289 Z-4.535 R26.896
X-8.802 Y-25.375 Z-4.562 R1.688
G1 X-8.756 Y-25.381 Z-4.565
G3 X-8.476 Y-25.394 Z-4.585 R1.687
G1 X-8.433 Y-25.393 Z-4.589
G3 X-8.244 Y-25.375 Z-4.602 R1.688
G1 X-8.235 Y-25.384 Z-4.603
G3 X-8.013 Y-25.568 Z-4.624 R1.688
G1 X-7.975 Y-25.595 Z-4.628
G3 X-7.774 Y-25.714 Z-4.645 R1.688
G1 X-7.747 Y-25.728 Z-4.647
G3 X-7.454 Y-25.843 Z-4.67 R1.687
X-7.146 Y-25.929 Z-4.693 R26.896
X-6.789 Y-25.987 Z-4.72 R1.687
G1 X-6.742 Y-25.99 Z-4.723
G3 X-6.453 Y-25.981 Z-4.744 R1.688
G1 X-6.41 Y-25.976 Z-4.748
G3 X-6.228 Y-25.944 Z-4.761 R1.687
G1 X-6.216 Y-25.954 Z-4.762
G3 X-5.984 Y-26.117 Z-4.783 R1.687
G1 X-5.944 Y-26.14 Z-4.786
G3 X-5.733 Y-26.245 Z-4.804 R1.688
G1 X-5.705 Y-26.256 Z-4.806
G3 X-5.404 Y-26.348 Z-4.829 R1.688
X-5.09 Y-26.41 Z-4.852 R26.896
X-4.724 Y-26.44 Z-4.879 R1.687
G1 X-4.677 Y-26.439 Z-4.882
G3 X-4.401 Y-26.408 Z-4.903 R1.688
G1 X-4.358 Y-26.4 Z-4.906
G3 X-4.173 Y-26.352 Z-4.92 R1.688
G1 X-4.163 Y-26.36 Z-4.921
G3 X-3.917 Y-26.505 Z-4.942 R1.688
G1 X-3.875 Y-26.526 Z-4.945
G3 X-3.65 Y-26.616 Z-4.963 R1.687
G1 X-3.621 Y-26.625 Z-4.965
G3 X-3.32 Y-26.69 Z-4.988 R1.688
X-3.003 Y-26.728 Z-5.011 R26.896
X-2.637 Y-26.729 Z-5.038 R1.687
G1 X-2.591 Y-26.724 Z-5.041
G3 X-2.311 Y-26.671 Z-5.062 R1.688
G1 X-2.27 Y-26.659 Z-5.065
G3 X-2.093 Y-26.598 Z-5.079 R1.687
G1 X-2.08 Y-26.606 Z-5.08
G3 X-1.824 Y-26.732 Z-5.101 R1.687
G1 X-1.781 Y-26.748 Z-5.104
G3 X-1.552 Y-26.82 Z-5.121 R1.687
G1 X-1.523 Y-26.826 Z-5.124
G3 X-1.216 Y-26.869 Z-5.146 R1.688
X-0.897 Y-26.881 Z-5.17 R26.896
X-0.532 Y-26.854 Z-5.196 R1.687
G1 X-0.487 Y-26.845 Z-5.2
G3 X-0.213 Y-26.77 Z-5.22 R1.688
G1 X-0.172 Y-26.755 Z-5.224
G3 X0.001 Y-26.681 Z-5.237 R1.687
G1 X0.011 Y-26.686 Z-5.238
G3 X0.158 Y-26.751 Z-5.25 R1.688
X0.28 Y-26.793 R1.688
G1 X0.325 Y-26.806
G3 X0.553 Y-26.858 R1.687
G1 X0.582 Y-26.862
G3 X0.897 Y-26.881 R1.687
X1.216 Y-26.869 R26.896
X1.577 Y-26.813 R1.688
G1 X1.622 Y-26.801
G3 X1.887 Y-26.705 R1.688
G1 X1.926 Y-26.687
G3 X2.094 Y-26.598 R1.688
G1 X2.108 Y-26.604
G3 X2.377 Y-26.687 R1.688
G1 X2.422 Y-26.697
G3 X2.665 Y-26.732 R1.687
G1 X2.694 Y-26.734
G3 X3.003 Y-26.728 R1.687
X3.32 Y-26.69 R26.896
X3.676 Y-26.606 R1.687
G1 X3.72 Y-26.591
G3 X3.976 Y-26.475 R1.687
G1 X4.013 Y-26.454
G3 X4.175 Y-26.352 R1.688
G1 X4.189 Y-26.357
G3 X4.467 Y-26.419 R1.688
G1 X4.513 Y-26.425
G3 X4.747 Y-26.441 R1.688
G1 X4.777
G3 X5.09 Y-26.41 R1.688
X5.404 Y-26.348 R26.896
X5.752 Y-26.236 R1.687
G1 X5.795 Y-26.217
G3 X6.043 Y-26.08 R1.688
G1 X6.079 Y-26.056
G3 X6.229 Y-25.943 R1.688
G1 X6.245 Y-25.947
G3 X6.525 Y-25.987 R1.687
G1 X6.571 Y-25.99
G3 X6.812 Y-25.986 R1.688
G1 X6.842 Y-25.984
G3 X7.146 Y-25.929 R1.687
X7.454 Y-25.843 R26.896
X7.793 Y-25.703 R1.687
G1 X7.834 Y-25.681
G3 X8.07 Y-25.526 R1.687
G1 X8.104 Y-25.5
G3 X8.246 Y-25.375 R1.688
G1 X8.26 Y-25.377
G3 X8.545 Y-25.395 R1.687
G1 X8.592 Y-25.394
G3 X8.825 Y-25.373 R1.688
G1 X8.854 Y-25.368
G3 X9.16 Y-25.289 R1.688
X9.459 Y-25.178 R26.896
X9.785 Y-25.014 R1.687
G1 X9.824 Y-24.988
G3 X10.048 Y-24.814 R1.687
G1 X10.08 Y-24.785
G3 X10.211 Y-24.649 R1.687
G1 X10.226 Y-24.65
G3 X10.51 Y-24.646 R1.688
G1 X10.556 Y-24.642
G3 X10.79 Y-24.602 R1.688
G1 X10.819 Y-24.595
G3 X11.115 Y-24.492 R1.687
X11.405 Y-24.358 R26.896
X11.717 Y-24.169 R1.688
G1 X11.754 Y-24.14
G3 X11.964 Y-23.949 R1.687
G1 X11.993 Y-23.917
G3 X12.114 Y-23.772 R1.688
G1 X12.128
G3 X12.41 Y-23.746 R1.688
G1 X12.456 Y-23.738
G3 X12.691 Y-23.678 R1.688
G1 X12.719 Y-23.669
G3 X13.003 Y-23.544 R1.688
X13.281 Y-23.388 R26.896
X13.578 Y-23.174 R1.687
G1 X13.613 Y-23.143
G3 X13.804 Y-22.939 R1.687
G1 X13.831 Y-22.905
G3 X13.941 Y-22.749 R1.687
G1 X13.956 Y-22.747
G3 X14.236 Y-22.699 R1.688
G1 X14.281 Y-22.687
G3 X14.51 Y-22.609 R1.687
G1 X14.538 Y-22.597
G3 X14.81 Y-22.452 R1.688
X15.075 Y-22.274 R26.896
X15.353 Y-22.039 R1.687
G1 X15.385 Y-22.005
G3 X15.563 Y-21.783 R1.688
G1 X15.587 Y-21.748
G3 X15.683 Y-21.585 R1.687
G1 X15.695 Y-21.583
G3 X15.974 Y-21.511 R1.688
G1 X16.018 Y-21.496
G3 X16.24 Y-21.4 R1.688
G1 X16.266 Y-21.387
G3 X16.525 Y-21.221 R1.688
X16.776 Y-21.023 R26.896
X17.035 Y-20.766 R1.688
G1 X17.065 Y-20.73
G3 X17.224 Y-20.495 R1.688
G1 X17.245 Y-20.457
G3 X17.328 Y-20.288 R1.687
G1 X17.342 Y-20.284
G3 X17.612 Y-20.192 R1.688
G1 X17.655 Y-20.173
G3 X17.866 Y-20.062 R1.688
G1 X17.891 Y-20.047
G3 X18.139 Y-19.859 R1.687
X18.374 Y-19.642 R26.896
X18.613 Y-19.364 R1.687
G1 X18.639 Y-19.325
G3 X18.778 Y-19.082 R1.688
G1 X18.796 Y-19.042
G3 X18.867 Y-18.865 R1.688
G1 X18.882 Y-18.86
G3 X19.14 Y-18.749 R1.688
G1 X19.181 Y-18.727
G3 X19.385 Y-18.598 R1.688
G1 X19.409 Y-18.581
G3 X19.642 Y-18.374 R1.687
X19.859 Y-18.139 R26.896
X20.074 Y-17.846 R1.687
G1 X20.097 Y-17.806
G3 X20.219 Y-17.546 R1.687
G1 X20.234 Y-17.505
G3 X20.289 Y-17.327 R1.688
G1 X20.304 Y-17.321
G3 X20.552 Y-17.189 R1.687
G1 X20.591 Y-17.164
G3 X20.786 Y-17.019 R1.688
G1 X20.808 Y-17.
G3 X21.023 Y-16.776 R1.688
X21.221 Y-16.525 R26.896
X21.412 Y-16.216 R1.688
G1 X21.432 Y-16.174
G3 X21.533 Y-15.907 R1.687
G1 X21.544 Y-15.865
G3 X21.586 Y-15.682 R1.688
G1 X21.598 Y-15.675
G3 X21.838 Y-15.524 R1.688
G1 X21.875 Y-15.496
G3 X22.058 Y-15.335 R1.687
G1 X22.078 Y-15.314
G3 X22.274 Y-15.075 R1.687
X22.452 Y-14.81 R26.896
X22.618 Y-14.487 R1.688
G1 X22.634 Y-14.444
G3 X22.714 Y-14.169 R1.688
G1 X22.723 Y-14.126
G3 X22.75 Y-13.94 R1.688
G1 X22.759 Y-13.934
G3 X22.991 Y-13.76 R1.687
G1 X23.026 Y-13.729
G3 X23.191 Y-13.559 R1.688
G1 X23.21 Y-13.537
G3 X23.388 Y-13.281 R1.687
X23.544 Y-13.003 R26.896
X23.685 Y-12.668 R1.688
G1 X23.698 Y-12.623
G3 X23.756 Y-12.341 R1.687
G1 X23.761 Y-12.298
G3 X23.773 Y-12.112 R1.688
G1 X23.786 Y-12.103
G3 X23.997 Y-11.917 R1.688
G1 X24.029 Y-11.883
G3 X24.184 Y-11.697 R1.688
G1 X24.202 Y-11.673
G3 X24.358 Y-11.405 R1.687
X24.492 Y-11.115 R26.896
X24.607 Y-10.765 R1.687
G1 X24.616 Y-10.72
G3 X24.651 Y-10.442 R1.687
G1 X24.653 Y-10.399
G3 X24.65 Y-10.209 R1.688
G1 X24.661 Y-10.2
G3 X24.859 Y-9.996 R1.687
G1 X24.888 Y-9.96
G3 X25.028 Y-9.762 R1.687
G1 X25.044 Y-9.737
G3 X25.178 Y-9.459 R1.687
X25.289 Y-9.16 R26.896
X25.375 Y-8.802 R1.688
G1 X25.381 Y-8.756
G3 X25.394 Y-8.476 R1.687
G1 X25.393 Y-8.433
G3 X25.375 Y-8.244 R1.688
G1 X25.384 Y-8.235
G3 X25.568 Y-8.013 R1.688
G1 X25.595 Y-7.975
G3 X25.714 Y-7.774 R1.688
G1 X25.728 Y-7.747
G3 X25.843 Y-7.454 R1.687
X25.929 Y-7.146 R26.896
X25.987 Y-6.789 R1.687
G1 X25.99 Y-6.742
G3 X25.981 Y-6.453 R1.688
G1 X25.976 Y-6.41
G3 X25.944 Y-6.228 R1.687
G1 X25.954 Y-6.216
G3 X26.117 Y-5.984 R1.687
G1 X26.14 Y-5.944
G3 X26.245 Y-5.733 R1.688
G1 X26.256 Y-5.705
G3 X26.348 Y-5.404 R1.688
X26.41 Y-5.09 R26.896
X26.44 Y-4.724 R1.687
G1 X26.439 Y-4.677
G3 X26.408 Y-4.401 R1.688
G1 X26.4 Y-4.358
G3 X26.352 Y-4.173 R1.688
G1 X26.36 Y-4.163
G3 X26.505 Y-3.917 R1.688
G1 X26.526 Y-3.875
G3 X26.616 Y-3.65 R1.687
G1 X26.625 Y-3.621
G3 X26.69 Y-3.32 R1.688
X26.728 Y-3.003 R26.896
X26.729 Y-2.637 R1.687
G1 X26.724 Y-2.591
G3 X26.671 Y-2.311 R1.688
G1 X26.659 Y-2.27
G3 X26.598 Y-2.093 R1.687
G1 X26.606 Y-2.08
G3 X26.732 Y-1.824 R1.687
G1 X26.748 Y-1.781
G3 X26.82 Y-1.552 R1.687
G1 X26.826 Y-1.523
G3 X26.869 Y-1.216 R1.688
X26.881 Y-0.897 R26.896
X26.854 Y-0.532 R1.687
G1 X26.845 Y-0.487
G3 X26.77 Y-0.213 R1.688
G1 X26.755 Y-0.172
G3 X26.681 Y0.001 R1.687
G1 X26.686 Y0.011
G3 X26.793 Y0.28 R1.688
G1 X26.806 Y0.325
G3 X26.858 Y0.553 R1.687
G1 X26.862 Y0.582
G3 X26.881 Y0.897 R1.687
X26.869 Y1.216 R26.896
X26.813 Y1.577 R1.688
G1 X26.801 Y1.622
G3 X26.705 Y1.887 R1.688
G1 X26.687 Y1.926
G3 X26.598 Y2.094 R1.688
G1 X26.604 Y2.108
G3 X26.687 Y2.377 R1.688
G1 X26.697 Y2.422
G3 X26.732 Y2.665 R1.687
G1 X26.734 Y2.694
G3 X26.728 Y3.003 R1.687
X26.69 Y3.32 R26.896
X26.606 Y3.676 R1.687
G1 X26.591 Y3.72
G3 X26.475 Y3.976 R1.687
G1 X26.454 Y4.013
G3 X26.352 Y4.175 R1.688
G1 X26.357 Y4.189
G3 X26.419 Y4.467 R1.688
G1 X26.425 Y4.513
G3 X26.441 Y4.747 R1.688
G1 Y4.777
G3 X26.41 Y5.09 R1.688
X26.348 Y5.404 R26.896
X26.236 Y5.752 R1.687
G1 X26.217 Y5.795
G3 X26.08 Y6.043 R1.688
G1 X26.056 Y6.079
G3 X25.943 Y6.229 R1.688
G1 X25.947 Y6.245
G3 X25.987 Y6.525 R1.687
G1 X25.99 Y6.571
G3 X25.986 Y6.812 R1.688
G1 X25.984 Y6.842
G3 X25.929 Y7.146 R1.687
X25.843 Y7.454 R26.896
X25.703 Y7.793 R1.687
G1 X25.681 Y7.834
G3 X25.526 Y8.07 R1.687
G1 X25.5 Y8.104
G3 X25.375 Y8.246 R1.688
G1 X25.377 Y8.26
G3 X25.395 Y8.545 R1.687
G1 X25.394 Y8.592
G3 X25.373 Y8.825 R1.688
G1 X25.368 Y8.854
G3 X25.289 Y9.16 R1.688
X25.178 Y9.459 R26.896
X25.014 Y9.785 R1.687
G1 X24.988 Y9.824
G3 X24.814 Y10.048 R1.687
G1 X24.785 Y10.08
G3 X24.649 Y10.211 R1.687
G1 X24.65 Y10.226
G3 X24.646 Y10.51 R1.688
G1 X24.642 Y10.556
G3 X24.602 Y10.79 R1.688
G1 X24.595 Y10.819
G3 X24.492 Y11.115 R1.687
X24.358 Y11.405 R26.896
X24.169 Y11.717 R1.688
G1 X24.14 Y11.754
G3 X23.949 Y11.964 R1.687
G1 X23.917 Y11.993
G3 X23.772 Y12.114 R1.688
G1 Y12.128
G3 X23.746 Y12.41 R1.688
G1 X23.738 Y12.456
G3 X23.678 Y12.691 R1.688
G1 X23.669 Y12.719
G3 X23.544 Y13.003 R1.688
X23.388 Y13.281 R26.896
X23.174 Y13.578 R1.687
G1 X23.143 Y13.613
G3 X22.939 Y13.804 R1.687
G1 X22.905 Y13.831
G3 X22.749 Y13.941 R1.687
G1 X22.747 Y13.956
G3 X22.699 Y14.236 R1.688
G1 X22.687 Y14.281
G3 X22.609 Y14.51 R1.687
G1 X22.597 Y14.538
G3 X22.452 Y14.81 R1.688
X22.274 Y15.075 R26.896
X22.039 Y15.353 R1.687
G1 X22.005 Y15.385
G3 X21.783 Y15.563 R1.688
G1 X21.748 Y15.587
G3 X21.585 Y15.683 R1.687
G1 X21.583 Y15.695
G3 X21.511 Y15.974 R1.688
G1 X21.496 Y16.018
G3 X21.4 Y16.24 R1.688
G1 X21.387 Y16.266
G3 X21.221 Y16.525 R1.688
X21.023 Y16.776 R26.896
X20.766 Y17.035 R1.688
G1 X20.73 Y17.065
G3 X20.495 Y17.224 R1.688
G1 X20.457 Y17.245
G3 X20.288 Y17.328 R1.687
G1 X20.284 Y17.342
G3 X20.192 Y17.612 R1.688
G1 X20.173 Y17.655
G3 X20.062 Y17.866 R1.688
G1 X20.047 Y17.891
G3 X19.859 Y18.139 R1.687
X19.642 Y18.374 R26.896
X19.364 Y18.613 R1.687
G1 X19.325 Y18.639
G3 X19.082 Y18.778 R1.688
G1 X19.042 Y18.796
G3 X18.865 Y18.867 R1.688
G1 X18.86 Y18.882
G3 X18.749 Y19.14 R1.688
G1 X18.727 Y19.181
G3 X18.598 Y19.385 R1.688
G1 X18.581 Y19.409
G3 X18.374 Y19.642 R1.687
X18.139 Y19.859 R26.896
X17.846 Y20.074 R1.687
G1 X17.806 Y20.097
G3 X17.546 Y20.219 R1.687
G1 X17.505 Y20.234
G3 X17.327 Y20.289 R1.688
G1 X17.321 Y20.304
G3 X17.189 Y20.552 R1.687
G1 X17.164 Y20.591
G3 X17.019 Y20.786 R1.688
G1 X17. Y20.808
G3 X16.776 Y21.023 R1.688
X16.525 Y21.221 R26.896
X16.216 Y21.412 R1.688
G1 X16.174 Y21.432
G3 X15.907 Y21.533 R1.687
G1 X15.865 Y21.544
G3 X15.682 Y21.586 R1.688
G1 X15.675 Y21.598
G3 X15.524 Y21.838 R1.688
G1 X15.496 Y21.875
G3 X15.335 Y22.058 R1.687
G1 X15.314 Y22.078
G3 X15.075 Y22.274 R1.687
X14.81 Y22.452 R26.896
X14.487 Y22.618 R1.688
G1 X14.444 Y22.634
G3 X14.169 Y22.714 R1.688
G1 X14.126 Y22.723
G3 X13.94 Y22.75 R1.688
G1 X13.934 Y22.759
G3 X13.76 Y22.991 R1.687
G1 X13.729 Y23.026
G3 X13.559 Y23.191 R1.688
G1 X13.537 Y23.21
G3 X13.281 Y23.388 R1.687
X13.003 Y23.544 R26.896
X12.668 Y23.685 R1.688
G1 X12.623 Y23.698
G3 X12.341 Y23.756 R1.687
G1 X12.298 Y23.761
G3 X12.112 Y23.773 R1.688
G1 X12.103 Y23.786
G3 X11.917 Y23.997 R1.688
G1 X11.883 Y24.029
G3 X11.697 Y24.184 R1.688
G1 X11.673 Y24.202
G3 X11.405 Y24.358 R1.687
X11.115 Y24.492 R26.896
X10.765 Y24.607 R1.687
G1 X10.72 Y24.616
G3 X10.442 Y24.651 R1.687
G1 X10.399 Y24.653
G3 X10.209 Y24.65 R1.688
G1 X10.2 Y24.661
G3 X9.996 Y24.859 R1.687
G1 X9.96 Y24.888
G3 X9.762 Y25.028 R1.687
G1 X9.737 Y25.044
G3 X9.459 Y25.178 R1.687
X9.16 Y25.289 R26.896
X8.802 Y25.375 R1.688
G1 X8.756 Y25.381
G3 X8.476 Y25.394 R1.687
G1 X8.433 Y25.393
G3 X8.244 Y25.375 R1.688
G1 X8.235 Y25.384
G3 X8.013 Y25.568 R1.688
G1 X7.975 Y25.595
G3 X7.774 Y25.714 R1.688
G1 X7.747 Y25.728
G3 X7.454 Y25.843 R1.687
X7.146 Y25.929 R26.896
X6.789 Y25.987 R1.687
G1 X6.742 Y25.99
G3 X6.453 Y25.981 R1.688
G1 X6.41 Y25.976
G3 X6.228 Y25.944 R1.687
G1 X6.216 Y25.954
G3 X5.984 Y26.117 R1.687
G1 X5.944 Y26.14
G3 X5.733 Y26.245 R1.688
G1 X5.705 Y26.256
G3 X5.404 Y26.348 R1.688
X5.09 Y26.41 R26.896
X4.724 Y26.44 R1.687
G1 X4.677 Y26.439
G3 X4.401 Y26.408 R1.688
G1 X4.358 Y26.4
G3 X4.173 Y26.352 R1.688
G1 X4.163 Y26.36
G3 X3.917 Y26.505 R1.688
G1 X3.875 Y26.526
G3 X3.65 Y26.616 R1.687
G1 X3.621 Y26.625
G3 X3.32 Y26.69 R1.688
X3.003 Y26.728 R26.896
X2.637 Y26.729 R1.687
G1 X2.591 Y26.724
G3 X2.311 Y26.671 R1.688
G1 X2.27 Y26.659
G3 X2.093 Y26.598 R1.687
G1 X2.08 Y26.606
G3 X1.824 Y26.732 R1.687
G1 X1.781 Y26.748
G3 X1.552 Y26.82 R1.687
G1 X1.523 Y26.826
G3 X1.216 Y26.869 R1.688
X0.897 Y26.881 R26.896
X0.532 Y26.854 R1.687
G1 X0.487 Y26.845
G3 X0.213 Y26.77 R1.688
G1 X0.172 Y26.755
G3 X-0.001 Y26.681 R1.687
G1 X-0.011 Y26.686
G3 X-0.28 Y26.793 R1.688
G1 X-0.325 Y26.806
G3 X-0.553 Y26.858 R1.687
G1 X-0.582 Y26.862
G3 X-0.897 Y26.881 R1.687
X-1.216 Y26.869 R26.896
X-1.577 Y26.813 R1.688
G1 X-1.622 Y26.801
G3 X-1.887 Y26.705 R1.688
G1 X-1.926 Y26.687
G3 X-2.094 Y26.598 R1.688
G1 X-2.108 Y26.604
G3 X-2.377 Y26.687 R1.688
G1 X-2.422 Y26.697
G3 X-2.665 Y26.732 R1.687
G1 X-2.694 Y26.734
G3 X-3.003 Y26.728 R1.687
X-3.32 Y26.69 R26.896
X-3.676 Y26.606 R1.687
G1 X-3.72 Y26.591
G3 X-3.976 Y26.475 R1.687
G1 X-4.013 Y26.454
G3 X-4.175 Y26.352 R1.688
G1 X-4.189 Y26.357
G3 X-4.467 Y26.419 R1.688
G1 X-4.513 Y26.425
G3 X-4.747 Y26.441 R1.688
G1 X-4.777
G3 X-5.09 Y26.41 R1.688
X-5.404 Y26.348 R26.896
X-5.752 Y26.236 R1.687
G1 X-5.795 Y26.217
G3 X-6.043 Y26.08 R1.688
G1 X-6.079 Y26.056
G3 X-6.229 Y25.943 R1.688
G1 X-6.245 Y25.947
G3 X-6.525 Y25.987 R1.687
G1 X-6.571 Y25.99
G3 X-6.812 Y25.986 R1.688
G1 X-6.842 Y25.984
G3 X-7.146 Y25.929 R1.687
X-7.454 Y25.843 R26.896
X-7.793 Y25.703 R1.687
G1 X-7.834 Y25.681
G3 X-8.07 Y25.526 R1.687
G1 X-8.104 Y25.5
G3 X-8.246 Y25.375 R1.688
G1 X-8.26 Y25.377
G3 X-8.545 Y25.395 R1.687
G1 X-8.592 Y25.394
G3 X-8.825 Y25.373 R1.688
G1 X-8.854 Y25.368
G3 X-9.16 Y25.289 R1.688
X-9.459 Y25.178 R26.896
X-9.785 Y25.014 R1.687
G1 X-9.824 Y24.988
G3 X-10.048 Y24.814 R1.687
G1 X-10.08 Y24.785
G3 X-10.211 Y24.649 R1.687
G1 X-10.226 Y24.65
G3 X-10.51 Y24.646 R1.688
G1 X-10.556 Y24.642
G3 X-10.79 Y24.602 R1.688
G1 X-10.819 Y24.595
G3 X-11.115 Y24.492 R1.687
X-11.405 Y24.358 R26.896
X-11.717 Y24.169 R1.688
G1 X-11.754 Y24.14
G3 X-11.964 Y23.949 R1.687
G1 X-11.993 Y23.917
G3 X-12.114 Y23.772 R1.688
G1 X-12.128
G3 X-12.41 Y23.746 R1.688
G1 X-12.456 Y23.738
G3 X-12.691 Y23.678 R1.688
G1 X-12.719 Y23.669
G3 X-13.003 Y23.544 R1.688
X-13.281 Y23.388 R26.896
X-13.578 Y23.174 R1.687
G1 X-13.613 Y23.143
G3 X-13.804 Y22.939 R1.687
G1 X-13.831 Y22.905
G3 X-13.941 Y22.749 R1.687
G1 X-13.956 Y22.747
G3 X-14.236 Y22.699 R1.688
G1 X-14.281 Y22.687
G3 X-14.51 Y22.609 R1.687
G1 X-14.538 Y22.597
G3 X-14.81 Y22.452 R1.688
X-15.075 Y22.274 R26.896
X-15.353 Y22.039 R1.687
G1 X-15.385 Y22.005
G3 X-15.563 Y21.783 R1.688
G1 X-15.587 Y21.748
G3 X-15.683 Y21.585 R1.687
G1 X-15.695 Y21.583
G3 X-15.974 Y21.511 R1.688
G1 X-16.018 Y21.496
G3 X-16.24 Y21.4 R1.688
G1 X-16.266 Y21.387
G3 X-16.525 Y21.221 R1.688
X-16.776 Y21.023 R26.896
X-17.035 Y20.766 R1.688
G1 X-17.065 Y20.73
G3 X-17.224 Y20.495 R1.688
G1 X-17.245 Y20.457
G3 X-17.328 Y20.288 R1.687
G1 X-17.342 Y20.284
G3 X-17.612 Y20.192 R1.688
G1 X-17.655 Y20.173
G3 X-17.866 Y20.062 R1.688
G1 X-17.891 Y20.047
G3 X-18.139 Y19.859 R1.687
X-18.374 Y19.642 R26.896
X-18.613 Y19.364 R1.687
G1 X-18.639 Y19.325
G3 X-18.778 Y19.082 R1.688
G1 X-18.796 Y19.042
G3 X-18.867 Y18.865 R1.688
G1 X-18.882 Y18.86
G3 X-19.14 Y18.749 R1.688
G1 X-19.181 Y18.727
G3 X-19.385 Y18.598 R1.688
G1 X-19.409 Y18.581
G3 X-19.642 Y18.374 R1.687
X-19.859 Y18.139 R26.896
X-20.074 Y17.846 R1.687
G1 X-20.097 Y17.806
G3 X-20.219 Y17.546 R1.687
G1 X-20.234 Y17.505
G3 X-20.289 Y17.327 R1.688
G1 X-20.304 Y17.321
G3 X-20.552 Y17.189 R1.687
G1 X-20.591 Y17.164
G3 X-20.786 Y17.019 R1.688
G1 X-20.808 Y17.
G3 X-21.023 Y16.776 R1.688
X-21.221 Y16.525 R26.896
X-21.412 Y16.216 R1.688
G1 X-21.432 Y16.174
G3 X-21.533 Y15.907 R1.687
G1 X-21.544 Y15.865
G3 X-21.586 Y15.682 R1.688
G1 X-21.598 Y15.675
G3 X-21.838 Y15.524 R1.688
G1 X-21.875 Y15.496
G3 X-22.058 Y15.335 R1.687
G1 X-22.078 Y15.314
G3 X-22.274 Y15.075 R1.687
X-22.452 Y14.81 R26.896
X-22.618 Y14.487 R1.688
G1 X-22.634 Y14.444
G3 X-22.714 Y14.169 R1.688
G1 X-22.723 Y14.126
G3 X-22.75 Y13.94 R1.688
G1 X-22.759 Y13.934
G3 X-22.991 Y13.76 R1.687
G1 X-23.026 Y13.729
G3 X-23.191 Y13.559 R1.688
G1 X-23.21 Y13.537
G3 X-23.388 Y13.281 R1.687
X-23.544 Y13.003 R26.896
X-23.685 Y12.668 R1.688
G1 X-23.698 Y12.623
G3 X-23.756 Y12.341 R1.687
G1 X-23.761 Y12.298
G3 X-23.773 Y12.112 R1.688
G1 X-23.786 Y12.103
G3 X-23.997 Y11.917 R1.688
G1 X-24.029 Y11.883
G3 X-24.184 Y11.697 R1.688
G1 X-24.202 Y11.673
G3 X-24.358 Y11.405 R1.687
X-24.492 Y11.115 R26.896
X-24.607 Y10.765 R1.687
G1 X-24.616 Y10.72
G3 X-24.651 Y10.442 R1.687
G1 X-24.653 Y10.399
G3 X-24.65 Y10.209 R1.688
G1 X-24.661 Y10.2
G3 X-24.859 Y9.996 R1.687
G1 X-24.888 Y9.96
G3 X-25.028 Y9.762 R1.687
G1 X-25.044 Y9.737
G3 X-25.178 Y9.459 R1.687
X-25.289 Y9.16 R26.896
X-25.375 Y8.802 R1.688
G1 X-25.381 Y8.756
G3 X-25.394 Y8.476 R1.687
G1 X-25.393 Y8.433
G3 X-25.375 Y8.244 R1.688
G1 X-25.384 Y8.235
G3 X-25.568 Y8.013 R1.688
G1 X-25.595 Y7.975
G3 X-25.714 Y7.774 R1.688
G1 X-25.728 Y7.747
G3 X-25.843 Y7.454 R1.687
X-25.929 Y7.146 R26.896
X-25.987 Y6.789 R1.687
G1 X-25.99 Y6.742
G3 X-25.981 Y6.453 R1.688
G1 X-25.976 Y6.41
G3 X-25.944 Y6.228 R1.687
G1 X-25.954 Y6.216
G3 X-26.117 Y5.984 R1.687
G1 X-26.14 Y5.944
G3 X-26.245 Y5.733 R1.688
G1 X-26.256 Y5.705
G3 X-26.348 Y5.404 R1.688
X-26.41 Y5.09 R26.896
X-26.44 Y4.724 R1.687
G1 X-26.439 Y4.677
G3 X-26.408 Y4.401 R1.688
G1 X-26.4 Y4.358
G3 X-26.352 Y4.173 R1.688
G1 X-26.36 Y4.163
G3 X-26.505 Y3.917 R1.688
G1 X-26.526 Y3.875
G3 X-26.616 Y3.65 R1.687
G1 X-26.625 Y3.621
G3 X-26.69 Y3.32 R1.688
X-26.728 Y3.003 R26.896
X-26.729 Y2.637 R1.687
G1 X-26.724 Y2.591
G3 X-26.671 Y2.311 R1.688
G1 X-26.659 Y2.27
G3 X-26.598 Y2.093 R1.687
G1 X-26.606 Y2.08
G3 X-26.732 Y1.824 R1.687
G1 X-26.748 Y1.781
G3 X-26.82 Y1.552 R1.687
G1 X-26.826 Y1.523
G3 X-26.869 Y1.216 R1.688
X-26.881 Y0.897 R26.896
X-26.854 Y0.532 R1.687
G1 X-26.845 Y0.487
G3 X-26.77 Y0.213 R1.688
G1 X-26.755 Y0.172
G3 X-26.681 Y-0.001 R1.687
G1 X-26.686 Y-0.011
G3 X-26.793 Y-0.28 R1.688
G1 X-26.806 Y-0.325
G3 X-26.858 Y-0.553 R1.687
G1 X-26.862 Y-0.582
G3 X-26.881 Y-0.897 R1.687
X-26.869 Y-1.216 R26.896
X-26.813 Y-1.577 R1.688
G1 X-26.801 Y-1.622
G3 X-26.705 Y-1.887 R1.688
G1 X-26.687 Y-1.926
G3 X-26.598 Y-2.094 R1.688
G1 X-26.604 Y-2.108
G3 X-26.687 Y-2.377 R1.688
G1 X-26.697 Y-2.422
G3 X-26.732 Y-2.665 R1.687
G1 X-26.734 Y-2.694
G3 X-26.728 Y-3.003 R1.687
X-26.69 Y-3.32 R26.896
X-26.606 Y-3.676 R1.687
G1 X-26.591 Y-3.72
G3 X-26.475 Y-3.976 R1.687
G1 X-26.454 Y-4.013
G3 X-26.352 Y-4.175 R1.688
G1 X-26.357 Y-4.189
G3 X-26.419 Y-4.467 R1.688
G1 X-26.425 Y-4.513
G3 X-26.441 Y-4.747 R1.688
G1 Y-4.777
G3 X-26.41 Y-5.09 R1.688
X-26.348 Y-5.404 R26.896
X-26.236 Y-5.752 R1.687
G1 X-26.217 Y-5.795
G3 X-26.08 Y-6.043 R1.688
G1 X-26.056 Y-6.079
G3 X-25.943 Y-6.229 R1.688
G1 X-25.947 Y-6.245
G3 X-25.987 Y-6.525 R1.687
G1 X-25.99 Y-6.571
G3 X-25.986 Y-6.812 R1.688
G1 X-25.984 Y-6.842
G3 X-25.929 Y-7.146 R1.687
X-25.843 Y-7.454 R26.896
X-25.703 Y-7.793 R1.687
G1 X-25.681 Y-7.834
G3 X-25.526 Y-8.07 R1.687
G1 X-25.5 Y-8.104
G3 X-25.375 Y-8.246 R1.688
G1 X-25.377 Y-8.26
G3 X-25.395 Y-8.545 R1.687
G1 X-25.394 Y-8.592
G3 X-25.373 Y-8.825 R1.688
G1 X-25.368 Y-8.854
G3 X-25.289 Y-9.16 R1.688
X-25.178 Y-9.459 R26.896
X-25.014 Y-9.785 R1.687
G1 X-24.988 Y-9.824
G3 X-24.814 Y-10.048 R1.687
G1 X-24.785 Y-10.08
G3 X-24.649 Y-10.211 R1.687
G1 X-24.65 Y-10.226
G3 X-24.646 Y-10.51 R1.688
G1 X-24.642 Y-10.556
G3 X-24.602 Y-10.79 R1.688
G1 X-24.595 Y-10.819
G3 X-24.492 Y-11.115 R1.687
X-24.358 Y-11.405 R26.896
X-24.169 Y-11.717 R1.688
G1 X-24.14 Y-11.754
G3 X-23.949 Y-11.964 R1.687
G1 X-23.917 Y-11.993
G3 X-23.772 Y-12.114 R1.688
G1 Y-12.128
G3 X-23.746 Y-12.41 R1.688
G1 X-23.738 Y-12.456
G3 X-23.678 Y-12.691 R1.688
G1 X-23.669 Y-12.719
G3 X-23.544 Y-13.003 R1.688
X-23.388 Y-13.281 R26.896
X-23.174 Y-13.578 R1.687
G1 X-23.143 Y-13.613
G3 X-22.939 Y-13.804 R1.687
G1 X-22.905 Y-13.831
G3 X-22.749 Y-13.941 R1.687
G1 X-22.747 Y-13.956
G3 X-22.699 Y-14.236 R1.688
G1 X-22.687 Y-14.281
G3 X-22.609 Y-14.51 R1.687
G1 X-22.597 Y-14.538
G3 X-22.452 Y-14.81 R1.688
X-22.274 Y-15.075 R26.896
X-22.039 Y-15.353 R1.687
G1 X-22.005 Y-15.385
G3 X-21.783 Y-15.563 R1.688
G1 X-21.748 Y-15.587
G3 X-21.585 Y-15.683 R1.687
G1 X-21.583 Y-15.695
G3 X-21.511 Y-15.974 R1.688
G1 X-21.496 Y-16.018
G3 X-21.4 Y-16.24 R1.688
G1 X-21.387 Y-16.266
G3 X-21.221 Y-16.525 R1.688
X-21.023 Y-16.776 R26.896
X-20.766 Y-17.035 R1.688
G1 X-20.73 Y-17.065
G3 X-20.495 Y-17.224 R1.688
G1 X-20.457 Y-17.245
G3 X-20.288 Y-17.328 R1.687
G1 X-20.284 Y-17.342
G3 X-20.192 Y-17.612 R1.688
G1 X-20.173 Y-17.655
G3 X-20.062 Y-17.866 R1.688
G1 X-20.047 Y-17.891
G3 X-19.859 Y-18.139 R1.687
X-19.642 Y-18.374 R26.896
X-19.364 Y-18.613 R1.687
G1 X-19.325 Y-18.639
G3 X-19.082 Y-18.778 R1.688
G1 X-19.042 Y-18.796
G3 X-18.865 Y-18.867 R1.688
G1 X-18.86 Y-18.882
G3 X-18.749 Y-19.14 R1.688
G1 X-18.727 Y-19.181
G3 X-18.598 Y-19.385 R1.688
G1 X-18.581 Y-19.409
G3 X-18.374 Y-19.642 R1.687
X-18.139 Y-19.859 R26.896
X-17.846 Y-20.074 R1.687
G1 X-17.806 Y-20.097
G3 X-17.546 Y-20.219 R1.687
G1 X-17.505 Y-20.234
G3 X-17.327 Y-20.289 R1.688
G1 X-17.321 Y-20.304
G3 X-17.189 Y-20.552 R1.687
G1 X-17.164 Y-20.591
G3 X-17.019 Y-20.786 R1.688
G1 X-17. Y-20.808
G3 X-16.776 Y-21.023 R1.688
X-16.525 Y-21.221 R26.896
X-16.216 Y-21.412 R1.688
G1 X-16.174 Y-21.432
G3 X-15.907 Y-21.533 R1.687
G1 X-15.865 Y-21.544
G3 X-15.682 Y-21.586 R1.688
G1 X-15.675 Y-21.598
G3 X-15.524 Y-21.838 R1.688
G1 X-15.496 Y-21.875
G3 X-15.335 Y-22.058 R1.687
G1 X-15.314 Y-22.078
G3 X-15.075 Y-22.274 R1.687
X-14.81 Y-22.452 R26.896
X-14.487 Y-22.618 R1.688
G1 X-14.444 Y-22.634
G3 X-14.169 Y-22.714 R1.688
G1 X-14.126 Y-22.723
G3 X-13.94 Y-22.75 R1.688
G1 X-13.934 Y-22.759
G3 X-13.76 Y-22.991 R1.687
G1 X-13.729 Y-23.026
G3 X-13.559 Y-23.191 R1.688
G1 X-13.537 Y-23.21
G3 X-13.281 Y-23.388 R1.687
X-13.003 Y-23.544 R26.896
X-12.668 Y-23.685 R1.688
G1 X-12.623 Y-23.698
G3 X-12.341 Y-23.756 R1.687
G1 X-12.298 Y-23.761
G3 X-12.112 Y-23.773 R1.688
G1 X-12.103 Y-23.786
G3 X-11.917 Y-23.997 R1.688
G1 X-11.883 Y-24.029
G3 X-11.697 Y-24.184 R1.688
G1 X-11.673 Y-24.202
G3 X-11.405 Y-24.358 R1.687
X-11.115 Y-24.492 R26.896
X-10.765 Y-24.607 R1.687
G1 X-10.72 Y-24.616
G3 X-10.442 Y-24.651 R1.687
G1 X-10.399 Y-24.653
G3 X-10.209 Y-24.65 R1.688
G1 X-10.2 Y-24.661
G3 X-9.996 Y-24.859 R1.687
G1 X-9.96 Y-24.888
G3 X-9.762 Y-25.028 R1.687
G1 X-9.737 Y-25.044
G3 X-9.459 Y-25.178 R1.687
X-9.16 Y-25.289 R26.896
X-8.802 Y-25.375 R1.688
G1 X-8.756 Y-25.381
G3 X-8.476 Y-25.394 R1.687
G1 X-8.433 Y-25.393
G3 X-8.244 Y-25.375 R1.688
G1 X-8.235 Y-25.384
G3 X-8.013 Y-25.568 R1.688
G1 X-7.975 Y-25.595
G3 X-7.774 Y-25.714 R1.688
G1 X-7.747 Y-25.728
G3 X-7.454 Y-25.843 R1.687
X-7.146 Y-25.929 R26.896
X-6.789 Y-25.987 R1.687
G1 X-6.742 Y-25.99
G3 X-6.453 Y-25.981 R1.688
G1 X-6.41 Y-25.976
G3 X-6.228 Y-25.944 R1.687
G1 X-6.216 Y-25.954
G3 X-5.984 Y-26.117 R1.687
G1 X-5.944 Y-26.14
G3 X-5.733 Y-26.245 R1.688
G1 X-5.705 Y-26.256
G3 X-5.404 Y-26.348 R1.688
X-5.09 Y-26.41 R26.896
X-4.724 Y-26.44 R1.687
G1 X-4.677 Y-26.439
G3 X-4.401 Y-26.408 R1.688
G1 X-4.358 Y-26.4
G3 X-4.173 Y-26.352 R1.688
G1 X-4.163 Y-26.36
G3 X-3.917 Y-26.505 R1.688
G1 X-3.875 Y-26.526
G3 X-3.65 Y-26.616 R1.687
G1 X-3.621 Y-26.625
G3 X-3.32 Y-26.69 R1.688
X-3.003 Y-26.728 R26.896
X-2.637 Y-26.729 R1.687
G1 X-2.591 Y-26.724
G3 X-2.311 Y-26.671 R1.688
G1 X-2.27 Y-26.659
G3 X-2.093 Y-26.598 R1.687
G1 X-2.08 Y-26.606
G3 X-1.824 Y-26.732 R1.687
G1 X-1.781 Y-26.748
G3 X-1.552 Y-26.82 R1.687
G1 X-1.523 Y-26.826
G3 X-1.216 Y-26.869 R1.688
X-0.897 Y-26.881 R26.896
X-0.532 Y-26.854 R1.687
G1 X-0.487 Y-26.845
G3 X-0.213 Y-26.77 R1.688
G1 X-0.172 Y-26.755
G3 X0.001 Y-26.681 R1.687
G1 X0.011 Y-26.686
G3 X0.158 Y-26.751 R1.688
X0.28 Y-26.793 Z-5.259 R1.688
G1 X0.325 Y-26.806 Z-5.263
G3 X0.553 Y-26.858 Z-5.28 R1.687
G1 X0.582 Y-26.862 Z-5.282
G3 X0.897 Y-26.881 Z-5.305 R1.687
X1.216 Y-26.869 Z-5.328 R26.896
X1.577 Y-26.813 Z-5.355 R1.688
G1 X1.622 Y-26.801 Z-5.359
G3 X1.887 Y-26.705 Z-5.379 R1.688
G1 X1.926 Y-26.687 Z-5.382
G3 X2.094 Y-26.598 Z-5.396 R1.688
G1 X2.108 Y-26.604 Z-5.397
G3 X2.377 Y-26.687 Z-5.418 R1.688
G1 X2.422 Y-26.697 Z-5.421
G3 X2.665 Y-26.732 Z-5.439 R1.687
G1 X2.694 Y-26.734 Z-5.441
G3 X3.003 Y-26.728 Z-5.464 R1.687
X3.32 Y-26.69 Z-5.487 R26.896
X3.676 Y-26.606 Z-5.514 R1.687
G1 X3.72 Y-26.591 Z-5.517
G3 X3.976 Y-26.475 Z-5.538 R1.687
G1 X4.013 Y-26.454 Z-5.541
G3 X4.175 Y-26.352 Z-5.555 R1.688
G1 X4.189 Y-26.357 Z-5.556
G3 X4.467 Y-26.419 Z-5.577 R1.688
G1 X4.513 Y-26.425 Z-5.58
G3 X4.747 Y-26.441 Z-5.597 R1.688
G1 X4.777 Z-5.6
G3 X5.09 Y-26.41 Z-5.623 R1.688
X5.404 Y-26.348 Z-5.646 R26.896
X5.752 Y-26.236 Z-5.673 R1.687
G1 X5.795 Y-26.217 Z-5.676
G3 X6.043 Y-26.08 Z-5.697 R1.688
G1 X6.079 Y-26.056 Z-5.7
G3 X6.229 Y-25.943 Z-5.714 R1.688
G1 X6.245 Y-25.947 Z-5.715
G3 X6.525 Y-25.987 Z-5.735 R1.687
G1 X6.571 Y-25.99 Z-5.739
G3 X6.812 Y-25.986 Z-5.756 R1.688
G1 X6.842 Y-25.984 Z-5.759
G3 X7.146 Y-25.929 Z-5.781 R1.687
X7.454 Y-25.843 Z-5.805 R26.896
X7.793 Y-25.703 Z-5.831 R1.687
G1 X7.834 Y-25.681 Z-5.835
G3 X8.07 Y-25.526 Z-5.855 R1.687
G1 X8.104 Y-25.5 Z-5.859
G3 X8.246 Y-25.375 Z-5.872 R1.688
G1 X8.26 Y-25.377 Z-5.873
G3 X8.545 Y-25.395 Z-5.894 R1.687
G1 X8.592 Y-25.394 Z-5.898
G3 X8.825 Y-25.373 Z-5.915 R1.688
G1 X8.854 Y-25.368 Z-5.917
G3 X9.16 Y-25.289 Z-5.94 R1.688
X9.459 Y-25.178 Z-5.963 R26.896
X9.785 Y-25.014 Z-5.99 R1.687
G1 X9.824 Y-24.988 Z-5.993
G3 X10.048 Y-24.814 Z-6.014 R1.687
G1 X10.08 Y-24.785 Z-6.017
G3 X10.211 Y-24.649 Z-6.031 R1.687
G1 X10.226 Y-24.65 Z-6.032
G3 X10.51 Y-24.646 Z-6.053 R1.688
G1 X10.556 Y-24.642 Z-6.056
G3 X10.79 Y-24.602 Z-6.074 R1.688
G1 X10.819 Y-24.595 Z-6.076
G3 X11.115 Y-24.492 Z-6.099 R1.687
X11.405 Y-24.358 Z-6.122 R26.896
X11.717 Y-24.169 Z-6.149 R1.688
G1 X11.754 Y-24.14 Z-6.152
G3 X11.964 Y-23.949 Z-6.173 R1.687
G1 X11.993 Y-23.917 Z-6.176
G3 X12.114 Y-23.772 Z-6.19 R1.688
G1 X12.128 Z-6.191
G3 X12.41 Y-23.746 Z-6.212 R1.688
G1 X12.456 Y-23.738 Z-6.215
G3 X12.691 Y-23.678 Z-6.233 R1.688
G1 X12.719 Y-23.669 Z-6.235
G3 X13.003 Y-23.544 Z-6.258 R1.688
X13.281 Y-23.388 Z-6.281 R26.896
X13.578 Y-23.174 Z-6.308 R1.687
G1 X13.613 Y-23.143 Z-6.311
G3 X13.804 Y-22.939 Z-6.332 R1.687
G1 X13.831 Y-22.905 Z-6.335
G3 X13.941 Y-22.749 Z-6.349 R1.687
G1 X13.956 Y-22.747 Z-6.35
G3 X14.236 Y-22.699 Z-6.371 R1.688
G1 X14.281 Y-22.687 Z-6.374
G3 X14.51 Y-22.609 Z-6.392 R1.687
G1 X14.538 Y-22.597 Z-6.394
G3 X14.81 Y-22.452 Z-6.416 R1.688
X15.075 Y-22.274 Z-6.44 R26.896
X15.353 Y-22.039 Z-6.466 R1.687
G1 X15.385 Y-22.005 Z-6.47
G3 X15.563 Y-21.783 Z-6.49 R1.688
G1 X15.587 Y-21.748 Z-6.494
G3 X15.634 Y-21.673 Z-6.5 R1.688
X15.683 Y-21.585 R1.687
G1 X15.695 Y-21.583
G3 X15.974 Y-21.511 R1.688
G1 X16.018 Y-21.496
G3 X16.24 Y-21.4 R1.688
G1 X16.266 Y-21.387
G3 X16.525 Y-21.221 R1.688
X16.776 Y-21.023 R26.896
X17.035 Y-20.766 R1.688
G1 X17.065 Y-20.73
G3 X17.224 Y-20.495 R1.688
G1 X17.245 Y-20.457
G3 X17.328 Y-20.288 R1.687
G1 X17.342 Y-20.284
G3 X17.612 Y-20.192 R1.688
G1 X17.655 Y-20.173
G3 X17.866 Y-20.062 R1.688
G1 X17.891 Y-20.047
G3 X18.139 Y-19.859 R1.687
X18.374 Y-19.642 R26.896
X18.613 Y-19.364 R1.687
G1 X18.639 Y-19.325
G3 X18.778 Y-19.082 R1.688
G1 X18.796 Y-19.042
G3 X18.867 Y-18.865 R1.688
G1 X18.882 Y-18.86
G3 X19.14 Y-18.749 R1.688
G1 X19.181 Y-18.727
G3 X19.385 Y-18.598 R1.688
G1 X19.409 Y-18.581
G3 X19.642 Y-18.374 R1.687
X19.859 Y-18.139 R26.896
X20.074 Y-17.846 R1.687
G1 X20.097 Y-17.806
G3 X20.219 Y-17.546 R1.687
G1 X20.234 Y-17.505
G3 X20.289 Y-17.327 R1.688
G1 X20.304 Y-17.321
G3 X20.552 Y-17.189 R1.687
G1 X20.591 Y-17.164
G3 X20.786 Y-17.019 R1.688
G1 X20.808 Y-17.
G3 X21.023 Y-16.776 R1.688
X21.221 Y-16.525 R26.896
X21.412 Y-16.216 R1.688
G1 X21.432 Y-16.174
G3 X21.533 Y-15.907 R1.687
G1 X21.544 Y-15.865
G3 X21.586 Y-15.682 R1.688
G1 X21.598 Y-15.675
G3 X21.838 Y-15.524 R1.688
G1 X21.875 Y-15.496
G3 X22.058 Y-15.335 R1.687
G1 X22.078 Y-15.314
G3 X22.274 Y-15.075 R1.687
X22.452 Y-14.81 R26.896
X22.618 Y-14.487 R1.688
G1 X22.634 Y-14.444
G3 X22.714 Y-14.169 R1.688
G1 X22.723 Y-14.126
G3 X22.75 Y-13.94 R1.688
G1 X22.759 Y-13.934
G3 X22.991 Y-13.76 R1.687
G1 X23.026 Y-13.729
G3 X23.191 Y-13.559 R1.688
G1 X23.21 Y-13.537
G3 X23.388 Y-13.281 R1.687
X23.544 Y-13.003 R26.896
X23.685 Y-12.668 R1.688
G1 X23.698 Y-12.623
G3 X23.756 Y-12.341 R1.687
G1 X23.761 Y-12.298
G3 X23.773 Y-12.112 R1.688
G1 X23.786 Y-12.103
G3 X23.997 Y-11.917 R1.688
G1 X24.029 Y-11.883
G3 X24.184 Y-11.697 R1.688
G1 X24.202 Y-11.673
G3 X24.358 Y-11.405 R1.687
X24.492 Y-11.115 R26.896
X24.607 Y-10.765 R1.687
G1 X24.616 Y-10.72
G3 X24.651 Y-10.442 R1.687
G1 X24.653 Y-10.399
G3 X24.65 Y-10.209 R1.688
G1 X24.661 Y-10.2
G3 X24.859 Y-9.996 R1.687
G1 X24.888 Y-9.96
G3 X25.028 Y-9.762 R1.687
G1 X25.044 Y-9.737
G3 X25.178 Y-9.459 R1.687
X25.289 Y-9.16 R26.896
X25.375 Y-8.802 R1.688
G1 X25.381 Y-8.756
G3 X25.394 Y-8.476 R1.687
G1 X25.393 Y-8.433
G3 X25.375 Y-8.244 R1.688
G1 X25.384 Y-8.235
G3 X25.568 Y-8.013 R1.688
G1 X25.595 Y-7.975
G3 X25.714 Y-7.774 R1.688
G1 X25.728 Y-7.747
G3 X25.843 Y-7.454 R1.687
X25.929 Y-7.146 R26.896
X25.987 Y-6.789 R1.687
G1 X25.99 Y-6.742
G3 X25.981 Y-6.453 R1.688
G1 X25.976 Y-6.41
G3 X25.944 Y-6.228 R1.687
G1 X25.954 Y-6.216
G3 X26.117 Y-5.984 R1.687
G1 X26.14 Y-5.944
G3 X26.245 Y-5.733 R1.688
G1 X26.256 Y-5.705
G3 X26.348 Y-5.404 R1.688
X26.41 Y-5.09 R26.896
X26.44 Y-4.724 R1.687
G1 X26.439 Y-4.677
G3 X26.408 Y-4.401 R1.688
G1 X26.4 Y-4.358
G3 X26.352 Y-4.173 R1.688
G1 X26.36 Y-4.163
G3 X26.505 Y-3.917 R1.688
G1 X26.526 Y-3.875
G3 X26.616 Y-3.65 R1.687
G1 X26.625 Y-3.621
G3 X26.69 Y-3.32 R1.688
X26.728 Y-3.003 R26.896
X26.729 Y-2.637 R1.687
G1 X26.724 Y-2.591
G3 X26.671 Y-2.311 R1.688
G1 X26.659 Y-2.27
G3 X26.598 Y-2.093 R1.687
G1 X26.606 Y-2.08
G3 X26.732 Y-1.824 R1.687
G1 X26.748 Y-1.781
G3 X26.82 Y-1.552 R1.687
G1 X26.826 Y-1.523
G3 X26.869 Y-1.216 R1.688
X26.881 Y-0.897 R26.896
X26.854 Y-0.532 R1.687
G1 X26.845 Y-0.487
G3 X26.77 Y-0.213 R1.688
G1 X26.755 Y-0.172
G3 X26.681 Y0.001 R1.687
G1 X26.686 Y0.011
G3 X26.793 Y0.28 R1.688
G1 X26.806 Y0.325
G3 X26.858 Y0.553 R1.687
G1 X26.862 Y0.582
G3 X26.881 Y0.897 R1.687
X26.869 Y1.216 R26.896
X26.813 Y1.577 R1.688
G1 X26.801 Y1.622
G3 X26.705 Y1.887 R1.688
G1 X26.687 Y1.926
G3 X26.598 Y2.094 R1.688
G1 X26.604 Y2.108
G3 X26.687 Y2.377 R1.688
G1 X26.697 Y2.422
G3 X26.732 Y2.665 R1.687
G1 X26.734 Y2.694
G3 X26.728 Y3.003 R1.687
X26.69 Y3.32 R26.896
X26.606 Y3.676 R1.687
G1 X26.591 Y3.72
G3 X26.475 Y3.976 R1.687
G1 X26.454 Y4.013
G3 X26.352 Y4.175 R1.688
G1 X26.357 Y4.189
G3 X26.419 Y4.467 R1.688
G1 X26.425 Y4.513
G3 X26.441 Y4.747 R1.688
G1 Y4.777
G3 X26.41 Y5.09 R1.688
X26.348 Y5.404 R26.896
X26.236 Y5.752 R1.687
G1 X26.217 Y5.795
G3 X26.08 Y6.043 R1.688
G1 X26.056 Y6.079
G3 X25.943 Y6.229 R1.688
G1 X25.947 Y6.245
G3 X25.987 Y6.525 R1.687
G1 X25.99 Y6.571
G3 X25.986 Y6.812 R1.688
G1 X25.984 Y6.842
G3 X25.929 Y7.146 R1.687
X25.843 Y7.454 R26.896
X25.703 Y7.793 R1.687
G1 X25.681 Y7.834
G3 X25.526 Y8.07 R1.687
G1 X25.5 Y8.104
G3 X25.375 Y8.246 R1.688
G1 X25.377 Y8.26
G3 X25.395 Y8.545 R1.687
G1 X25.394 Y8.592
G3 X25.373 Y8.825 R1.688
G1 X25.368 Y8.854
G3 X25.289 Y9.16 R1.688
X25.178 Y9.459 R26.896
X25.014 Y9.785 R1.687
G1 X24.988 Y9.824
G3 X24.814 Y10.048 R1.687
G1 X24.785 Y10.08
G3 X24.649 Y10.211 R1.687
G1 X24.65 Y10.226
G3 X24.646 Y10.51 R1.688
G1 X24.642 Y10.556
G3 X24.602 Y10.79 R1.688
G1 X24.595 Y10.819
G3 X24.492 Y11.115 R1.687
X24.358 Y11.405 R26.896
X24.169 Y11.717 R1.688
G1 X24.14 Y11.754
G3 X23.949 Y11.964 R1.687
G1 X23.917 Y11.993
G3 X23.772 Y12.114 R1.688
G1 Y12.128
G3 X23.746 Y12.41 R1.688
G1 X23.738 Y12.456
G3 X23.678 Y12.691 R1.688
G1 X23.669 Y12.719
G3 X23.544 Y13.003 R1.688
X23.388 Y13.281 R26.896
X23.174 Y13.578 R1.687
G1 X23.143 Y13.613
G3 X22.939 Y13.804 R1.687
G1 X22.905 Y13.831
G3 X22.749 Y13.941 R1.687
G1 X22.747 Y13.956
G3 X22.699 Y14.236 R1.688
G1 X22.687 Y14.281
G3 X22.609 Y14.51 R1.687
G1 X22.597 Y14.538
G3 X22.452 Y14.81 R1.688
X22.274 Y15.075 R26.896
X22.039 Y15.353 R1.687
G1 X22.005 Y15.385
G3 X21.783 Y15.563 R1.688
G1 X21.748 Y15.587
G3 X21.585 Y15.683 R1.687
G1 X21.583 Y15.695
G3 X21.511 Y15.974 R1.688
G1 X21.496 Y16.018
G3 X21.4 Y16.24 R1.688
G1 X21.387 Y16.266
G3 X21.221 Y16.525 R1.688
X21.023 Y16.776 R26.896
X20.766 Y17.035 R1.688
G1 X20.73 Y17.065
G3 X20.495 Y17.224 R1.688
G1 X20.457 Y17.245
G3 X20.288 Y17.328 R1.687
G1 X20.284 Y17.342
G3 X20.192 Y17.612 R1.688
G1 X20.173 Y17.655
G3 X20.062 Y17.866 R1.688
G1 X20.047 Y17.891
G3 X19.859 Y18.139 R1.687
X19.642 Y18.374 R26.896
X19.364 Y18.613 R1.687
G1 X19.325 Y18.639
G3 X19.082 Y18.778 R1.688
G1 X19.042 Y18.796
G3 X18.865 Y18.867 R1.688
G1 X18.86 Y18.882
G3 X18.749 Y19.14 R1.688
G1 X18.727 Y19.181
G3 X18.598 Y19.385 R1.688
G1 X18.581 Y19.409
G3 X18.374 Y19.642 R1.687
X18.139 Y19.859 R26.896
X17.846 Y20.074 R1.687
G1 X17.806 Y20.097
G3 X17.546 Y20.219 R1.687
G1 X17.505 Y20.234
G3 X17.327 Y20.289 R1.688
G1 X17.321 Y20.304
G3 X17.189 Y20.552 R1.687
G1 X17.164 Y20.591
G3 X17.019 Y20.786 R1.688
G1 X17. Y20.808
G3 X16.776 Y21.023 R1.688
X16.525 Y21.221 R26.896
X16.216 Y21.412 R1.688
G1 X16.174 Y21.432
G3 X15.907 Y21.533 R1.687
G1 X15.865 Y21.544
G3 X15.682 Y21.586 R1.688
G1 X15.675 Y21.598
G3 X15.524 Y21.838 R1.688
G1 X15.496 Y21.875
G3 X15.335 Y22.058 R1.687
G1 X15.314 Y22.078
G3 X15.075 Y22.274 R1.687
X14.81 Y22.452 R26.896
X14.487 Y22.618 R1.688
G1 X14.444 Y22.634
G3 X14.169 Y22.714 R1.688
G1 X14.126 Y22.723
G3 X13.94 Y22.75 R1.688
G1 X13.934 Y22.759
G3 X13.76 Y22.991 R1.687
G1 X13.729 Y23.026
G3 X13.559 Y23.191 R1.688
G1 X13.537 Y23.21
G3 X13.281 Y23.388 R1.687
X13.003 Y23.544 R26.896
X12.668 Y23.685 R1.688
G1 X12.623 Y23.698
G3 X12.341 Y23.756 R1.687
G1 X12.298 Y23.761
G3 X12.112 Y23.773 R1.688
G1 X12.103 Y23.786
G3 X11.917 Y23.997 R1.688
G1 X11.883 Y24.029
G3 X11.697 Y24.184 R1.688
G1 X11.673 Y24.202
G3 X11.405 Y24.358 R1.687
X11.115 Y24.492 R26.896
X10.765 Y24.607 R1.687
G1 X10.72 Y24.616
G3 X10.442 Y24.651 R1.687
G1 X10.399 Y24.653
G3 X10.209 Y24.65 R1.688
G1 X10.2 Y24.661
G3 X9.996 Y24.859 R1.687
G1 X9.96 Y24.888
G3 X9.762 Y25.028 R1.687
G1 X9.737 Y25.044
G3 X9.459 Y25.178 R1.687
X9.16 Y25.289 R26.896
X8.802 Y25.375 R1.688
G1 X8.756 Y25.381
G3 X8.476 Y25.394 R1.687
G1 X8.433 Y25.393
G3 X8.244 Y25.375 R1.688
G1 X8.235 Y25.384
G3 X8.013 Y25.568 R1.688
G1 X7.975 Y25.595
G3 X7.774 Y25.714 R1.688
G1 X7.747 Y25.728
G3 X7.454 Y25.843 R1.687
X7.146 Y25.929 R26.896
X6.789 Y25.987 R1.687
G1 X6.742 Y25.99
G3 X6.453 Y25.981 R1.688
G1 X6.41 Y25.976
G3 X6.228 Y25.944 R1.687
G1 X6.216 Y25.954
G3 X5.984 Y26.117 R1.687
G1 X5.944 Y26.14
G3 X5.733 Y26.245 R1.688
G1 X5.705 Y26.256
G3 X5.404 Y26.348 R1.688
X5.09 Y26.41 R26.896
X4.724 Y26.44 R1.687
G1 X4.677 Y26.439
G3 X4.401 Y26.408 R1.688
G1 X4.358 Y26.4
G3 X4.173 Y26.352 R1.688
G1 X4.163 Y26.36
G3 X3.917 Y26.505 R1.688
G1 X3.875 Y26.526
G3 X3.65 Y26.616 R1.687
G1 X3.621 Y26.625
G3 X3.32 Y26.69 R1.688
X3.003 Y26.728 R26.896
X2.637 Y26.729 R1.687
G1 X2.591 Y26.724
G3 X2.311 Y26.671 R1.688
G1 X2.27 Y26.659
G3 X2.093 Y26.598 R1.687
G1 X2.08 Y26.606
G3 X1.824 Y26.732 R1.687
G1 X1.781 Y26.748
G3 X1.552 Y26.82 R1.687
G1 X1.523 Y26.826
G3 X1.216 Y26.869 R1.688
X0.897 Y26.881 R26.896
X0.532 Y26.854 R1.687
G1 X0.487 Y26.845
G3 X0.213 Y26.77 R1.688
G1 X0.172 Y26.755
G3 X-0.001 Y26.681 R1.687
G1 X-0.011 Y26.686
G3 X-0.28 Y26.793 R1.688
G1 X-0.325 Y26.806
G3 X-0.553 Y26.858 R1.687
G1 X-0.582 Y26.862
G3 X-0.897 Y26.881 R1.687
X-1.216 Y26.869 R26.896
X-1.577 Y26.813 R1.688
G1 X-1.622 Y26.801
G3 X-1.887 Y26.705 R1.688
G1 X-1.926 Y26.687
G3 X-2.094 Y26.598 R1.688
G1 X-2.108 Y26.604
G3 X-2.377 Y26.687 R1.688
G1 X-2.422 Y26.697
G3 X-2.665 Y26.732 R1.687
G1 X-2.694 Y26.734
G3 X-3.003 Y26.728 R1.687
X-3.32 Y26.69 R26.896
X-3.676 Y26.606 R1.687
G1 X-3.72 Y26.591
G3 X-3.976 Y26.475 R1.687
G1 X-4.013 Y26.454
G3 X-4.175 Y26.352 R1.688
G1 X-4.189 Y26.357
G3 X-4.467 Y26.419 R1.688
G1 X-4.513 Y26.425
G3 X-4.747 Y26.441 R1.688
G1 X-4.777
G3 X-5.09 Y26.41 R1.688
X-5.404 Y26.348 R26.896
X-5.752 Y26.236 R1.687
G1 X-5.795 Y26.217
G3 X-6.043 Y26.08 R1.688
G1 X-6.079 Y26.056
G3 X-6.229 Y25.943 R1.688
G1 X-6.245 Y25.947
G3 X-6.525 Y25.987 R1.687
G1 X-6.571 Y25.99
G3 X-6.812 Y25.986 R1.688
G1 X-6.842 Y25.984
G3 X-7.146 Y25.929 R1.687
X-7.454 Y25.843 R26.896
X-7.793 Y25.703 R1.687
G1 X-7.834 Y25.681
G3 X-8.07 Y25.526 R1.687
G1 X-8.104 Y25.5
G3 X-8.246 Y25.375 R1.688
G1 X-8.26 Y25.377
G3 X-8.545 Y25.395 R1.687
G1 X-8.592 Y25.394
G3 X-8.825 Y25.373 R1.688
G1 X-8.854 Y25.368
G3 X-9.16 Y25.289 R1.688
X-9.459 Y25.178 R26.896
X-9.785 Y25.014 R1.687
G1 X-9.824 Y24.988
G3 X-10.048 Y24.814 R1.687
G1 X-10.08 Y24.785
G3 X-10.211 Y24.649 R1.687
G1 X-10.226 Y24.65
G3 X-10.51 Y24.646 R1.688
G1 X-10.556 Y24.642
G3 X-10.79 Y24.602 R1.688
G1 X-10.819 Y24.595
G3 X-11.115 Y24.492 R1.687
X-11.405 Y24.358 R26.896
X-11.717 Y24.169 R1.688
G1 X-11.754 Y24.14
G3 X-11.964 Y23.949 R1.687
G1 X-11.993 Y23.917
G3 X-12.114 Y23.772 R1.688
G1 X-12.128
G3 X-12.41 Y23.746 R1.688
G1 X-12.456 Y23.738
G3 X-12.691 Y23.678 R1.688
G1 X-12.719 Y23.669
G3 X-13.003 Y23.544 R1.688
X-13.281 Y23.388 R26.896
X-13.578 Y23.174 R1.687
G1 X-13.613 Y23.143
G3 X-13.804 Y22.939 R1.687
G1 X-13.831 Y22.905
G3 X-13.941 Y22.749 R1.687
G1 X-13.956 Y22.747
G3 X-14.236 Y22.699 R1.688
G1 X-14.281 Y22.687
G3 X-14.51 Y22.609 R1.687
G1 X-14.538 Y22.597
G3 X-14.81 Y22.452 R1.688
X-15.075 Y22.274 R26.896
X-15.353 Y22.039 R1.687
G1 X-15.385 Y22.005
G3 X-15.563 Y21.783 R1.688
G1 X-15.587 Y21.748
G3 X-15.683 Y21.585 R1.687
G1 X-15.695 Y21.583
G3 X-15.974 Y21.511 R1.688
G1 X-16.018 Y21.496
G3 X-16.24 Y21.4 R1.688
G1 X-16.266 Y21.387
G3 X-16.525 Y21.221 R1.688
X-16.776 Y21.023 R26.896
X-17.035 Y20.766 R1.688
G1 X-17.065 Y20.73
G3 X-17.224 Y20.495 R1.688
G1 X-17.245 Y20.457
G3 X-17.328 Y20.288 R1.687
G1 X-17.342 Y20.284
G3 X-17.612 Y20.192 R1.688
G1 X-17.655 Y20.173
G3 X-17.866 Y20.062 R1.688
G1 X-17.891 Y20.047
G3 X-18.139 Y19.859 R1.687
X-18.374 Y19.642 R26.896
X-18.613 Y19.364 R1.687
G1 X-18.639 Y19.325
G3 X-18.778 Y19.082 R1.688
G1 X-18.796 Y19.042
G3 X-18.867 Y18.865 R1.688
G1 X-18.882 Y18.86
G3 X-19.14 Y18.749 R1.688
G1 X-19.181 Y18.727
G3 X-19.385 Y18.598 R1.688
G1 X-19.409 Y18.581
G3 X-19.642 Y18.374 R1.687
X-19.859 Y18.139 R26.896
X-20.074 Y17.846 R1.687
G1 X-20.097 Y17.806
G3 X-20.219 Y17.546 R1.687
G1 X-20.234 Y17.505
G3 X-20.289 Y17.327 R1.688
G1 X-20.304 Y17.321
G3 X-20.552 Y17.189 R1.687
G1 X-20.591 Y17.164
G3 X-20.786 Y17.019 R1.688
G1 X-20.808 Y17.
G3 X-21.023 Y16.776 R1.688
X-21.221 Y16.525 R26.896
X-21.412 Y16.216 R1.688
G1 X-21.432 Y16.174
G3 X-21.533 Y15.907 R1.687
G1 X-21.544 Y15.865
G3 X-21.586 Y15.682 R1.688
G1 X-21.598 Y15.675
G3 X-21.838 Y15.524 R1.688
G1 X-21.875 Y15.496
G3 X-22.058 Y15.335 R1.687
G1 X-22.078 Y15.314
G3 X-22.274 Y15.075 R1.687
X-22.452 Y14.81 R26.896
X-22.618 Y14.487 R1.688
G1 X-22.634 Y14.444
G3 X-22.714 Y14.169 R1.688
G1 X-22.723 Y14.126
G3 X-22.75 Y13.94 R1.688
G1 X-22.759 Y13.934
G3 X-22.991 Y13.76 R1.687
G1 X-23.026 Y13.729
G3 X-23.191 Y13.559 R1.688
G1 X-23.21 Y13.537
G3 X-23.388 Y13.281 R1.687
X-23.544 Y13.003 R26.896
X-23.685 Y12.668 R1.688
G1 X-23.698 Y12.623
G3 X-23.756 Y12.341 R1.687
G1 X-23.761 Y12.298
G3 X-23.773 Y12.112 R1.688
G1 X-23.786 Y12.103
G3 X-23.997 Y11.917 R1.688
G1 X-24.029 Y11.883
G3 X-24.184 Y11.697 R1.688
G1 X-24.202 Y11.673
G3 X-24.358 Y11.405 R1.687
X-24.492 Y11.115 R26.896
X-24.607 Y10.765 R1.687
G1 X-24.616 Y10.72
G3 X-24.651 Y10.442 R1.687
G1 X-24.653 Y10.399
G3 X-24.65 Y10.209 R1.688
G1 X-24.661 Y10.2
G3 X-24.859 Y9.996 R1.687
G1 X-24.888 Y9.96
G3 X-25.028 Y9.762 R1.687
G1 X-25.044 Y9.737
G3 X-25.178 Y9.459 R1.687
X-25.289 Y9.16 R26.896
X-25.375 Y8.802 R1.688
G1 X-25.381 Y8.756
G3 X-25.394 Y8.476 R1.687
G1 X-25.393 Y8.433
G3 X-25.375 Y8.244 R1.688
G1 X-25.384 Y8.235
G3 X-25.568 Y8.013 R1.688
G1 X-25.595 Y7.975
G3 X-25.714 Y7.774 R1.688
G1 X-25.728 Y7.747
G3 X-25.843 Y7.454 R1.687
X-25.929 Y7.146 R26.896
X-25.987 Y6.789 R1.687
G1 X-25.99 Y6.742
G3 X-25.981 Y6.453 R1.688
G1 X-25.976 Y6.41
G3 X-25.944 Y6.228 R1.687
G1 X-25.954 Y6.216
G3 X-26.117 Y5.984 R1.687
G1 X-26.14 Y5.944
G3 X-26.245 Y5.733 R1.688
G1 X-26.256 Y5.705
G3 X-26.348 Y5.404 R1.688
X-26.41 Y5.09 R26.896
X-26.44 Y4.724 R1.687
G1 X-26.439 Y4.677
G3 X-26.408 Y4.401 R1.688
G1 X-26.4 Y4.358
G3 X-26.352 Y4.173 R1.688
G1 X-26.36 Y4.163
G3 X-26.505 Y3.917 R1.688
G1 X-26.526 Y3.875
G3 X-26.616 Y3.65 R1.687
G1 X-26.625 Y3.621
G3 X-26.69 Y3.32 R1.688
X-26.728 Y3.003 R26.896
X-26.729 Y2.637 R1.687
G1 X-26.724 Y2.591
G3 X-26.671 Y2.311 R1.688
G1 X-26.659 Y2.27
G3 X-26.598 Y2.093 R1.687
G1 X-26.606 Y2.08
G3 X-26.732 Y1.824 R1.687
G1 X-26.748 Y1.781
G3 X-26.82 Y1.552 R1.687
G1 X-26.826 Y1.523
G3 X-26.869 Y1.216 R1.688
X-26.881 Y0.897 R26.896
X-26.854 Y0.532 R1.687
G1 X-26.845 Y0.487
G3 X-26.77 Y0.213 R1.688
G1 X-26.755 Y0.172
G3 X-26.681 Y-0.001 R1.687
G1 X-26.686 Y-0.011
G3 X-26.793 Y-0.28 R1.688
G1 X-26.806 Y-0.325
G3 X-26.858 Y-0.553 R1.687
G1 X-26.862 Y-0.582
G3 X-26.881 Y-0.897 R1.687
X-26.869 Y-1.216 R26.896
X-26.813 Y-1.577 R1.688
G1 X-26.801 Y-1.622
G3 X-26.705 Y-1.887 R1.688
G1 X-26.687 Y-1.926
G3 X-26.598 Y-2.094 R1.688
G1 X-26.604 Y-2.108
G3 X-26.687 Y-2.377 R1.688
G1 X-26.697 Y-2.422
G3 X-26.732 Y-2.665 R1.687
G1 X-26.734 Y-2.694
G3 X-26.728 Y-3.003 R1.687
X-26.69 Y-3.32 R26.896
X-26.606 Y-3.676 R1.687
G1 X-26.591 Y-3.72
G3 X-26.475 Y-3.976 R1.687
G1 X-26.454 Y-4.013
G3 X-26.352 Y-4.175 R1.688
G1 X-26.357 Y-4.189
G3 X-26.419 Y-4.467 R1.688
G1 X-26.425 Y-4.513
G3 X-26.441 Y-4.747 R1.688
G1 Y-4.777
G3 X-26.41 Y-5.09 R1.688
X-26.348 Y-5.404 R26.896
X-26.236 Y-5.752 R1.687
G1 X-26.217 Y-5.795
G3 X-26.08 Y-6.043 R1.688
G1 X-26.056 Y-6.079
G3 X-25.943 Y-6.229 R1.688
G1 X-25.947 Y-6.245
G3 X-25.987 Y-6.525 R1.687
G1 X-25.99 Y-6.571
G3 X-25.986 Y-6.812 R1.688
G1 X-25.984 Y-6.842
G3 X-25.929 Y-7.146 R1.687
X-25.843 Y-7.454 R26.896
X-25.703 Y-7.793 R1.687
G1 X-25.681 Y-7.834
G3 X-25.526 Y-8.07 R1.687
G1 X-25.5 Y-8.104
G3 X-25.375 Y-8.246 R1.688
G1 X-25.377 Y-8.26
G3 X-25.395 Y-8.545 R1.687
G1 X-25.394 Y-8.592
G3 X-25.373 Y-8.825 R1.688
G1 X-25.368 Y-8.854
G3 X-25.289 Y-9.16 R1.688
X-25.178 Y-9.459 R26.896
X-25.014 Y-9.785 R1.687
G1 X-24.988 Y-9.824
G3 X-24.814 Y-10.048 R1.687
G1 X-24.785 Y-10.08
G3 X-24.649 Y-10.211 R1.687
G1 X-24.65 Y-10.226
G3 X-24.646 Y-10.51 R1.688
G1 X-24.642 Y-10.556
G3 X-24.602 Y-10.79 R1.688
G1 X-24.595 Y-10.819
G3 X-24.492 Y-11.115 R1.687
X-24.358 Y-11.405 R26.896
X-24.169 Y-11.717 R1.688
G1 X-24.14 Y-11.754
G3 X-23.949 Y-11.964 R1.687
G1 X-23.917 Y-11.993
G3 X-23.772 Y-12.114 R1.688
G1 Y-12.128
G3 X-23.746 Y-12.41 R1.688
G1 X-23.738 Y-12.456
G3 X-23.678 Y-12.691 R1.688
G1 X-23.669 Y-12.719
G3 X-23.544 Y-13.003 R1.688
X-23.388 Y-13.281 R26.896
X-23.174 Y-13.578 R1.687
G1 X-23.143 Y-13.613
G3 X-22.939 Y-13.804 R1.687
G1 X-22.905 Y-13.831
G3 X-22.749 Y-13.941 R1.687
G1 X-22.747 Y-13.956
G3 X-22.699 Y-14.236 R1.688
G1 X-22.687 Y-14.281
G3 X-22.609 Y-14.51 R1.687
G1 X-22.597 Y-14.538
G3 X-22.452 Y-14.81 R1.688
X-22.274 Y-15.075 R26.896
X-22.039 Y-15.353 R1.687
G1 X-22.005 Y-15.385
G3 X-21.783 Y-15.563 R1.688
G1 X-21.748 Y-15.587
G3 X-21.585 Y-15.683 R1.687
G1 X-21.583 Y-15.695
G3 X-21.511 Y-15.974 R1.688
G1 X-21.496 Y-16.018
G3 X-21.4 Y-16.24 R1.688
G1 X-21.387 Y-16.266
G3 X-21.221 Y-16.525 R1.688
X-21.023 Y-16.776 R26.896
X-20.766 Y-17.035 R1.688
G1 X-20.73 Y-17.065
G3 X-20.495 Y-17.224 R1.688
G1 X-20.457 Y-17.245
G3 X-20.288 Y-17.328 R1.687
G1 X-20.284 Y-17.342
G3 X-20.192 Y-17.612 R1.688
G1 X-20.173 Y-17.655
G3 X-20.062 Y-17.866 R1.688
G1 X-20.047 Y-17.891
G3 X-19.859 Y-18.139 R1.687
X-19.642 Y-18.374 R26.896
X-19.364 Y-18.613 R1.687
G1 X-19.325 Y-18.639
G3 X-19.082 Y-18.778 R1.688
G1 X-19.042 Y-18.796
G3 X-18.865 Y-18.867 R1.688
G1 X-18.86 Y-18.882
G3 X-18.749 Y-19.14 R1.688
G1 X-18.727 Y-19.181
G3 X-18.598 Y-19.385 R1.688
G1 X-18.581 Y-19.409
G3 X-18.374 Y-19.642 R1.687
X-18.139 Y-19.859 R26.896
X-17.846 Y-20.074 R1.687
G1 X-17.806 Y-20.097
G3 X-17.546 Y-20.219 R1.687
G1 X-17.505 Y-20.234
G3 X-17.327 Y-20.289 R1.688
G1 X-17.321 Y-20.304
G3 X-17.189 Y-20.552 R1.687
G1 X-17.164 Y-20.591
G3 X-17.019 Y-20.786 R1.688
G1 X-17. Y-20.808
G3 X-16.776 Y-21.023 R1.688
X-16.525 Y-21.221 R26.896
X-16.216 Y-21.412 R1.688
G1 X-16.174 Y-21.432
G3 X-15.907 Y-21.533 R1.687
G1 X-15.865 Y-21.544
G3 X-15.682 Y-21.586 R1.688
