(_120T_STEP2)
(T3  D=1. CR=0. - ZMIN=-5.25 - FLAT END MILL)
G90 G94 G91.1 G40 G49 G17
G21

(2D CONTOUR8)
M5
M9
T3
S10000 M3
G54
M9
G0 X35.54 Y14.288
G43 Z10. H3
Z5.
G1 Z2.5 F250.
G2 X35.536 Y14.244 Z2.492 R0.42
G1 X35.526 Y14.173 Z2.48
G2 X35.491 Y14.057 Z2.458 R0.42
G1 X35.457 Y13.983 Z2.444
G2 X35.384 Y13.875 Z2.421 R0.42
G1 X35.329 Y13.814 Z2.406
G2 X35.282 Y13.771 Z2.395 R0.42
G1 X35.161 Y13.674 Z2.368
X35.054 Y13.58 Z2.342
X35.033 Y13.56 Z2.337
X35.07 Y13.465 Z2.319
X35.072 Y13.46 Z2.318
X35.108 Y13.366 Z2.301
X35.142 Y13.363 Z2.295
X35.279 Y13.365 Z2.271
X35.435 Y13.374 Z2.243
G2 X35.498 Y13.373 Z2.232 R0.42
G1 X35.58 Y13.366 Z2.217
G2 X35.705 Y13.334 Z2.194 R0.42
G1 X35.781 Y13.302 Z2.18
G2 X35.884 Y13.239 Z2.158 R0.42
G1 X35.94 Y13.193 Z2.146
G2 X36.016 Y13.11 Z2.126 R0.42
G1 X36.057 Y13.051 Z2.113
G2 X36.108 Y12.953 Z2.094 R0.42
X36.213 Y12.657 Z2.038 R38.361
X36.235 Y12.548 Z2.019 R0.42
G1 X36.24 Y12.477 Z2.006
G2 X36.233 Y12.365 Z1.986 R0.42
G1 X36.219 Y12.294 Z1.974
G2 X36.178 Y12.181 Z1.952 R0.42
G1 X36.14 Y12.108 Z1.938
G2 X36.062 Y12.004 Z1.915 R0.42
G1 X36.003 Y11.947 Z1.9
G2 X35.955 Y11.906 Z1.889 R0.42
G1 X35.828 Y11.815 Z1.861
X35.717 Y11.727 Z1.836
X35.695 Y11.708 Z1.831
X35.727 Y11.611 Z1.813
X35.729 Y11.606 Z1.812
X35.759 Y11.51 Z1.795
X35.793 Y11.506 Z1.789
X35.93 Y11.501 Z1.764
X36.086 Y11.502 Z1.737
G2 X36.149 Y11.497 Z1.726 R0.42
G1 X36.231 Y11.485 Z1.711
G2 X36.354 Y11.447 Z1.688 R0.42
G1 X36.428 Y11.411 Z1.674
G2 X36.528 Y11.343 Z1.652 R0.42
G1 X36.581 Y11.294 Z1.64
G2 X36.653 Y11.207 Z1.62 R0.42
G1 X36.691 Y11.146 Z1.607
G2 X36.736 Y11.045 Z1.588 R0.42
X36.826 Y10.745 Z1.532 R38.361
X36.842 Y10.635 Z1.513 R0.42
G1 X36.844 Y10.563 Z1.5
G2 X36.831 Y10.452 Z1.48 R0.42
G1 X36.813 Y10.382 Z1.468
G2 X36.766 Y10.27 Z1.446 R0.42
G1 X36.724 Y10.199 Z1.432
G2 X36.641 Y10.1 Z1.409 R0.42
G1 X36.579 Y10.046 Z1.394
G2 X36.528 Y10.008 Z1.383 R0.42
G1 X36.397 Y9.924 Z1.355
X36.281 Y9.842 Z1.33
X36.259 Y9.824 Z1.325
X36.286 Y9.725 Z1.307
X36.287 Y9.72 Z1.306
X36.312 Y9.623 Z1.289
X36.346 Y9.617 Z1.283
X36.483 Y9.604 Z1.258
X36.639 Y9.597 Z1.231
G2 X36.701 Y9.59 Z1.22 R0.42
G1 X36.782 Y9.573 Z1.205
G2 X36.904 Y9.529 Z1.182 R0.42
G1 X36.976 Y9.489 Z1.168
G2 X37.072 Y9.415 Z1.146 R0.42
G1 X37.122 Y9.364 Z1.134
G2 X37.189 Y9.274 Z1.114 R0.42
G1 X37.224 Y9.212 Z1.101
G2 X37.264 Y9.107 Z1.082 R0.42
X37.337 Y8.803 Z1.026 R38.361
X37.348 Y8.692 Z1.007 R0.42
G1 X37.346 Y8.621 Z0.994
G2 X37.327 Y8.51 Z0.974 R0.42
G1 X37.306 Y8.441 Z0.962
G2 X37.253 Y8.332 Z0.94 R0.42
G1 X37.207 Y8.264 Z0.925
G2 X37.119 Y8.169 Z0.903 R0.42
G1 X37.055 Y8.118 Z0.888
G2 X37.002 Y8.082 Z0.877 R0.42
G1 X36.867 Y8.005 Z0.849
X36.747 Y7.93 Z0.824
X36.723 Y7.913 Z0.819
X36.745 Y7.813 Z0.801
X36.746 Y7.808 Z0.8
X36.766 Y7.709 Z0.783
X36.799 Y7.701 Z0.777
X36.935 Y7.682 Z0.752
X37.091 Y7.667 Z0.725
G2 X37.153 Y7.656 Z0.714 R0.42
G1 X37.233 Y7.635 Z0.699
G2 X37.352 Y7.584 Z0.676 R0.42
G1 X37.422 Y7.54 Z0.662
G2 X37.514 Y7.462 Z0.64 R0.42
G1 X37.561 Y7.409 Z0.628
G2 X37.624 Y7.315 Z0.608 R0.42
G1 X37.655 Y7.25 Z0.595
G2 X37.69 Y7.145 Z0.576 R0.42
X37.747 Y6.837 Z0.52 R38.361
X37.752 Y6.725 Z0.501 R0.42
G1 X37.746 Y6.654 Z0.488
G2 X37.721 Y6.544 Z0.468 R0.42
G1 X37.696 Y6.477 Z0.455
G2 X37.638 Y6.371 Z0.434 R0.42
G1 X37.589 Y6.305 Z0.42
G2 X37.496 Y6.215 Z0.397 R0.42
G1 X37.429 Y6.167 Z0.382
G2 X37.375 Y6.135 Z0.371 R0.42
G1 X37.235 Y6.065 Z0.343
X37.111 Y5.996 Z0.318
X37.087 Y5.98 Z0.313
X37.103 Y5.879 Z0.295
X37.104 Y5.874 Z0.294
X37.119 Y5.775 Z0.277
X37.152 Y5.765 Z0.271
X37.287 Y5.738 Z0.246
X37.441 Y5.715 Z0.219
G2 X37.503 Y5.701 Z0.208 R0.42
G1 X37.581 Y5.676 Z0.193
G2 X37.697 Y5.619 Z0.17 R0.42
G1 X37.765 Y5.572 Z0.156
G2 X37.853 Y5.488 Z0.134 R0.42
G1 X37.898 Y5.432 Z0.122
G2 X37.955 Y5.336 Z0.102 R0.42
G1 X37.983 Y5.27 Z0.089
G2 X38.012 Y5.163 Z0.07 R0.42
X38.053 Y4.852 Z0.014 R38.361
X38.052 Y4.74 Z-0.005 R0.42
G1 X38.042 Y4.67 Z-0.018
G2 X38.012 Y4.561 Z-0.038 R0.42
G1 X37.984 Y4.496 Z-0.051
G2 X37.92 Y4.392 Z-0.072 R0.42
G1 X37.867 Y4.329 Z-0.087
G2 X37.77 Y4.244 Z-0.109 R0.42
G1 X37.7 Y4.2 Z-0.124
G2 X37.644 Y4.17 Z-0.135 R0.42
G1 X37.501 Y4.108 Z-0.163
X37.374 Y4.045 Z-0.188
X37.349 Y4.031 Z-0.193
X37.36 Y3.929 Z-0.211
X37.361 Y3.924 Z-0.212
X37.371 Y3.824 Z-0.229
X37.403 Y3.813 Z-0.235
X37.536 Y3.779 Z-0.26
X37.689 Y3.748 Z-0.287
G2 X37.75 Y3.73 Z-0.298 R0.42
G1 X37.827 Y3.702 Z-0.313
G2 X37.94 Y3.638 Z-0.336 R0.42
G1 X38.005 Y3.587 Z-0.35
G2 X38.088 Y3.5 Z-0.372 R0.42
G1 X38.13 Y3.442 Z-0.384
G2 X38.182 Y3.342 Z-0.404 R0.42
G1 X38.206 Y3.275 Z-0.417
G2 X38.23 Y3.166 Z-0.437 R0.42
X38.255 Y2.854 Z-0.492 R38.361
X38.248 Y2.742 Z-0.512 R0.42
G1 X38.235 Y2.672 Z-0.524
G2 X38.199 Y2.565 Z-0.544 R0.42
G1 X38.167 Y2.501 Z-0.557
G2 X38.098 Y2.402 Z-0.578 R0.42
G1 X38.042 Y2.342 Z-0.593
G2 X37.94 Y2.261 Z-0.616 R0.42
G1 X37.868 Y2.221 Z-0.63
G2 X37.811 Y2.194 Z-0.641 R0.42
G1 X37.665 Y2.139 Z-0.669
X37.535 Y2.084 Z-0.694
X37.509 Y2.07 Z-0.699
X37.515 Y1.968 Z-0.717
Y1.963 Z-0.718
X37.52 Y1.863 Z-0.735
X37.551 Y1.85 Z-0.742
X37.682 Y1.809 Z-0.766
X37.833 Y1.77 Z-0.793
G2 X37.893 Y1.749 Z-0.804 R0.42
G1 X37.969 Y1.717 Z-0.819
G2 X38.078 Y1.648 Z-0.842 R0.42
G1 X38.14 Y1.594 Z-0.856
G2 X38.22 Y1.501 Z-0.878 R0.42
G1 X38.258 Y1.441 Z-0.89
G2 X38.304 Y1.339 Z-0.91 R0.42
G1 X38.325 Y1.271 Z-0.923
G2 X38.344 Y1.161 Z-0.943 R0.42
X38.352 Y0.847 Z-0.998 R38.361
Y0.835 Z-1. R0.42
X38.339 Y0.737 R0.42 F400.
G1 X38.322 Y0.668
G2 X38.281 Y0.563 R0.42
G1 X38.245 Y0.5
G2 X38.172 Y0.405 R0.42
G1 X38.113 Y0.347
G2 X38.007 Y0.273 R0.42
G1 X37.933 Y0.236
G2 X37.874 Y0.213 R0.42
G1 X37.725 Y0.165
X37.592 Y0.116
X37.566 Y0.104
Y0.002
Y-0.003
Y-0.103
X37.597 Y-0.118
X37.725 Y-0.165
X37.874 Y-0.213
G2 X37.933 Y-0.236 R0.42
G1 X38.007 Y-0.273
G2 X38.113 Y-0.347 R0.42
G1 X38.172 Y-0.405
G2 X38.245 Y-0.5 R0.42
G1 X38.281 Y-0.563
G2 X38.322 Y-0.668 R0.42
G1 X38.339 Y-0.737
G2 X38.352 Y-0.847 R0.42
X38.344 Y-1.161 R38.361
X38.325 Y-1.271 R0.42
G1 X38.304 Y-1.339
G2 X38.258 Y-1.441 R0.42
G1 X38.22 Y-1.501
G2 X38.14 Y-1.594 R0.42
G1 X38.078 Y-1.648
G2 X37.969 Y-1.717 R0.42
G1 X37.893 Y-1.749
G2 X37.833 Y-1.77 R0.42
G1 X37.682 Y-1.809
X37.547 Y-1.851
X37.52 Y-1.862
X37.515 Y-1.964
Y-1.969
X37.509 Y-2.069
X37.539 Y-2.085
X37.665 Y-2.139
X37.811 Y-2.194
G2 X37.868 Y-2.221 R0.42
G1 X37.94 Y-2.261
G2 X38.042 Y-2.342 R0.42
G1 X38.098 Y-2.402
G2 X38.167 Y-2.501 R0.42
G1 X38.199 Y-2.565
G2 X38.235 Y-2.672 R0.42
G1 X38.248 Y-2.742
G2 X38.255 Y-2.854 R0.42
X38.23 Y-3.166 R38.361
X38.206 Y-3.275 R0.42
G1 X38.182 Y-3.342
G2 X38.13 Y-3.442 R0.42
G1 X38.088 Y-3.5
G2 X38.005 Y-3.587 R0.42
G1 X37.94 Y-3.638
G2 X37.827 Y-3.702 R0.42
G1 X37.75 Y-3.73
G2 X37.689 Y-3.748 R0.42
G1 X37.536 Y-3.779
X37.399 Y-3.814
X37.371 Y-3.823
X37.361 Y-3.924
X37.36 Y-3.93
X37.349 Y-4.029
X37.378 Y-4.047
X37.501 Y-4.108
X37.644 Y-4.17
G2 X37.7 Y-4.2 R0.42
G1 X37.77 Y-4.244
G2 X37.867 Y-4.329 R0.42
G1 X37.92 Y-4.392
G2 X37.984 Y-4.496 R0.42
G1 X38.012 Y-4.561
G2 X38.042 Y-4.67 R0.42
G1 X38.052 Y-4.74
G2 X38.053 Y-4.852 R0.42
X38.012 Y-5.163 R38.361
X37.983 Y-5.27 R0.42
G1 X37.955 Y-5.336
G2 X37.898 Y-5.432 R0.42
G1 X37.853 Y-5.488
G2 X37.765 Y-5.572 R0.42
G1 X37.697 Y-5.619
G2 X37.581 Y-5.676 R0.42
G1 X37.503 Y-5.701
G2 X37.441 Y-5.715 R0.42
G1 X37.287 Y-5.738
X37.148 Y-5.766
X37.12 Y-5.773
X37.104 Y-5.874
X37.103 Y-5.88
X37.087 Y-5.979
X37.115 Y-5.998
X37.235 Y-6.065
X37.375 Y-6.135
G2 X37.429 Y-6.167 R0.42
G1 X37.496 Y-6.215
G2 X37.589 Y-6.305 R0.42
G1 X37.638 Y-6.371
G2 X37.696 Y-6.477 R0.42
G1 X37.721 Y-6.544
G2 X37.746 Y-6.654 R0.42
G1 X37.752 Y-6.725
G2 X37.747 Y-6.837 R0.42
X37.69 Y-7.145 R38.361
X37.655 Y-7.25 R0.42
G1 X37.624 Y-7.315
G2 X37.561 Y-7.409 R0.42
G1 X37.514 Y-7.462
G2 X37.422 Y-7.54 R0.42
G1 X37.352 Y-7.584
G2 X37.233 Y-7.635 R0.42
G1 X37.153 Y-7.656
G2 X37.091 Y-7.667 R0.42
G1 X36.935 Y-7.682
X36.795 Y-7.702
X36.767 Y-7.708
X36.746 Y-7.808
X36.745 Y-7.813
X36.723 Y-7.911
X36.751 Y-7.932
X36.867 Y-8.005
X37.002 Y-8.082
G2 X37.055 Y-8.118 R0.42
G1 X37.119 Y-8.169
G2 X37.207 Y-8.264 R0.42
G1 X37.253 Y-8.332
G2 X37.306 Y-8.441 R0.42
G1 X37.327 Y-8.51
G2 X37.346 Y-8.621 R0.42
G1 X37.348 Y-8.692
G2 X37.337 Y-8.803 R0.42
X37.264 Y-9.107 R38.361
X37.224 Y-9.212 R0.42
G1 X37.189 Y-9.274
G2 X37.122 Y-9.364 R0.42
G1 X37.072 Y-9.415
G2 X36.976 Y-9.489 R0.42
G1 X36.904 Y-9.529
G2 X36.782 Y-9.573 R0.42
G1 X36.701 Y-9.59
G2 X36.639 Y-9.597 R0.42
G1 X36.483 Y-9.604
X36.342 Y-9.617
X36.313 Y-9.622
X36.287 Y-9.721
X36.286 Y-9.726
X36.259 Y-9.822
X36.285 Y-9.845
X36.397 Y-9.924
X36.528 Y-10.008
G2 X36.579 Y-10.046 R0.42
G1 X36.641 Y-10.1
G2 X36.724 Y-10.199 R0.42
G1 X36.766 Y-10.27
G2 X36.813 Y-10.382 R0.42
G1 X36.831 Y-10.452
G2 X36.844 Y-10.563 R0.42
G1 X36.842 Y-10.635
G2 X36.826 Y-10.745 R0.42
X36.736 Y-11.045 R38.361
X36.691 Y-11.146 R0.42
G1 X36.653 Y-11.207
G2 X36.581 Y-11.294 R0.42
G1 X36.528 Y-11.343
G2 X36.428 Y-11.411 R0.42
G1 X36.354 Y-11.447
G2 X36.231 Y-11.485 R0.42
G1 X36.149 Y-11.497
G2 X36.086 Y-11.502 R0.42
G1 X35.93 Y-11.501
X35.788 Y-11.506
X35.759 Y-11.509
X35.728 Y-11.606
X35.727 Y-11.611
X35.695 Y-11.707
X35.72 Y-11.73
X35.828 Y-11.815
X35.955 Y-11.906
G2 X36.003 Y-11.947 R0.42
G1 X36.062 Y-12.004
G2 X36.14 Y-12.108 R0.42
G1 X36.178 Y-12.181
G2 X36.219 Y-12.294 R0.42
G1 X36.233 Y-12.365
G2 X36.24 Y-12.477 R0.42
G1 X36.235 Y-12.548
G2 X36.213 Y-12.657 R0.42
X36.108 Y-12.953 R38.361
X36.057 Y-13.051 R0.42
G1 X36.016 Y-13.11
G2 X35.94 Y-13.193 R0.42
G1 X35.884 Y-13.239
G2 X35.781 Y-13.302 R0.42
G1 X35.705 Y-13.334
G2 X35.58 Y-13.366 R0.42
G1 X35.498 Y-13.373
G2 X35.435 Y-13.374 R0.42
G1 X35.279 Y-13.365
X35.137 Y-13.363
X35.108 Y-13.365
X35.072 Y-13.46
X35.07 Y-13.465
X35.034 Y-13.559
X35.057 Y-13.583
X35.161 Y-13.674
X35.282 Y-13.771
G2 X35.329 Y-13.814 R0.42
G1 X35.384 Y-13.875
G2 X35.457 Y-13.983 R0.42
G1 X35.491 Y-14.057
G2 X35.526 Y-14.173 R0.42
G1 X35.536 Y-14.244
G2 X35.538 Y-14.357 R0.42
G1 X35.529 Y-14.428
G2 X35.501 Y-14.535 R0.42
X35.381 Y-14.825 R38.361
X35.325 Y-14.921 R0.42
G1 X35.281 Y-14.977
G2 X35.2 Y-15.056 R0.42
G1 X35.143 Y-15.099
G2 X35.036 Y-15.156 R0.42
G1 X34.959 Y-15.184
G2 X34.832 Y-15.209 R0.42
G1 X34.75 Y-15.213
G2 X34.686 Y-15.211 R0.42
G1 X34.531 Y-15.193
X34.39 Y-15.184
X34.361
X34.32 Y-15.277
X34.317 Y-15.282
X34.276 Y-15.374
X34.298 Y-15.4
X34.397 Y-15.495
X34.513 Y-15.599
G2 X34.557 Y-15.644 R0.42
G1 X34.61 Y-15.708
G2 X34.676 Y-15.819 R0.42
G1 X34.707 Y-15.896
G2 X34.735 Y-16.013 R0.42
G1 X34.742 Y-16.084
G2 X34.738 Y-16.197 R0.42
G1 X34.725 Y-16.267
G2 X34.691 Y-16.373 R0.42
X34.556 Y-16.656 R38.361
X34.495 Y-16.749 R0.42
G1 X34.448 Y-16.803
G2 X34.364 Y-16.878 R0.42
G1 X34.304 Y-16.917
G2 X34.195 Y-16.969 R0.42
G1 X34.116 Y-16.993
G2 X33.988 Y-17.012 R0.42
G1 X33.906 Y-17.011
G2 X33.843 Y-17.005 R0.42
G1 X33.689 Y-16.98
X33.548 Y-16.963
X33.519 Y-16.961
X33.473 Y-17.053
X33.47 Y-17.057
X33.424 Y-17.146
X33.445 Y-17.174
X33.539 Y-17.274
X33.65 Y-17.384
G2 X33.691 Y-17.432 R0.42
G1 X33.74 Y-17.498
G2 X33.801 Y-17.612 R0.42
G1 X33.827 Y-17.69
G2 X33.85 Y-17.809 R0.42
G1 X33.853 Y-17.881
G2 X33.842 Y-17.992 R0.42
G1 X33.826 Y-18.062
G2 X33.787 Y-18.166 R0.42
X33.637 Y-18.442 R38.361
X33.572 Y-18.531 R0.42
G1 X33.522 Y-18.583
G2 X33.434 Y-18.653 R0.42
G1 X33.372 Y-18.689
G2 X33.259 Y-18.736 R0.42
G1 X33.18 Y-18.755
G2 X33.051 Y-18.767 R0.42
G1 X32.969 Y-18.762
G2 X32.906 Y-18.753 R0.42
G1 X32.754 Y-18.72
X32.614 Y-18.695
X32.585 Y-18.692
X32.535 Y-18.781
X32.532 Y-18.786
X32.481 Y-18.872
X32.501 Y-18.9
X32.589 Y-19.006
X32.694 Y-19.121
G2 X32.733 Y-19.171 R0.42
G1 X32.778 Y-19.239
G2 X32.833 Y-19.357 R0.42
G1 X32.855 Y-19.436
G2 X32.871 Y-19.556 R0.42
G1 Y-19.628
G2 X32.854 Y-19.739 R0.42
G1 X32.834 Y-19.808
G2 X32.79 Y-19.91 R0.42
X32.626 Y-20.177 R38.361
X32.555 Y-20.263 R0.42
G1 X32.503 Y-20.312
G2 X32.412 Y-20.377 R0.42
G1 X32.348 Y-20.41
G2 X32.234 Y-20.45 R0.42
G1 X32.153 Y-20.466
G2 X32.023 Y-20.471 R0.42
G1 X31.942 Y-20.462
G2 X31.88 Y-20.449 R0.42
G1 X31.729 Y-20.408
X31.591 Y-20.377
X31.562 Y-20.372
X31.507 Y-20.458
X31.504 Y-20.462
X31.449 Y-20.546
X31.467 Y-20.575
X31.549 Y-20.685
X31.648 Y-20.806
G2 X31.685 Y-20.858 R0.42
G1 X31.727 Y-20.929
G2 X31.774 Y-21.048 R0.42
G1 X31.793 Y-21.129
G2 X31.803 Y-21.25 R0.42
G1 X31.798 Y-21.322
G2 X31.776 Y-21.431 R0.42
G1 X31.753 Y-21.499
G2 X31.703 Y-21.599 R0.42
X31.525 Y-21.857 R38.361
X31.45 Y-21.939 R0.42
G1 X31.395 Y-21.985
G2 X31.3 Y-22.045 R0.42
G1 X31.235 Y-22.075
G2 X31.119 Y-22.109 R0.42
G1 X31.038 Y-22.121
G2 X30.908 Y-22.119 R0.42
G1 X30.827 Y-22.105
G2 X30.766 Y-22.09 R0.42
G1 X30.618 Y-22.041
X30.481 Y-22.002
X30.453 Y-21.996
X30.393 Y-22.079
X30.39 Y-22.083
X30.331 Y-22.164
X30.347 Y-22.194
X30.423 Y-22.308
X30.516 Y-22.434
G2 X30.55 Y-22.488 R0.42
G1 X30.588 Y-22.561
G2 X30.629 Y-22.683 R0.42
G1 X30.644 Y-22.764
G2 X30.647 Y-22.885 R0.42
G1 X30.639 Y-22.956
G2 X30.611 Y-23.066 R0.42
G1 X30.584 Y-23.132
G2 X30.529 Y-23.228 R0.42
X30.338 Y-23.477 R38.361
X30.259 Y-23.555 R0.42
G1 X30.202 Y-23.598
G2 X30.103 Y-23.654 R0.42
G1 X30.037 Y-23.68
G2 X29.92 Y-23.708 R0.42
G1 X29.838 Y-23.715
G2 X29.708 Y-23.706 R0.42
G1 X29.628 Y-23.688
G2 X29.567 Y-23.67 R0.42
G1 X29.422 Y-23.613
X29.288 Y-23.567
X29.26 Y-23.56
X29.196 Y-23.64
X29.193 Y-23.643
X29.129 Y-23.721
X29.144 Y-23.752
X29.214 Y-23.87
X29.3 Y-24.
G2 X29.331 Y-24.055 R0.42
G1 X29.365 Y-24.13
G2 X29.4 Y-24.255 R0.42
G1 X29.41 Y-24.337
G2 X29.407 Y-24.458 R0.42
G1 X29.395 Y-24.528
G2 X29.362 Y-24.635 R0.42
G1 X29.332 Y-24.7
G2 X29.272 Y-24.794 R0.42
X29.068 Y-25.033 R38.361
X28.985 Y-25.106 R0.42
G1 X28.926 Y-25.146
G2 X28.824 Y-25.197 R0.42
G1 X28.757 Y-25.219
G2 X28.638 Y-25.241 R0.42
G1 X28.556 Y-25.244
G2 X28.427 Y-25.229 R0.42
G1 X28.348 Y-25.207
G2 X28.288 Y-25.185 R0.42
G1 X28.146 Y-25.12
X28.014 Y-25.068
X27.987 Y-25.059
X27.919 Y-25.135
X27.915 Y-25.139
X27.848 Y-25.213
X27.861 Y-25.245
X27.925 Y-25.366
X28.004 Y-25.501
G2 X28.031 Y-25.558 R0.42
G1 X28.062 Y-25.634
G2 X28.091 Y-25.76 R0.42
G1 X28.096 Y-25.842
G2 X28.087 Y-25.963 R0.42
G1 X28.071 Y-26.033
G2 X28.032 Y-26.139 R0.42
G1 X27.999 Y-26.202
G2 X27.934 Y-26.292 R0.42
X27.718 Y-26.52 R38.361
X27.631 Y-26.589 R0.42
G1 X27.57 Y-26.626
G2 X27.467 Y-26.67 R0.42
G1 X27.398 Y-26.69
G2 X27.278 Y-26.705 R0.42
G1 X27.195 Y-26.704
G2 X27.067 Y-26.682 R0.42
G1 X26.989 Y-26.655
G2 X26.932 Y-26.631 R0.42
G1 X26.793 Y-26.559
X26.664 Y-26.499
X26.637 Y-26.489
X26.565 Y-26.562
X26.561 Y-26.565
X26.49 Y-26.636
X26.501 Y-26.668
X26.559 Y-26.793
X26.631 Y-26.932
G2 X26.655 Y-26.989 R0.42
G1 X26.682 Y-27.067
G2 X26.704 Y-27.195 R0.42
G1 X26.705 Y-27.278
G2 X26.69 Y-27.398 R0.42
G1 X26.67 Y-27.467
G2 X26.626 Y-27.57 R0.42
G1 X26.589 Y-27.631
G2 X26.52 Y-27.718 R0.42
X26.292 Y-27.934 R38.361
X26.202 Y-27.999 R0.42
G1 X26.139 Y-28.032
G2 X26.033 Y-28.071 R0.42
G1 X25.963 Y-28.087
G2 X25.842 Y-28.096 R0.42
G1 X25.76 Y-28.091
G2 X25.634 Y-28.062 R0.42
G1 X25.558 Y-28.031
G2 X25.501 Y-28.004 R0.42
G1 X25.366 Y-27.925
X25.241 Y-27.859
X25.214 Y-27.847
X25.138 Y-27.916
X25.135 Y-27.919
X25.06 Y-27.986
X25.069 Y-28.019
X25.12 Y-28.146
X25.185 Y-28.288
G2 X25.207 Y-28.348 R0.42
G1 X25.229 Y-28.427
G2 X25.244 Y-28.556 R0.42
G1 X25.241 Y-28.638
G2 X25.219 Y-28.757 R0.42
G1 X25.197 Y-28.824
G2 X25.146 Y-28.926 R0.42
G1 X25.106 Y-28.985
G2 X25.033 Y-29.068 R0.42
X24.794 Y-29.272 R38.361
X24.7 Y-29.332 R0.42
G1 X24.635 Y-29.362
G2 X24.528 Y-29.395 R0.42
G1 X24.458 Y-29.407
G2 X24.337 Y-29.41 R0.42
G1 X24.255 Y-29.4
G2 X24.13 Y-29.365 R0.42
G1 X24.055 Y-29.331
G2 X24. Y-29.3 R0.42
G1 X23.87 Y-29.214
X23.748 Y-29.142
X23.722 Y-29.128
X23.643 Y-29.193
X23.639 Y-29.196
X23.561 Y-29.259
X23.569 Y-29.292
X23.613 Y-29.422
X23.67 Y-29.567
G2 X23.688 Y-29.628 R0.42
G1 X23.706 Y-29.708
G2 X23.715 Y-29.838 R0.42
G1 X23.708 Y-29.92
G2 X23.68 Y-30.037 R0.42
G1 X23.654 Y-30.103
G2 X23.598 Y-30.202 R0.42
G1 X23.555 Y-30.259
G2 X23.477 Y-30.338 R0.42
X23.228 Y-30.529 R38.361
X23.132 Y-30.584 R0.42
G1 X23.066 Y-30.611
G2 X22.956 Y-30.639 R0.42
G1 X22.885 Y-30.647
G2 X22.764 Y-30.644 R0.42
G1 X22.683 Y-30.629
G2 X22.561 Y-30.588 R0.42
G1 X22.488 Y-30.55
G2 X22.434 Y-30.516 R0.42
G1 X22.308 Y-30.423
X22.19 Y-30.344
X22.165 Y-30.33
X22.083 Y-30.39
X22.079 Y-30.393
X21.997 Y-30.452
X22.003 Y-30.486
X22.041 Y-30.618
X22.09 Y-30.766
G2 X22.105 Y-30.827 R0.42
G1 X22.119 Y-30.908
G2 X22.121 Y-31.038 R0.42
G1 X22.109 Y-31.119
G2 X22.075 Y-31.235 R0.42
G1 X22.045 Y-31.3
G2 X21.985 Y-31.395 R0.42
G1 X21.939 Y-31.45
G2 X21.857 Y-31.525 R0.42
X21.599 Y-31.703 R38.361
X21.499 Y-31.753 R0.42
G1 X21.431 Y-31.776
G2 X21.322 Y-31.798 R0.42
G1 X21.25 Y-31.803
G2 X21.129 Y-31.793 R0.42
G1 X21.048 Y-31.774
G2 X20.929 Y-31.727 R0.42
G1 X20.858 Y-31.685
G2 X20.806 Y-31.648 R0.42
G1 X20.685 Y-31.549
X20.572 Y-31.464
X20.547 Y-31.448
X20.462 Y-31.505
X20.458 Y-31.507
X20.373 Y-31.561
X20.378 Y-31.595
X20.408 Y-31.729
X20.449 Y-31.88
G2 X20.462 Y-31.942 R0.42
G1 X20.471 Y-32.023
G2 X20.466 Y-32.153 R0.42
G1 X20.45 Y-32.234
G2 X20.41 Y-32.348 R0.42
G1 X20.377 Y-32.412
G2 X20.312 Y-32.503 R0.42
G1 X20.263 Y-32.555
G2 X20.177 Y-32.626 R0.42
X19.91 Y-32.79 R38.361
X19.808 Y-32.834 R0.42
G1 X19.739 Y-32.854
G2 X19.628 Y-32.871 R0.42
G1 X19.556
G2 X19.436 Y-32.855 R0.42
G1 X19.357 Y-32.833
G2 X19.239 Y-32.778 R0.42
G1 X19.171 Y-32.733
G2 X19.121 Y-32.694 R0.42
G1 X19.006 Y-32.589
X18.897 Y-32.498
X18.873 Y-32.481
X18.785 Y-32.532
X18.781 Y-32.535
X18.693 Y-32.584
X18.696 Y-32.618
X18.72 Y-32.754
X18.753 Y-32.906
G2 X18.762 Y-32.969 R0.42
G1 X18.767 Y-33.051
G2 X18.755 Y-33.18 R0.42
G1 X18.736 Y-33.259
G2 X18.689 Y-33.372 R0.42
G1 X18.653 Y-33.434
G2 X18.583 Y-33.522 R0.42
G1 X18.531 Y-33.572
G2 X18.442 Y-33.637 R0.42
X18.166 Y-33.787 R38.361
X18.062 Y-33.826 R0.42
G1 X17.992 Y-33.842
G2 X17.881 Y-33.853 R0.42
G1 X17.809 Y-33.85
G2 X17.69 Y-33.827 R0.42
G1 X17.612 Y-33.801
G2 X17.498 Y-33.74 R0.42
G1 X17.432 Y-33.691
G2 X17.384 Y-33.65 R0.42
G1 X17.274 Y-33.539
X17.17 Y-33.442
X17.148 Y-33.424
X17.057 Y-33.471
X17.052 Y-33.473
X16.962 Y-33.518
X16.963 Y-33.552
X16.98 Y-33.689
X17.005 Y-33.843
G2 X17.011 Y-33.906 R0.42
G1 X17.012 Y-33.988
G2 X16.993 Y-34.116 R0.42
G1 X16.969 Y-34.195
G2 X16.917 Y-34.304 R0.42
G1 X16.878 Y-34.364
G2 X16.803 Y-34.448 R0.42
G1 X16.749 Y-34.495
G2 X16.656 Y-34.556 R0.42
X16.373 Y-34.691 R38.361
X16.267 Y-34.725 R0.42
G1 X16.197 Y-34.738
G2 X16.084 Y-34.742 R0.42
G1 X16.013 Y-34.735
G2 X15.896 Y-34.707 R0.42
G1 X15.819 Y-34.676
G2 X15.708 Y-34.61 R0.42
G1 X15.644 Y-34.557
G2 X15.599 Y-34.513 R0.42
G1 X15.495 Y-34.397
X15.396 Y-34.295
X15.375 Y-34.276
X15.282 Y-34.318
X15.277 Y-34.32
X15.185 Y-34.36
X15.184 Y-34.394
X15.193 Y-34.531
X15.211 Y-34.686
G2 X15.213 Y-34.75 R0.42
G1 X15.209 Y-34.832
G2 X15.184 Y-34.959 R0.42
G1 X15.156 Y-35.036
G2 X15.099 Y-35.143 R0.42
G1 X15.056 Y-35.2
G2 X14.977 Y-35.281 R0.42
G1 X14.921 Y-35.325
G2 X14.825 Y-35.381 R0.42
X14.535 Y-35.501 R38.361
X14.428 Y-35.529 R0.42
G1 X14.357 Y-35.538
G2 X14.244 Y-35.536 R0.42
G1 X14.173 Y-35.526
G2 X14.057 Y-35.491 R0.42
G1 X13.983 Y-35.457
G2 X13.875 Y-35.384 R0.42
G1 X13.814 Y-35.329
G2 X13.771 Y-35.282 R0.42
G1 X13.674 Y-35.161
X13.58 Y-35.054
X13.56 Y-35.033
X13.465 Y-35.07
X13.46 Y-35.072
X13.366 Y-35.108
X13.363 Y-35.142
X13.365 Y-35.279
X13.374 Y-35.435
G2 X13.373 Y-35.498 R0.42
G1 X13.366 Y-35.58
G2 X13.334 Y-35.705 R0.42
G1 X13.302 Y-35.781
G2 X13.239 Y-35.884 R0.42
G1 X13.193 Y-35.94
G2 X13.11 Y-36.016 R0.42
G1 X13.051 Y-36.057
G2 X12.953 Y-36.108 R0.42
X12.657 Y-36.213 R38.361
X12.548 Y-36.235 R0.42
G1 X12.477 Y-36.24
G2 X12.365 Y-36.233 R0.42
G1 X12.294 Y-36.219
G2 X12.181 Y-36.178 R0.42
G1 X12.108 Y-36.14
G2 X12.004 Y-36.062 R0.42
G1 X11.947 Y-36.003
G2 X11.906 Y-35.955 R0.42
G1 X11.815 Y-35.828
X11.727 Y-35.717
X11.708 Y-35.695
X11.611 Y-35.727
X11.606 Y-35.729
X11.51 Y-35.759
X11.506 Y-35.793
X11.501 Y-35.93
X11.502 Y-36.086
G2 X11.497 Y-36.149 R0.42
G1 X11.485 Y-36.231
G2 X11.447 Y-36.354 R0.42
G1 X11.411 Y-36.428
G2 X11.343 Y-36.528 R0.42
G1 X11.294 Y-36.581
G2 X11.207 Y-36.653 R0.42
G1 X11.146 Y-36.691
G2 X11.045 Y-36.736 R0.42
X10.745 Y-36.826 R38.361
X10.635 Y-36.842 R0.42
G1 X10.563 Y-36.844
G2 X10.452 Y-36.831 R0.42
G1 X10.382 Y-36.813
G2 X10.27 Y-36.766 R0.42
G1 X10.199 Y-36.724
G2 X10.1 Y-36.641 R0.42
G1 X10.046 Y-36.579
G2 X10.008 Y-36.528 R0.42
G1 X9.924 Y-36.397
X9.842 Y-36.281
X9.824 Y-36.259
X9.725 Y-36.286
X9.72 Y-36.287
X9.623 Y-36.312
X9.617 Y-36.346
X9.604 Y-36.483
X9.597 Y-36.639
G2 X9.59 Y-36.701 R0.42
G1 X9.573 Y-36.782
G2 X9.529 Y-36.904 R0.42
G1 X9.489 Y-36.976
G2 X9.415 Y-37.072 R0.42
G1 X9.364 Y-37.122
G2 X9.274 Y-37.189 R0.42
G1 X9.212 Y-37.224
G2 X9.107 Y-37.264 R0.42
X8.803 Y-37.337 R38.361
X8.692 Y-37.348 R0.42
G1 X8.621 Y-37.346
G2 X8.51 Y-37.327 R0.42
G1 X8.441 Y-37.306
G2 X8.332 Y-37.253 R0.42
G1 X8.264 Y-37.207
G2 X8.169 Y-37.119 R0.42
G1 X8.118 Y-37.055
G2 X8.082 Y-37.002 R0.42
G1 X8.005 Y-36.867
X7.93 Y-36.747
X7.913 Y-36.723
X7.813 Y-36.745
X7.808 Y-36.746
X7.709 Y-36.766
X7.701 Y-36.799
X7.682 Y-36.935
X7.667 Y-37.091
G2 X7.656 Y-37.153 R0.42
G1 X7.635 Y-37.233
G2 X7.584 Y-37.352 R0.42
G1 X7.54 Y-37.422
G2 X7.462 Y-37.514 R0.42
G1 X7.409 Y-37.561
G2 X7.315 Y-37.624 R0.42
G1 X7.25 Y-37.655
G2 X7.145 Y-37.69 R0.42
X6.837 Y-37.747 R38.361
X6.725 Y-37.752 R0.42
G1 X6.654 Y-37.746
G2 X6.544 Y-37.721 R0.42
G1 X6.477 Y-37.696
G2 X6.371 Y-37.638 R0.42
G1 X6.305 Y-37.589
G2 X6.215 Y-37.496 R0.42
G1 X6.167 Y-37.429
G2 X6.135 Y-37.375 R0.42
G1 X6.065 Y-37.235
X5.996 Y-37.111
X5.98 Y-37.087
X5.879 Y-37.103
X5.874 Y-37.104
X5.775 Y-37.119
X5.765 Y-37.152
X5.738 Y-37.287
X5.715 Y-37.441
G2 X5.701 Y-37.503 R0.42
G1 X5.676 Y-37.581
G2 X5.619 Y-37.697 R0.42
G1 X5.572 Y-37.765
G2 X5.488 Y-37.853 R0.42
G1 X5.432 Y-37.898
G2 X5.336 Y-37.955 R0.42
G1 X5.27 Y-37.983
G2 X5.163 Y-38.012 R0.42
X4.852 Y-38.053 R38.361
X4.74 Y-38.052 R0.42
G1 X4.67 Y-38.042
G2 X4.561 Y-38.012 R0.42
G1 X4.496 Y-37.984
G2 X4.392 Y-37.92 R0.42
G1 X4.329 Y-37.867
G2 X4.244 Y-37.77 R0.42
G1 X4.2 Y-37.7
G2 X4.17 Y-37.644 R0.42
G1 X4.108 Y-37.501
X4.045 Y-37.374
X4.031 Y-37.349
X3.929 Y-37.36
X3.924 Y-37.361
X3.824 Y-37.371
X3.813 Y-37.403
X3.779 Y-37.536
X3.748 Y-37.689
G2 X3.73 Y-37.75 R0.42
G1 X3.702 Y-37.827
G2 X3.638 Y-37.94 R0.42
G1 X3.587 Y-38.005
G2 X3.5 Y-38.088 R0.42
G1 X3.442 Y-38.13
G2 X3.342 Y-38.182 R0.42
G1 X3.275 Y-38.206
G2 X3.166 Y-38.23 R0.42
X2.854 Y-38.255 R38.361
X2.742 Y-38.248 R0.42
G1 X2.672 Y-38.235
G2 X2.565 Y-38.199 R0.42
G1 X2.501 Y-38.167
G2 X2.402 Y-38.098 R0.42
G1 X2.342 Y-38.042
G2 X2.261 Y-37.94 R0.42
G1 X2.221 Y-37.868
G2 X2.194 Y-37.811 R0.42
G1 X2.139 Y-37.665
X2.084 Y-37.535
X2.07 Y-37.509
X1.968 Y-37.515
X1.963
X1.863 Y-37.52
X1.85 Y-37.551
X1.809 Y-37.682
X1.77 Y-37.833
G2 X1.749 Y-37.893 R0.42
G1 X1.717 Y-37.969
G2 X1.648 Y-38.078 R0.42
G1 X1.594 Y-38.14
G2 X1.501 Y-38.22 R0.42
G1 X1.441 Y-38.258
G2 X1.339 Y-38.304 R0.42
G1 X1.271 Y-38.325
G2 X1.161 Y-38.344 R0.42
X0.847 Y-38.352 R38.361
X0.737 Y-38.339 R0.42
G1 X0.668 Y-38.322
G2 X0.563 Y-38.281 R0.42
G1 X0.5 Y-38.245
G2 X0.405 Y-38.172 R0.42
G1 X0.347 Y-38.113
G2 X0.273 Y-38.007 R0.42
G1 X0.236 Y-37.933
G2 X0.213 Y-37.874 R0.42
G1 X0.165 Y-37.725
X0.116 Y-37.592
X0.104 Y-37.566
X0.002
X-0.003
X-0.103
X-0.118 Y-37.597
X-0.165 Y-37.725
X-0.213 Y-37.874
G2 X-0.236 Y-37.933 R0.42
G1 X-0.273 Y-38.007
G2 X-0.347 Y-38.113 R0.42
G1 X-0.405 Y-38.172
G2 X-0.5 Y-38.245 R0.42
G1 X-0.563 Y-38.281
G2 X-0.668 Y-38.322 R0.42
G1 X-0.737 Y-38.339
G2 X-0.847 Y-38.352 R0.42
X-1.161 Y-38.344 R38.361
X-1.271 Y-38.325 R0.42
G1 X-1.339 Y-38.304
G2 X-1.441 Y-38.258 R0.42
G1 X-1.501 Y-38.22
G2 X-1.594 Y-38.14 R0.42
G1 X-1.648 Y-38.078
G2 X-1.717 Y-37.969 R0.42
G1 X-1.749 Y-37.893
G2 X-1.77 Y-37.833 R0.42
G1 X-1.809 Y-37.682
X-1.851 Y-37.547
X-1.862 Y-37.52
X-1.964 Y-37.515
X-1.969
X-2.069 Y-37.509
X-2.085 Y-37.539
X-2.139 Y-37.665
X-2.194 Y-37.811
G2 X-2.221 Y-37.868 R0.42
G1 X-2.261 Y-37.94
G2 X-2.342 Y-38.042 R0.42
G1 X-2.402 Y-38.098
G2 X-2.501 Y-38.167 R0.42
G1 X-2.565 Y-38.199
G2 X-2.672 Y-38.235 R0.42
G1 X-2.742 Y-38.248
G2 X-2.854 Y-38.255 R0.42
X-3.166 Y-38.23 R38.361
X-3.275 Y-38.206 R0.42
G1 X-3.342 Y-38.182
G2 X-3.442 Y-38.13 R0.42
G1 X-3.5 Y-38.088
G2 X-3.587 Y-38.005 R0.42
G1 X-3.638 Y-37.94
G2 X-3.702 Y-37.827 R0.42
G1 X-3.73 Y-37.75
G2 X-3.748 Y-37.689 R0.42
G1 X-3.779 Y-37.536
X-3.814 Y-37.399
X-3.823 Y-37.371
X-3.924 Y-37.361
X-3.93 Y-37.36
X-4.029 Y-37.349
X-4.047 Y-37.378
X-4.108 Y-37.501
X-4.17 Y-37.644
G2 X-4.2 Y-37.7 R0.42
G1 X-4.244 Y-37.77
G2 X-4.329 Y-37.867 R0.42
G1 X-4.392 Y-37.92
G2 X-4.496 Y-37.984 R0.42
G1 X-4.561 Y-38.012
G2 X-4.67 Y-38.042 R0.42
G1 X-4.74 Y-38.052
G2 X-4.852 Y-38.053 R0.42
X-5.163 Y-38.012 R38.361
X-5.27 Y-37.983 R0.42
G1 X-5.336 Y-37.955
G2 X-5.432 Y-37.898 R0.42
G1 X-5.488 Y-37.853
G2 X-5.572 Y-37.765 R0.42
G1 X-5.619 Y-37.697
G2 X-5.676 Y-37.581 R0.42
G1 X-5.701 Y-37.503
G2 X-5.715 Y-37.441 R0.42
G1 X-5.738 Y-37.287
X-5.766 Y-37.148
X-5.773 Y-37.12
X-5.874 Y-37.104
X-5.88 Y-37.103
X-5.979 Y-37.087
X-5.998 Y-37.115
X-6.065 Y-37.235
X-6.135 Y-37.375
G2 X-6.167 Y-37.429 R0.42
G1 X-6.215 Y-37.496
G2 X-6.305 Y-37.589 R0.42
G1 X-6.371 Y-37.638
G2 X-6.477 Y-37.696 R0.42
G1 X-6.544 Y-37.721
G2 X-6.654 Y-37.746 R0.42
G1 X-6.725 Y-37.752
G2 X-6.837 Y-37.747 R0.42
X-7.145 Y-37.69 R38.361
X-7.25 Y-37.655 R0.42
G1 X-7.315 Y-37.624
G2 X-7.409 Y-37.561 R0.42
G1 X-7.462 Y-37.514
G2 X-7.54 Y-37.422 R0.42
G1 X-7.584 Y-37.352
G2 X-7.635 Y-37.233 R0.42
G1 X-7.656 Y-37.153
G2 X-7.667 Y-37.091 R0.42
G1 X-7.682 Y-36.935
X-7.702 Y-36.795
X-7.708 Y-36.767
X-7.808 Y-36.746
X-7.813 Y-36.745
X-7.911 Y-36.723
X-7.932 Y-36.751
X-8.005 Y-36.867
X-8.082 Y-37.002
G2 X-8.118 Y-37.055 R0.42
G1 X-8.169 Y-37.119
G2 X-8.264 Y-37.207 R0.42
G1 X-8.332 Y-37.253
G2 X-8.441 Y-37.306 R0.42
G1 X-8.51 Y-37.327
G2 X-8.621 Y-37.346 R0.42
G1 X-8.692 Y-37.348
G2 X-8.803 Y-37.337 R0.42
X-9.107 Y-37.264 R38.361
X-9.212 Y-37.224 R0.42
G1 X-9.274 Y-37.189
G2 X-9.364 Y-37.122 R0.42
G1 X-9.415 Y-37.072
G2 X-9.489 Y-36.976 R0.42
G1 X-9.529 Y-36.904
G2 X-9.573 Y-36.782 R0.42
G1 X-9.59 Y-36.701
G2 X-9.597 Y-36.639 R0.42
G1 X-9.604 Y-36.483
X-9.617 Y-36.342
X-9.622 Y-36.313
X-9.721 Y-36.287
X-9.726 Y-36.286
X-9.822 Y-36.259
X-9.845 Y-36.285
X-9.924 Y-36.397
X-10.008 Y-36.528
G2 X-10.046 Y-36.579 R0.42
G1 X-10.1 Y-36.641
G2 X-10.199 Y-36.724 R0.42
G1 X-10.27 Y-36.766
G2 X-10.382 Y-36.813 R0.42
G1 X-10.452 Y-36.831
G2 X-10.563 Y-36.844 R0.42
G1 X-10.635 Y-36.842
G2 X-10.745 Y-36.826 R0.42
X-11.045 Y-36.736 R38.361
X-11.146 Y-36.691 R0.42
G1 X-11.207 Y-36.653
G2 X-11.294 Y-36.581 R0.42
G1 X-11.343 Y-36.528
G2 X-11.411 Y-36.428 R0.42
G1 X-11.447 Y-36.354
G2 X-11.485 Y-36.231 R0.42
G1 X-11.497 Y-36.149
G2 X-11.502 Y-36.086 R0.42
G1 X-11.501 Y-35.93
X-11.506 Y-35.788
X-11.509 Y-35.759
X-11.606 Y-35.728
X-11.611 Y-35.727
X-11.707 Y-35.695
X-11.73 Y-35.72
X-11.815 Y-35.828
X-11.906 Y-35.955
G2 X-11.947 Y-36.003 R0.42
G1 X-12.004 Y-36.062
G2 X-12.108 Y-36.14 R0.42
G1 X-12.181 Y-36.178
G2 X-12.294 Y-36.219 R0.42
G1 X-12.365 Y-36.233
G2 X-12.477 Y-36.24 R0.42
G1 X-12.548 Y-36.235
G2 X-12.657 Y-36.213 R0.42
X-12.953 Y-36.108 R38.361
X-13.051 Y-36.057 R0.42
G1 X-13.11 Y-36.016
G2 X-13.193 Y-35.94 R0.42
G1 X-13.239 Y-35.884
G2 X-13.302 Y-35.781 R0.42
G1 X-13.334 Y-35.705
G2 X-13.366 Y-35.58 R0.42
G1 X-13.373 Y-35.498
G2 X-13.374 Y-35.435 R0.42
G1 X-13.365 Y-35.279
X-13.363 Y-35.137
X-13.365 Y-35.108
X-13.46 Y-35.072
X-13.465 Y-35.07
X-13.559 Y-35.034
X-13.583 Y-35.057
X-13.674 Y-35.161
X-13.771 Y-35.282
G2 X-13.814 Y-35.329 R0.42
G1 X-13.875 Y-35.384
G2 X-13.983 Y-35.457 R0.42
G1 X-14.057 Y-35.491
G2 X-14.173 Y-35.526 R0.42
G1 X-14.244 Y-35.536
G2 X-14.357 Y-35.538 R0.42
G1 X-14.428 Y-35.529
G2 X-14.535 Y-35.501 R0.42
X-14.825 Y-35.381 R38.361
X-14.921 Y-35.325 R0.42
G1 X-14.977 Y-35.281
G2 X-15.056 Y-35.2 R0.42
G1 X-15.099 Y-35.143
G2 X-15.156 Y-35.036 R0.42
G1 X-15.184 Y-34.959
G2 X-15.209 Y-34.832 R0.42
G1 X-15.213 Y-34.75
G2 X-15.211 Y-34.686 R0.42
G1 X-15.193 Y-34.531
X-15.184 Y-34.39
Y-34.361
X-15.277 Y-34.32
X-15.282 Y-34.317
X-15.374 Y-34.276
X-15.4 Y-34.298
X-15.495 Y-34.397
X-15.599 Y-34.513
G2 X-15.644 Y-34.557 R0.42
G1 X-15.708 Y-34.61
G2 X-15.819 Y-34.676 R0.42
G1 X-15.896 Y-34.707
G2 X-16.013 Y-34.735 R0.42
G1 X-16.084 Y-34.742
G2 X-16.197 Y-34.738 R0.42
G1 X-16.267 Y-34.725
G2 X-16.373 Y-34.691 R0.42
X-16.656 Y-34.556 R38.361
X-16.749 Y-34.495 R0.42
G1 X-16.803 Y-34.448
G2 X-16.878 Y-34.364 R0.42
G1 X-16.917 Y-34.304
G2 X-16.969 Y-34.195 R0.42
G1 X-16.993 Y-34.116
G2 X-17.012 Y-33.988 R0.42
G1 X-17.011 Y-33.906
G2 X-17.005 Y-33.843 R0.42
G1 X-16.98 Y-33.689
X-16.963 Y-33.548
X-16.961 Y-33.519
X-17.053 Y-33.473
X-17.057 Y-33.47
X-17.146 Y-33.424
X-17.174 Y-33.445
X-17.274 Y-33.539
X-17.384 Y-33.65
G2 X-17.432 Y-33.691 R0.42
G1 X-17.498 Y-33.74
G2 X-17.612 Y-33.801 R0.42
G1 X-17.69 Y-33.827
G2 X-17.809 Y-33.85 R0.42
G1 X-17.881 Y-33.853
G2 X-17.992 Y-33.842 R0.42
G1 X-18.062 Y-33.826
G2 X-18.166 Y-33.787 R0.42
X-18.442 Y-33.637 R38.361
X-18.531 Y-33.572 R0.42
G1 X-18.583 Y-33.522
G2 X-18.653 Y-33.434 R0.42
G1 X-18.689 Y-33.372
G2 X-18.736 Y-33.259 R0.42
G1 X-18.755 Y-33.18
G2 X-18.767 Y-33.051 R0.42
G1 X-18.762 Y-32.969
G2 X-18.753 Y-32.906 R0.42
G1 X-18.72 Y-32.754
X-18.695 Y-32.614
X-18.692 Y-32.585
X-18.781 Y-32.535
X-18.786 Y-32.532
X-18.872 Y-32.481
X-18.9 Y-32.501
X-19.006 Y-32.589
X-19.121 Y-32.694
G2 X-19.171 Y-32.733 R0.42
G1 X-19.239 Y-32.778
G2 X-19.357 Y-32.833 R0.42
G1 X-19.436 Y-32.855
G2 X-19.556 Y-32.871 R0.42
G1 X-19.628
G2 X-19.739 Y-32.854 R0.42
G1 X-19.808 Y-32.834
G2 X-19.91 Y-32.79 R0.42
X-20.177 Y-32.626 R38.361
X-20.263 Y-32.555 R0.42
G1 X-20.312 Y-32.503
G2 X-20.377 Y-32.412 R0.42
G1 X-20.41 Y-32.348
G2 X-20.45 Y-32.234 R0.42
G1 X-20.466 Y-32.153
G2 X-20.471 Y-32.023 R0.42
G1 X-20.462 Y-31.942
G2 X-20.449 Y-31.88 R0.42
G1 X-20.408 Y-31.729
X-20.377 Y-31.591
X-20.372 Y-31.562
X-20.458 Y-31.507
X-20.462 Y-31.504
X-20.546 Y-31.449
X-20.575 Y-31.467
X-20.685 Y-31.549
X-20.806 Y-31.648
G2 X-20.858 Y-31.685 R0.42
G1 X-20.929 Y-31.727
G2 X-21.048 Y-31.774 R0.42
G1 X-21.129 Y-31.793
G2 X-21.25 Y-31.803 R0.42
G1 X-21.322 Y-31.798
G2 X-21.431 Y-31.776 R0.42
G1 X-21.499 Y-31.753
G2 X-21.599 Y-31.703 R0.42
X-21.857 Y-31.525 R38.361
X-21.939 Y-31.45 R0.42
G1 X-21.985 Y-31.395
G2 X-22.045 Y-31.3 R0.42
G1 X-22.075 Y-31.235
G2 X-22.109 Y-31.119 R0.42
G1 X-22.121 Y-31.038
G2 X-22.119 Y-30.908 R0.42
G1 X-22.105 Y-30.827
G2 X-22.09 Y-30.766 R0.42
G1 X-22.041 Y-30.618
X-22.002 Y-30.481
X-21.996 Y-30.453
X-22.079 Y-30.393
X-22.083 Y-30.39
X-22.164 Y-30.331
X-22.194 Y-30.347
X-22.308 Y-30.423
X-22.434 Y-30.516
G2 X-22.488 Y-30.55 R0.42
G1 X-22.561 Y-30.588
G2 X-22.683 Y-30.629 R0.42
G1 X-22.764 Y-30.644
G2 X-22.885 Y-30.647 R0.42
G1 X-22.956 Y-30.639
G2 X-23.066 Y-30.611 R0.42
G1 X-23.132 Y-30.584
G2 X-23.228 Y-30.529 R0.42
X-23.477 Y-30.338 R38.361
X-23.555 Y-30.259 R0.42
G1 X-23.598 Y-30.202
G2 X-23.654 Y-30.103 R0.42
G1 X-23.68 Y-30.037
G2 X-23.708 Y-29.92 R0.42
G1 X-23.715 Y-29.838
G2 X-23.706 Y-29.708 R0.42
G1 X-23.688 Y-29.628
G2 X-23.67 Y-29.567 R0.42
G1 X-23.613 Y-29.422
X-23.567 Y-29.288
X-23.56 Y-29.26
X-23.64 Y-29.196
X-23.643 Y-29.193
X-23.721 Y-29.129
X-23.752 Y-29.144
X-23.87 Y-29.214
X-24. Y-29.3
G2 X-24.055 Y-29.331 R0.42
G1 X-24.13 Y-29.365
G2 X-24.255 Y-29.4 R0.42
G1 X-24.337 Y-29.41
G2 X-24.458 Y-29.407 R0.42
G1 X-24.528 Y-29.395
G2 X-24.635 Y-29.362 R0.42
G1 X-24.7 Y-29.332
G2 X-24.794 Y-29.272 R0.42
X-25.033 Y-29.068 R38.361
X-25.106 Y-28.985 R0.42
G1 X-25.146 Y-28.926
G2 X-25.197 Y-28.824 R0.42
G1 X-25.219 Y-28.757
G2 X-25.241 Y-28.638 R0.42
G1 X-25.244 Y-28.556
G2 X-25.229 Y-28.427 R0.42
G1 X-25.207 Y-28.348
G2 X-25.185 Y-28.288 R0.42
G1 X-25.12 Y-28.146
X-25.068 Y-28.014
X-25.059 Y-27.987
X-25.135 Y-27.919
X-25.139 Y-27.915
X-25.213 Y-27.848
X-25.245 Y-27.861
X-25.366 Y-27.925
X-25.501 Y-28.004
G2 X-25.558 Y-28.031 R0.42
G1 X-25.634 Y-28.062
G2 X-25.76 Y-28.091 R0.42
G1 X-25.842 Y-28.096
G2 X-25.963 Y-28.087 R0.42
G1 X-26.033 Y-28.071
G2 X-26.139 Y-28.032 R0.42
G1 X-26.202 Y-27.999
G2 X-26.292 Y-27.934 R0.42
X-26.52 Y-27.718 R38.361
X-26.589 Y-27.631 R0.42
G1 X-26.626 Y-27.57
G2 X-26.67 Y-27.467 R0.42
G1 X-26.69 Y-27.398
G2 X-26.705 Y-27.278 R0.42
G1 X-26.704 Y-27.195
G2 X-26.682 Y-27.067 R0.42
G1 X-26.655 Y-26.989
G2 X-26.631 Y-26.932 R0.42
G1 X-26.559 Y-26.793
X-26.499 Y-26.664
X-26.489 Y-26.637
X-26.562 Y-26.565
X-26.565 Y-26.561
X-26.636 Y-26.49
X-26.668 Y-26.501
X-26.793 Y-26.559
X-26.932 Y-26.631
G2 X-26.989 Y-26.655 R0.42
G1 X-27.067 Y-26.682
G2 X-27.195 Y-26.704 R0.42
G1 X-27.278 Y-26.705
G2 X-27.398 Y-26.69 R0.42
G1 X-27.467 Y-26.67
G2 X-27.57 Y-26.626 R0.42
G1 X-27.631 Y-26.589
G2 X-27.718 Y-26.52 R0.42
X-27.934 Y-26.292 R38.361
X-27.999 Y-26.202 R0.42
G1 X-28.032 Y-26.139
G2 X-28.071 Y-26.033 R0.42
G1 X-28.087 Y-25.963
G2 X-28.096 Y-25.842 R0.42
G1 X-28.091 Y-25.76
G2 X-28.062 Y-25.634 R0.42
G1 X-28.031 Y-25.558
G2 X-28.004 Y-25.501 R0.42
G1 X-27.925 Y-25.366
X-27.859 Y-25.241
X-27.847 Y-25.214
X-27.916 Y-25.138
X-27.919 Y-25.135
X-27.986 Y-25.06
X-28.019 Y-25.069
X-28.146 Y-25.12
X-28.288 Y-25.185
G2 X-28.348 Y-25.207 R0.42
G1 X-28.427 Y-25.229
G2 X-28.556 Y-25.244 R0.42
G1 X-28.638 Y-25.241
G2 X-28.757 Y-25.219 R0.42
G1 X-28.824 Y-25.197
G2 X-28.926 Y-25.146 R0.42
G1 X-28.985 Y-25.106
G2 X-29.068 Y-25.033 R0.42
X-29.272 Y-24.794 R38.361
X-29.332 Y-24.7 R0.42
G1 X-29.362 Y-24.635
G2 X-29.395 Y-24.528 R0.42
G1 X-29.407 Y-24.458
G2 X-29.41 Y-24.337 R0.42
G1 X-29.4 Y-24.255
G2 X-29.365 Y-24.13 R0.42
G1 X-29.331 Y-24.055
G2 X-29.3 Y-24. R0.42
G1 X-29.214 Y-23.87
X-29.142 Y-23.748
X-29.128 Y-23.722
X-29.193 Y-23.643
X-29.196 Y-23.639
X-29.259 Y-23.561
X-29.292 Y-23.569
X-29.422 Y-23.613
X-29.567 Y-23.67
G2 X-29.628 Y-23.688 R0.42
G1 X-29.708 Y-23.706
G2 X-29.838 Y-23.715 R0.42
G1 X-29.92 Y-23.708
G2 X-30.037 Y-23.68 R0.42
G1 X-30.103 Y-23.654
G2 X-30.202 Y-23.598 R0.42
G1 X-30.259 Y-23.555
G2 X-30.338 Y-23.477 R0.42
X-30.529 Y-23.228 R38.361
X-30.584 Y-23.132 R0.42
G1 X-30.611 Y-23.066
G2 X-30.639 Y-22.956 R0.42
G1 X-30.647 Y-22.885
G2 X-30.644 Y-22.764 R0.42
G1 X-30.629 Y-22.683
G2 X-30.588 Y-22.561 R0.42
G1 X-30.55 Y-22.488
G2 X-30.516 Y-22.434 R0.42
G1 X-30.423 Y-22.308
X-30.344 Y-22.19
X-30.33 Y-22.165
X-30.39 Y-22.083
X-30.393 Y-22.079
X-30.452 Y-21.997
X-30.486 Y-22.003
X-30.618 Y-22.041
X-30.766 Y-22.09
G2 X-30.827 Y-22.105 R0.42
G1 X-30.908 Y-22.119
G2 X-31.038 Y-22.121 R0.42
G1 X-31.119 Y-22.109
G2 X-31.235 Y-22.075 R0.42
G1 X-31.3 Y-22.045
G2 X-31.395 Y-21.985 R0.42
G1 X-31.45 Y-21.939
G2 X-31.525 Y-21.857 R0.42
X-31.703 Y-21.599 R38.361
X-31.753 Y-21.499 R0.42
G1 X-31.776 Y-21.431
G2 X-31.798 Y-21.322 R0.42
G1 X-31.803 Y-21.25
G2 X-31.793 Y-21.129 R0.42
G1 X-31.774 Y-21.048
G2 X-31.727 Y-20.929 R0.42
G1 X-31.685 Y-20.858
G2 X-31.648 Y-20.806 R0.42
G1 X-31.549 Y-20.685
X-31.464 Y-20.572
X-31.448 Y-20.547
X-31.505 Y-20.462
X-31.507 Y-20.458
X-31.561 Y-20.373
X-31.595 Y-20.378
X-31.729 Y-20.408
X-31.88 Y-20.449
G2 X-31.942 Y-20.462 R0.42
G1 X-32.023 Y-20.471
G2 X-32.153 Y-20.466 R0.42
G1 X-32.234 Y-20.45
G2 X-32.348 Y-20.41 R0.42
G1 X-32.412 Y-20.377
G2 X-32.503 Y-20.312 R0.42
G1 X-32.555 Y-20.263
G2 X-32.626 Y-20.177 R0.42
X-32.79 Y-19.91 R38.361
X-32.834 Y-19.808 R0.42
G1 X-32.854 Y-19.739
G2 X-32.871 Y-19.628 R0.42
G1 Y-19.556
G2 X-32.855 Y-19.436 R0.42
G1 X-32.833 Y-19.357
G2 X-32.778 Y-19.239 R0.42
G1 X-32.733 Y-19.171
G2 X-32.694 Y-19.121 R0.42
G1 X-32.589 Y-19.006
X-32.498 Y-18.897
X-32.481 Y-18.873
X-32.532 Y-18.785
X-32.535 Y-18.781
X-32.584 Y-18.693
X-32.618 Y-18.696
X-32.754 Y-18.72
X-32.906 Y-18.753
G2 X-32.969 Y-18.762 R0.42
G1 X-33.051 Y-18.767
G2 X-33.18 Y-18.755 R0.42
G1 X-33.259 Y-18.736
G2 X-33.372 Y-18.689 R0.42
G1 X-33.434 Y-18.653
G2 X-33.522 Y-18.583 R0.42
G1 X-33.572 Y-18.531
G2 X-33.637 Y-18.442 R0.42
X-33.787 Y-18.166 R38.361
X-33.826 Y-18.062 R0.42
G1 X-33.842 Y-17.992
G2 X-33.853 Y-17.881 R0.42
G1 X-33.85 Y-17.809
G2 X-33.827 Y-17.69 R0.42
G1 X-33.801 Y-17.612
G2 X-33.74 Y-17.498 R0.42
G1 X-33.691 Y-17.432
G2 X-33.65 Y-17.384 R0.42
G1 X-33.539 Y-17.274
X-33.442 Y-17.17
X-33.424 Y-17.148
X-33.471 Y-17.057
X-33.473 Y-17.052
X-33.518 Y-16.962
X-33.552 Y-16.963
X-33.689 Y-16.98
X-33.843 Y-17.005
G2 X-33.906 Y-17.011 R0.42
G1 X-33.988 Y-17.012
G2 X-34.116 Y-16.993 R0.42
G1 X-34.195 Y-16.969
G2 X-34.304 Y-16.917 R0.42
G1 X-34.364 Y-16.878
G2 X-34.448 Y-16.803 R0.42
G1 X-34.495 Y-16.749
G2 X-34.556 Y-16.656 R0.42
X-34.691 Y-16.373 R38.361
X-34.725 Y-16.267 R0.42
G1 X-34.738 Y-16.197
G2 X-34.742 Y-16.084 R0.42
G1 X-34.735 Y-16.013
G2 X-34.707 Y-15.896 R0.42
G1 X-34.676 Y-15.819
G2 X-34.61 Y-15.708 R0.42
G1 X-34.557 Y-15.644
G2 X-34.513 Y-15.599 R0.42
G1 X-34.397 Y-15.495
X-34.295 Y-15.396
X-34.276 Y-15.375
X-34.318 Y-15.282
X-34.32 Y-15.277
X-34.36 Y-15.185
X-34.394 Y-15.184
X-34.531 Y-15.193
X-34.686 Y-15.211
G2 X-34.75 Y-15.213 R0.42
G1 X-34.832 Y-15.209
G2 X-34.959 Y-15.184 R0.42
G1 X-35.036 Y-15.156
G2 X-35.143 Y-15.099 R0.42
G1 X-35.2 Y-15.056
G2 X-35.281 Y-14.977 R0.42
G1 X-35.325 Y-14.921
G2 X-35.381 Y-14.825 R0.42
X-35.501 Y-14.535 R38.361
X-35.529 Y-14.428 R0.42
G1 X-35.538 Y-14.357
G2 X-35.536 Y-14.244 R0.42
G1 X-35.526 Y-14.173
G2 X-35.491 Y-14.057 R0.42
G1 X-35.457 Y-13.983
G2 X-35.384 Y-13.875 R0.42
G1 X-35.329 Y-13.814
G2 X-35.282 Y-13.771 R0.42
G1 X-35.161 Y-13.674
X-35.054 Y-13.58
X-35.033 Y-13.56
X-35.07 Y-13.465
X-35.072 Y-13.46
X-35.108 Y-13.366
X-35.142 Y-13.363
X-35.279 Y-13.365
X-35.435 Y-13.374
G2 X-35.498 Y-13.373 R0.42
G1 X-35.58 Y-13.366
G2 X-35.705 Y-13.334 R0.42
G1 X-35.781 Y-13.302
G2 X-35.884 Y-13.239 R0.42
G1 X-35.94 Y-13.193
G2 X-36.016 Y-13.11 R0.42
G1 X-36.057 Y-13.051
G2 X-36.108 Y-12.953 R0.42
X-36.213 Y-12.657 R38.361
X-36.235 Y-12.548 R0.42
G1 X-36.24 Y-12.477
G2 X-36.233 Y-12.365 R0.42
G1 X-36.219 Y-12.294
G2 X-36.178 Y-12.181 R0.42
G1 X-36.14 Y-12.108
G2 X-36.062 Y-12.004 R0.42
G1 X-36.003 Y-11.947
G2 X-35.955 Y-11.906 R0.42
G1 X-35.828 Y-11.815
X-35.717 Y-11.727
X-35.695 Y-11.708
X-35.727 Y-11.611
X-35.729 Y-11.606
X-35.759 Y-11.51
X-35.793 Y-11.506
X-35.93 Y-11.501
X-36.086 Y-11.502
G2 X-36.149 Y-11.497 R0.42
G1 X-36.231 Y-11.485
G2 X-36.354 Y-11.447 R0.42
G1 X-36.428 Y-11.411
G2 X-36.528 Y-11.343 R0.42
G1 X-36.581 Y-11.294
G2 X-36.653 Y-11.207 R0.42
G1 X-36.691 Y-11.146
G2 X-36.736 Y-11.045 R0.42
X-36.826 Y-10.745 R38.361
X-36.842 Y-10.635 R0.42
G1 X-36.844 Y-10.563
G2 X-36.831 Y-10.452 R0.42
G1 X-36.813 Y-10.382
G2 X-36.766 Y-10.27 R0.42
G1 X-36.724 Y-10.199
G2 X-36.641 Y-10.1 R0.42
G1 X-36.579 Y-10.046
G2 X-36.528 Y-10.008 R0.42
G1 X-36.397 Y-9.924
X-36.281 Y-9.842
X-36.259 Y-9.824
X-36.286 Y-9.725
X-36.287 Y-9.72
X-36.312 Y-9.623
X-36.346 Y-9.617
X-36.483 Y-9.604
X-36.639 Y-9.597
G2 X-36.701 Y-9.59 R0.42
G1 X-36.782 Y-9.573
G2 X-36.904 Y-9.529 R0.42
G1 X-36.976 Y-9.489
G2 X-37.072 Y-9.415 R0.42
G1 X-37.122 Y-9.364
G2 X-37.189 Y-9.274 R0.42
G1 X-37.224 Y-9.212
G2 X-37.264 Y-9.107 R0.42
X-37.337 Y-8.803 R38.361
X-37.348 Y-8.692 R0.42
G1 X-37.346 Y-8.621
G2 X-37.327 Y-8.51 R0.42
G1 X-37.306 Y-8.441
G2 X-37.253 Y-8.332 R0.42
G1 X-37.207 Y-8.264
G2 X-37.119 Y-8.169 R0.42
G1 X-37.055 Y-8.118
G2 X-37.002 Y-8.082 R0.42
G1 X-36.867 Y-8.005
X-36.747 Y-7.93
X-36.723 Y-7.913
X-36.745 Y-7.813
X-36.746 Y-7.808
X-36.766 Y-7.709
X-36.799 Y-7.701
X-36.935 Y-7.682
X-37.091 Y-7.667
G2 X-37.153 Y-7.656 R0.42
G1 X-37.233 Y-7.635
G2 X-37.352 Y-7.584 R0.42
G1 X-37.422 Y-7.54
G2 X-37.514 Y-7.462 R0.42
G1 X-37.561 Y-7.409
G2 X-37.624 Y-7.315 R0.42
G1 X-37.655 Y-7.25
G2 X-37.69 Y-7.145 R0.42
X-37.747 Y-6.837 R38.361
X-37.752 Y-6.725 R0.42
G1 X-37.746 Y-6.654
G2 X-37.721 Y-6.544 R0.42
G1 X-37.696 Y-6.477
G2 X-37.638 Y-6.371 R0.42
G1 X-37.589 Y-6.305
G2 X-37.496 Y-6.215 R0.42
G1 X-37.429 Y-6.167
G2 X-37.375 Y-6.135 R0.42
G1 X-37.235 Y-6.065
X-37.111 Y-5.996
X-37.087 Y-5.98
X-37.103 Y-5.879
X-37.104 Y-5.874
X-37.119 Y-5.775
X-37.152 Y-5.765
X-37.287 Y-5.738
X-37.441 Y-5.715
G2 X-37.503 Y-5.701 R0.42
G1 X-37.581 Y-5.676
G2 X-37.697 Y-5.619 R0.42
G1 X-37.765 Y-5.572
G2 X-37.853 Y-5.488 R0.42
G1 X-37.898 Y-5.432
G2 X-37.955 Y-5.336 R0.42
G1 X-37.983 Y-5.27
G2 X-38.012 Y-5.163 R0.42
X-38.053 Y-4.852 R38.361
X-38.052 Y-4.74 R0.42
G1 X-38.042 Y-4.67
G2 X-38.012 Y-4.561 R0.42
G1 X-37.984 Y-4.496
G2 X-37.92 Y-4.392 R0.42
G1 X-37.867 Y-4.329
G2 X-37.77 Y-4.244 R0.42
G1 X-37.7 Y-4.2
G2 X-37.644 Y-4.17 R0.42
G1 X-37.501 Y-4.108
X-37.374 Y-4.045
X-37.349 Y-4.031
X-37.36 Y-3.929
X-37.361 Y-3.924
X-37.371 Y-3.824
X-37.403 Y-3.813
X-37.536 Y-3.779
X-37.689 Y-3.748
G2 X-37.75 Y-3.73 R0.42
G1 X-37.827 Y-3.702
G2 X-37.94 Y-3.638 R0.42
G1 X-38.005 Y-3.587
G2 X-38.088 Y-3.5 R0.42
G1 X-38.13 Y-3.442
G2 X-38.182 Y-3.342 R0.42
G1 X-38.206 Y-3.275
G2 X-38.23 Y-3.166 R0.42
X-38.255 Y-2.854 R38.361
X-38.248 Y-2.742 R0.42
G1 X-38.235 Y-2.672
G2 X-38.199 Y-2.565 R0.42
G1 X-38.167 Y-2.501
G2 X-38.098 Y-2.402 R0.42
G1 X-38.042 Y-2.342
G2 X-37.94 Y-2.261 R0.42
G1 X-37.868 Y-2.221
G2 X-37.811 Y-2.194 R0.42
G1 X-37.665 Y-2.139
X-37.535 Y-2.084
X-37.509 Y-2.07
X-37.515 Y-1.968
Y-1.963
X-37.52 Y-1.863
X-37.551 Y-1.85
X-37.682 Y-1.809
X-37.833 Y-1.77
G2 X-37.893 Y-1.749 R0.42
G1 X-37.969 Y-1.717
G2 X-38.078 Y-1.648 R0.42
G1 X-38.14 Y-1.594
G2 X-38.22 Y-1.501 R0.42
G1 X-38.258 Y-1.441
G2 X-38.304 Y-1.339 R0.42
G1 X-38.325 Y-1.271
G2 X-38.344 Y-1.161 R0.42
X-38.352 Y-0.847 R38.361
X-38.339 Y-0.737 R0.42
G1 X-38.322 Y-0.668
G2 X-38.281 Y-0.563 R0.42
G1 X-38.245 Y-0.5
G2 X-38.172 Y-0.405 R0.42
G1 X-38.113 Y-0.347
G2 X-38.007 Y-0.273 R0.42
G1 X-37.933 Y-0.236
G2 X-37.874 Y-0.213 R0.42
G1 X-37.725 Y-0.165
X-37.592 Y-0.116
X-37.566 Y-0.104
Y-0.002
Y0.003
Y0.103
X-37.597 Y0.118
X-37.725 Y0.165
X-37.874 Y0.213
G2 X-37.933 Y0.236 R0.42
G1 X-38.007 Y0.273
G2 X-38.113 Y0.347 R0.42
G1 X-38.172 Y0.405
G2 X-38.245 Y0.5 R0.42
G1 X-38.281 Y0.563
G2 X-38.322 Y0.668 R0.42
G1 X-38.339 Y0.737
G2 X-38.352 Y0.847 R0.42
X-38.344 Y1.161 R38.361
X-38.325 Y1.271 R0.42
G1 X-38.304 Y1.339
G2 X-38.258 Y1.441 R0.42
G1 X-38.22 Y1.501
G2 X-38.14 Y1.594 R0.42
G1 X-38.078 Y1.648
G2 X-37.969 Y1.717 R0.42
G1 X-37.893 Y1.749
G2 X-37.833 Y1.77 R0.42
G1 X-37.682 Y1.809
X-37.547 Y1.851
X-37.52 Y1.862
X-37.515 Y1.964
Y1.969
X-37.509 Y2.069
X-37.539 Y2.085
X-37.665 Y2.139
X-37.811 Y2.194
G2 X-37.868 Y2.221 R0.42
G1 X-37.94 Y2.261
G2 X-38.042 Y2.342 R0.42
G1 X-38.098 Y2.402
G2 X-38.167 Y2.501 R0.42
G1 X-38.199 Y2.565
G2 X-38.235 Y2.672 R0.42
G1 X-38.248 Y2.742
G2 X-38.255 Y2.854 R0.42
X-38.23 Y3.166 R38.361
X-38.206 Y3.275 R0.42
G1 X-38.182 Y3.342
G2 X-38.13 Y3.442 R0.42
G1 X-38.088 Y3.5
G2 X-38.005 Y3.587 R0.42
G1 X-37.94 Y3.638
G2 X-37.827 Y3.702 R0.42
G1 X-37.75 Y3.73
G2 X-37.689 Y3.748 R0.42
G1 X-37.536 Y3.779
X-37.399 Y3.814
X-37.371 Y3.823
X-37.361 Y3.924
X-37.36 Y3.93
X-37.349 Y4.029
X-37.378 Y4.047
X-37.501 Y4.108
X-37.644 Y4.17
G2 X-37.7 Y4.2 R0.42
G1 X-37.77 Y4.244
G2 X-37.867 Y4.329 R0.42
G1 X-37.92 Y4.392
G2 X-37.984 Y4.496 R0.42
G1 X-38.012 Y4.561
G2 X-38.042 Y4.67 R0.42
G1 X-38.052 Y4.74
G2 X-38.053 Y4.852 R0.42
X-38.012 Y5.163 R38.361
X-37.983 Y5.27 R0.42
G1 X-37.955 Y5.336
G2 X-37.898 Y5.432 R0.42
G1 X-37.853 Y5.488
G2 X-37.765 Y5.572 R0.42
G1 X-37.697 Y5.619
G2 X-37.581 Y5.676 R0.42
G1 X-37.503 Y5.701
G2 X-37.441 Y5.715 R0.42
G1 X-37.287 Y5.738
X-37.148 Y5.766
X-37.12 Y5.773
X-37.104 Y5.874
X-37.103 Y5.88
X-37.087 Y5.979
X-37.115 Y5.998
X-37.235 Y6.065
X-37.375 Y6.135
G2 X-37.429 Y6.167 R0.42
G1 X-37.496 Y6.215
G2 X-37.589 Y6.305 R0.42
G1 X-37.638 Y6.371
G2 X-37.696 Y6.477 R0.42
G1 X-37.721 Y6.544
G2 X-37.746 Y6.654 R0.42
G1 X-37.752 Y6.725
G2 X-37.747 Y6.837 R0.42
X-37.69 Y7.145 R38.361
X-37.655 Y7.25 R0.42
G1 X-37.624 Y7.315
G2 X-37.561 Y7.409 R0.42
G1 X-37.514 Y7.462
G2 X-37.422 Y7.54 R0.42
G1 X-37.352 Y7.584
G2 X-37.233 Y7.635 R0.42
G1 X-37.153 Y7.656
G2 X-37.091 Y7.667 R0.42
G1 X-36.935 Y7.682
X-36.795 Y7.702
X-36.767 Y7.708
X-36.746 Y7.808
X-36.745 Y7.813
X-36.723 Y7.911
X-36.751 Y7.932
X-36.867 Y8.005
X-37.002 Y8.082
G2 X-37.055 Y8.118 R0.42
G1 X-37.119 Y8.169
G2 X-37.207 Y8.264 R0.42
G1 X-37.253 Y8.332
G2 X-37.306 Y8.441 R0.42
G1 X-37.327 Y8.51
G2 X-37.346 Y8.621 R0.42
G1 X-37.348 Y8.692
G2 X-37.337 Y8.803 R0.42
X-37.264 Y9.107 R38.361
X-37.224 Y9.212 R0.42
G1 X-37.189 Y9.274
G2 X-37.122 Y9.364 R0.42
G1 X-37.072 Y9.415
G2 X-36.976 Y9.489 R0.42
G1 X-36.904 Y9.529
G2 X-36.782 Y9.573 R0.42
G1 X-36.701 Y9.59
G2 X-36.639 Y9.597 R0.42
G1 X-36.483 Y9.604
X-36.342 Y9.617
X-36.313 Y9.622
X-36.287 Y9.721
X-36.286 Y9.726
X-36.259 Y9.822
X-36.285 Y9.845
X-36.397 Y9.924
X-36.528 Y10.008
G2 X-36.579 Y10.046 R0.42
G1 X-36.641 Y10.1
G2 X-36.724 Y10.199 R0.42
G1 X-36.766 Y10.27
G2 X-36.813 Y10.382 R0.42
G1 X-36.831 Y10.452
G2 X-36.844 Y10.563 R0.42
G1 X-36.842 Y10.635
G2 X-36.826 Y10.745 R0.42
X-36.736 Y11.045 R38.361
X-36.691 Y11.146 R0.42
G1 X-36.653 Y11.207
G2 X-36.581 Y11.294 R0.42
G1 X-36.528 Y11.343
G2 X-36.428 Y11.411 R0.42
G1 X-36.354 Y11.447
G2 X-36.231 Y11.485 R0.42
G1 X-36.149 Y11.497
G2 X-36.086 Y11.502 R0.42
G1 X-35.93 Y11.501
X-35.788 Y11.506
X-35.759 Y11.509
X-35.728 Y11.606
X-35.727 Y11.611
X-35.695 Y11.707
X-35.72 Y11.73
X-35.828 Y11.815
X-35.955 Y11.906
G2 X-36.003 Y11.947 R0.42
G1 X-36.062 Y12.004
G2 X-36.14 Y12.108 R0.42
G1 X-36.178 Y12.181
G2 X-36.219 Y12.294 R0.42
G1 X-36.233 Y12.365
G2 X-36.24 Y12.477 R0.42
G1 X-36.235 Y12.548
G2 X-36.213 Y12.657 R0.42
X-36.108 Y12.953 R38.361
X-36.057 Y13.051 R0.42
G1 X-36.016 Y13.11
G2 X-35.94 Y13.193 R0.42
G1 X-35.884 Y13.239
G2 X-35.781 Y13.302 R0.42
G1 X-35.705 Y13.334
G2 X-35.58 Y13.366 R0.42
G1 X-35.498 Y13.373
G2 X-35.435 Y13.374 R0.42
G1 X-35.279 Y13.365
X-35.137 Y13.363
X-35.108 Y13.365
X-35.072 Y13.46
X-35.07 Y13.465
X-35.034 Y13.559
X-35.057 Y13.583
X-35.161 Y13.674
X-35.282 Y13.771
G2 X-35.329 Y13.814 R0.42
G1 X-35.384 Y13.875
G2 X-35.457 Y13.983 R0.42
G1 X-35.491 Y14.057
G2 X-35.526 Y14.173 R0.42
G1 X-35.536 Y14.244
G2 X-35.538 Y14.357 R0.42
G1 X-35.529 Y14.428
G2 X-35.501 Y14.535 R0.42
X-35.381 Y14.825 R38.361
X-35.325 Y14.921 R0.42
G1 X-35.281 Y14.977
G2 X-35.2 Y15.056 R0.42
G1 X-35.143 Y15.099
G2 X-35.036 Y15.156 R0.42
G1 X-34.959 Y15.184
G2 X-34.832 Y15.209 R0.42
G1 X-34.75 Y15.213
G2 X-34.686 Y15.211 R0.42
G1 X-34.531 Y15.193
X-34.39 Y15.184
X-34.361
X-34.32 Y15.277
X-34.317 Y15.282
X-34.276 Y15.374
X-34.298 Y15.4
X-34.397 Y15.495
X-34.513 Y15.599
G2 X-34.557 Y15.644 R0.42
G1 X-34.61 Y15.708
G2 X-34.676 Y15.819 R0.42
G1 X-34.707 Y15.896
G2 X-34.735 Y16.013 R0.42
G1 X-34.742 Y16.084
G2 X-34.738 Y16.197 R0.42
G1 X-34.725 Y16.267
G2 X-34.691 Y16.373 R0.42
X-34.556 Y16.656 R38.361
X-34.495 Y16.749 R0.42
G1 X-34.448 Y16.803
G2 X-34.364 Y16.878 R0.42
G1 X-34.304 Y16.917
G2 X-34.195 Y16.969 R0.42
G1 X-34.116 Y16.993
G2 X-33.988 Y17.012 R0.42
G1 X-33.906 Y17.011
G2 X-33.843 Y17.005 R0.42
G1 X-33.689 Y16.98
X-33.548 Y16.963
X-33.519 Y16.961
X-33.473 Y17.053
X-33.47 Y17.057
X-33.424 Y17.146
X-33.445 Y17.174
X-33.539 Y17.274
X-33.65 Y17.384
G2 X-33.691 Y17.432 R0.42
G1 X-33.74 Y17.498
G2 X-33.801 Y17.612 R0.42
G1 X-33.827 Y17.69
G2 X-33.85 Y17.809 R0.42
G1 X-33.853 Y17.881
G2 X-33.842 Y17.992 R0.42
G1 X-33.826 Y18.062
G2 X-33.787 Y18.166 R0.42
X-33.637 Y18.442 R38.361
X-33.572 Y18.531 R0.42
G1 X-33.522 Y18.583
G2 X-33.434 Y18.653 R0.42
G1 X-33.372 Y18.689
G2 X-33.259 Y18.736 R0.42
G1 X-33.18 Y18.755
G2 X-33.051 Y18.767 R0.42
G1 X-32.969 Y18.762
G2 X-32.906 Y18.753 R0.42
G1 X-32.754 Y18.72
X-32.614 Y18.695
X-32.585 Y18.692
X-32.535 Y18.781
X-32.532 Y18.786
X-32.481 Y18.872
X-32.501 Y18.9
X-32.589 Y19.006
X-32.694 Y19.121
G2 X-32.733 Y19.171 R0.42
G1 X-32.778 Y19.239
G2 X-32.833 Y19.357 R0.42
G1 X-32.855 Y19.436
G2 X-32.871 Y19.556 R0.42
G1 Y19.628
G2 X-32.854 Y19.739 R0.42
G1 X-32.834 Y19.808
G2 X-32.79 Y19.91 R0.42
X-32.626 Y20.177 R38.361
X-32.555 Y20.263 R0.42
G1 X-32.503 Y20.312
G2 X-32.412 Y20.377 R0.42
G1 X-32.348 Y20.41
G2 X-32.234 Y20.45 R0.42
G1 X-32.153 Y20.466
G2 X-32.023 Y20.471 R0.42
G1 X-31.942 Y20.462
G2 X-31.88 Y20.449 R0.42
G1 X-31.729 Y20.408
X-31.591 Y20.377
X-31.562 Y20.372
X-31.507 Y20.458
X-31.504 Y20.462
X-31.449 Y20.546
X-31.467 Y20.575
X-31.549 Y20.685
X-31.648 Y20.806
G2 X-31.685 Y20.858 R0.42
G1 X-31.727 Y20.929
G2 X-31.774 Y21.048 R0.42
G1 X-31.793 Y21.129
G2 X-31.803 Y21.25 R0.42
G1 X-31.798 Y21.322
G2 X-31.776 Y21.431 R0.42
G1 X-31.753 Y21.499
G2 X-31.703 Y21.599 R0.42
X-31.525 Y21.857 R38.361
X-31.45 Y21.939 R0.42
G1 X-31.395 Y21.985
G2 X-31.3 Y22.045 R0.42
G1 X-31.235 Y22.075
G2 X-31.119 Y22.109 R0.42
G1 X-31.038 Y22.121
G2 X-30.908 Y22.119 R0.42
G1 X-30.827 Y22.105
G2 X-30.766 Y22.09 R0.42
G1 X-30.618 Y22.041
X-30.481 Y22.002
X-30.453 Y21.996
X-30.393 Y22.079
X-30.39 Y22.083
X-30.331 Y22.164
X-30.347 Y22.194
X-30.423 Y22.308
X-30.516 Y22.434
G2 X-30.55 Y22.488 R0.42
G1 X-30.588 Y22.561
G2 X-30.629 Y22.683 R0.42
G1 X-30.644 Y22.764
G2 X-30.647 Y22.885 R0.42
G1 X-30.639 Y22.956
G2 X-30.611 Y23.066 R0.42
G1 X-30.584 Y23.132
G2 X-30.529 Y23.228 R0.42
X-30.338 Y23.477 R38.361
X-30.259 Y23.555 R0.42
G1 X-30.202 Y23.598
G2 X-30.103 Y23.654 R0.42
G1 X-30.037 Y23.68
G2 X-29.92 Y23.708 R0.42
G1 X-29.838 Y23.715
G2 X-29.708 Y23.706 R0.42
G1 X-29.628 Y23.688
G2 X-29.567 Y23.67 R0.42
G1 X-29.422 Y23.613
X-29.288 Y23.567
X-29.26 Y23.56
X-29.196 Y23.64
X-29.193 Y23.643
X-29.129 Y23.721
X-29.144 Y23.752
X-29.214 Y23.87
X-29.3 Y24.
G2 X-29.331 Y24.055 R0.42
G1 X-29.365 Y24.13
G2 X-29.4 Y24.255 R0.42
G1 X-29.41 Y24.337
G2 X-29.407 Y24.458 R0.42
G1 X-29.395 Y24.528
G2 X-29.362 Y24.635 R0.42
G1 X-29.332 Y24.7
G2 X-29.272 Y24.794 R0.42
X-29.068 Y25.033 R38.361
X-28.985 Y25.106 R0.42
G1 X-28.926 Y25.146
G2 X-28.824 Y25.197 R0.42
G1 X-28.757 Y25.219
G2 X-28.638 Y25.241 R0.42
G1 X-28.556 Y25.244
G2 X-28.427 Y25.229 R0.42
G1 X-28.348 Y25.207
G2 X-28.288 Y25.185 R0.42
G1 X-28.146 Y25.12
X-28.014 Y25.068
X-27.987 Y25.059
X-27.919 Y25.135
X-27.915 Y25.139
X-27.848 Y25.213
X-27.861 Y25.245
X-27.925 Y25.366
X-28.004 Y25.501
G2 X-28.031 Y25.558 R0.42
G1 X-28.062 Y25.634
G2 X-28.091 Y25.76 R0.42
G1 X-28.096 Y25.842
G2 X-28.087 Y25.963 R0.42
G1 X-28.071 Y26.033
G2 X-28.032 Y26.139 R0.42
G1 X-27.999 Y26.202
G2 X-27.934 Y26.292 R0.42
X-27.718 Y26.52 R38.361
X-27.631 Y26.589 R0.42
G1 X-27.57 Y26.626
G2 X-27.467 Y26.67 R0.42
G1 X-27.398 Y26.69
G2 X-27.278 Y26.705 R0.42
G1 X-27.195 Y26.704
G2 X-27.067 Y26.682 R0.42
G1 X-26.989 Y26.655
G2 X-26.932 Y26.631 R0.42
G1 X-26.793 Y26.559
X-26.664 Y26.499
X-26.637 Y26.489
X-26.565 Y26.562
X-26.561 Y26.565
X-26.49 Y26.636
X-26.501 Y26.668
X-26.559 Y26.793
X-26.631 Y26.932
G2 X-26.655 Y26.989 R0.42
G1 X-26.682 Y27.067
G2 X-26.704 Y27.195 R0.42
G1 X-26.705 Y27.278
G2 X-26.69 Y27.398 R0.42
G1 X-26.67 Y27.467
G2 X-26.626 Y27.57 R0.42
G1 X-26.589 Y27.631
G2 X-26.52 Y27.718 R0.42
X-26.292 Y27.934 R38.361
X-26.202 Y27.999 R0.42
G1 X-26.139 Y28.032
G2 X-26.033 Y28.071 R0.42
G1 X-25.963 Y28.087
G2 X-25.842 Y28.096 R0.42
G1 X-25.76 Y28.091
G2 X-25.634 Y28.062 R0.42
G1 X-25.558 Y28.031
G2 X-25.501 Y28.004 R0.42
G1 X-25.366 Y27.925
X-25.241 Y27.859
X-25.214 Y27.847
X-25.138 Y27.916
X-25.135 Y27.919
X-25.06 Y27.986
X-25.069 Y28.019
X-25.12 Y28.146
X-25.185 Y28.288
G2 X-25.207 Y28.348 R0.42
G1 X-25.229 Y28.427
G2 X-25.244 Y28.556 R0.42
G1 X-25.241 Y28.638
G2 X-25.219 Y28.757 R0.42
G1 X-25.197 Y28.824
G2 X-25.146 Y28.926 R0.42
G1 X-25.106 Y28.985
G2 X-25.033 Y29.068 R0.42
X-24.794 Y29.272 R38.361
X-24.7 Y29.332 R0.42
G1 X-24.635 Y29.362
G2 X-24.528 Y29.395 R0.42
G1 X-24.458 Y29.407
G2 X-24.337 Y29.41 R0.42
G1 X-24.255 Y29.4
G2 X-24.13 Y29.365 R0.42
G1 X-24.055 Y29.331
G2 X-24. Y29.3 R0.42
G1 X-23.87 Y29.214
X-23.748 Y29.142
X-23.722 Y29.128
X-23.643 Y29.193
X-23.639 Y29.196
X-23.561 Y29.259
X-23.569 Y29.292
X-23.613 Y29.422
X-23.67 Y29.567
G2 X-23.688 Y29.628 R0.42
G1 X-23.706 Y29.708
G2 X-23.715 Y29.838 R0.42
G1 X-23.708 Y29.92
G2 X-23.68 Y30.037 R0.42
G1 X-23.654 Y30.103
G2 X-23.598 Y30.202 R0.42
G1 X-23.555 Y30.259
G2 X-23.477 Y30.338 R0.42
X-23.228 Y30.529 R38.361
X-23.132 Y30.584 R0.42
G1 X-23.066 Y30.611
G2 X-22.956 Y30.639 R0.42
G1 X-22.885 Y30.647
G2 X-22.764 Y30.644 R0.42
G1 X-22.683 Y30.629
G2 X-22.561 Y30.588 R0.42
G1 X-22.488 Y30.55
G2 X-22.434 Y30.516 R0.42
G1 X-22.308 Y30.423
X-22.19 Y30.344
X-22.165 Y30.33
X-22.083 Y30.39
X-22.079 Y30.393
X-21.997 Y30.452
X-22.003 Y30.486
X-22.041 Y30.618
X-22.09 Y30.766
G2 X-22.105 Y30.827 R0.42
G1 X-22.119 Y30.908
G2 X-22.121 Y31.038 R0.42
G1 X-22.109 Y31.119
G2 X-22.075 Y31.235 R0.42
G1 X-22.045 Y31.3
G2 X-21.985 Y31.395 R0.42
G1 X-21.939 Y31.45
G2 X-21.857 Y31.525 R0.42
X-21.599 Y31.703 R38.361
X-21.499 Y31.753 R0.42
G1 X-21.431 Y31.776
G2 X-21.322 Y31.798 R0.42
G1 X-21.25 Y31.803
G2 X-21.129 Y31.793 R0.42
G1 X-21.048 Y31.774
G2 X-20.929 Y31.727 R0.42
G1 X-20.858 Y31.685
G2 X-20.806 Y31.648 R0.42
G1 X-20.685 Y31.549
X-20.572 Y31.464
X-20.547 Y31.448
X-20.462 Y31.505
X-20.458 Y31.507
X-20.373 Y31.561
X-20.378 Y31.595
X-20.408 Y31.729
X-20.449 Y31.88
G2 X-20.462 Y31.942 R0.42
G1 X-20.471 Y32.023
G2 X-20.466 Y32.153 R0.42
G1 X-20.45 Y32.234
G2 X-20.41 Y32.348 R0.42
G1 X-20.377 Y32.412
G2 X-20.312 Y32.503 R0.42
G1 X-20.263 Y32.555
G2 X-20.177 Y32.626 R0.42
X-19.91 Y32.79 R38.361
X-19.808 Y32.834 R0.42
G1 X-19.739 Y32.854
G2 X-19.628 Y32.871 R0.42
G1 X-19.556
G2 X-19.436 Y32.855 R0.42
G1 X-19.357 Y32.833
G2 X-19.239 Y32.778 R0.42
G1 X-19.171 Y32.733
G2 X-19.121 Y32.694 R0.42
G1 X-19.006 Y32.589
X-18.897 Y32.498
X-18.873 Y32.481
X-18.785 Y32.532
X-18.781 Y32.535
X-18.693 Y32.584
X-18.696 Y32.618
X-18.72 Y32.754
X-18.753 Y32.906
G2 X-18.762 Y32.969 R0.42
G1 X-18.767 Y33.051
G2 X-18.755 Y33.18 R0.42
G1 X-18.736 Y33.259
G2 X-18.689 Y33.372 R0.42
G1 X-18.653 Y33.434
G2 X-18.583 Y33.522 R0.42
G1 X-18.531 Y33.572
G2 X-18.442 Y33.637 R0.42
X-18.166 Y33.787 R38.361
X-18.062 Y33.826 R0.42
G1 X-17.992 Y33.842
G2 X-17.881 Y33.853 R0.42
G1 X-17.809 Y33.85
G2 X-17.69 Y33.827 R0.42
G1 X-17.612 Y33.801
G2 X-17.498 Y33.74 R0.42
G1 X-17.432 Y33.691
G2 X-17.384 Y33.65 R0.42
G1 X-17.274 Y33.539
X-17.17 Y33.442
X-17.148 Y33.424
X-17.057 Y33.471
X-17.052 Y33.473
X-16.962 Y33.518
X-16.963 Y33.552
X-16.98 Y33.689
X-17.005 Y33.843
G2 X-17.011 Y33.906 R0.42
G1 X-17.012 Y33.988
G2 X-16.993 Y34.116 R0.42
G1 X-16.969 Y34.195
G2 X-16.917 Y34.304 R0.42
G1 X-16.878 Y34.364
G2 X-16.803 Y34.448 R0.42
G1 X-16.749 Y34.495
G2 X-16.656 Y34.556 R0.42
X-16.373 Y34.691 R38.361
X-16.267 Y34.725 R0.42
G1 X-16.197 Y34.738
G2 X-16.084 Y34.742 R0.42
G1 X-16.013 Y34.735
G2 X-15.896 Y34.707 R0.42
G1 X-15.819 Y34.676
G2 X-15.708 Y34.61 R0.42
G1 X-15.644 Y34.557
G2 X-15.599 Y34.513 R0.42
G1 X-15.495 Y34.397
X-15.396 Y34.295
X-15.375 Y34.276
X-15.282 Y34.318
X-15.277 Y34.32
X-15.185 Y34.36
X-15.184 Y34.394
X-15.193 Y34.531
X-15.211 Y34.686
G2 X-15.213 Y34.75 R0.42
G1 X-15.209 Y34.832
G2 X-15.184 Y34.959 R0.42
G1 X-15.156 Y35.036
G2 X-15.099 Y35.143 R0.42
G1 X-15.056 Y35.2
G2 X-14.977 Y35.281 R0.42
G1 X-14.921 Y35.325
G2 X-14.825 Y35.381 R0.42
X-14.535 Y35.501 R38.361
X-14.428 Y35.529 R0.42
G1 X-14.357 Y35.538
G2 X-14.244 Y35.536 R0.42
G1 X-14.173 Y35.526
G2 X-14.057 Y35.491 R0.42
G1 X-13.983 Y35.457
G2 X-13.875 Y35.384 R0.42
G1 X-13.814 Y35.329
G2 X-13.771 Y35.282 R0.42
G1 X-13.674 Y35.161
X-13.58 Y35.054
X-13.56 Y35.033
X-13.465 Y35.07
X-13.46 Y35.072
X-13.366 Y35.108
X-13.363 Y35.142
X-13.365 Y35.279
X-13.374 Y35.435
G2 X-13.373 Y35.498 R0.42
G1 X-13.366 Y35.58
G2 X-13.334 Y35.705 R0.42
G1 X-13.302 Y35.781
G2 X-13.239 Y35.884 R0.42
G1 X-13.193 Y35.94
G2 X-13.11 Y36.016 R0.42
G1 X-13.051 Y36.057
G2 X-12.953 Y36.108 R0.42
X-12.657 Y36.213 R38.361
X-12.548 Y36.235 R0.42
G1 X-12.477 Y36.24
G2 X-12.365 Y36.233 R0.42
G1 X-12.294 Y36.219
G2 X-12.181 Y36.178 R0.42
G1 X-12.108 Y36.14
G2 X-12.004 Y36.062 R0.42
G1 X-11.947 Y36.003
G2 X-11.906 Y35.955 R0.42
G1 X-11.815 Y35.828
X-11.727 Y35.717
X-11.708 Y35.695
X-11.611 Y35.727
X-11.606 Y35.729
X-11.51 Y35.759
X-11.506 Y35.793
X-11.501 Y35.93
X-11.502 Y36.086
G2 X-11.497 Y36.149 R0.42
G1 X-11.485 Y36.231
G2 X-11.447 Y36.354 R0.42
G1 X-11.411 Y36.428
G2 X-11.343 Y36.528 R0.42
G1 X-11.294 Y36.581
G2 X-11.207 Y36.653 R0.42
G1 X-11.146 Y36.691
G2 X-11.045 Y36.736 R0.42
X-10.745 Y36.826 R38.361
X-10.635 Y36.842 R0.42
G1 X-10.563 Y36.844
G2 X-10.452 Y36.831 R0.42
G1 X-10.382 Y36.813
G2 X-10.27 Y36.766 R0.42
G1 X-10.199 Y36.724
G2 X-10.1 Y36.641 R0.42
G1 X-10.046 Y36.579
G2 X-10.008 Y36.528 R0.42
G1 X-9.924 Y36.397
X-9.842 Y36.281
X-9.824 Y36.259
X-9.725 Y36.286
X-9.72 Y36.287
X-9.623 Y36.312
X-9.617 Y36.346
X-9.604 Y36.483
X-9.597 Y36.639
G2 X-9.59 Y36.701 R0.42
G1 X-9.573 Y36.782
G2 X-9.529 Y36.904 R0.42
G1 X-9.489 Y36.976
G2 X-9.415 Y37.072 R0.42
G1 X-9.364 Y37.122
G2 X-9.274 Y37.189 R0.42
G1 X-9.212 Y37.224
G2 X-9.107 Y37.264 R0.42
X-8.803 Y37.337 R38.361
X-8.692 Y37.348 R0.42
G1 X-8.621 Y37.346
G2 X-8.51 Y37.327 R0.42
G1 X-8.441 Y37.306
G2 X-8.332 Y37.253 R0.42
G1 X-8.264 Y37.207
G2 X-8.169 Y37.119 R0.42
G1 X-8.118 Y37.055
G2 X-8.082 Y37.002 R0.42
G1 X-8.005 Y36.867
X-7.93 Y36.747
X-7.913 Y36.723
X-7.813 Y36.745
X-7.808 Y36.746
X-7.709 Y36.766
X-7.701 Y36.799
X-7.682 Y36.935
X-7.667 Y37.091
G2 X-7.656 Y37.153 R0.42
G1 X-7.635 Y37.233
G2 X-7.584 Y37.352 R0.42
G1 X-7.54 Y37.422
G2 X-7.462 Y37.514 R0.42
G1 X-7.409 Y37.561
G2 X-7.315 Y37.624 R0.42
G1 X-7.25 Y37.655
G2 X-7.145 Y37.69 R0.42
X-6.837 Y37.747 R38.361
X-6.725 Y37.752 R0.42
G1 X-6.654 Y37.746
G2 X-6.544 Y37.721 R0.42
G1 X-6.477 Y37.696
G2 X-6.371 Y37.638 R0.42
G1 X-6.305 Y37.589
G2 X-6.215 Y37.496 R0.42
G1 X-6.167 Y37.429
G2 X-6.135 Y37.375 R0.42
G1 X-6.065 Y37.235
X-5.996 Y37.111
X-5.98 Y37.087
X-5.879 Y37.103
X-5.874 Y37.104
X-5.775 Y37.119
X-5.765 Y37.152
X-5.738 Y37.287
X-5.715 Y37.441
G2 X-5.701 Y37.503 R0.42
G1 X-5.676 Y37.581
G2 X-5.619 Y37.697 R0.42
G1 X-5.572 Y37.765
G2 X-5.488 Y37.853 R0.42
G1 X-5.432 Y37.898
G2 X-5.336 Y37.955 R0.42
G1 X-5.27 Y37.983
G2 X-5.163 Y38.012 R0.42
X-4.852 Y38.053 R38.361
X-4.74 Y38.052 R0.42
G1 X-4.67 Y38.042
G2 X-4.561 Y38.012 R0.42
G1 X-4.496 Y37.984
G2 X-4.392 Y37.92 R0.42
G1 X-4.329 Y37.867
G2 X-4.244 Y37.77 R0.42
G1 X-4.2 Y37.7
G2 X-4.17 Y37.644 R0.42
G1 X-4.108 Y37.501
X-4.045 Y37.374
X-4.031 Y37.349
X-3.929 Y37.36
X-3.924 Y37.361
X-3.824 Y37.371
X-3.813 Y37.403
X-3.779 Y37.536
X-3.748 Y37.689
G2 X-3.73 Y37.75 R0.42
G1 X-3.702 Y37.827
G2 X-3.638 Y37.94 R0.42
G1 X-3.587 Y38.005
G2 X-3.5 Y38.088 R0.42
G1 X-3.442 Y38.13
G2 X-3.342 Y38.182 R0.42
G1 X-3.275 Y38.206
G2 X-3.166 Y38.23 R0.42
X-2.854 Y38.255 R38.361
X-2.742 Y38.248 R0.42
G1 X-2.672 Y38.235
G2 X-2.565 Y38.199 R0.42
G1 X-2.501 Y38.167
G2 X-2.402 Y38.098 R0.42
G1 X-2.342 Y38.042
G2 X-2.261 Y37.94 R0.42
G1 X-2.221 Y37.868
G2 X-2.194 Y37.811 R0.42
G1 X-2.139 Y37.665
X-2.084 Y37.535
X-2.07 Y37.509
X-1.968 Y37.515
X-1.963
X-1.863 Y37.52
X-1.85 Y37.551
X-1.809 Y37.682
X-1.77 Y37.833
G2 X-1.749 Y37.893 R0.42
G1 X-1.717 Y37.969
G2 X-1.648 Y38.078 R0.42
G1 X-1.594 Y38.14
G2 X-1.501 Y38.22 R0.42
G1 X-1.441 Y38.258
G2 X-1.339 Y38.304 R0.42
G1 X-1.271 Y38.325
G2 X-1.161 Y38.344 R0.42
X-0.847 Y38.352 R38.361
X-0.737 Y38.339 R0.42
G1 X-0.668 Y38.322
G2 X-0.563 Y38.281 R0.42
G1 X-0.5 Y38.245
G2 X-0.405 Y38.172 R0.42
G1 X-0.347 Y38.113
G2 X-0.273 Y38.007 R0.42
G1 X-0.236 Y37.933
G2 X-0.213 Y37.874 R0.42
G1 X-0.165 Y37.725
X-0.116 Y37.592
X-0.104 Y37.566
X-0.002
X0.003
X0.103
X0.118 Y37.597
X0.165 Y37.725
X0.213 Y37.874
G2 X0.236 Y37.933 R0.42
G1 X0.273 Y38.007
G2 X0.347 Y38.113 R0.42
G1 X0.405 Y38.172
G2 X0.5 Y38.245 R0.42
G1 X0.563 Y38.281
G2 X0.668 Y38.322 R0.42
G1 X0.737 Y38.339
G2 X0.847 Y38.352 R0.42
X1.161 Y38.344 R38.361
X1.271 Y38.325 R0.42
G1 X1.339 Y38.304
G2 X1.441 Y38.258 R0.42
G1 X1.501 Y38.22
G2 X1.594 Y38.14 R0.42
G1 X1.648 Y38.078
G2 X1.717 Y37.969 R0.42
G1 X1.749 Y37.893
G2 X1.77 Y37.833 R0.42
G1 X1.809 Y37.682
X1.851 Y37.547
X1.862 Y37.52
X1.964 Y37.515
X1.969
X2.069 Y37.509
X2.085 Y37.539
X2.139 Y37.665
X2.194 Y37.811
G2 X2.221 Y37.868 R0.42
G1 X2.261 Y37.94
G2 X2.342 Y38.042 R0.42
G1 X2.402 Y38.098
G2 X2.501 Y38.167 R0.42
G1 X2.565 Y38.199
G2 X2.672 Y38.235 R0.42
G1 X2.742 Y38.248
G2 X2.854 Y38.255 R0.42
X3.166 Y38.23 R38.361
X3.275 Y38.206 R0.42
G1 X3.342 Y38.182
G2 X3.442 Y38.13 R0.42
G1 X3.5 Y38.088
G2 X3.587 Y38.005 R0.42
G1 X3.638 Y37.94
G2 X3.702 Y37.827 R0.42
G1 X3.73 Y37.75
G2 X3.748 Y37.689 R0.42
G1 X3.779 Y37.536
X3.814 Y37.399
X3.823 Y37.371
X3.924 Y37.361
X3.93 Y37.36
X4.029 Y37.349
X4.047 Y37.378
X4.108 Y37.501
X4.17 Y37.644
G2 X4.2 Y37.7 R0.42
G1 X4.244 Y37.77
G2 X4.329 Y37.867 R0.42
G1 X4.392 Y37.92
G2 X4.496 Y37.984 R0.42
G1 X4.561 Y38.012
G2 X4.67 Y38.042 R0.42
G1 X4.74 Y38.052
G2 X4.852 Y38.053 R0.42
X5.163 Y38.012 R38.361
X5.27 Y37.983 R0.42
G1 X5.336 Y37.955
G2 X5.432 Y37.898 R0.42
G1 X5.488 Y37.853
G2 X5.572 Y37.765 R0.42
G1 X5.619 Y37.697
G2 X5.676 Y37.581 R0.42
G1 X5.701 Y37.503
G2 X5.715 Y37.441 R0.42
G1 X5.738 Y37.287
X5.766 Y37.148
X5.773 Y37.12
X5.874 Y37.104
X5.88 Y37.103
X5.979 Y37.087
X5.998 Y37.115
X6.065 Y37.235
X6.135 Y37.375
G2 X6.167 Y37.429 R0.42
G1 X6.215 Y37.496
G2 X6.305 Y37.589 R0.42
G1 X6.371 Y37.638
G2 X6.477 Y37.696 R0.42
G1 X6.544 Y37.721
G2 X6.654 Y37.746 R0.42
G1 X6.725 Y37.752
G2 X6.837 Y37.747 R0.42
X7.145 Y37.69 R38.361
X7.25 Y37.655 R0.42
G1 X7.315 Y37.624
G2 X7.409 Y37.561 R0.42
G1 X7.462 Y37.514
G2 X7.54 Y37.422 R0.42
G1 X7.584 Y37.352
G2 X7.635 Y37.233 R0.42
G1 X7.656 Y37.153
G2 X7.667 Y37.091 R0.42
G1 X7.682 Y36.935
X7.702 Y36.795
X7.708 Y36.767
X7.808 Y36.746
X7.813 Y36.745
X7.911 Y36.723
X7.932 Y36.751
X8.005 Y36.867
X8.082 Y37.002
G2 X8.118 Y37.055 R0.42
G1 X8.169 Y37.119
G2 X8.264 Y37.207 R0.42
G1 X8.332 Y37.253
G2 X8.441 Y37.306 R0.42
G1 X8.51 Y37.327
G2 X8.621 Y37.346 R0.42
G1 X8.692 Y37.348
G2 X8.803 Y37.337 R0.42
X9.107 Y37.264 R38.361
X9.212 Y37.224 R0.42
G1 X9.274 Y37.189
G2 X9.364 Y37.122 R0.42
G1 X9.415 Y37.072
G2 X9.489 Y36.976 R0.42
G1 X9.529 Y36.904
G2 X9.573 Y36.782 R0.42
G1 X9.59 Y36.701
G2 X9.597 Y36.639 R0.42
G1 X9.604 Y36.483
X9.617 Y36.342
X9.622 Y36.313
X9.721 Y36.287
X9.726 Y36.286
X9.822 Y36.259
X9.845 Y36.285
X9.924 Y36.397
X10.008 Y36.528
G2 X10.046 Y36.579 R0.42
G1 X10.1 Y36.641
G2 X10.199 Y36.724 R0.42
G1 X10.27 Y36.766
G2 X10.382 Y36.813 R0.42
G1 X10.452 Y36.831
G2 X10.563 Y36.844 R0.42
G1 X10.635 Y36.842
G2 X10.745 Y36.826 R0.42
X11.045 Y36.736 R38.361
X11.146 Y36.691 R0.42
G1 X11.207 Y36.653
G2 X11.294 Y36.581 R0.42
G1 X11.343 Y36.528
G2 X11.411 Y36.428 R0.42
G1 X11.447 Y36.354
G2 X11.485 Y36.231 R0.42
G1 X11.497 Y36.149
G2 X11.502 Y36.086 R0.42
G1 X11.501 Y35.93
X11.506 Y35.788
X11.509 Y35.759
X11.606 Y35.728
X11.611 Y35.727
X11.707 Y35.695
X11.73 Y35.72
X11.815 Y35.828
X11.906 Y35.955
G2 X11.947 Y36.003 R0.42
G1 X12.004 Y36.062
G2 X12.108 Y36.14 R0.42
G1 X12.181 Y36.178
G2 X12.294 Y36.219 R0.42
G1 X12.365 Y36.233
G2 X12.477 Y36.24 R0.42
G1 X12.548 Y36.235
G2 X12.657 Y36.213 R0.42
X12.953 Y36.108 R38.361
X13.051 Y36.057 R0.42
G1 X13.11 Y36.016
G2 X13.193 Y35.94 R0.42
G1 X13.239 Y35.884
G2 X13.302 Y35.781 R0.42
G1 X13.334 Y35.705
G2 X13.366 Y35.58 R0.42
G1 X13.373 Y35.498
G2 X13.374 Y35.435 R0.42
G1 X13.365 Y35.279
X13.363 Y35.137
X13.365 Y35.108
X13.46 Y35.072
X13.465 Y35.07
X13.559 Y35.034
X13.583 Y35.057
X13.674 Y35.161
X13.771 Y35.282
G2 X13.814 Y35.329 R0.42
G1 X13.875 Y35.384
G2 X13.983 Y35.457 R0.42
G1 X14.057 Y35.491
G2 X14.173 Y35.526 R0.42
G1 X14.244 Y35.536
G2 X14.357 Y35.538 R0.42
G1 X14.428 Y35.529
G2 X14.535 Y35.501 R0.42
X14.825 Y35.381 R38.361
X14.921 Y35.325 R0.42
G1 X14.977 Y35.281
G2 X15.056 Y35.2 R0.42
G1 X15.099 Y35.143
G2 X15.156 Y35.036 R0.42
G1 X15.184 Y34.959
G2 X15.209 Y34.832 R0.42
G1 X15.213 Y34.75
G2 X15.211 Y34.686 R0.42
G1 X15.193 Y34.531
X15.184 Y34.39
Y34.361
X15.277 Y34.32
X15.282 Y34.317
X15.374 Y34.276
X15.4 Y34.298
X15.495 Y34.397
X15.599 Y34.513
G2 X15.644 Y34.557 R0.42
G1 X15.708 Y34.61
G2 X15.819 Y34.676 R0.42
G1 X15.896 Y34.707
G2 X16.013 Y34.735 R0.42
G1 X16.084 Y34.742
G2 X16.197 Y34.738 R0.42
G1 X16.267 Y34.725
G2 X16.373 Y34.691 R0.42
X16.656 Y34.556 R38.361
X16.749 Y34.495 R0.42
G1 X16.803 Y34.448
G2 X16.878 Y34.364 R0.42
G1 X16.917 Y34.304
G2 X16.969 Y34.195 R0.42
G1 X16.993 Y34.116
G2 X17.012 Y33.988 R0.42
G1 X17.011 Y33.906
G2 X17.005 Y33.843 R0.42
G1 X16.98 Y33.689
X16.963 Y33.548
X16.961 Y33.519
X17.053 Y33.473
X17.057 Y33.47
X17.146 Y33.424
X17.174 Y33.445
X17.274 Y33.539
X17.384 Y33.65
G2 X17.432 Y33.691 R0.42
G1 X17.498 Y33.74
G2 X17.612 Y33.801 R0.42
G1 X17.69 Y33.827
G2 X17.809 Y33.85 R0.42
G1 X17.881 Y33.853
G2 X17.992 Y33.842 R0.42
G1 X18.062 Y33.826
G2 X18.166 Y33.787 R0.42
X18.442 Y33.637 R38.361
X18.531 Y33.572 R0.42
G1 X18.583 Y33.522
G2 X18.653 Y33.434 R0.42
G1 X18.689 Y33.372
G2 X18.736 Y33.259 R0.42
G1 X18.755 Y33.18
G2 X18.767 Y33.051 R0.42
G1 X18.762 Y32.969
G2 X18.753 Y32.906 R0.42
G1 X18.72 Y32.754
X18.695 Y32.614
X18.692 Y32.585
X18.781 Y32.535
X18.786 Y32.532
X18.872 Y32.481
X18.9 Y32.501
X19.006 Y32.589
X19.121 Y32.694
G2 X19.171 Y32.733 R0.42
G1 X19.239 Y32.778
G2 X19.357 Y32.833 R0.42
G1 X19.436 Y32.855
G2 X19.556 Y32.871 R0.42
G1 X19.628
G2 X19.739 Y32.854 R0.42
G1 X19.808 Y32.834
G2 X19.91 Y32.79 R0.42
X20.177 Y32.626 R38.361
X20.263 Y32.555 R0.42
G1 X20.312 Y32.503
G2 X20.377 Y32.412 R0.42
G1 X20.41 Y32.348
G2 X20.45 Y32.234 R0.42
G1 X20.466 Y32.153
G2 X20.471 Y32.023 R0.42
G1 X20.462 Y31.942
G2 X20.449 Y31.88 R0.42
G1 X20.408 Y31.729
X20.377 Y31.591
X20.372 Y31.562
X20.458 Y31.507
X20.462 Y31.504
X20.546 Y31.449
X20.575 Y31.467
X20.685 Y31.549
X20.806 Y31.648
G2 X20.858 Y31.685 R0.42
G1 X20.929 Y31.727
G2 X21.048 Y31.774 R0.42
G1 X21.129 Y31.793
G2 X21.25 Y31.803 R0.42
G1 X21.322 Y31.798
G2 X21.431 Y31.776 R0.42
G1 X21.499 Y31.753
G2 X21.599 Y31.703 R0.42
X21.857 Y31.525 R38.361
X21.939 Y31.45 R0.42
G1 X21.985 Y31.395
G2 X22.045 Y31.3 R0.42
G1 X22.075 Y31.235
G2 X22.109 Y31.119 R0.42
G1 X22.121 Y31.038
G2 X22.119 Y30.908 R0.42
G1 X22.105 Y30.827
G2 X22.09 Y30.766 R0.42
G1 X22.041 Y30.618
X22.002 Y30.481
X21.996 Y30.453
X22.079 Y30.393
X22.083 Y30.39
X22.164 Y30.331
X22.194 Y30.347
X22.308 Y30.423
X22.434 Y30.516
G2 X22.488 Y30.55 R0.42
G1 X22.561 Y30.588
G2 X22.683 Y30.629 R0.42
G1 X22.764 Y30.644
G2 X22.885 Y30.647 R0.42
G1 X22.956 Y30.639
G2 X23.066 Y30.611 R0.42
G1 X23.132 Y30.584
G2 X23.228 Y30.529 R0.42
X23.477 Y30.338 R38.361
X23.555 Y30.259 R0.42
G1 X23.598 Y30.202
G2 X23.654 Y30.103 R0.42
G1 X23.68 Y30.037
G2 X23.708 Y29.92 R0.42
G1 X23.715 Y29.838
G2 X23.706 Y29.708 R0.42
G1 X23.688 Y29.628
G2 X23.67 Y29.567 R0.42
G1 X23.613 Y29.422
X23.567 Y29.288
X23.56 Y29.26
X23.64 Y29.196
X23.643 Y29.193
X23.721 Y29.129
X23.752 Y29.144
X23.87 Y29.214
X24. Y29.3
G2 X24.055 Y29.331 R0.42
G1 X24.13 Y29.365
G2 X24.255 Y29.4 R0.42
G1 X24.337 Y29.41
G2 X24.458 Y29.407 R0.42
G1 X24.528 Y29.395
G2 X24.635 Y29.362 R0.42
G1 X24.7 Y29.332
G2 X24.794 Y29.272 R0.42
X25.033 Y29.068 R38.361
X25.106 Y28.985 R0.42
G1 X25.146 Y28.926
G2 X25.197 Y28.824 R0.42
G1 X25.219 Y28.757
G2 X25.241 Y28.638 R0.42
G1 X25.244 Y28.556
G2 X25.229 Y28.427 R0.42
G1 X25.207 Y28.348
G2 X25.185 Y28.288 R0.42
G1 X25.12 Y28.146
X25.068 Y28.014
X25.059 Y27.987
X25.135 Y27.919
X25.139 Y27.915
X25.213 Y27.848
X25.245 Y27.861
X25.366 Y27.925
X25.501 Y28.004
G2 X25.558 Y28.031 R0.42
G1 X25.634 Y28.062
G2 X25.76 Y28.091 R0.42
G1 X25.842 Y28.096
G2 X25.963 Y28.087 R0.42
G1 X26.033 Y28.071
G2 X26.139 Y28.032 R0.42
G1 X26.202 Y27.999
G2 X26.292 Y27.934 R0.42
X26.52 Y27.718 R38.361
X26.589 Y27.631 R0.42
G1 X26.626 Y27.57
G2 X26.67 Y27.467 R0.42
G1 X26.69 Y27.398
G2 X26.705 Y27.278 R0.42
G1 X26.704 Y27.195
G2 X26.682 Y27.067 R0.42
G1 X26.655 Y26.989
G2 X26.631 Y26.932 R0.42
G1 X26.559 Y26.793
X26.499 Y26.664
X26.489 Y26.637
X26.562 Y26.565
X26.565 Y26.561
X26.636 Y26.49
X26.668 Y26.501
X26.793 Y26.559
X26.932 Y26.631
G2 X26.989 Y26.655 R0.42
G1 X27.067 Y26.682
G2 X27.195 Y26.704 R0.42
G1 X27.278 Y26.705
G2 X27.398 Y26.69 R0.42
G1 X27.467 Y26.67
G2 X27.57 Y26.626 R0.42
G1 X27.631 Y26.589
G2 X27.718 Y26.52 R0.42
X27.934 Y26.292 R38.361
X27.999 Y26.202 R0.42
G1 X28.032 Y26.139
G2 X28.071 Y26.033 R0.42
G1 X28.087 Y25.963
G2 X28.096 Y25.842 R0.42
G1 X28.091 Y25.76
G2 X28.062 Y25.634 R0.42
G1 X28.031 Y25.558
G2 X28.004 Y25.501 R0.42
G1 X27.925 Y25.366
X27.859 Y25.241
X27.847 Y25.214
X27.916 Y25.138
X27.919 Y25.135
X27.986 Y25.06
X28.019 Y25.069
X28.146 Y25.12
X28.288 Y25.185
G2 X28.348 Y25.207 R0.42
G1 X28.427 Y25.229
G2 X28.556 Y25.244 R0.42
G1 X28.638 Y25.241
G2 X28.757 Y25.219 R0.42
G1 X28.824 Y25.197
G2 X28.926 Y25.146 R0.42
G1 X28.985 Y25.106
G2 X29.068 Y25.033 R0.42
X29.272 Y24.794 R38.361
X29.332 Y24.7 R0.42
G1 X29.362 Y24.635
G2 X29.395 Y24.528 R0.42
G1 X29.407 Y24.458
G2 X29.41 Y24.337 R0.42
G1 X29.4 Y24.255
G2 X29.365 Y24.13 R0.42
G1 X29.331 Y24.055
G2 X29.3 Y24. R0.42
G1 X29.214 Y23.87
X29.142 Y23.748
X29.128 Y23.722
X29.193 Y23.643
X29.196 Y23.639
X29.259 Y23.561
X29.292 Y23.569
X29.422 Y23.613
X29.567 Y23.67
G2 X29.628 Y23.688 R0.42
G1 X29.708 Y23.706
G2 X29.838 Y23.715 R0.42
G1 X29.92 Y23.708
G2 X30.037 Y23.68 R0.42
G1 X30.103 Y23.654
G2 X30.202 Y23.598 R0.42
G1 X30.259 Y23.555
G2 X30.338 Y23.477 R0.42
X30.529 Y23.228 R38.361
X30.584 Y23.132 R0.42
G1 X30.611 Y23.066
G2 X30.639 Y22.956 R0.42
G1 X30.647 Y22.885
G2 X30.644 Y22.764 R0.42
G1 X30.629 Y22.683
G2 X30.588 Y22.561 R0.42
G1 X30.55 Y22.488
G2 X30.516 Y22.434 R0.42
G1 X30.423 Y22.308
X30.344 Y22.19
X30.33 Y22.165
X30.39 Y22.083
X30.393 Y22.079
X30.452 Y21.997
X30.486 Y22.003
X30.618 Y22.041
X30.766 Y22.09
G2 X30.827 Y22.105 R0.42
G1 X30.908 Y22.119
G2 X31.038 Y22.121 R0.42
G1 X31.119 Y22.109
G2 X31.235 Y22.075 R0.42
G1 X31.3 Y22.045
G2 X31.395 Y21.985 R0.42
G1 X31.45 Y21.939
G2 X31.525 Y21.857 R0.42
X31.703 Y21.599 R38.361
X31.753 Y21.499 R0.42
G1 X31.776 Y21.431
G2 X31.798 Y21.322 R0.42
G1 X31.803 Y21.25
G2 X31.793 Y21.129 R0.42
G1 X31.774 Y21.048
G2 X31.727 Y20.929 R0.42
G1 X31.685 Y20.858
G2 X31.648 Y20.806 R0.42
G1 X31.549 Y20.685
X31.464 Y20.572
X31.448 Y20.547
X31.505 Y20.462
X31.507 Y20.458
X31.561 Y20.373
X31.595 Y20.378
X31.729 Y20.408
X31.88 Y20.449
G2 X31.942 Y20.462 R0.42
G1 X32.023 Y20.471
G2 X32.153 Y20.466 R0.42
G1 X32.234 Y20.45
G2 X32.348 Y20.41 R0.42
G1 X32.412 Y20.377
G2 X32.503 Y20.312 R0.42
G1 X32.555 Y20.263
G2 X32.626 Y20.177 R0.42
X32.79 Y19.91 R38.361
X32.834 Y19.808 R0.42
G1 X32.854 Y19.739
G2 X32.871 Y19.628 R0.42
G1 Y19.556
G2 X32.855 Y19.436 R0.42
G1 X32.833 Y19.357
G2 X32.778 Y19.239 R0.42
G1 X32.733 Y19.171
G2 X32.694 Y19.121 R0.42
G1 X32.589 Y19.006
X32.498 Y18.897
X32.481 Y18.873
X32.532 Y18.785
X32.535 Y18.781
X32.584 Y18.693
X32.618 Y18.696
X32.754 Y18.72
X32.906 Y18.753
G2 X32.969 Y18.762 R0.42
G1 X33.051 Y18.767
G2 X33.18 Y18.755 R0.42
G1 X33.259 Y18.736
G2 X33.372 Y18.689 R0.42
G1 X33.434 Y18.653
G2 X33.522 Y18.583 R0.42
G1 X33.572 Y18.531
G2 X33.637 Y18.442 R0.42
X33.787 Y18.166 R38.361
X33.826 Y18.062 R0.42
G1 X33.842 Y17.992
G2 X33.853 Y17.881 R0.42
G1 X33.85 Y17.809
G2 X33.827 Y17.69 R0.42
G1 X33.801 Y17.612
G2 X33.74 Y17.498 R0.42
G1 X33.691 Y17.432
G2 X33.65 Y17.384 R0.42
G1 X33.539 Y17.274
X33.442 Y17.17
X33.424 Y17.148
X33.471 Y17.057
X33.473 Y17.052
X33.518 Y16.962
X33.552 Y16.963
X33.689 Y16.98
X33.843 Y17.005
G2 X33.906 Y17.011 R0.42
G1 X33.988 Y17.012
G2 X34.116 Y16.993 R0.42
G1 X34.195 Y16.969
G2 X34.304 Y16.917 R0.42
G1 X34.364 Y16.878
G2 X34.448 Y16.803 R0.42
G1 X34.495 Y16.749
G2 X34.556 Y16.656 R0.42
X34.691 Y16.373 R38.361
X34.725 Y16.267 R0.42
G1 X34.738 Y16.197
G2 X34.742 Y16.084 R0.42
G1 X34.735 Y16.013
G2 X34.707 Y15.896 R0.42
G1 X34.676 Y15.819
G2 X34.61 Y15.708 R0.42
G1 X34.557 Y15.644
G2 X34.513 Y15.599 R0.42
G1 X34.397 Y15.495
X34.295 Y15.396
X34.276 Y15.375
X34.318 Y15.282
X34.32 Y15.277
X34.36 Y15.185
X34.394 Y15.184
X34.531 Y15.193
X34.686 Y15.211
G2 X34.75 Y15.213 R0.42
G1 X34.832 Y15.209
G2 X34.959 Y15.184 R0.42
G1 X35.036 Y15.156
G2 X35.143 Y15.099 R0.42
G1 X35.2 Y15.056
G2 X35.281 Y14.977 R0.42
G1 X35.325 Y14.921
G2 X35.381 Y14.825 R0.42
X35.501 Y14.535 R38.361
X35.529 Y14.428 R0.42
G1 X35.538 Y14.357
G2 X35.536 Y14.244 R0.42
G1 X35.526 Y14.173
G2 X35.491 Y14.057 R0.42
G1 X35.457 Y13.983
G2 X35.384 Y13.875 R0.42
G1 X35.329 Y13.814
G2 X35.282 Y13.771 R0.42
G1 X35.161 Y13.674
X35.054 Y13.58
X35.033 Y13.56
X35.07 Y13.465
X35.072 Y13.46
X35.108 Y13.366
X35.142 Y13.363
X35.279 Y13.365
X35.435 Y13.374
G2 X35.498 Y13.373 R0.42
G1 X35.58 Y13.366
G2 X35.705 Y13.334 R0.42
G1 X35.781 Y13.302
G2 X35.884 Y13.239 R0.42
G1 X35.94 Y13.193
G2 X36.016 Y13.11 R0.42
G1 X36.057 Y13.051
G2 X36.108 Y12.953 R0.42
X36.213 Y12.657 R38.361
X36.235 Y12.548 R0.42
G1 X36.24 Y12.477
G2 X36.233 Y12.365 R0.42
G1 X36.219 Y12.294
G2 X36.178 Y12.181 R0.42
G1 X36.14 Y12.108
G2 X36.062 Y12.004 R0.42
G1 X36.003 Y11.947
G2 X35.955 Y11.906 R0.42
G1 X35.828 Y11.815
X35.717 Y11.727
X35.695 Y11.708
X35.727 Y11.611
X35.729 Y11.606
X35.759 Y11.51
X35.793 Y11.506
X35.93 Y11.501
X36.086 Y11.502
G2 X36.149 Y11.497 R0.42
G1 X36.231 Y11.485
G2 X36.354 Y11.447 R0.42
G1 X36.428 Y11.411
G2 X36.528 Y11.343 R0.42
G1 X36.581 Y11.294
G2 X36.653 Y11.207 R0.42
G1 X36.691 Y11.146
G2 X36.736 Y11.045 R0.42
X36.826 Y10.745 R38.361
X36.842 Y10.635 R0.42
G1 X36.844 Y10.563
G2 X36.831 Y10.452 R0.42
G1 X36.813 Y10.382
G2 X36.766 Y10.27 R0.42
G1 X36.724 Y10.199
G2 X36.641 Y10.1 R0.42
G1 X36.579 Y10.046
G2 X36.528 Y10.008 R0.42
G1 X36.397 Y9.924
X36.281 Y9.842
X36.259 Y9.824
X36.286 Y9.725
X36.287 Y9.72
X36.312 Y9.623
X36.346 Y9.617
X36.483 Y9.604
X36.639 Y9.597
G2 X36.701 Y9.59 R0.42
G1 X36.782 Y9.573
G2 X36.904 Y9.529 R0.42
G1 X36.976 Y9.489
G2 X37.072 Y9.415 R0.42
G1 X37.122 Y9.364
G2 X37.189 Y9.274 R0.42
G1 X37.224 Y9.212
G2 X37.264 Y9.107 R0.42
X37.337 Y8.803 R38.361
X37.348 Y8.692 R0.42
G1 X37.346 Y8.621
G2 X37.327 Y8.51 R0.42
G1 X37.306 Y8.441
G2 X37.253 Y8.332 R0.42
G1 X37.207 Y8.264
G2 X37.119 Y8.169 R0.42
G1 X37.055 Y8.118
G2 X37.002 Y8.082 R0.42
G1 X36.867 Y8.005
X36.747 Y7.93
X36.723 Y7.913
X36.745 Y7.813
X36.746 Y7.808
X36.766 Y7.709
X36.799 Y7.701
X36.935 Y7.682
X37.091 Y7.667
G2 X37.153 Y7.656 R0.42
G1 X37.233 Y7.635
G2 X37.352 Y7.584 R0.42
G1 X37.422 Y7.54
G2 X37.514 Y7.462 R0.42
G1 X37.561 Y7.409
G2 X37.624 Y7.315 R0.42
G1 X37.655 Y7.25
G2 X37.69 Y7.145 R0.42
X37.747 Y6.837 R38.361
X37.752 Y6.725 R0.42
G1 X37.746 Y6.654
G2 X37.721 Y6.544 R0.42
G1 X37.696 Y6.477
G2 X37.638 Y6.371 R0.42
G1 X37.589 Y6.305
G2 X37.496 Y6.215 R0.42
G1 X37.429 Y6.167
G2 X37.375 Y6.135 R0.42
G1 X37.235 Y6.065
X37.111 Y5.996
X37.087 Y5.98
X37.103 Y5.879
X37.104 Y5.874
X37.119 Y5.775
X37.152 Y5.765
X37.287 Y5.738
X37.441 Y5.715
G2 X37.503 Y5.701 R0.42
G1 X37.581 Y5.676
G2 X37.697 Y5.619 R0.42
G1 X37.765 Y5.572
G2 X37.853 Y5.488 R0.42
G1 X37.898 Y5.432
G2 X37.955 Y5.336 R0.42
G1 X37.983 Y5.27
G2 X38.012 Y5.163 R0.42
X38.053 Y4.852 R38.361
X38.052 Y4.74 R0.42
G1 X38.042 Y4.67
G2 X38.012 Y4.561 R0.42
G1 X37.984 Y4.496
G2 X37.92 Y4.392 R0.42
G1 X37.867 Y4.329
G2 X37.77 Y4.244 R0.42
G1 X37.7 Y4.2
G2 X37.644 Y4.17 R0.42
G1 X37.501 Y4.108
X37.374 Y4.045
X37.349 Y4.031
X37.36 Y3.929
X37.361 Y3.924
X37.371 Y3.824
X37.403 Y3.813
X37.536 Y3.779
X37.689 Y3.748
G2 X37.75 Y3.73 R0.42
G1 X37.827 Y3.702
G2 X37.94 Y3.638 R0.42
G1 X38.005 Y3.587
G2 X38.088 Y3.5 R0.42
G1 X38.13 Y3.442
G2 X38.182 Y3.342 R0.42
G1 X38.206 Y3.275
G2 X38.23 Y3.166 R0.42
X38.255 Y2.854 R38.361
X38.248 Y2.742 R0.42
G1 X38.235 Y2.672
G2 X38.199 Y2.565 R0.42
G1 X38.167 Y2.501
G2 X38.098 Y2.402 R0.42
G1 X38.042 Y2.342
G2 X37.94 Y2.261 R0.42
G1 X37.868 Y2.221
G2 X37.811 Y2.194 R0.42
G1 X37.665 Y2.139
X37.535 Y2.084
X37.509 Y2.07
X37.515 Y1.968
Y1.963
X37.52 Y1.863
X37.551 Y1.85
X37.682 Y1.809
X37.833 Y1.77
G2 X37.893 Y1.749 R0.42
G1 X37.969 Y1.717
G2 X38.078 Y1.648 R0.42
G1 X38.14 Y1.594
G2 X38.22 Y1.501 R0.42
G1 X38.258 Y1.441
G2 X38.304 Y1.339 R0.42
G1 X38.325 Y1.271
G2 X38.344 Y1.161 R0.42
X38.352 Y0.847 R38.361
Y0.835 R0.42
X38.339 Y0.737 Z-1.003 R0.42 F250.
G1 X38.322 Y0.668 Z-1.005
G2 X38.281 Y0.563 Z-1.008 R0.42
G1 X38.245 Y0.5 Z-1.01
G2 X38.172 Y0.405 Z-1.014 R0.42
G1 X38.113 Y0.347 Z-1.016
G2 X38.007 Y0.273 Z-1.02 R0.42
G1 X37.933 Y0.236 Z-1.022
G2 X37.874 Y0.213 Z-1.024 R0.42
G1 X37.725 Y0.165 Z-1.029
X37.592 Y0.116 Z-1.033
X37.566 Y0.104 Z-1.034
Y0.002 Z-1.037
Y-0.003
Y-0.103 Z-1.04
X37.597 Y-0.118 Z-1.041
X37.725 Y-0.165 Z-1.045
X37.874 Y-0.213 Z-1.049
G2 X37.933 Y-0.236 Z-1.051 R0.42
G1 X38.007 Y-0.273 Z-1.054
G2 X38.113 Y-0.347 Z-1.057 R0.42
G1 X38.172 Y-0.405 Z-1.06
G2 X38.245 Y-0.5 Z-1.063 R0.42
G1 X38.281 Y-0.563 Z-1.065
G2 X38.322 Y-0.668 Z-1.069 R0.42
G1 X38.339 Y-0.737 Z-1.071
G2 X38.352 Y-0.847 Z-1.074 R0.42
X38.344 Y-1.161 Z-1.083 R38.361
X38.325 Y-1.271 Z-1.086 R0.42
G1 X38.304 Y-1.339 Z-1.088
G2 X38.258 Y-1.441 Z-1.092 R0.42
G1 X38.22 Y-1.501 Z-1.094
G2 X38.14 Y-1.594 Z-1.097 R0.42
G1 X38.078 Y-1.648 Z-1.1
G2 X37.969 Y-1.717 Z-1.103 R0.42
G1 X37.893 Y-1.749 Z-1.106
G2 X37.833 Y-1.77 Z-1.108 R0.42
G1 X37.682 Y-1.809 Z-1.112
X37.547 Y-1.851 Z-1.116
X37.52 Y-1.862 Z-1.117
X37.515 Y-1.964 Z-1.12
Y-1.969
X37.509 Y-2.069 Z-1.123
X37.539 Y-2.085 Z-1.124
X37.665 Y-2.139 Z-1.128
X37.811 Y-2.194 Z-1.133
G2 X37.868 Y-2.221 Z-1.134 R0.42
G1 X37.94 Y-2.261 Z-1.137
G2 X38.042 Y-2.342 Z-1.141 R0.42
G1 X38.098 Y-2.402 Z-1.143
G2 X38.167 Y-2.501 Z-1.147 R0.42
G1 X38.199 Y-2.565 Z-1.149
G2 X38.235 Y-2.672 Z-1.152 R0.42
G1 X38.248 Y-2.742 Z-1.154
G2 X38.255 Y-2.854 Z-1.157 R0.42
X38.23 Y-3.166 Z-1.166 R38.361
X38.206 Y-3.275 Z-1.17 R0.42
G1 X38.182 Y-3.342 Z-1.172
G2 X38.13 Y-3.442 Z-1.175 R0.42
G1 X38.088 Y-3.5 Z-1.177
G2 X38.005 Y-3.587 Z-1.181 R0.42
G1 X37.94 Y-3.638 Z-1.183
G2 X37.827 Y-3.702 Z-1.187 R0.42
G1 X37.75 Y-3.73 Z-1.189
G2 X37.689 Y-3.748 Z-1.191 R0.42
G1 X37.536 Y-3.779 Z-1.195
X37.399 Y-3.814 Z-1.2
X37.371 Y-3.823
X37.361 Y-3.924 Z-1.203
X37.36 Y-3.93 Z-1.204
X37.349 Y-4.029 Z-1.206
X37.378 Y-4.047 Z-1.207
X37.501 Y-4.108 Z-1.211
X37.644 Y-4.17 Z-1.216
G2 X37.7 Y-4.2 Z-1.218 R0.42
G1 X37.77 Y-4.244 Z-1.22
G2 X37.867 Y-4.329 Z-1.224 R0.42
G1 X37.92 Y-4.392 Z-1.226
G2 X37.984 Y-4.496 Z-1.23 R0.42
G1 X38.012 Y-4.561 Z-1.232
G2 X38.042 Y-4.67 Z-1.235 R0.42
G1 X38.052 Y-4.74 Z-1.237
G2 X38.053 Y-4.852 Z-1.241 R0.42
X38.012 Y-5.163 Z-1.25 R38.361
X37.983 Y-5.27 Z-1.253 R0.42
G1 X37.955 Y-5.336 Z-1.255
G2 X37.898 Y-5.432 Z-1.258 R0.42
G1 X37.853 Y-5.488 Z-1.26
G2 X37.765 Y-5.572 Z-1.264 R0.42
G1 X37.697 Y-5.619 Z-1.266
G2 X37.581 Y-5.676 Z-1.27 R0.42
G1 X37.503 Y-5.701 Z-1.272
G2 X37.441 Y-5.715 Z-1.274 R0.42
G1 X37.287 Y-5.738 Z-1.279
X37.148 Y-5.766 Z-1.283
X37.12 Y-5.773 Z-1.284
X37.104 Y-5.874 Z-1.287
X37.103 Y-5.88
X37.087 Y-5.979 Z-1.29
X37.115 Y-5.998 Z-1.291
X37.235 Y-6.065 Z-1.295
X37.375 Y-6.135 Z-1.299
G2 X37.429 Y-6.167 Z-1.301 R0.42
G1 X37.496 Y-6.215 Z-1.304
G2 X37.589 Y-6.305 Z-1.307 R0.42
G1 X37.638 Y-6.371 Z-1.31
G2 X37.696 Y-6.477 Z-1.313 R0.42
G1 X37.721 Y-6.544 Z-1.315
G2 X37.746 Y-6.654 Z-1.319 R0.42
G1 X37.752 Y-6.725 Z-1.321
G2 X37.747 Y-6.837 Z-1.324 R0.42
X37.69 Y-7.145 Z-1.333 R38.361
X37.655 Y-7.25 Z-1.336 R0.42
G1 X37.624 Y-7.315 Z-1.338
G2 X37.561 Y-7.409 Z-1.342 R0.42
G1 X37.514 Y-7.462 Z-1.344
G2 X37.422 Y-7.54 Z-1.347 R0.42
G1 X37.352 Y-7.584 Z-1.35
G2 X37.233 Y-7.635 Z-1.353 R0.42
G1 X37.153 Y-7.656 Z-1.356
G2 X37.091 Y-7.667 Z-1.358 R0.42
G1 X36.935 Y-7.682 Z-1.362
X36.795 Y-7.702 Z-1.366
X36.767 Y-7.708 Z-1.367
X36.746 Y-7.808 Z-1.37
X36.745 Y-7.813
X36.723 Y-7.911 Z-1.373
X36.751 Y-7.932 Z-1.374
X36.867 Y-8.005 Z-1.378
X37.002 Y-8.082 Z-1.383
G2 X37.055 Y-8.118 Z-1.384 R0.42
G1 X37.119 Y-8.169 Z-1.387
G2 X37.207 Y-8.264 Z-1.391 R0.42
G1 X37.253 Y-8.332 Z-1.393
G2 X37.306 Y-8.441 Z-1.397 R0.42
G1 X37.327 Y-8.51 Z-1.399
G2 X37.346 Y-8.621 Z-1.402 R0.42
G1 X37.348 Y-8.692 Z-1.404
G2 X37.337 Y-8.803 Z-1.407 R0.42
X37.264 Y-9.107 Z-1.416 R38.361
X37.224 Y-9.212 Z-1.42 R0.42
G1 X37.189 Y-9.274 Z-1.422
G2 X37.122 Y-9.364 Z-1.425 R0.42
G1 X37.072 Y-9.415 Z-1.427
G2 X36.976 Y-9.489 Z-1.431 R0.42
G1 X36.904 Y-9.529 Z-1.433
G2 X36.782 Y-9.573 Z-1.437 R0.42
G1 X36.701 Y-9.59 Z-1.439
G2 X36.639 Y-9.597 Z-1.441 R0.42
G1 X36.483 Y-9.604 Z-1.445
X36.342 Y-9.617 Z-1.45
X36.313 Y-9.622
X36.287 Y-9.721 Z-1.453
X36.286 Y-9.726 Z-1.454
X36.259 Y-9.822 Z-1.456
X36.285 Y-9.845 Z-1.457
X36.397 Y-9.924 Z-1.461
X36.528 Y-10.008 Z-1.466
G2 X36.579 Y-10.046 Z-1.468 R0.42
G1 X36.641 Y-10.1 Z-1.47
G2 X36.724 Y-10.199 Z-1.474 R0.42
G1 X36.766 Y-10.27 Z-1.476
G2 X36.813 Y-10.382 Z-1.48 R0.42
G1 X36.831 Y-10.452 Z-1.482
G2 X36.844 Y-10.563 Z-1.485 R0.42
G1 X36.842 Y-10.635 Z-1.487
G2 X36.826 Y-10.745 Z-1.491 R0.42
X36.736 Y-11.045 Z-1.5 R38.361
X36.691 Y-11.146 Z-1.503 R0.42
G1 X36.653 Y-11.207 Z-1.505
G2 X36.581 Y-11.294 Z-1.508 R0.42
G1 X36.528 Y-11.343 Z-1.51
G2 X36.428 Y-11.411 Z-1.514 R0.42
G1 X36.354 Y-11.447 Z-1.516
G2 X36.231 Y-11.485 Z-1.52 R0.42
G1 X36.149 Y-11.497 Z-1.522
G2 X36.086 Y-11.502 Z-1.524 R0.42
G1 X35.93 Y-11.501 Z-1.529
X35.788 Y-11.506 Z-1.533
X35.759 Y-11.509 Z-1.534
X35.728 Y-11.606 Z-1.537
X35.727 Y-11.611
X35.695 Y-11.707 Z-1.54
X35.72 Y-11.73 Z-1.541
X35.828 Y-11.815 Z-1.545
X35.955 Y-11.906 Z-1.549
G2 X36.003 Y-11.947 Z-1.551 R0.42
G1 X36.062 Y-12.004 Z-1.554
G2 X36.14 Y-12.108 Z-1.557 R0.42
G1 X36.178 Y-12.181 Z-1.56
G2 X36.219 Y-12.294 Z-1.563 R0.42
G1 X36.233 Y-12.365 Z-1.565
G2 X36.24 Y-12.477 Z-1.569 R0.42
G1 X36.235 Y-12.548 Z-1.571
G2 X36.213 Y-12.657 Z-1.574 R0.42
X36.108 Y-12.953 Z-1.583 R38.361
X36.057 Y-13.051 Z-1.586 R0.42
G1 X36.016 Y-13.11 Z-1.588
G2 X35.94 Y-13.193 Z-1.592 R0.42
G1 X35.884 Y-13.239 Z-1.594
G2 X35.781 Y-13.302 Z-1.597 R0.42
G1 X35.705 Y-13.334 Z-1.6
G2 X35.58 Y-13.366 Z-1.603 R0.42
G1 X35.498 Y-13.373 Z-1.606
G2 X35.435 Y-13.374 Z-1.608 R0.42
G1 X35.279 Y-13.365 Z-1.612
X35.137 Y-13.363 Z-1.616
X35.108 Y-13.365 Z-1.617
X35.072 Y-13.46 Z-1.62
X35.07 Y-13.465
X35.034 Y-13.559 Z-1.623
X35.057 Y-13.583 Z-1.624
X35.161 Y-13.674 Z-1.628
X35.282 Y-13.771 Z-1.633
G2 X35.329 Y-13.814 Z-1.634 R0.42
G1 X35.384 Y-13.875 Z-1.637
G2 X35.457 Y-13.983 Z-1.641 R0.42
G1 X35.491 Y-14.057 Z-1.643
G2 X35.526 Y-14.173 Z-1.647 R0.42
G1 X35.536 Y-14.244 Z-1.649
G2 X35.538 Y-14.357 Z-1.652 R0.42
G1 X35.529 Y-14.428 Z-1.654
G2 X35.501 Y-14.535 Z-1.657 R0.42
X35.381 Y-14.825 Z-1.666 R38.361
X35.325 Y-14.921 Z-1.67 R0.42
G1 X35.281 Y-14.977 Z-1.672
G2 X35.2 Y-15.056 Z-1.675 R0.42
G1 X35.143 Y-15.099 Z-1.677
G2 X35.036 Y-15.156 Z-1.681 R0.42
G1 X34.959 Y-15.184 Z-1.683
G2 X34.832 Y-15.209 Z-1.687 R0.42
G1 X34.75 Y-15.213 Z-1.689
G2 X34.686 Y-15.211 Z-1.691 R0.42
G1 X34.531 Y-15.193 Z-1.695
X34.39 Y-15.184 Z-1.7
X34.361
X34.32 Y-15.277 Z-1.703
X34.317 Y-15.282 Z-1.704
X34.276 Y-15.374 Z-1.706
X34.298 Y-15.4 Z-1.707
X34.397 Y-15.495 Z-1.711
X34.513 Y-15.599 Z-1.716
G2 X34.557 Y-15.644 Z-1.718 R0.42
G1 X34.61 Y-15.708 Z-1.72
G2 X34.676 Y-15.819 Z-1.724 R0.42
G1 X34.707 Y-15.896 Z-1.726
G2 X34.735 Y-16.013 Z-1.73 R0.42
G1 X34.742 Y-16.084 Z-1.732
G2 X34.738 Y-16.197 Z-1.735 R0.42
G1 X34.725 Y-16.267 Z-1.737
G2 X34.691 Y-16.373 Z-1.741 R0.42
X34.556 Y-16.656 Z-1.75 R38.361
X34.495 Y-16.749 Z-1.753 R0.42
G1 X34.448 Y-16.803 Z-1.755
G2 X34.364 Y-16.878 Z-1.758 R0.42
G1 X34.304 Y-16.917 Z-1.76
G2 X34.195 Y-16.969 Z-1.764 R0.42
G1 X34.116 Y-16.993 Z-1.766
G2 X33.988 Y-17.012 Z-1.77 R0.42
G1 X33.906 Y-17.011 Z-1.772
G2 X33.843 Y-17.005 Z-1.774 R0.42
G1 X33.689 Y-16.98 Z-1.779
X33.548 Y-16.963 Z-1.783
X33.519 Y-16.961 Z-1.784
X33.473 Y-17.053 Z-1.787
X33.47 Y-17.057
X33.424 Y-17.146 Z-1.79
X33.445 Y-17.174 Z-1.791
X33.539 Y-17.274 Z-1.795
X33.65 Y-17.384 Z-1.799
G2 X33.691 Y-17.432 Z-1.801 R0.42
G1 X33.74 Y-17.498 Z-1.804
G2 X33.801 Y-17.612 Z-1.807 R0.42
G1 X33.827 Y-17.69 Z-1.81
G2 X33.85 Y-17.809 Z-1.813 R0.42
G1 X33.853 Y-17.881 Z-1.815
G2 X33.842 Y-17.992 Z-1.819 R0.42
G1 X33.826 Y-18.062 Z-1.821
G2 X33.787 Y-18.166 Z-1.824 R0.42
X33.637 Y-18.442 Z-1.833 R38.361
X33.572 Y-18.531 Z-1.836 R0.42
G1 X33.522 Y-18.583 Z-1.838
G2 X33.434 Y-18.653 Z-1.842 R0.42
G1 X33.372 Y-18.689 Z-1.844
G2 X33.259 Y-18.736 Z-1.847 R0.42
G1 X33.18 Y-18.755 Z-1.85
G2 X33.051 Y-18.767 Z-1.853 R0.42
G1 X32.969 Y-18.762 Z-1.856
G2 X32.906 Y-18.753 Z-1.858 R0.42
G1 X32.754 Y-18.72 Z-1.862
X32.614 Y-18.695 Z-1.866
X32.585 Y-18.692 Z-1.867
X32.535 Y-18.781 Z-1.87
X32.532 Y-18.786
X32.481 Y-18.872 Z-1.873
X32.501 Y-18.9 Z-1.874
X32.589 Y-19.006 Z-1.878
X32.694 Y-19.121 Z-1.883
G2 X32.733 Y-19.171 Z-1.884 R0.42
G1 X32.778 Y-19.239 Z-1.887
G2 X32.833 Y-19.357 Z-1.891 R0.42
G1 X32.855 Y-19.436 Z-1.893
G2 X32.871 Y-19.556 Z-1.897 R0.42
G1 Y-19.628 Z-1.899
G2 X32.854 Y-19.739 Z-1.902 R0.42
G1 X32.834 Y-19.808 Z-1.904
G2 X32.79 Y-19.91 Z-1.907 R0.42
X32.626 Y-20.177 Z-1.916 R38.361
X32.555 Y-20.263 Z-1.92 R0.42
G1 X32.503 Y-20.312 Z-1.922
G2 X32.412 Y-20.377 Z-1.925 R0.42
G1 X32.348 Y-20.41 Z-1.927
G2 X32.234 Y-20.45 Z-1.931 R0.42
G1 X32.153 Y-20.466 Z-1.933
G2 X32.023 Y-20.471 Z-1.937 R0.42
G1 X31.942 Y-20.462 Z-1.939
G2 X31.88 Y-20.449 Z-1.941 R0.42
G1 X31.729 Y-20.408 Z-1.945
X31.591 Y-20.377 Z-1.95
X31.562 Y-20.372
X31.507 Y-20.458 Z-1.953
X31.504 Y-20.462 Z-1.954
X31.449 Y-20.546 Z-1.956
X31.467 Y-20.575 Z-1.957
X31.549 Y-20.685 Z-1.961
X31.648 Y-20.806 Z-1.966
G2 X31.685 Y-20.858 Z-1.968 R0.42
G1 X31.727 Y-20.929 Z-1.97
G2 X31.774 Y-21.048 Z-1.974 R0.42
G1 X31.793 Y-21.129 Z-1.976
G2 X31.803 Y-21.25 Z-1.98 R0.42
G1 X31.798 Y-21.322 Z-1.982
G2 X31.776 Y-21.431 Z-1.985 R0.42
G1 X31.753 Y-21.499 Z-1.987
G2 X31.703 Y-21.599 Z-1.991 R0.42
X31.525 Y-21.857 Z-2. R38.361
X31.518 Y-21.867 R0.42
X31.45 Y-21.939 R0.42 F400.
G1 X31.395 Y-21.985
G2 X31.3 Y-22.045 R0.42
G1 X31.235 Y-22.075
G2 X31.119 Y-22.109 R0.42
G1 X31.038 Y-22.121
G2 X30.908 Y-22.119 R0.42
G1 X30.827 Y-22.105
G2 X30.766 Y-22.09 R0.42
G1 X30.618 Y-22.041
X30.481 Y-22.002
X30.453 Y-21.996
X30.393 Y-22.079
X30.39 Y-22.083
X30.331 Y-22.164
X30.347 Y-22.194
X30.423 Y-22.308
X30.516 Y-22.434
G2 X30.55 Y-22.488 R0.42
G1 X30.588 Y-22.561
G2 X30.629 Y-22.683 R0.42
G1 X30.644 Y-22.764
G2 X30.647 Y-22.885 R0.42
G1 X30.639 Y-22.956
G2 X30.611 Y-23.066 R0.42
G1 X30.584 Y-23.132
G2 X30.529 Y-23.228 R0.42
X30.338 Y-23.477 R38.361
X30.259 Y-23.555 R0.42
G1 X30.202 Y-23.598
G2 X30.103 Y-23.654 R0.42
G1 X30.037 Y-23.68
G2 X29.92 Y-23.708 R0.42
G1 X29.838 Y-23.715
G2 X29.708 Y-23.706 R0.42
G1 X29.628 Y-23.688
G2 X29.567 Y-23.67 R0.42
G1 X29.422 Y-23.613
X29.288 Y-23.567
X29.26 Y-23.56
X29.196 Y-23.64
X29.193 Y-23.643
X29.129 Y-23.721
X29.144 Y-23.752
X29.214 Y-23.87
X29.3 Y-24.
G2 X29.331 Y-24.055 R0.42
G1 X29.365 Y-24.13
G2 X29.4 Y-24.255 R0.42
G1 X29.41 Y-24.337
G2 X29.407 Y-24.458 R0.42
G1 X29.395 Y-24.528
G2 X29.362 Y-24.635 R0.42
G1 X29.332 Y-24.7
G2 X29.272 Y-24.794 R0.42
X29.068 Y-25.033 R38.361
X28.985 Y-25.106 R0.42
G1 X28.926 Y-25.146
G2 X28.824 Y-25.197 R0.42
G1 X28.757 Y-25.219
G2 X28.638 Y-25.241 R0.42
G1 X28.556 Y-25.244
G2 X28.427 Y-25.229 R0.42
G1 X28.348 Y-25.207
G2 X28.288 Y-25.185 R0.42
G1 X28.146 Y-25.12
X28.014 Y-25.068
X27.987 Y-25.059
X27.919 Y-25.135
X27.915 Y-25.139
X27.848 Y-25.213
X27.861 Y-25.245
X27.925 Y-25.366
X28.004 Y-25.501
G2 X28.031 Y-25.558 R0.42
G1 X28.062 Y-25.634
G2 X28.091 Y-25.76 R0.42
G1 X28.096 Y-25.842
G2 X28.087 Y-25.963 R0.42
G1 X28.071 Y-26.033
G2 X28.032 Y-26.139 R0.42
G1 X27.999 Y-26.202
G2 X27.934 Y-26.292 R0.42
X27.718 Y-26.52 R38.361
X27.631 Y-26.589 R0.42
G1 X27.57 Y-26.626
G2 X27.467 Y-26.67 R0.42
G1 X27.398 Y-26.69
G2 X27.278 Y-26.705 R0.42
G1 X27.195 Y-26.704
G2 X27.067 Y-26.682 R0.42
G1 X26.989 Y-26.655
G2 X26.932 Y-26.631 R0.42
G1 X26.793 Y-26.559
X26.664 Y-26.499
X26.637 Y-26.489
X26.565 Y-26.562
X26.561 Y-26.565
X26.49 Y-26.636
X26.501 Y-26.668
X26.559 Y-26.793
X26.631 Y-26.932
G2 X26.655 Y-26.989 R0.42
G1 X26.682 Y-27.067
G2 X26.704 Y-27.195 R0.42
G1 X26.705 Y-27.278
G2 X26.69 Y-27.398 R0.42
G1 X26.67 Y-27.467
G2 X26.626 Y-27.57 R0.42
G1 X26.589 Y-27.631
G2 X26.52 Y-27.718 R0.42
X26.292 Y-27.934 R38.361
X26.202 Y-27.999 R0.42
G1 X26.139 Y-28.032
G2 X26.033 Y-28.071 R0.42
G1 X25.963 Y-28.087
G2 X25.842 Y-28.096 R0.42
G1 X25.76 Y-28.091
G2 X25.634 Y-28.062 R0.42
G1 X25.558 Y-28.031
G2 X25.501 Y-28.004 R0.42
G1 X25.366 Y-27.925
X25.241 Y-27.859
X25.214 Y-27.847
X25.138 Y-27.916
X25.135 Y-27.919
X25.06 Y-27.986
X25.069 Y-28.019
X25.12 Y-28.146
X25.185 Y-28.288
G2 X25.207 Y-28.348 R0.42
G1 X25.229 Y-28.427
G2 X25.244 Y-28.556 R0.42
G1 X25.241 Y-28.638
G2 X25.219 Y-28.757 R0.42
G1 X25.197 Y-28.824
G2 X25.146 Y-28.926 R0.42
G1 X25.106 Y-28.985
G2 X25.033 Y-29.068 R0.42
X24.794 Y-29.272 R38.361
X24.7 Y-29.332 R0.42
G1 X24.635 Y-29.362
G2 X24.528 Y-29.395 R0.42
G1 X24.458 Y-29.407
G2 X24.337 Y-29.41 R0.42
G1 X24.255 Y-29.4
G2 X24.13 Y-29.365 R0.42
G1 X24.055 Y-29.331
G2 X24. Y-29.3 R0.42
G1 X23.87 Y-29.214
X23.748 Y-29.142
X23.722 Y-29.128
X23.643 Y-29.193
X23.639 Y-29.196
X23.561 Y-29.259
X23.569 Y-29.292
X23.613 Y-29.422
X23.67 Y-29.567
G2 X23.688 Y-29.628 R0.42
G1 X23.706 Y-29.708
G2 X23.715 Y-29.838 R0.42
G1 X23.708 Y-29.92
G2 X23.68 Y-30.037 R0.42
G1 X23.654 Y-30.103
G2 X23.598 Y-30.202 R0.42
G1 X23.555 Y-30.259
G2 X23.477 Y-30.338 R0.42
X23.228 Y-30.529 R38.361
X23.132 Y-30.584 R0.42
G1 X23.066 Y-30.611
G2 X22.956 Y-30.639 R0.42
G1 X22.885 Y-30.647
G2 X22.764 Y-30.644 R0.42
G1 X22.683 Y-30.629
G2 X22.561 Y-30.588 R0.42
G1 X22.488 Y-30.55
G2 X22.434 Y-30.516 R0.42
G1 X22.308 Y-30.423
X22.19 Y-30.344
X22.165 Y-30.33
X22.083 Y-30.39
X22.079 Y-30.393
X21.997 Y-30.452
X22.003 Y-30.486
X22.041 Y-30.618
X22.09 Y-30.766
G2 X22.105 Y-30.827 R0.42
G1 X22.119 Y-30.908
G2 X22.121 Y-31.038 R0.42
G1 X22.109 Y-31.119
G2 X22.075 Y-31.235 R0.42
G1 X22.045 Y-31.3
G2 X21.985 Y-31.395 R0.42
G1 X21.939 Y-31.45
G2 X21.857 Y-31.525 R0.42
X21.599 Y-31.703 R38.361
X21.499 Y-31.753 R0.42
G1 X21.431 Y-31.776
G2 X21.322 Y-31.798 R0.42
G1 X21.25 Y-31.803
G2 X21.129 Y-31.793 R0.42
G1 X21.048 Y-31.774
G2 X20.929 Y-31.727 R0.42
G1 X20.858 Y-31.685
G2 X20.806 Y-31.648 R0.42
G1 X20.685 Y-31.549
X20.572 Y-31.464
X20.547 Y-31.448
X20.462 Y-31.505
X20.458 Y-31.507
X20.373 Y-31.561
X20.378 Y-31.595
X20.408 Y-31.729
X20.449 Y-31.88
G2 X20.462 Y-31.942 R0.42
G1 X20.471 Y-32.023
G2 X20.466 Y-32.153 R0.42
G1 X20.45 Y-32.234
G2 X20.41 Y-32.348 R0.42
G1 X20.377 Y-32.412
G2 X20.312 Y-32.503 R0.42
G1 X20.263 Y-32.555
G2 X20.177 Y-32.626 R0.42
X19.91 Y-32.79 R38.361
X19.808 Y-32.834 R0.42
G1 X19.739 Y-32.854
G2 X19.628 Y-32.871 R0.42
G1 X19.556
G2 X19.436 Y-32.855 R0.42
G1 X19.357 Y-32.833
G2 X19.239 Y-32.778 R0.42
G1 X19.171 Y-32.733
G2 X19.121 Y-32.694 R0.42
G1 X19.006 Y-32.589
X18.897 Y-32.498
X18.873 Y-32.481
X18.785 Y-32.532
X18.781 Y-32.535
X18.693 Y-32.584
X18.696 Y-32.618
X18.72 Y-32.754
X18.753 Y-32.906
G2 X18.762 Y-32.969 R0.42
G1 X18.767 Y-33.051
G2 X18.755 Y-33.18 R0.42
G1 X18.736 Y-33.259
G2 X18.689 Y-33.372 R0.42
G1 X18.653 Y-33.434
G2 X18.583 Y-33.522 R0.42
G1 X18.531 Y-33.572
G2 X18.442 Y-33.637 R0.42
X18.166 Y-33.787 R38.361
X18.062 Y-33.826 R0.42
G1 X17.992 Y-33.842
G2 X17.881 Y-33.853 R0.42
G1 X17.809 Y-33.85
G2 X17.69 Y-33.827 R0.42
G1 X17.612 Y-33.801
G2 X17.498 Y-33.74 R0.42
G1 X17.432 Y-33.691
G2 X17.384 Y-33.65 R0.42
G1 X17.274 Y-33.539
X17.17 Y-33.442
X17.148 Y-33.424
X17.057 Y-33.471
X17.052 Y-33.473
X16.962 Y-33.518
X16.963 Y-33.552
X16.98 Y-33.689
X17.005 Y-33.843
G2 X17.011 Y-33.906 R0.42
G1 X17.012 Y-33.988
G2 X16.993 Y-34.116 R0.42
G1 X16.969 Y-34.195
G2 X16.917 Y-34.304 R0.42
G1 X16.878 Y-34.364
G2 X16.803 Y-34.448 R0.42
G1 X16.749 Y-34.495
G2 X16.656 Y-34.556 R0.42
X16.373 Y-34.691 R38.361
X16.267 Y-34.725 R0.42
G1 X16.197 Y-34.738
G2 X16.084 Y-34.742 R0.42
G1 X16.013 Y-34.735
G2 X15.896 Y-34.707 R0.42
G1 X15.819 Y-34.676
G2 X15.708 Y-34.61 R0.42
G1 X15.644 Y-34.557
G2 X15.599 Y-34.513 R0.42
G1 X15.495 Y-34.397
X15.396 Y-34.295
X15.375 Y-34.276
X15.282 Y-34.318
X15.277 Y-34.32
X15.185 Y-34.36
X15.184 Y-34.394
X15.193 Y-34.531
X15.211 Y-34.686
G2 X15.213 Y-34.75 R0.42
G1 X15.209 Y-34.832
G2 X15.184 Y-34.959 R0.42
G1 X15.156 Y-35.036
G2 X15.099 Y-35.143 R0.42
G1 X15.056 Y-35.2
G2 X14.977 Y-35.281 R0.42
G1 X14.921 Y-35.325
G2 X14.825 Y-35.381 R0.42
X14.535 Y-35.501 R38.361
X14.428 Y-35.529 R0.42
G1 X14.357 Y-35.538
G2 X14.244 Y-35.536 R0.42
G1 X14.173 Y-35.526
G2 X14.057 Y-35.491 R0.42
G1 X13.983 Y-35.457
G2 X13.875 Y-35.384 R0.42
G1 X13.814 Y-35.329
G2 X13.771 Y-35.282 R0.42
G1 X13.674 Y-35.161
X13.58 Y-35.054
X13.56 Y-35.033
X13.465 Y-35.07
X13.46 Y-35.072
X13.366 Y-35.108
X13.363 Y-35.142
X13.365 Y-35.279
X13.374 Y-35.435
G2 X13.373 Y-35.498 R0.42
G1 X13.366 Y-35.58
G2 X13.334 Y-35.705 R0.42
G1 X13.302 Y-35.781
G2 X13.239 Y-35.884 R0.42
G1 X13.193 Y-35.94
G2 X13.11 Y-36.016 R0.42
G1 X13.051 Y-36.057
G2 X12.953 Y-36.108 R0.42
X12.657 Y-36.213 R38.361
X12.548 Y-36.235 R0.42
G1 X12.477 Y-36.24
G2 X12.365 Y-36.233 R0.42
G1 X12.294 Y-36.219
G2 X12.181 Y-36.178 R0.42
G1 X12.108 Y-36.14
G2 X12.004 Y-36.062 R0.42
G1 X11.947 Y-36.003
G2 X11.906 Y-35.955 R0.42
G1 X11.815 Y-35.828
X11.727 Y-35.717
X11.708 Y-35.695
X11.611 Y-35.727
X11.606 Y-35.729
X11.51 Y-35.759
X11.506 Y-35.793
X11.501 Y-35.93
X11.502 Y-36.086
G2 X11.497 Y-36.149 R0.42
G1 X11.485 Y-36.231
G2 X11.447 Y-36.354 R0.42
G1 X11.411 Y-36.428
G2 X11.343 Y-36.528 R0.42
G1 X11.294 Y-36.581
G2 X11.207 Y-36.653 R0.42
G1 X11.146 Y-36.691
G2 X11.045 Y-36.736 R0.42
X10.745 Y-36.826 R38.361
X10.635 Y-36.842 R0.42
G1 X10.563 Y-36.844
G2 X10.452 Y-36.831 R0.42
G1 X10.382 Y-36.813
G2 X10.27 Y-36.766 R0.42
G1 X10.199 Y-36.724
G2 X10.1 Y-36.641 R0.42
G1 X10.046 Y-36.579
G2 X10.008 Y-36.528 R0.42
G1 X9.924 Y-36.397
X9.842 Y-36.281
X9.824 Y-36.259
X9.725 Y-36.286
X9.72 Y-36.287
X9.623 Y-36.312
X9.617 Y-36.346
X9.604 Y-36.483
X9.597 Y-36.639
G2 X9.59 Y-36.701 R0.42
G1 X9.573 Y-36.782
G2 X9.529 Y-36.904 R0.42
G1 X9.489 Y-36.976
G2 X9.415 Y-37.072 R0.42
G1 X9.364 Y-37.122
G2 X9.274 Y-37.189 R0.42
G1 X9.212 Y-37.224
G2 X9.107 Y-37.264 R0.42
X8.803 Y-37.337 R38.361
X8.692 Y-37.348 R0.42
G1 X8.621 Y-37.346
G2 X8.51 Y-37.327 R0.42
G1 X8.441 Y-37.306
G2 X8.332 Y-37.253 R0.42
G1 X8.264 Y-37.207
G2 X8.169 Y-37.119 R0.42
G1 X8.118 Y-37.055
G2 X8.082 Y-37.002 R0.42
G1 X8.005 Y-36.867
X7.93 Y-36.747
X7.913 Y-36.723
X7.813 Y-36.745
X7.808 Y-36.746
X7.709 Y-36.766
X7.701 Y-36.799
X7.682 Y-36.935
X7.667 Y-37.091
G2 X7.656 Y-37.153 R0.42
G1 X7.635 Y-37.233
G2 X7.584 Y-37.352 R0.42
G1 X7.54 Y-37.422
G2 X7.462 Y-37.514 R0.42
G1 X7.409 Y-37.561
G2 X7.315 Y-37.624 R0.42
G1 X7.25 Y-37.655
G2 X7.145 Y-37.69 R0.42
X6.837 Y-37.747 R38.361
X6.725 Y-37.752 R0.42
G1 X6.654 Y-37.746
G2 X6.544 Y-37.721 R0.42
G1 X6.477 Y-37.696
G2 X6.371 Y-37.638 R0.42
G1 X6.305 Y-37.589
G2 X6.215 Y-37.496 R0.42
G1 X6.167 Y-37.429
G2 X6.135 Y-37.375 R0.42
G1 X6.065 Y-37.235
X5.996 Y-37.111
X5.98 Y-37.087
X5.879 Y-37.103
X5.874 Y-37.104
X5.775 Y-37.119
X5.765 Y-37.152
X5.738 Y-37.287
X5.715 Y-37.441
G2 X5.701 Y-37.503 R0.42
G1 X5.676 Y-37.581
G2 X5.619 Y-37.697 R0.42
G1 X5.572 Y-37.765
G2 X5.488 Y-37.853 R0.42
G1 X5.432 Y-37.898
G2 X5.336 Y-37.955 R0.42
G1 X5.27 Y-37.983
G2 X5.163 Y-38.012 R0.42
X4.852 Y-38.053 R38.361
X4.74 Y-38.052 R0.42
G1 X4.67 Y-38.042
G2 X4.561 Y-38.012 R0.42
G1 X4.496 Y-37.984
G2 X4.392 Y-37.92 R0.42
G1 X4.329 Y-37.867
G2 X4.244 Y-37.77 R0.42
G1 X4.2 Y-37.7
G2 X4.17 Y-37.644 R0.42
G1 X4.108 Y-37.501
X4.045 Y-37.374
X4.031 Y-37.349
X3.929 Y-37.36
X3.924 Y-37.361
X3.824 Y-37.371
X3.813 Y-37.403
X3.779 Y-37.536
X3.748 Y-37.689
G2 X3.73 Y-37.75 R0.42
G1 X3.702 Y-37.827
G2 X3.638 Y-37.94 R0.42
G1 X3.587 Y-38.005
G2 X3.5 Y-38.088 R0.42
G1 X3.442 Y-38.13
G2 X3.342 Y-38.182 R0.42
G1 X3.275 Y-38.206
G2 X3.166 Y-38.23 R0.42
X2.854 Y-38.255 R38.361
X2.742 Y-38.248 R0.42
G1 X2.672 Y-38.235
G2 X2.565 Y-38.199 R0.42
G1 X2.501 Y-38.167
G2 X2.402 Y-38.098 R0.42
G1 X2.342 Y-38.042
G2 X2.261 Y-37.94 R0.42
G1 X2.221 Y-37.868
G2 X2.194 Y-37.811 R0.42
G1 X2.139 Y-37.665
X2.084 Y-37.535
X2.07 Y-37.509
X1.968 Y-37.515
X1.963
X1.863 Y-37.52
X1.85 Y-37.551
X1.809 Y-37.682
X1.77 Y-37.833
G2 X1.749 Y-37.893 R0.42
G1 X1.717 Y-37.969
G2 X1.648 Y-38.078 R0.42
G1 X1.594 Y-38.14
G2 X1.501 Y-38.22 R0.42
G1 X1.441 Y-38.258
G2 X1.339 Y-38.304 R0.42
G1 X1.271 Y-38.325
G2 X1.161 Y-38.344 R0.42
X0.847 Y-38.352 R38.361
X0.737 Y-38.339 R0.42
G1 X0.668 Y-38.322
G2 X0.563 Y-38.281 R0.42
G1 X0.5 Y-38.245
G2 X0.405 Y-38.172 R0.42
G1 X0.347 Y-38.113
G2 X0.273 Y-38.007 R0.42
G1 X0.236 Y-37.933
G2 X0.213 Y-37.874 R0.42
G1 X0.165 Y-37.725
X0.116 Y-37.592
X0.104 Y-37.566
X0.002
X-0.003
X-0.103
X-0.118 Y-37.597
X-0.165 Y-37.725
X-0.213 Y-37.874
G2 X-0.236 Y-37.933 R0.42
G1 X-0.273 Y-38.007
G2 X-0.347 Y-38.113 R0.42
G1 X-0.405 Y-38.172
G2 X-0.5 Y-38.245 R0.42
G1 X-0.563 Y-38.281
G2 X-0.668 Y-38.322 R0.42
G1 X-0.737 Y-38.339
G2 X-0.847 Y-38.352 R0.42
X-1.161 Y-38.344 R38.361
X-1.271 Y-38.325 R0.42
G1 X-1.339 Y-38.304
G2 X-1.441 Y-38.258 R0.42
G1 X-1.501 Y-38.22
G2 X-1.594 Y-38.14 R0.42
G1 X-1.648 Y-38.078
G2 X-1.717 Y-37.969 R0.42
G1 X-1.749 Y-37.893
G2 X-1.77 Y-37.833 R0.42
G1 X-1.809 Y-37.682
X-1.851 Y-37.547
X-1.862 Y-37.52
X-1.964 Y-37.515
X-1.969
X-2.069 Y-37.509
X-2.085 Y-37.539
X-2.139 Y-37.665
X-2.194 Y-37.811
G2 X-2.221 Y-37.868 R0.42
G1 X-2.261 Y-37.94
G2 X-2.342 Y-38.042 R0.42
G1 X-2.402 Y-38.098
G2 X-2.501 Y-38.167 R0.42
G1 X-2.565 Y-38.199
G2 X-2.672 Y-38.235 R0.42
G1 X-2.742 Y-38.248
G2 X-2.854 Y-38.255 R0.42
X-3.166 Y-38.23 R38.361
X-3.275 Y-38.206 R0.42
G1 X-3.342 Y-38.182
G2 X-3.442 Y-38.13 R0.42
G1 X-3.5 Y-38.088
G2 X-3.587 Y-38.005 R0.42
G1 X-3.638 Y-37.94
G2 X-3.702 Y-37.827 R0.42
G1 X-3.73 Y-37.75
G2 X-3.748 Y-37.689 R0.42
G1 X-3.779 Y-37.536
X-3.814 Y-37.399
X-3.823 Y-37.371
X-3.924 Y-37.361
X-3.93 Y-37.36
X-4.029 Y-37.349
X-4.047 Y-37.378
X-4.108 Y-37.501
X-4.17 Y-37.644
G2 X-4.2 Y-37.7 R0.42
G1 X-4.244 Y-37.77
G2 X-4.329 Y-37.867 R0.42
G1 X-4.392 Y-37.92
G2 X-4.496 Y-37.984 R0.42
G1 X-4.561 Y-38.012
G2 X-4.67 Y-38.042 R0.42
G1 X-4.74 Y-38.052
G2 X-4.852 Y-38.053 R0.42
X-5.163 Y-38.012 R38.361
X-5.27 Y-37.983 R0.42
G1 X-5.336 Y-37.955
G2 X-5.432 Y-37.898 R0.42
G1 X-5.488 Y-37.853
G2 X-5.572 Y-37.765 R0.42
G1 X-5.619 Y-37.697
G2 X-5.676 Y-37.581 R0.42
G1 X-5.701 Y-37.503
G2 X-5.715 Y-37.441 R0.42
G1 X-5.738 Y-37.287
X-5.766 Y-37.148
X-5.773 Y-37.12
X-5.874 Y-37.104
X-5.88 Y-37.103
X-5.979 Y-37.087
X-5.998 Y-37.115
X-6.065 Y-37.235
X-6.135 Y-37.375
G2 X-6.167 Y-37.429 R0.42
G1 X-6.215 Y-37.496
G2 X-6.305 Y-37.589 R0.42
G1 X-6.371 Y-37.638
G2 X-6.477 Y-37.696 R0.42
G1 X-6.544 Y-37.721
G2 X-6.654 Y-37.746 R0.42
G1 X-6.725 Y-37.752
G2 X-6.837 Y-37.747 R0.42
X-7.145 Y-37.69 R38.361
X-7.25 Y-37.655 R0.42
G1 X-7.315 Y-37.624
G2 X-7.409 Y-37.561 R0.42
G1 X-7.462 Y-37.514
G2 X-7.54 Y-37.422 R0.42
G1 X-7.584 Y-37.352
G2 X-7.635 Y-37.233 R0.42
G1 X-7.656 Y-37.153
G2 X-7.667 Y-37.091 R0.42
G1 X-7.682 Y-36.935
X-7.702 Y-36.795
X-7.708 Y-36.767
X-7.808 Y-36.746
X-7.813 Y-36.745
X-7.911 Y-36.723
X-7.932 Y-36.751
X-8.005 Y-36.867
X-8.082 Y-37.002
G2 X-8.118 Y-37.055 R0.42
G1 X-8.169 Y-37.119
G2 X-8.264 Y-37.207 R0.42
G1 X-8.332 Y-37.253
G2 X-8.441 Y-37.306 R0.42
G1 X-8.51 Y-37.327
G2 X-8.621 Y-37.346 R0.42
G1 X-8.692 Y-37.348
G2 X-8.803 Y-37.337 R0.42
X-9.107 Y-37.264 R38.361
X-9.212 Y-37.224 R0.42
G1 X-9.274 Y-37.189
G2 X-9.364 Y-37.122 R0.42
G1 X-9.415 Y-37.072
G2 X-9.489 Y-36.976 R0.42
G1 X-9.529 Y-36.904
G2 X-9.573 Y-36.782 R0.42
G1 X-9.59 Y-36.701
G2 X-9.597 Y-36.639 R0.42
G1 X-9.604 Y-36.483
X-9.617 Y-36.342
X-9.622 Y-36.313
X-9.721 Y-36.287
X-9.726 Y-36.286
X-9.822 Y-36.259
X-9.845 Y-36.285
X-9.924 Y-36.397
X-10.008 Y-36.528
G2 X-10.046 Y-36.579 R0.42
G1 X-10.1 Y-36.641
G2 X-10.199 Y-36.724 R0.42
G1 X-10.27 Y-36.766
G2 X-10.382 Y-36.813 R0.42
G1 X-10.452 Y-36.831
G2 X-10.563 Y-36.844 R0.42
G1 X-10.635 Y-36.842
G2 X-10.745 Y-36.826 R0.42
X-11.045 Y-36.736 R38.361
X-11.146 Y-36.691 R0.42
G1 X-11.207 Y-36.653
G2 X-11.294 Y-36.581 R0.42
G1 X-11.343 Y-36.528
G2 X-11.411 Y-36.428 R0.42
G1 X-11.447 Y-36.354
G2 X-11.485 Y-36.231 R0.42
G1 X-11.497 Y-36.149
G2 X-11.502 Y-36.086 R0.42
G1 X-11.501 Y-35.93
X-11.506 Y-35.788
X-11.509 Y-35.759
X-11.606 Y-35.728
X-11.611 Y-35.727
X-11.707 Y-35.695
X-11.73 Y-35.72
X-11.815 Y-35.828
X-11.906 Y-35.955
G2 X-11.947 Y-36.003 R0.42
G1 X-12.004 Y-36.062
G2 X-12.108 Y-36.14 R0.42
G1 X-12.181 Y-36.178
G2 X-12.294 Y-36.219 R0.42
G1 X-12.365 Y-36.233
G2 X-12.477 Y-36.24 R0.42
G1 X-12.548 Y-36.235
G2 X-12.657 Y-36.213 R0.42
X-12.953 Y-36.108 R38.361
X-13.051 Y-36.057 R0.42
G1 X-13.11 Y-36.016
G2 X-13.193 Y-35.94 R0.42
G1 X-13.239 Y-35.884
G2 X-13.302 Y-35.781 R0.42
G1 X-13.334 Y-35.705
G2 X-13.366 Y-35.58 R0.42
G1 X-13.373 Y-35.498
G2 X-13.374 Y-35.435 R0.42
G1 X-13.365 Y-35.279
X-13.363 Y-35.137
X-13.365 Y-35.108
X-13.46 Y-35.072
X-13.465 Y-35.07
X-13.559 Y-35.034
X-13.583 Y-35.057
X-13.674 Y-35.161
X-13.771 Y-35.282
G2 X-13.814 Y-35.329 R0.42
G1 X-13.875 Y-35.384
G2 X-13.983 Y-35.457 R0.42
G1 X-14.057 Y-35.491
G2 X-14.173 Y-35.526 R0.42
G1 X-14.244 Y-35.536
G2 X-14.357 Y-35.538 R0.42
G1 X-14.428 Y-35.529
G2 X-14.535 Y-35.501 R0.42
X-14.825 Y-35.381 R38.361
X-14.921 Y-35.325 R0.42
G1 X-14.977 Y-35.281
G2 X-15.056 Y-35.2 R0.42
G1 X-15.099 Y-35.143
G2 X-15.156 Y-35.036 R0.42
G1 X-15.184 Y-34.959
G2 X-15.209 Y-34.832 R0.42
G1 X-15.213 Y-34.75
G2 X-15.211 Y-34.686 R0.42
G1 X-15.193 Y-34.531
X-15.184 Y-34.39
Y-34.361
X-15.277 Y-34.32
X-15.282 Y-34.317
X-15.374 Y-34.276
X-15.4 Y-34.298
X-15.495 Y-34.397
X-15.599 Y-34.513
G2 X-15.644 Y-34.557 R0.42
