(__3)
(T1  D=3.175 CR=0. - ZMIN=-8. - FLAT END MILL)
G90 G94 G91.1 G40 G49 G17
G21

(2D CONTOUR5)
M5
M9
T1
S10000 M3
G54
M8
G0 X-18.208 Y22.309
G43 Z15. H1
Z5.
G1 Z3. F762.
Z2.5
G3 X-28.796 Y0. Z-2. R28.796
X28.796 R28.796
X-28.796 R28.796
X-15.813 Y-24.066 Z-4. R28.796
X15.813 Y24.066 R28.796
X-15.813 Y-24.066 R28.796
X11.43 Y-26.431 Z-6. R28.796
X-11.43 Y26.431 R28.796
X11.43 Y-26.431 R28.796
X28.366 Y-4.961 Z-8. R28.796
X-28.366 Y4.961 R28.796
X28.366 Y-4.961 R28.796
G0 Z15.

M9
M30
