(_120T_STEP1)
(T1  D=3.175 CR=0. - ZMIN=-8. - FLAT END MILL)
G90 G94 G91.1 G40 G49 G17
G21

(DRILL1)
M5
M9
T1
S10000 M3
G54
M8
G0 X26. Y0.
G43 Z10. H1
Z5.
G98 G73 X26. Y0. Z-8. R5. Q0.5 F762.
X16.5
X0. Y16.5
Y26.
X-26. Y0.
X-16.5
X0. Y-16.5
Y-26.
G80
Z10.

(2D CONTOUR1)
M8
G0 X-7.816 Y-7.253
Z10.
Z5.
G1 Z3. F762.
Z2.5
G3 X10.663 Y0. Z-2. R10.663
X-10.663 R10.663
X10.663 R10.663
X5.177 Y9.321 Z-4. R10.662
X-5.177 Y-9.321 R10.662
X5.177 Y9.321 R10.662
X-5.635 Y9.052 Z-6. R10.662
X5.635 Y-9.052 R10.662
X-5.635 Y9.052 R10.662
X-10.649 Y-0.53 Z-8. R10.662
X10.649 Y0.53 R10.662
X-10.649 Y-0.53 R10.662
G0 Z10.

(2D CONTOUR2)
M8
G0 X31.64 Y23.845
Z10.
Z5.
G1 Z3. F762.
Z2.5
G2 X31.758 Y23.608 Z2.453 R1.688
G1 X31.785 Y23.542 Z2.441
G2 X31.889 Y23.169 Z2.372 R1.687
X32.21 Y22.956 Z2.304 R1.687
G1 X32.265 Y22.91 Z2.292
G2 X32.567 Y22.579 Z2.212 R1.688
X32.751 Y22.312 Z2.155 R39.629
X32.951 Y21.912 Z2.076 R1.687
G1 X32.974 Y21.844 Z2.063
G2 X33.058 Y21.468 Z1.995 R1.687
X33.368 Y21.239 Z1.927 R1.688
G1 X33.42 Y21.19 Z1.915
G2 X33.704 Y20.844 Z1.835 R1.688
X33.873 Y20.568 Z1.778 R39.629
X34.052 Y20.159 Z1.699 R1.687
G1 X34.072 Y20.09 Z1.687
G2 X34.136 Y19.708 Z1.618 R1.688
X34.435 Y19.462 Z1.55 R1.688
G1 X34.484 Y19.411 Z1.537
G2 X34.749 Y19.051 Z1.458 R1.688
X34.903 Y18.767 Z1.401 R39.629
X35.061 Y18.347 Z1.322 R1.688
G1 X35.077 Y18.278 Z1.309
G2 X35.121 Y17.895 Z1.241 R1.687
X35.405 Y17.634 Z1.173 R1.687
G1 X35.452 Y17.58 Z1.161
G2 X35.698 Y17.207 Z1.081 R1.687
X35.838 Y16.914 Z1.024 R39.629
X35.973 Y16.489 Z0.945 R1.687
G1 X35.986 Y16.419 Z0.933
G2 X36.009 Y16.032 Z0.864 R1.687
X36.28 Y15.757 Z0.796 R1.687
G1 X36.324 Y15.7 Z0.784
G2 X36.55 Y15.314 Z0.704 R1.687
X36.674 Y15.015 Z0.647 R39.629
X36.787 Y14.584 Z0.568 R1.688
G1 X36.795 Y14.513 Z0.556
G2 X36.799 Y14.126 Z0.487 R1.687
X37.055 Y13.836 Z0.419 R1.687
G1 X37.096 Y13.777 Z0.406
G2 X37.301 Y13.381 Z0.328 R1.688
X37.409 Y13.075 Z0.27 R39.629
X37.5 Y12.637 Z0.191 R1.687
G1 X37.505 Y12.565 Z0.179
G2 X37.488 Y12.181 Z0.11 R1.688
X37.729 Y11.877 Z0.042 R1.687
G1 X37.767 Y11.816 Z0.029
G2 X37.95 Y11.41 Z-0.049 R1.687
X38.042 Y11.1 Z-0.107 R39.629
X38.11 Y10.658 Z-0.186 R1.688
G1 X38.111 Y10.586 Z-0.198
G2 X38.074 Y10.202 Z-0.266 R1.688
X38.297 Y9.889 Z-0.334 R1.688
G1 X38.332 Y9.826 Z-0.347
G2 X38.496 Y9.408 Z-0.427 R1.688
X38.571 Y9.093 Z-0.484 R39.629
X38.615 Y8.65 Z-0.562 R1.688
G1 X38.613 Y8.578 Z-0.575
G2 X38.555 Y8.195 Z-0.643 R1.687
X38.763 Y7.869 Z-0.712 R1.688
G1 X38.794 Y7.805 Z-0.724
G2 X38.935 Y7.381 Z-0.803 R1.688
X38.994 Y7.062 Z-0.861 R39.629
X39.015 Y6.615 Z-0.94 R1.688
G1 X39.009 Y6.544 Z-0.952
G2 X38.931 Y6.166 Z-1.02 R1.687
X39.122 Y5.83 Z-1.089 R1.688
G1 X39.15 Y5.764 Z-1.101
G2 X39.268 Y5.333 Z-1.18 R1.687
X39.31 Y5.012 Z-1.237 R39.629
X39.308 Y4.565 Z-1.317 R1.688
G1 X39.298 Y4.494 Z-1.329
G2 X39.201 Y4.12 Z-1.397 R1.688
X39.373 Y3.774 Z-1.466 R1.687
G1 X39.398 Y3.707 Z-1.478
G2 X39.493 Y3.271 Z-1.557 R1.688
X39.519 Y2.948 Z-1.614 R39.629
X39.493 Y2.501 Z-1.694 R1.688
G1 X39.479 Y2.431 Z-1.706
G2 X39.363 Y2.063 Z-1.774 R1.687
X39.517 Y1.71 Z-1.842 R1.687
G1 X39.538 Y1.641 Z-1.855
G2 X39.61 Y1.199 Z-1.934 R1.688
X39.619 Y0.875 Z-1.991 R39.629
Y0.827 Z-2. R1.688
X39.57 Y0.432 R1.687
G1 X39.553 Y0.363
G2 X39.417 Y0. R1.687
X39.553 Y-0.363 R1.687
G1 X39.57 Y-0.432
G2 X39.619 Y-0.875 R1.687
X39.61 Y-1.199 R39.629
X39.538 Y-1.641 R1.688
G1 X39.517 Y-1.71
G2 X39.363 Y-2.063 R1.687
X39.479 Y-2.431 R1.688
G1 X39.493 Y-2.501
G2 X39.519 Y-2.948 R1.688
X39.493 Y-3.271 R39.629
X39.398 Y-3.707 R1.687
G1 X39.373 Y-3.774
G2 X39.201 Y-4.12 R1.688
X39.298 Y-4.494 R1.687
G1 X39.308 Y-4.565
G2 X39.31 Y-5.012 R1.688
X39.268 Y-5.333 R39.629
X39.15 Y-5.764 R1.687
G1 X39.122 Y-5.83
G2 X38.931 Y-6.166 R1.687
X39.009 Y-6.544 R1.688
G1 X39.015 Y-6.615
G2 X38.994 Y-7.062 R1.688
X38.935 Y-7.381 R39.629
X38.794 Y-7.805 R1.688
G1 X38.763 Y-7.869
G2 X38.555 Y-8.195 R1.688
X38.613 Y-8.578 R1.688
G1 X38.615 Y-8.65
G2 X38.571 Y-9.093 R1.688
X38.496 Y-9.408 R39.629
X38.332 Y-9.826 R1.688
G1 X38.297 Y-9.889
G2 X38.074 Y-10.202 R1.687
X38.111 Y-10.586 R1.688
G1 X38.11 Y-10.658
G2 X38.042 Y-11.1 R1.687
X37.95 Y-11.41 R39.629
X37.767 Y-11.816 R1.687
G1 X37.729 Y-11.877
G2 X37.488 Y-12.181 R1.688
X37.505 Y-12.565 R1.687
G1 X37.5 Y-12.637
G2 X37.409 Y-13.075 R1.687
X37.301 Y-13.381 R39.629
X37.096 Y-13.777 R1.687
G1 X37.055 Y-13.836
G2 X36.799 Y-14.126 R1.687
X36.795 Y-14.513 R1.688
G1 X36.787 Y-14.584
G2 X36.674 Y-15.015 R1.687
X36.55 Y-15.314 R39.629
X36.324 Y-15.7 R1.687
G1 X36.28 Y-15.757
G2 X36.009 Y-16.032 R1.687
X35.986 Y-16.419 R1.687
G1 X35.973 Y-16.489
G2 X35.838 Y-16.914 R1.688
X35.698 Y-17.207 R39.629
X35.452 Y-17.58 R1.687
G1 X35.405 Y-17.634
G2 X35.121 Y-17.895 R1.688
X35.077 Y-18.278 R1.687
G1 X35.061 Y-18.347
G2 X34.903 Y-18.767 R1.687
X34.749 Y-19.051 R39.629
X34.484 Y-19.411 R1.687
G1 X34.435 Y-19.462
G2 X34.136 Y-19.708 R1.688
X34.072 Y-20.09 R1.687
G1 X34.052 Y-20.159
G2 X33.873 Y-20.568 R1.687
X33.704 Y-20.844 R39.629
X33.42 Y-21.19 R1.688
G1 X33.368 Y-21.239
G2 X33.058 Y-21.468 R1.688
X32.974 Y-21.844 R1.687
G1 X32.951 Y-21.912
G2 X32.751 Y-22.312 R1.687
X32.567 Y-22.579 R39.629
X32.265 Y-22.91 R1.687
G1 X32.21 Y-22.956
G2 X31.889 Y-23.169 R1.688
X31.785 Y-23.542 R1.687
G1 X31.758 Y-23.608
G2 X31.538 Y-23.996 R1.688
X31.34 Y-24.253 R39.629
X31.024 Y-24.566 R1.687
G1 X30.967 Y-24.609
G2 X30.633 Y-24.806 R1.687
X30.511 Y-25.171 R1.687
G1 X30.481 Y-25.236
G2 X30.239 Y-25.614 R1.688
X30.028 Y-25.86 R39.629
X29.695 Y-26.156 R1.688
G1 X29.636 Y-26.196
G2 X29.292 Y-26.375 R1.688
X29.151 Y-26.734 R1.688
G1 X29.117 Y-26.797
G2 X28.857 Y-27.161 R1.687
X28.634 Y-27.396 R39.629
X28.284 Y-27.675 R1.688
G1 X28.223 Y-27.712
G2 X27.872 Y-27.872 R1.687
X27.712 Y-28.223 R1.687
G1 X27.675 Y-28.284
G2 X27.396 Y-28.634 R1.688
X27.161 Y-28.857 R39.629
X26.797 Y-29.117 R1.687
G1 X26.734 Y-29.151
G2 X26.375 Y-29.292 R1.688
X26.196 Y-29.636 R1.688
G1 X26.156 Y-29.695
G2 X25.86 Y-30.028 R1.687
X25.614 Y-30.239 R39.629
X25.236 Y-30.481 R1.688
G1 X25.171 Y-30.511
G2 X24.806 Y-30.633 R1.687
X24.609 Y-30.967 R1.687
G1 X24.566 Y-31.024
G2 X24.253 Y-31.34 R1.687
X23.996 Y-31.538 R39.629
X23.608 Y-31.758 R1.688
G1 X23.542 Y-31.785
G2 X23.169 Y-31.889 R1.687
X22.956 Y-32.21 R1.687
G1 X22.91 Y-32.265
G2 X22.579 Y-32.567 R1.688
X22.312 Y-32.751 R39.629
X21.912 Y-32.951 R1.687
G1 X21.844 Y-32.974
G2 X21.468 Y-33.058 R1.687
X21.239 Y-33.368 R1.688
G1 X21.19 Y-33.42
G2 X20.844 Y-33.704 R1.688
X20.568 Y-33.873 R39.629
X20.159 Y-34.052 R1.687
G1 X20.09 Y-34.072
G2 X19.708 Y-34.136 R1.688
X19.462 Y-34.435 R1.688
G1 X19.411 Y-34.484
G2 X19.051 Y-34.749 R1.688
X18.767 Y-34.903 R39.629
X18.347 Y-35.061 R1.688
G1 X18.278 Y-35.077
G2 X17.895 Y-35.121 R1.687
X17.634 Y-35.405 R1.687
G1 X17.58 Y-35.452
G2 X17.207 Y-35.698 R1.687
X16.914 Y-35.838 R39.629
X16.489 Y-35.973 R1.687
G1 X16.419 Y-35.986
G2 X16.032 Y-36.009 R1.687
X15.757 Y-36.28 R1.687
G1 X15.7 Y-36.324
G2 X15.314 Y-36.55 R1.687
X15.015 Y-36.674 R39.629
X14.584 Y-36.787 R1.688
G1 X14.513 Y-36.795
G2 X14.126 Y-36.799 R1.687
X13.836 Y-37.055 R1.687
G1 X13.777 Y-37.096
G2 X13.381 Y-37.301 R1.688
X13.075 Y-37.409 R39.629
X12.637 Y-37.5 R1.687
G1 X12.565 Y-37.505
G2 X12.181 Y-37.488 R1.688
X11.877 Y-37.729 R1.687
G1 X11.816 Y-37.767
G2 X11.41 Y-37.95 R1.687
X11.1 Y-38.042 R39.629
X10.658 Y-38.11 R1.688
G1 X10.586 Y-38.111
G2 X10.202 Y-38.074 R1.688
X9.889 Y-38.297 R1.688
G1 X9.826 Y-38.332
G2 X9.408 Y-38.496 R1.688
X9.093 Y-38.571 R39.629
X8.65 Y-38.615 R1.688
G1 X8.578 Y-38.613
G2 X8.195 Y-38.555 R1.687
X7.869 Y-38.763 R1.688
G1 X7.805 Y-38.794
G2 X7.381 Y-38.935 R1.688
X7.062 Y-38.994 R39.629
X6.615 Y-39.015 R1.688
G1 X6.544 Y-39.009
G2 X6.166 Y-38.931 R1.687
X5.83 Y-39.122 R1.688
G1 X5.764 Y-39.15
G2 X5.333 Y-39.268 R1.687
X5.012 Y-39.31 R39.629
X4.565 Y-39.308 R1.688
G1 X4.494 Y-39.298
G2 X4.12 Y-39.201 R1.688
X3.774 Y-39.373 R1.687
G1 X3.707 Y-39.398
G2 X3.271 Y-39.493 R1.688
X2.948 Y-39.519 R39.629
X2.501 Y-39.493 R1.688
G1 X2.431 Y-39.479
G2 X2.063 Y-39.363 R1.687
X1.71 Y-39.517 R1.687
G1 X1.641 Y-39.538
G2 X1.199 Y-39.61 R1.688
X0.875 Y-39.619 R39.629
X0.432 Y-39.57 R1.687
G1 X0.363 Y-39.553
G2 X0. Y-39.417 R1.687
X-0.363 Y-39.553 R1.687
G1 X-0.432 Y-39.57
G2 X-0.875 Y-39.619 R1.687
X-1.199 Y-39.61 R39.629
X-1.641 Y-39.538 R1.688
G1 X-1.71 Y-39.517
G2 X-2.063 Y-39.363 R1.687
X-2.431 Y-39.479 R1.688
G1 X-2.501 Y-39.493
G2 X-2.948 Y-39.519 R1.688
X-3.271 Y-39.493 R39.629
X-3.707 Y-39.398 R1.687
G1 X-3.774 Y-39.373
G2 X-4.12 Y-39.201 R1.688
X-4.494 Y-39.298 R1.687
G1 X-4.565 Y-39.308
G2 X-5.012 Y-39.31 R1.688
X-5.333 Y-39.268 R39.629
X-5.764 Y-39.15 R1.687
G1 X-5.83 Y-39.122
G2 X-6.166 Y-38.931 R1.687
X-6.544 Y-39.009 R1.688
G1 X-6.615 Y-39.015
G2 X-7.062 Y-38.994 R1.688
X-7.381 Y-38.935 R39.629
X-7.805 Y-38.794 R1.688
G1 X-7.869 Y-38.763
G2 X-8.195 Y-38.555 R1.688
X-8.578 Y-38.613 R1.688
G1 X-8.65 Y-38.615
G2 X-9.093 Y-38.571 R1.688
X-9.408 Y-38.496 R39.629
X-9.826 Y-38.332 R1.688
G1 X-9.889 Y-38.297
G2 X-10.202 Y-38.074 R1.687
X-10.586 Y-38.111 R1.688
G1 X-10.658 Y-38.11
G2 X-11.1 Y-38.042 R1.687
X-11.41 Y-37.95 R39.629
X-11.816 Y-37.767 R1.687
G1 X-11.877 Y-37.729
G2 X-12.181 Y-37.488 R1.688
X-12.565 Y-37.505 R1.687
G1 X-12.637 Y-37.5
G2 X-13.075 Y-37.409 R1.687
X-13.381 Y-37.301 R39.629
X-13.777 Y-37.096 R1.687
G1 X-13.836 Y-37.055
G2 X-14.126 Y-36.799 R1.687
X-14.513 Y-36.795 R1.688
G1 X-14.584 Y-36.787
G2 X-15.015 Y-36.674 R1.687
X-15.314 Y-36.55 R39.629
X-15.7 Y-36.324 R1.687
G1 X-15.757 Y-36.28
G2 X-16.032 Y-36.009 R1.687
X-16.419 Y-35.986 R1.687
G1 X-16.489 Y-35.973
G2 X-16.914 Y-35.838 R1.688
X-17.207 Y-35.698 R39.629
X-17.58 Y-35.452 R1.687
G1 X-17.634 Y-35.405
G2 X-17.895 Y-35.121 R1.688
X-18.278 Y-35.077 R1.687
G1 X-18.347 Y-35.061
G2 X-18.767 Y-34.903 R1.687
X-19.051 Y-34.749 R39.629
X-19.411 Y-34.484 R1.687
G1 X-19.462 Y-34.435
G2 X-19.708 Y-34.136 R1.688
X-20.09 Y-34.072 R1.687
G1 X-20.159 Y-34.052
G2 X-20.568 Y-33.873 R1.687
X-20.844 Y-33.704 R39.629
X-21.19 Y-33.42 R1.688
G1 X-21.239 Y-33.368
G2 X-21.468 Y-33.058 R1.688
X-21.844 Y-32.974 R1.687
G1 X-21.912 Y-32.951
G2 X-22.312 Y-32.751 R1.687
X-22.579 Y-32.567 R39.629
X-22.91 Y-32.265 R1.687
G1 X-22.956 Y-32.21
G2 X-23.169 Y-31.889 R1.688
X-23.542 Y-31.785 R1.687
G1 X-23.608 Y-31.758
G2 X-23.996 Y-31.538 R1.688
X-24.253 Y-31.34 R39.629
X-24.566 Y-31.024 R1.687
G1 X-24.609 Y-30.967
G2 X-24.806 Y-30.633 R1.687
X-25.171 Y-30.511 R1.687
G1 X-25.236 Y-30.481
G2 X-25.614 Y-30.239 R1.688
X-25.86 Y-30.028 R39.629
X-26.156 Y-29.695 R1.688
G1 X-26.196 Y-29.636
G2 X-26.375 Y-29.292 R1.688
X-26.734 Y-29.151 R1.688
G1 X-26.797 Y-29.117
G2 X-27.161 Y-28.857 R1.687
X-27.396 Y-28.634 R39.629
X-27.675 Y-28.284 R1.688
G1 X-27.712 Y-28.223
G2 X-27.872 Y-27.872 R1.687
X-28.223 Y-27.712 R1.687
G1 X-28.284 Y-27.675
G2 X-28.634 Y-27.396 R1.688
X-28.857 Y-27.161 R39.629
X-29.117 Y-26.797 R1.687
G1 X-29.151 Y-26.734
G2 X-29.292 Y-26.375 R1.688
X-29.636 Y-26.196 R1.688
G1 X-29.695 Y-26.156
G2 X-30.028 Y-25.86 R1.687
X-30.239 Y-25.614 R39.629
X-30.481 Y-25.236 R1.688
G1 X-30.511 Y-25.171
G2 X-30.633 Y-24.806 R1.687
X-30.967 Y-24.609 R1.687
G1 X-31.024 Y-24.566
G2 X-31.34 Y-24.253 R1.687
X-31.538 Y-23.996 R39.629
X-31.758 Y-23.608 R1.688
G1 X-31.785 Y-23.542
G2 X-31.889 Y-23.169 R1.687
X-32.21 Y-22.956 R1.687
G1 X-32.265 Y-22.91
G2 X-32.567 Y-22.579 R1.688
X-32.751 Y-22.312 R39.629
X-32.951 Y-21.912 R1.687
G1 X-32.974 Y-21.844
G2 X-33.058 Y-21.468 R1.687
X-33.368 Y-21.239 R1.688
G1 X-33.42 Y-21.19
G2 X-33.704 Y-20.844 R1.688
X-33.873 Y-20.568 R39.629
X-34.052 Y-20.159 R1.687
G1 X-34.072 Y-20.09
G2 X-34.136 Y-19.708 R1.688
X-34.435 Y-19.462 R1.688
G1 X-34.484 Y-19.411
G2 X-34.749 Y-19.051 R1.688
X-34.903 Y-18.767 R39.629
X-35.061 Y-18.347 R1.688
G1 X-35.077 Y-18.278
G2 X-35.121 Y-17.895 R1.687
X-35.405 Y-17.634 R1.687
G1 X-35.452 Y-17.58
G2 X-35.698 Y-17.207 R1.687
X-35.838 Y-16.914 R39.629
X-35.973 Y-16.489 R1.687
G1 X-35.986 Y-16.419
G2 X-36.009 Y-16.032 R1.687
X-36.28 Y-15.757 R1.687
G1 X-36.324 Y-15.7
G2 X-36.55 Y-15.314 R1.687
X-36.674 Y-15.015 R39.629
X-36.787 Y-14.584 R1.688
G1 X-36.795 Y-14.513
G2 X-36.799 Y-14.126 R1.687
X-37.055 Y-13.836 R1.687
G1 X-37.096 Y-13.777
G2 X-37.301 Y-13.381 R1.688
X-37.409 Y-13.075 R39.629
X-37.5 Y-12.637 R1.687
G1 X-37.505 Y-12.565
G2 X-37.488 Y-12.181 R1.688
X-37.729 Y-11.877 R1.687
G1 X-37.767 Y-11.816
G2 X-37.95 Y-11.41 R1.687
X-38.042 Y-11.1 R39.629
X-38.11 Y-10.658 R1.688
G1 X-38.111 Y-10.586
G2 X-38.074 Y-10.202 R1.688
X-38.297 Y-9.889 R1.688
G1 X-38.332 Y-9.826
G2 X-38.496 Y-9.408 R1.688
X-38.571 Y-9.093 R39.629
X-38.615 Y-8.65 R1.688
G1 X-38.613 Y-8.578
G2 X-38.555 Y-8.195 R1.687
X-38.763 Y-7.869 R1.688
G1 X-38.794 Y-7.805
G2 X-38.935 Y-7.381 R1.688
X-38.994 Y-7.062 R39.629
X-39.015 Y-6.615 R1.688
G1 X-39.009 Y-6.544
G2 X-38.931 Y-6.166 R1.687
X-39.122 Y-5.83 R1.688
G1 X-39.15 Y-5.764
G2 X-39.268 Y-5.333 R1.687
X-39.31 Y-5.012 R39.629
X-39.308 Y-4.565 R1.688
G1 X-39.298 Y-4.494
G2 X-39.201 Y-4.12 R1.688
X-39.373 Y-3.774 R1.687
G1 X-39.398 Y-3.707
G2 X-39.493 Y-3.271 R1.688
X-39.519 Y-2.948 R39.629
X-39.493 Y-2.501 R1.688
G1 X-39.479 Y-2.431
G2 X-39.363 Y-2.063 R1.687
X-39.517 Y-1.71 R1.687
G1 X-39.538 Y-1.641
G2 X-39.61 Y-1.199 R1.688
X-39.619 Y-0.875 R39.629
X-39.57 Y-0.432 R1.687
G1 X-39.553 Y-0.363
G2 X-39.417 Y0. R1.687
X-39.553 Y0.363 R1.687
G1 X-39.57 Y0.432
G2 X-39.619 Y0.875 R1.687
X-39.61 Y1.199 R39.629
X-39.538 Y1.641 R1.688
G1 X-39.517 Y1.71
G2 X-39.363 Y2.063 R1.687
X-39.479 Y2.431 R1.688
G1 X-39.493 Y2.501
G2 X-39.519 Y2.948 R1.688
X-39.493 Y3.271 R39.629
X-39.398 Y3.707 R1.687
G1 X-39.373 Y3.774
G2 X-39.201 Y4.12 R1.688
X-39.298 Y4.494 R1.687
G1 X-39.308 Y4.565
G2 X-39.31 Y5.012 R1.688
X-39.268 Y5.333 R39.629
X-39.15 Y5.764 R1.687
G1 X-39.122 Y5.83
G2 X-38.931 Y6.166 R1.687
X-39.009 Y6.544 R1.688
G1 X-39.015 Y6.615
G2 X-38.994 Y7.062 R1.688
X-38.935 Y7.381 R39.629
X-38.794 Y7.805 R1.688
G1 X-38.763 Y7.869
G2 X-38.555 Y8.195 R1.688
X-38.613 Y8.578 R1.688
G1 X-38.615 Y8.65
G2 X-38.571 Y9.093 R1.688
X-38.496 Y9.408 R39.629
X-38.332 Y9.826 R1.688
G1 X-38.297 Y9.889
G2 X-38.074 Y10.202 R1.687
X-38.111 Y10.586 R1.688
G1 X-38.11 Y10.658
G2 X-38.042 Y11.1 R1.687
X-37.95 Y11.41 R39.629
X-37.767 Y11.816 R1.687
G1 X-37.729 Y11.877
G2 X-37.488 Y12.181 R1.688
X-37.505 Y12.565 R1.687
G1 X-37.5 Y12.637
G2 X-37.409 Y13.075 R1.687
X-37.301 Y13.381 R39.629
X-37.096 Y13.777 R1.687
G1 X-37.055 Y13.836
G2 X-36.799 Y14.126 R1.687
X-36.795 Y14.513 R1.688
G1 X-36.787 Y14.584
G2 X-36.674 Y15.015 R1.687
X-36.55 Y15.314 R39.629
X-36.324 Y15.7 R1.687
G1 X-36.28 Y15.757
G2 X-36.009 Y16.032 R1.687
X-35.986 Y16.419 R1.687
G1 X-35.973 Y16.489
G2 X-35.838 Y16.914 R1.688
X-35.698 Y17.207 R39.629
X-35.452 Y17.58 R1.687
G1 X-35.405 Y17.634
G2 X-35.121 Y17.895 R1.688
X-35.077 Y18.278 R1.687
G1 X-35.061 Y18.347
G2 X-34.903 Y18.767 R1.687
X-34.749 Y19.051 R39.629
X-34.484 Y19.411 R1.687
G1 X-34.435 Y19.462
G2 X-34.136 Y19.708 R1.688
X-34.072 Y20.09 R1.687
G1 X-34.052 Y20.159
G2 X-33.873 Y20.568 R1.687
X-33.704 Y20.844 R39.629
X-33.42 Y21.19 R1.688
G1 X-33.368 Y21.239
G2 X-33.058 Y21.468 R1.688
X-32.974 Y21.844 R1.687
G1 X-32.951 Y21.912
G2 X-32.751 Y22.312 R1.687
X-32.567 Y22.579 R39.629
X-32.265 Y22.91 R1.687
G1 X-32.21 Y22.956
G2 X-31.889 Y23.169 R1.688
X-31.785 Y23.542 R1.687
G1 X-31.758 Y23.608
G2 X-31.538 Y23.996 R1.688
X-31.34 Y24.253 R39.629
X-31.024 Y24.566 R1.687
G1 X-30.967 Y24.609
G2 X-30.633 Y24.806 R1.687
X-30.511 Y25.171 R1.687
G1 X-30.481 Y25.236
G2 X-30.239 Y25.614 R1.688
X-30.028 Y25.86 R39.629
X-29.695 Y26.156 R1.688
G1 X-29.636 Y26.196
G2 X-29.292 Y26.375 R1.688
X-29.151 Y26.734 R1.688
G1 X-29.117 Y26.797
G2 X-28.857 Y27.161 R1.687
X-28.634 Y27.396 R39.629
X-28.284 Y27.675 R1.688
G1 X-28.223 Y27.712
G2 X-27.872 Y27.872 R1.687
X-27.712 Y28.223 R1.687
G1 X-27.675 Y28.284
G2 X-27.396 Y28.634 R1.688
X-27.161 Y28.857 R39.629
X-26.797 Y29.117 R1.687
G1 X-26.734 Y29.151
G2 X-26.375 Y29.292 R1.688
X-26.196 Y29.636 R1.688
G1 X-26.156 Y29.695
G2 X-25.86 Y30.028 R1.687
X-25.614 Y30.239 R39.629
X-25.236 Y30.481 R1.688
G1 X-25.171 Y30.511
G2 X-24.806 Y30.633 R1.687
X-24.609 Y30.967 R1.687
G1 X-24.566 Y31.024
G2 X-24.253 Y31.34 R1.687
X-23.996 Y31.538 R39.629
X-23.608 Y31.758 R1.688
G1 X-23.542 Y31.785
G2 X-23.169 Y31.889 R1.687
X-22.956 Y32.21 R1.687
G1 X-22.91 Y32.265
G2 X-22.579 Y32.567 R1.688
X-22.312 Y32.751 R39.629
X-21.912 Y32.951 R1.687
G1 X-21.844 Y32.974
G2 X-21.468 Y33.058 R1.687
X-21.239 Y33.368 R1.688
G1 X-21.19 Y33.42
G2 X-20.844 Y33.704 R1.688
X-20.568 Y33.873 R39.629
X-20.159 Y34.052 R1.687
G1 X-20.09 Y34.072
G2 X-19.708 Y34.136 R1.688
X-19.462 Y34.435 R1.688
G1 X-19.411 Y34.484
G2 X-19.051 Y34.749 R1.688
X-18.767 Y34.903 R39.629
X-18.347 Y35.061 R1.688
G1 X-18.278 Y35.077
G2 X-17.895 Y35.121 R1.687
X-17.634 Y35.405 R1.687
G1 X-17.58 Y35.452
G2 X-17.207 Y35.698 R1.687
X-16.914 Y35.838 R39.629
X-16.489 Y35.973 R1.687
G1 X-16.419 Y35.986
G2 X-16.032 Y36.009 R1.687
X-15.757 Y36.28 R1.687
G1 X-15.7 Y36.324
G2 X-15.314 Y36.55 R1.687
X-15.015 Y36.674 R39.629
X-14.584 Y36.787 R1.688
G1 X-14.513 Y36.795
G2 X-14.126 Y36.799 R1.687
X-13.836 Y37.055 R1.687
G1 X-13.777 Y37.096
G2 X-13.381 Y37.301 R1.688
X-13.075 Y37.409 R39.629
X-12.637 Y37.5 R1.687
G1 X-12.565 Y37.505
G2 X-12.181 Y37.488 R1.688
X-11.877 Y37.729 R1.687
G1 X-11.816 Y37.767
G2 X-11.41 Y37.95 R1.687
X-11.1 Y38.042 R39.629
X-10.658 Y38.11 R1.688
G1 X-10.586 Y38.111
G2 X-10.202 Y38.074 R1.688
X-9.889 Y38.297 R1.688
G1 X-9.826 Y38.332
G2 X-9.408 Y38.496 R1.688
X-9.093 Y38.571 R39.629
X-8.65 Y38.615 R1.688
G1 X-8.578 Y38.613
G2 X-8.195 Y38.555 R1.687
X-7.869 Y38.763 R1.688
G1 X-7.805 Y38.794
G2 X-7.381 Y38.935 R1.688
X-7.062 Y38.994 R39.629
X-6.615 Y39.015 R1.688
G1 X-6.544 Y39.009
G2 X-6.166 Y38.931 R1.687
X-5.83 Y39.122 R1.688
G1 X-5.764 Y39.15
G2 X-5.333 Y39.268 R1.687
X-5.012 Y39.31 R39.629
X-4.565 Y39.308 R1.688
G1 X-4.494 Y39.298
G2 X-4.12 Y39.201 R1.688
X-3.774 Y39.373 R1.687
G1 X-3.707 Y39.398
G2 X-3.271 Y39.493 R1.688
X-2.948 Y39.519 R39.629
X-2.501 Y39.493 R1.688
G1 X-2.431 Y39.479
G2 X-2.063 Y39.363 R1.687
X-1.71 Y39.517 R1.687
G1 X-1.641 Y39.538
G2 X-1.199 Y39.61 R1.688
X-0.875 Y39.619 R39.629
X-0.432 Y39.57 R1.687
G1 X-0.363 Y39.553
G2 X0. Y39.417 R1.687
X0.363 Y39.553 R1.687
G1 X0.432 Y39.57
G2 X0.875 Y39.619 R1.687
X1.199 Y39.61 R39.629
X1.641 Y39.538 R1.688
G1 X1.71 Y39.517
G2 X2.063 Y39.363 R1.687
X2.431 Y39.479 R1.688
G1 X2.501 Y39.493
G2 X2.948 Y39.519 R1.688
X3.271 Y39.493 R39.629
X3.707 Y39.398 R1.687
G1 X3.774 Y39.373
G2 X4.12 Y39.201 R1.688
X4.494 Y39.298 R1.687
G1 X4.565 Y39.308
G2 X5.012 Y39.31 R1.688
X5.333 Y39.268 R39.629
X5.764 Y39.15 R1.687
G1 X5.83 Y39.122
G2 X6.166 Y38.931 R1.687
X6.544 Y39.009 R1.688
G1 X6.615 Y39.015
G2 X7.062 Y38.994 R1.688
X7.381 Y38.935 R39.629
X7.805 Y38.794 R1.688
G1 X7.869 Y38.763
G2 X8.195 Y38.555 R1.688
X8.578 Y38.613 R1.688
G1 X8.65 Y38.615
G2 X9.093 Y38.571 R1.688
X9.408 Y38.496 R39.629
X9.826 Y38.332 R1.688
G1 X9.889 Y38.297
G2 X10.202 Y38.074 R1.687
X10.586 Y38.111 R1.688
G1 X10.658 Y38.11
G2 X11.1 Y38.042 R1.687
X11.41 Y37.95 R39.629
X11.816 Y37.767 R1.687
G1 X11.877 Y37.729
G2 X12.181 Y37.488 R1.688
X12.565 Y37.505 R1.687
G1 X12.637 Y37.5
G2 X13.075 Y37.409 R1.687
X13.381 Y37.301 R39.629
X13.777 Y37.096 R1.687
G1 X13.836 Y37.055
G2 X14.126 Y36.799 R1.687
X14.513 Y36.795 R1.688
G1 X14.584 Y36.787
G2 X15.015 Y36.674 R1.687
X15.314 Y36.55 R39.629
X15.7 Y36.324 R1.687
G1 X15.757 Y36.28
G2 X16.032 Y36.009 R1.687
X16.419 Y35.986 R1.687
G1 X16.489 Y35.973
G2 X16.914 Y35.838 R1.688
X17.207 Y35.698 R39.629
X17.58 Y35.452 R1.687
G1 X17.634 Y35.405
G2 X17.895 Y35.121 R1.688
X18.278 Y35.077 R1.687
G1 X18.347 Y35.061
G2 X18.767 Y34.903 R1.687
X19.051 Y34.749 R39.629
X19.411 Y34.484 R1.687
G1 X19.462 Y34.435
G2 X19.708 Y34.136 R1.688
X20.09 Y34.072 R1.687
G1 X20.159 Y34.052
G2 X20.568 Y33.873 R1.687
X20.844 Y33.704 R39.629
X21.19 Y33.42 R1.688
G1 X21.239 Y33.368
G2 X21.468 Y33.058 R1.688
X21.844 Y32.974 R1.687
G1 X21.912 Y32.951
G2 X22.312 Y32.751 R1.687
X22.579 Y32.567 R39.629
X22.91 Y32.265 R1.687
G1 X22.956 Y32.21
G2 X23.169 Y31.889 R1.688
X23.542 Y31.785 R1.687
G1 X23.608 Y31.758
G2 X23.996 Y31.538 R1.688
X24.253 Y31.34 R39.629
X24.566 Y31.024 R1.687
G1 X24.609 Y30.967
G2 X24.806 Y30.633 R1.687
X25.171 Y30.511 R1.687
G1 X25.236 Y30.481
G2 X25.614 Y30.239 R1.688
X25.86 Y30.028 R39.629
X26.156 Y29.695 R1.688
G1 X26.196 Y29.636
G2 X26.375 Y29.292 R1.688
X26.734 Y29.151 R1.688
G1 X26.797 Y29.117
G2 X27.161 Y28.857 R1.687
X27.396 Y28.634 R39.629
X27.675 Y28.284 R1.688
G1 X27.712 Y28.223
G2 X27.872 Y27.872 R1.687
X28.223 Y27.712 R1.687
G1 X28.284 Y27.675
G2 X28.634 Y27.396 R1.688
X28.857 Y27.161 R39.629
X29.117 Y26.797 R1.687
G1 X29.151 Y26.734
G2 X29.292 Y26.375 R1.688
X29.636 Y26.196 R1.688
G1 X29.695 Y26.156
G2 X30.028 Y25.86 R1.687
X30.239 Y25.614 R39.629
X30.481 Y25.236 R1.688
G1 X30.511 Y25.171
G2 X30.633 Y24.806 R1.687
X30.967 Y24.609 R1.687
G1 X31.024 Y24.566
G2 X31.34 Y24.253 R1.687
X31.538 Y23.996 R39.629
X31.758 Y23.608 R1.688
G1 X31.785 Y23.542
G2 X31.889 Y23.169 R1.687
X32.21 Y22.956 R1.687
G1 X32.265 Y22.91
G2 X32.567 Y22.579 R1.688
X32.751 Y22.312 R39.629
X32.951 Y21.912 R1.687
G1 X32.974 Y21.844
G2 X33.058 Y21.468 R1.687
X33.368 Y21.239 R1.688
G1 X33.42 Y21.19
G2 X33.704 Y20.844 R1.688
X33.873 Y20.568 R39.629
X34.052 Y20.159 R1.687
G1 X34.072 Y20.09
G2 X34.136 Y19.708 R1.688
X34.435 Y19.462 R1.688
G1 X34.484 Y19.411
G2 X34.749 Y19.051 R1.688
X34.903 Y18.767 R39.629
X35.061 Y18.347 R1.688
G1 X35.077 Y18.278
G2 X35.121 Y17.895 R1.687
X35.405 Y17.634 R1.687
G1 X35.452 Y17.58
G2 X35.698 Y17.207 R1.687
X35.838 Y16.914 R39.629
X35.973 Y16.489 R1.687
G1 X35.986 Y16.419
G2 X36.009 Y16.032 R1.687
X36.28 Y15.757 R1.687
G1 X36.324 Y15.7
G2 X36.55 Y15.314 R1.687
X36.674 Y15.015 R39.629
X36.787 Y14.584 R1.688
G1 X36.795 Y14.513
G2 X36.799 Y14.126 R1.687
X37.055 Y13.836 R1.687
G1 X37.096 Y13.777
G2 X37.301 Y13.381 R1.688
X37.409 Y13.075 R39.629
X37.5 Y12.637 R1.687
G1 X37.505 Y12.565
G2 X37.488 Y12.181 R1.688
X37.729 Y11.877 R1.687
G1 X37.767 Y11.816
G2 X37.95 Y11.41 R1.687
X38.042 Y11.1 R39.629
X38.11 Y10.658 R1.688
G1 X38.111 Y10.586
G2 X38.074 Y10.202 R1.688
X38.297 Y9.889 R1.688
G1 X38.332 Y9.826
G2 X38.496 Y9.408 R1.688
X38.571 Y9.093 R39.629
X38.615 Y8.65 R1.688
G1 X38.613 Y8.578
G2 X38.555 Y8.195 R1.687
X38.763 Y7.869 R1.688
G1 X38.794 Y7.805
G2 X38.935 Y7.381 R1.688
X38.994 Y7.062 R39.629
X39.015 Y6.615 R1.688
G1 X39.009 Y6.544
G2 X38.931 Y6.166 R1.687
X39.122 Y5.83 R1.688
G1 X39.15 Y5.764
G2 X39.268 Y5.333 R1.687
X39.31 Y5.012 R39.629
X39.308 Y4.565 R1.688
G1 X39.298 Y4.494
G2 X39.201 Y4.12 R1.688
X39.373 Y3.774 R1.687
G1 X39.398 Y3.707
G2 X39.493 Y3.271 R1.688
X39.519 Y2.948 R39.629
X39.493 Y2.501 R1.688
G1 X39.479 Y2.431
G2 X39.363 Y2.063 R1.687
X39.517 Y1.71 R1.687
G1 X39.538 Y1.641
G2 X39.61 Y1.199 R1.688
X39.619 Y0.875 R39.629
Y0.827 R1.688
X39.57 Y0.432 Z-2.02 R1.687
G1 X39.553 Y0.363 Z-2.023
G2 X39.417 Y0. Z-2.042 R1.687
X39.553 Y-0.363 Z-2.062 R1.687
G1 X39.57 Y-0.432 Z-2.065
G2 X39.619 Y-0.875 Z-2.087 R1.687
X39.61 Y-1.199 Z-2.103 R39.629
X39.538 Y-1.641 Z-2.126 R1.688
G1 X39.517 Y-1.71 Z-2.129
G2 X39.363 Y-2.063 Z-2.148 R1.687
X39.479 Y-2.431 Z-2.167 R1.688
G1 X39.493 Y-2.501 Z-2.171
G2 X39.519 Y-2.948 Z-2.193 R1.688
X39.493 Y-3.271 Z-2.209 R39.629
X39.398 Y-3.707 Z-2.231 R1.687
G1 X39.373 Y-3.774 Z-2.235
G2 X39.201 Y-4.12 Z-2.254 R1.688
X39.298 Y-4.494 Z-2.273 R1.687
G1 X39.308 Y-4.565 Z-2.277
G2 X39.31 Y-5.012 Z-2.299 R1.688
X39.268 Y-5.333 Z-2.315 R39.629
X39.15 Y-5.764 Z-2.337 R1.687
G1 X39.122 Y-5.83 Z-2.341
G2 X38.931 Y-6.166 Z-2.36 R1.687
X39.009 Y-6.544 Z-2.379 R1.688
G1 X39.015 Y-6.615 Z-2.383
G2 X38.994 Y-7.062 Z-2.405 R1.688
X38.935 Y-7.381 Z-2.421 R39.629
X38.794 Y-7.805 Z-2.443 R1.688
G1 X38.763 Y-7.869 Z-2.447
G2 X38.555 Y-8.195 Z-2.466 R1.688
X38.613 Y-8.578 Z-2.485 R1.688
G1 X38.615 Y-8.65 Z-2.489
G2 X38.571 Y-9.093 Z-2.511 R1.688
X38.496 Y-9.408 Z-2.527 R39.629
X38.332 Y-9.826 Z-2.549 R1.688
G1 X38.297 Y-9.889 Z-2.553
G2 X38.074 Y-10.202 Z-2.572 R1.687
X38.111 Y-10.586 Z-2.591 R1.688
G1 X38.11 Y-10.658 Z-2.594
G2 X38.042 Y-11.1 Z-2.617 R1.687
X37.95 Y-11.41 Z-2.633 R39.629
X37.767 Y-11.816 Z-2.655 R1.687
G1 X37.729 Y-11.877 Z-2.658
G2 X37.488 Y-12.181 Z-2.677 R1.688
X37.505 Y-12.565 Z-2.697 R1.687
G1 X37.5 Y-12.637 Z-2.7
G2 X37.409 Y-13.075 Z-2.722 R1.687
X37.301 Y-13.381 Z-2.738 R39.629
X37.096 Y-13.777 Z-2.761 R1.687
G1 X37.055 Y-13.836 Z-2.764
G2 X36.799 Y-14.126 Z-2.783 R1.687
X36.795 Y-14.513 Z-2.803 R1.688
G1 X36.787 Y-14.584 Z-2.806
G2 X36.674 Y-15.015 Z-2.828 R1.687
X36.55 Y-15.314 Z-2.844 R39.629
X36.324 Y-15.7 Z-2.866 R1.687
G1 X36.28 Y-15.757 Z-2.87
G2 X36.009 Y-16.032 Z-2.889 R1.687
X35.986 Y-16.419 Z-2.908 R1.687
G1 X35.973 Y-16.489 Z-2.912
G2 X35.838 Y-16.914 Z-2.934 R1.688
X35.698 Y-17.207 Z-2.95 R39.629
X35.452 Y-17.58 Z-2.972 R1.687
G1 X35.405 Y-17.634 Z-2.976
G2 X35.121 Y-17.895 Z-2.995 R1.688
X35.077 Y-18.278 Z-3.014 R1.687
G1 X35.061 Y-18.347 Z-3.018
G2 X34.903 Y-18.767 Z-3.04 R1.687
X34.749 Y-19.051 Z-3.056 R39.629
X34.484 Y-19.411 Z-3.078 R1.687
G1 X34.435 Y-19.462 Z-3.082
G2 X34.136 Y-19.708 Z-3.101 R1.688
X34.072 Y-20.09 Z-3.12 R1.687
G1 X34.052 Y-20.159 Z-3.124
G2 X33.873 Y-20.568 Z-3.146 R1.687
X33.704 Y-20.844 Z-3.162 R39.629
X33.42 Y-21.19 Z-3.184 R1.688
G1 X33.368 Y-21.239 Z-3.188
G2 X33.058 Y-21.468 Z-3.207 R1.688
X32.974 Y-21.844 Z-3.226 R1.687
G1 X32.951 Y-21.912 Z-3.229
G2 X32.751 Y-22.312 Z-3.252 R1.687
X32.567 Y-22.579 Z-3.268 R39.629
X32.265 Y-22.91 Z-3.29 R1.687
G1 X32.21 Y-22.956 Z-3.293
G2 X31.889 Y-23.169 Z-3.312 R1.688
X31.785 Y-23.542 Z-3.332 R1.687
G1 X31.758 Y-23.608 Z-3.335
G2 X31.538 Y-23.996 Z-3.357 R1.688
X31.34 Y-24.253 Z-3.373 R39.629
X31.024 Y-24.566 Z-3.396 R1.687
G1 X30.967 Y-24.609 Z-3.399
G2 X30.633 Y-24.806 Z-3.418 R1.687
X30.511 Y-25.171 Z-3.437 R1.687
G1 X30.481 Y-25.236 Z-3.441
G2 X30.239 Y-25.614 Z-3.463 R1.688
X30.028 Y-25.86 Z-3.479 R39.629
X29.695 Y-26.156 Z-3.501 R1.688
G1 X29.636 Y-26.196 Z-3.505
G2 X29.292 Y-26.375 Z-3.524 R1.688
X29.151 Y-26.734 Z-3.543 R1.688
G1 X29.117 Y-26.797 Z-3.547
G2 X28.857 Y-27.161 Z-3.569 R1.687
X28.634 Y-27.396 Z-3.585 R39.629
X28.284 Y-27.675 Z-3.607 R1.688
G1 X28.223 Y-27.712 Z-3.611
G2 X27.872 Y-27.872 Z-3.63 R1.687
X27.712 Y-28.223 Z-3.649 R1.687
G1 X27.675 Y-28.284 Z-3.653
G2 X27.396 Y-28.634 Z-3.675 R1.688
X27.161 Y-28.857 Z-3.691 R39.629
X26.797 Y-29.117 Z-3.713 R1.687
G1 X26.734 Y-29.151 Z-3.717
G2 X26.375 Y-29.292 Z-3.736 R1.688
X26.196 Y-29.636 Z-3.755 R1.688
G1 X26.156 Y-29.695 Z-3.759
G2 X25.86 Y-30.028 Z-3.781 R1.687
X25.614 Y-30.239 Z-3.797 R39.629
X25.236 Y-30.481 Z-3.819 R1.688
G1 X25.171 Y-30.511 Z-3.823
G2 X24.806 Y-30.633 Z-3.842 R1.687
X24.609 Y-30.967 Z-3.861 R1.687
G1 X24.566 Y-31.024 Z-3.864
G2 X24.253 Y-31.34 Z-3.887 R1.687
X23.996 Y-31.538 Z-3.903 R39.629
X23.608 Y-31.758 Z-3.925 R1.688
G1 X23.542 Y-31.785 Z-3.928
G2 X23.169 Y-31.889 Z-3.947 R1.687
X22.956 Y-32.21 Z-3.967 R1.687
G1 X22.91 Y-32.265 Z-3.97
G2 X22.579 Y-32.567 Z-3.992 R1.688
X22.453 Y-32.654 Z-4. R39.629
X22.312 Y-32.751 R39.629
X21.912 Y-32.951 R1.687
G1 X21.844 Y-32.974
G2 X21.468 Y-33.058 R1.687
X21.239 Y-33.368 R1.688
G1 X21.19 Y-33.42
G2 X20.844 Y-33.704 R1.688
X20.568 Y-33.873 R39.629
X20.159 Y-34.052 R1.687
G1 X20.09 Y-34.072
G2 X19.708 Y-34.136 R1.688
X19.462 Y-34.435 R1.688
G1 X19.411 Y-34.484
G2 X19.051 Y-34.749 R1.688
X18.767 Y-34.903 R39.629
X18.347 Y-35.061 R1.688
G1 X18.278 Y-35.077
G2 X17.895 Y-35.121 R1.687
X17.634 Y-35.405 R1.687
G1 X17.58 Y-35.452
G2 X17.207 Y-35.698 R1.687
X16.914 Y-35.838 R39.629
X16.489 Y-35.973 R1.687
G1 X16.419 Y-35.986
G2 X16.032 Y-36.009 R1.687
X15.757 Y-36.28 R1.687
G1 X15.7 Y-36.324
G2 X15.314 Y-36.55 R1.687
X15.015 Y-36.674 R39.629
X14.584 Y-36.787 R1.688
G1 X14.513 Y-36.795
G2 X14.126 Y-36.799 R1.687
X13.836 Y-37.055 R1.687
G1 X13.777 Y-37.096
G2 X13.381 Y-37.301 R1.688
X13.075 Y-37.409 R39.629
X12.637 Y-37.5 R1.687
G1 X12.565 Y-37.505
G2 X12.181 Y-37.488 R1.688
X11.877 Y-37.729 R1.687
G1 X11.816 Y-37.767
G2 X11.41 Y-37.95 R1.687
X11.1 Y-38.042 R39.629
X10.658 Y-38.11 R1.688
G1 X10.586 Y-38.111
G2 X10.202 Y-38.074 R1.688
X9.889 Y-38.297 R1.688
G1 X9.826 Y-38.332
G2 X9.408 Y-38.496 R1.688
X9.093 Y-38.571 R39.629
X8.65 Y-38.615 R1.688
G1 X8.578 Y-38.613
G2 X8.195 Y-38.555 R1.687
X7.869 Y-38.763 R1.688
G1 X7.805 Y-38.794
G2 X7.381 Y-38.935 R1.688
X7.062 Y-38.994 R39.629
X6.615 Y-39.015 R1.688
G1 X6.544 Y-39.009
G2 X6.166 Y-38.931 R1.687
X5.83 Y-39.122 R1.688
G1 X5.764 Y-39.15
G2 X5.333 Y-39.268 R1.687
X5.012 Y-39.31 R39.629
X4.565 Y-39.308 R1.688
G1 X4.494 Y-39.298
G2 X4.12 Y-39.201 R1.688
X3.774 Y-39.373 R1.687
G1 X3.707 Y-39.398
G2 X3.271 Y-39.493 R1.688
X2.948 Y-39.519 R39.629
X2.501 Y-39.493 R1.688
G1 X2.431 Y-39.479
G2 X2.063 Y-39.363 R1.687
X1.71 Y-39.517 R1.687
G1 X1.641 Y-39.538
G2 X1.199 Y-39.61 R1.688
X0.875 Y-39.619 R39.629
X0.432 Y-39.57 R1.687
G1 X0.363 Y-39.553
G2 X0. Y-39.417 R1.687
X-0.363 Y-39.553 R1.687
G1 X-0.432 Y-39.57
G2 X-0.875 Y-39.619 R1.687
X-1.199 Y-39.61 R39.629
X-1.641 Y-39.538 R1.688
G1 X-1.71 Y-39.517
G2 X-2.063 Y-39.363 R1.687
X-2.431 Y-39.479 R1.688
G1 X-2.501 Y-39.493
G2 X-2.948 Y-39.519 R1.688
X-3.271 Y-39.493 R39.629
X-3.707 Y-39.398 R1.687
G1 X-3.774 Y-39.373
G2 X-4.12 Y-39.201 R1.688
X-4.494 Y-39.298 R1.687
G1 X-4.565 Y-39.308
G2 X-5.012 Y-39.31 R1.688
X-5.333 Y-39.268 R39.629
X-5.764 Y-39.15 R1.687
G1 X-5.83 Y-39.122
G2 X-6.166 Y-38.931 R1.687
X-6.544 Y-39.009 R1.688
G1 X-6.615 Y-39.015
G2 X-7.062 Y-38.994 R1.688
X-7.381 Y-38.935 R39.629
X-7.805 Y-38.794 R1.688
G1 X-7.869 Y-38.763
G2 X-8.195 Y-38.555 R1.688
X-8.578 Y-38.613 R1.688
G1 X-8.65 Y-38.615
G2 X-9.093 Y-38.571 R1.688
X-9.408 Y-38.496 R39.629
X-9.826 Y-38.332 R1.688
G1 X-9.889 Y-38.297
G2 X-10.202 Y-38.074 R1.687
X-10.586 Y-38.111 R1.688
G1 X-10.658 Y-38.11
G2 X-11.1 Y-38.042 R1.687
X-11.41 Y-37.95 R39.629
X-11.816 Y-37.767 R1.687
G1 X-11.877 Y-37.729
G2 X-12.181 Y-37.488 R1.688
X-12.565 Y-37.505 R1.687
G1 X-12.637 Y-37.5
G2 X-13.075 Y-37.409 R1.687
X-13.381 Y-37.301 R39.629
X-13.777 Y-37.096 R1.687
G1 X-13.836 Y-37.055
G2 X-14.126 Y-36.799 R1.687
X-14.513 Y-36.795 R1.688
G1 X-14.584 Y-36.787
G2 X-15.015 Y-36.674 R1.687
X-15.314 Y-36.55 R39.629
X-15.7 Y-36.324 R1.687
G1 X-15.757 Y-36.28
G2 X-16.032 Y-36.009 R1.687
X-16.419 Y-35.986 R1.687
G1 X-16.489 Y-35.973
G2 X-16.914 Y-35.838 R1.688
X-17.207 Y-35.698 R39.629
X-17.58 Y-35.452 R1.687
G1 X-17.634 Y-35.405
G2 X-17.895 Y-35.121 R1.688
X-18.278 Y-35.077 R1.687
G1 X-18.347 Y-35.061
G2 X-18.767 Y-34.903 R1.687
X-19.051 Y-34.749 R39.629
X-19.411 Y-34.484 R1.687
G1 X-19.462 Y-34.435
G2 X-19.708 Y-34.136 R1.688
X-20.09 Y-34.072 R1.687
G1 X-20.159 Y-34.052
G2 X-20.568 Y-33.873 R1.687
X-20.844 Y-33.704 R39.629
X-21.19 Y-33.42 R1.688
G1 X-21.239 Y-33.368
G2 X-21.468 Y-33.058 R1.688
X-21.844 Y-32.974 R1.687
G1 X-21.912 Y-32.951
G2 X-22.312 Y-32.751 R1.687
X-22.579 Y-32.567 R39.629
X-22.91 Y-32.265 R1.687
G1 X-22.956 Y-32.21
G2 X-23.169 Y-31.889 R1.688
X-23.542 Y-31.785 R1.687
G1 X-23.608 Y-31.758
G2 X-23.996 Y-31.538 R1.688
X-24.253 Y-31.34 R39.629
X-24.566 Y-31.024 R1.687
G1 X-24.609 Y-30.967
G2 X-24.806 Y-30.633 R1.687
X-25.171 Y-30.511 R1.687
G1 X-25.236 Y-30.481
G2 X-25.614 Y-30.239 R1.688
X-25.86 Y-30.028 R39.629
X-26.156 Y-29.695 R1.688
G1 X-26.196 Y-29.636
G2 X-26.375 Y-29.292 R1.688
X-26.734 Y-29.151 R1.688
G1 X-26.797 Y-29.117
G2 X-27.161 Y-28.857 R1.687
X-27.396 Y-28.634 R39.629
X-27.675 Y-28.284 R1.688
G1 X-27.712 Y-28.223
G2 X-27.872 Y-27.872 R1.687
X-28.223 Y-27.712 R1.687
G1 X-28.284 Y-27.675
G2 X-28.634 Y-27.396 R1.688
X-28.857 Y-27.161 R39.629
X-29.117 Y-26.797 R1.687
G1 X-29.151 Y-26.734
G2 X-29.292 Y-26.375 R1.688
X-29.636 Y-26.196 R1.688
G1 X-29.695 Y-26.156
G2 X-30.028 Y-25.86 R1.687
X-30.239 Y-25.614 R39.629
X-30.481 Y-25.236 R1.688
G1 X-30.511 Y-25.171
G2 X-30.633 Y-24.806 R1.687
X-30.967 Y-24.609 R1.687
G1 X-31.024 Y-24.566
G2 X-31.34 Y-24.253 R1.687
X-31.538 Y-23.996 R39.629
X-31.758 Y-23.608 R1.688
G1 X-31.785 Y-23.542
G2 X-31.889 Y-23.169 R1.687
X-32.21 Y-22.956 R1.687
G1 X-32.265 Y-22.91
G2 X-32.567 Y-22.579 R1.688
X-32.751 Y-22.312 R39.629
X-32.951 Y-21.912 R1.687
G1 X-32.974 Y-21.844
G2 X-33.058 Y-21.468 R1.687
X-33.368 Y-21.239 R1.688
G1 X-33.42 Y-21.19
G2 X-33.704 Y-20.844 R1.688
X-33.873 Y-20.568 R39.629
X-34.052 Y-20.159 R1.687
G1 X-34.072 Y-20.09
G2 X-34.136 Y-19.708 R1.688
X-34.435 Y-19.462 R1.688
G1 X-34.484 Y-19.411
G2 X-34.749 Y-19.051 R1.688
X-34.903 Y-18.767 R39.629
X-35.061 Y-18.347 R1.688
G1 X-35.077 Y-18.278
G2 X-35.121 Y-17.895 R1.687
X-35.405 Y-17.634 R1.687
G1 X-35.452 Y-17.58
G2 X-35.698 Y-17.207 R1.687
X-35.838 Y-16.914 R39.629
X-35.973 Y-16.489 R1.687
G1 X-35.986 Y-16.419
G2 X-36.009 Y-16.032 R1.687
X-36.28 Y-15.757 R1.687
G1 X-36.324 Y-15.7
G2 X-36.55 Y-15.314 R1.687
X-36.674 Y-15.015 R39.629
X-36.787 Y-14.584 R1.688
G1 X-36.795 Y-14.513
G2 X-36.799 Y-14.126 R1.687
X-37.055 Y-13.836 R1.687
G1 X-37.096 Y-13.777
G2 X-37.301 Y-13.381 R1.688
X-37.409 Y-13.075 R39.629
X-37.5 Y-12.637 R1.687
G1 X-37.505 Y-12.565
G2 X-37.488 Y-12.181 R1.688
X-37.729 Y-11.877 R1.687
G1 X-37.767 Y-11.816
G2 X-37.95 Y-11.41 R1.687
X-38.042 Y-11.1 R39.629
X-38.11 Y-10.658 R1.688
G1 X-38.111 Y-10.586
G2 X-38.074 Y-10.202 R1.688
X-38.297 Y-9.889 R1.688
G1 X-38.332 Y-9.826
G2 X-38.496 Y-9.408 R1.688
X-38.571 Y-9.093 R39.629
X-38.615 Y-8.65 R1.688
G1 X-38.613 Y-8.578
G2 X-38.555 Y-8.195 R1.687
X-38.763 Y-7.869 R1.688
G1 X-38.794 Y-7.805
G2 X-38.935 Y-7.381 R1.688
X-38.994 Y-7.062 R39.629
X-39.015 Y-6.615 R1.688
G1 X-39.009 Y-6.544
G2 X-38.931 Y-6.166 R1.687
X-39.122 Y-5.83 R1.688
G1 X-39.15 Y-5.764
G2 X-39.268 Y-5.333 R1.687
X-39.31 Y-5.012 R39.629
X-39.308 Y-4.565 R1.688
G1 X-39.298 Y-4.494
G2 X-39.201 Y-4.12 R1.688
X-39.373 Y-3.774 R1.687
G1 X-39.398 Y-3.707
G2 X-39.493 Y-3.271 R1.688
X-39.519 Y-2.948 R39.629
X-39.493 Y-2.501 R1.688
G1 X-39.479 Y-2.431
G2 X-39.363 Y-2.063 R1.687
X-39.517 Y-1.71 R1.687
G1 X-39.538 Y-1.641
G2 X-39.61 Y-1.199 R1.688
X-39.619 Y-0.875 R39.629
X-39.57 Y-0.432 R1.687
G1 X-39.553 Y-0.363
G2 X-39.417 Y0. R1.687
X-39.553 Y0.363 R1.687
G1 X-39.57 Y0.432
G2 X-39.619 Y0.875 R1.687
X-39.61 Y1.199 R39.629
X-39.538 Y1.641 R1.688
G1 X-39.517 Y1.71
G2 X-39.363 Y2.063 R1.687
X-39.479 Y2.431 R1.688
G1 X-39.493 Y2.501
G2 X-39.519 Y2.948 R1.688
X-39.493 Y3.271 R39.629
X-39.398 Y3.707 R1.687
G1 X-39.373 Y3.774
G2 X-39.201 Y4.12 R1.688
X-39.298 Y4.494 R1.687
G1 X-39.308 Y4.565
G2 X-39.31 Y5.012 R1.688
X-39.268 Y5.333 R39.629
X-39.15 Y5.764 R1.687
G1 X-39.122 Y5.83
G2 X-38.931 Y6.166 R1.687
X-39.009 Y6.544 R1.688
G1 X-39.015 Y6.615
G2 X-38.994 Y7.062 R1.688
X-38.935 Y7.381 R39.629
X-38.794 Y7.805 R1.688
G1 X-38.763 Y7.869
G2 X-38.555 Y8.195 R1.688
X-38.613 Y8.578 R1.688
G1 X-38.615 Y8.65
G2 X-38.571 Y9.093 R1.688
X-38.496 Y9.408 R39.629
X-38.332 Y9.826 R1.688
G1 X-38.297 Y9.889
G2 X-38.074 Y10.202 R1.687
X-38.111 Y10.586 R1.688
G1 X-38.11 Y10.658
G2 X-38.042 Y11.1 R1.687
X-37.95 Y11.41 R39.629
X-37.767 Y11.816 R1.687
G1 X-37.729 Y11.877
G2 X-37.488 Y12.181 R1.688
X-37.505 Y12.565 R1.687
G1 X-37.5 Y12.637
G2 X-37.409 Y13.075 R1.687
X-37.301 Y13.381 R39.629
X-37.096 Y13.777 R1.687
G1 X-37.055 Y13.836
G2 X-36.799 Y14.126 R1.687
X-36.795 Y14.513 R1.688
G1 X-36.787 Y14.584
G2 X-36.674 Y15.015 R1.687
X-36.55 Y15.314 R39.629
X-36.324 Y15.7 R1.687
G1 X-36.28 Y15.757
G2 X-36.009 Y16.032 R1.687
X-35.986 Y16.419 R1.687
G1 X-35.973 Y16.489
G2 X-35.838 Y16.914 R1.688
X-35.698 Y17.207 R39.629
X-35.452 Y17.58 R1.687
G1 X-35.405 Y17.634
G2 X-35.121 Y17.895 R1.688
X-35.077 Y18.278 R1.687
G1 X-35.061 Y18.347
G2 X-34.903 Y18.767 R1.687
X-34.749 Y19.051 R39.629
X-34.484 Y19.411 R1.687
G1 X-34.435 Y19.462
G2 X-34.136 Y19.708 R1.688
X-34.072 Y20.09 R1.687
G1 X-34.052 Y20.159
G2 X-33.873 Y20.568 R1.687
X-33.704 Y20.844 R39.629
X-33.42 Y21.19 R1.688
G1 X-33.368 Y21.239
G2 X-33.058 Y21.468 R1.688
X-32.974 Y21.844 R1.687
G1 X-32.951 Y21.912
G2 X-32.751 Y22.312 R1.687
X-32.567 Y22.579 R39.629
X-32.265 Y22.91 R1.687
G1 X-32.21 Y22.956
G2 X-31.889 Y23.169 R1.688
X-31.785 Y23.542 R1.687
G1 X-31.758 Y23.608
G2 X-31.538 Y23.996 R1.688
X-31.34 Y24.253 R39.629
X-31.024 Y24.566 R1.687
G1 X-30.967 Y24.609
G2 X-30.633 Y24.806 R1.687
X-30.511 Y25.171 R1.687
G1 X-30.481 Y25.236
G2 X-30.239 Y25.614 R1.688
X-30.028 Y25.86 R39.629
X-29.695 Y26.156 R1.688
G1 X-29.636 Y26.196
G2 X-29.292 Y26.375 R1.688
X-29.151 Y26.734 R1.688
G1 X-29.117 Y26.797
G2 X-28.857 Y27.161 R1.687
X-28.634 Y27.396 R39.629
X-28.284 Y27.675 R1.688
G1 X-28.223 Y27.712
G2 X-27.872 Y27.872 R1.687
X-27.712 Y28.223 R1.687
G1 X-27.675 Y28.284
G2 X-27.396 Y28.634 R1.688
X-27.161 Y28.857 R39.629
X-26.797 Y29.117 R1.687
G1 X-26.734 Y29.151
G2 X-26.375 Y29.292 R1.688
X-26.196 Y29.636 R1.688
G1 X-26.156 Y29.695
G2 X-25.86 Y30.028 R1.687
X-25.614 Y30.239 R39.629
X-25.236 Y30.481 R1.688
G1 X-25.171 Y30.511
G2 X-24.806 Y30.633 R1.687
X-24.609 Y30.967 R1.687
G1 X-24.566 Y31.024
G2 X-24.253 Y31.34 R1.687
X-23.996 Y31.538 R39.629
X-23.608 Y31.758 R1.688
G1 X-23.542 Y31.785
G2 X-23.169 Y31.889 R1.687
X-22.956 Y32.21 R1.687
G1 X-22.91 Y32.265
G2 X-22.579 Y32.567 R1.688
X-22.312 Y32.751 R39.629
X-21.912 Y32.951 R1.687
G1 X-21.844 Y32.974
G2 X-21.468 Y33.058 R1.687
X-21.239 Y33.368 R1.688
G1 X-21.19 Y33.42
G2 X-20.844 Y33.704 R1.688
X-20.568 Y33.873 R39.629
X-20.159 Y34.052 R1.687
G1 X-20.09 Y34.072
G2 X-19.708 Y34.136 R1.688
X-19.462 Y34.435 R1.688
G1 X-19.411 Y34.484
G2 X-19.051 Y34.749 R1.688
X-18.767 Y34.903 R39.629
X-18.347 Y35.061 R1.688
G1 X-18.278 Y35.077
G2 X-17.895 Y35.121 R1.687
X-17.634 Y35.405 R1.687
G1 X-17.58 Y35.452
G2 X-17.207 Y35.698 R1.687
X-16.914 Y35.838 R39.629
X-16.489 Y35.973 R1.687
G1 X-16.419 Y35.986
G2 X-16.032 Y36.009 R1.687
X-15.757 Y36.28 R1.687
G1 X-15.7 Y36.324
G2 X-15.314 Y36.55 R1.687
X-15.015 Y36.674 R39.629
X-14.584 Y36.787 R1.688
G1 X-14.513 Y36.795
G2 X-14.126 Y36.799 R1.687
X-13.836 Y37.055 R1.687
G1 X-13.777 Y37.096
G2 X-13.381 Y37.301 R1.688
X-13.075 Y37.409 R39.629
X-12.637 Y37.5 R1.687
G1 X-12.565 Y37.505
G2 X-12.181 Y37.488 R1.688
X-11.877 Y37.729 R1.687
G1 X-11.816 Y37.767
G2 X-11.41 Y37.95 R1.687
X-11.1 Y38.042 R39.629
X-10.658 Y38.11 R1.688
G1 X-10.586 Y38.111
G2 X-10.202 Y38.074 R1.688
X-9.889 Y38.297 R1.688
G1 X-9.826 Y38.332
G2 X-9.408 Y38.496 R1.688
X-9.093 Y38.571 R39.629
X-8.65 Y38.615 R1.688
G1 X-8.578 Y38.613
G2 X-8.195 Y38.555 R1.687
X-7.869 Y38.763 R1.688
G1 X-7.805 Y38.794
G2 X-7.381 Y38.935 R1.688
X-7.062 Y38.994 R39.629
X-6.615 Y39.015 R1.688
G1 X-6.544 Y39.009
G2 X-6.166 Y38.931 R1.687
X-5.83 Y39.122 R1.688
G1 X-5.764 Y39.15
G2 X-5.333 Y39.268 R1.687
X-5.012 Y39.31 R39.629
X-4.565 Y39.308 R1.688
G1 X-4.494 Y39.298
G2 X-4.12 Y39.201 R1.688
X-3.774 Y39.373 R1.687
G1 X-3.707 Y39.398
G2 X-3.271 Y39.493 R1.688
X-2.948 Y39.519 R39.629
X-2.501 Y39.493 R1.688
G1 X-2.431 Y39.479
G2 X-2.063 Y39.363 R1.687
X-1.71 Y39.517 R1.687
G1 X-1.641 Y39.538
G2 X-1.199 Y39.61 R1.688
X-0.875 Y39.619 R39.629
X-0.432 Y39.57 R1.687
G1 X-0.363 Y39.553
G2 X0. Y39.417 R1.687
X0.363 Y39.553 R1.687
G1 X0.432 Y39.57
G2 X0.875 Y39.619 R1.687
X1.199 Y39.61 R39.629
X1.641 Y39.538 R1.688
G1 X1.71 Y39.517
G2 X2.063 Y39.363 R1.687
X2.431 Y39.479 R1.688
G1 X2.501 Y39.493
G2 X2.948 Y39.519 R1.688
X3.271 Y39.493 R39.629
X3.707 Y39.398 R1.687
G1 X3.774 Y39.373
G2 X4.12 Y39.201 R1.688
X4.494 Y39.298 R1.687
G1 X4.565 Y39.308
G2 X5.012 Y39.31 R1.688
X5.333 Y39.268 R39.629
X5.764 Y39.15 R1.687
G1 X5.83 Y39.122
G2 X6.166 Y38.931 R1.687
X6.544 Y39.009 R1.688
G1 X6.615 Y39.015
G2 X7.062 Y38.994 R1.688
X7.381 Y38.935 R39.629
X7.805 Y38.794 R1.688
G1 X7.869 Y38.763
G2 X8.195 Y38.555 R1.688
X8.578 Y38.613 R1.688
G1 X8.65 Y38.615
G2 X9.093 Y38.571 R1.688
X9.408 Y38.496 R39.629
X9.826 Y38.332 R1.688
G1 X9.889 Y38.297
G2 X10.202 Y38.074 R1.687
X10.586 Y38.111 R1.688
G1 X10.658 Y38.11
G2 X11.1 Y38.042 R1.687
X11.41 Y37.95 R39.629
X11.816 Y37.767 R1.687
G1 X11.877 Y37.729
G2 X12.181 Y37.488 R1.688
X12.565 Y37.505 R1.687
G1 X12.637 Y37.5
G2 X13.075 Y37.409 R1.687
X13.381 Y37.301 R39.629
X13.777 Y37.096 R1.687
G1 X13.836 Y37.055
G2 X14.126 Y36.799 R1.687
X14.513 Y36.795 R1.688
G1 X14.584 Y36.787
G2 X15.015 Y36.674 R1.687
X15.314 Y36.55 R39.629
X15.7 Y36.324 R1.687
G1 X15.757 Y36.28
G2 X16.032 Y36.009 R1.687
X16.419 Y35.986 R1.687
G1 X16.489 Y35.973
G2 X16.914 Y35.838 R1.688
X17.207 Y35.698 R39.629
X17.58 Y35.452 R1.687
G1 X17.634 Y35.405
G2 X17.895 Y35.121 R1.688
X18.278 Y35.077 R1.687
G1 X18.347 Y35.061
G2 X18.767 Y34.903 R1.687
X19.051 Y34.749 R39.629
X19.411 Y34.484 R1.687
G1 X19.462 Y34.435
G2 X19.708 Y34.136 R1.688
X20.09 Y34.072 R1.687
G1 X20.159 Y34.052
G2 X20.568 Y33.873 R1.687
X20.844 Y33.704 R39.629
X21.19 Y33.42 R1.688
G1 X21.239 Y33.368
G2 X21.468 Y33.058 R1.688
X21.844 Y32.974 R1.687
G1 X21.912 Y32.951
G2 X22.312 Y32.751 R1.687
X22.579 Y32.567 R39.629
X22.91 Y32.265 R1.687
G1 X22.956 Y32.21
G2 X23.169 Y31.889 R1.688
X23.542 Y31.785 R1.687
G1 X23.608 Y31.758
G2 X23.996 Y31.538 R1.688
X24.253 Y31.34 R39.629
X24.566 Y31.024 R1.687
G1 X24.609 Y30.967
G2 X24.806 Y30.633 R1.687
X25.171 Y30.511 R1.687
G1 X25.236 Y30.481
G2 X25.614 Y30.239 R1.688
X25.86 Y30.028 R39.629
X26.156 Y29.695 R1.688
G1 X26.196 Y29.636
G2 X26.375 Y29.292 R1.688
X26.734 Y29.151 R1.688
G1 X26.797 Y29.117
G2 X27.161 Y28.857 R1.687
X27.396 Y28.634 R39.629
X27.675 Y28.284 R1.688
G1 X27.712 Y28.223
G2 X27.872 Y27.872 R1.687
X28.223 Y27.712 R1.687
G1 X28.284 Y27.675
G2 X28.634 Y27.396 R1.688
X28.857 Y27.161 R39.629
X29.117 Y26.797 R1.687
G1 X29.151 Y26.734
G2 X29.292 Y26.375 R1.688
X29.636 Y26.196 R1.688
G1 X29.695 Y26.156
G2 X30.028 Y25.86 R1.687
X30.239 Y25.614 R39.629
X30.481 Y25.236 R1.688
G1 X30.511 Y25.171
G2 X30.633 Y24.806 R1.687
X30.967 Y24.609 R1.687
G1 X31.024 Y24.566
G2 X31.34 Y24.253 R1.687
X31.538 Y23.996 R39.629
X31.758 Y23.608 R1.688
G1 X31.785 Y23.542
G2 X31.889 Y23.169 R1.687
X32.21 Y22.956 R1.687
G1 X32.265 Y22.91
G2 X32.567 Y22.579 R1.688
X32.751 Y22.312 R39.629
X32.951 Y21.912 R1.687
G1 X32.974 Y21.844
G2 X33.058 Y21.468 R1.687
X33.368 Y21.239 R1.688
G1 X33.42 Y21.19
G2 X33.704 Y20.844 R1.688
X33.873 Y20.568 R39.629
X34.052 Y20.159 R1.687
G1 X34.072 Y20.09
G2 X34.136 Y19.708 R1.688
X34.435 Y19.462 R1.688
G1 X34.484 Y19.411
G2 X34.749 Y19.051 R1.688
X34.903 Y18.767 R39.629
X35.061 Y18.347 R1.688
G1 X35.077 Y18.278
G2 X35.121 Y17.895 R1.687
X35.405 Y17.634 R1.687
G1 X35.452 Y17.58
G2 X35.698 Y17.207 R1.687
X35.838 Y16.914 R39.629
X35.973 Y16.489 R1.687
G1 X35.986 Y16.419
G2 X36.009 Y16.032 R1.687
X36.28 Y15.757 R1.687
G1 X36.324 Y15.7
G2 X36.55 Y15.314 R1.687
X36.674 Y15.015 R39.629
X36.787 Y14.584 R1.688
G1 X36.795 Y14.513
G2 X36.799 Y14.126 R1.687
X37.055 Y13.836 R1.687
G1 X37.096 Y13.777
G2 X37.301 Y13.381 R1.688
X37.409 Y13.075 R39.629
X37.5 Y12.637 R1.687
G1 X37.505 Y12.565
G2 X37.488 Y12.181 R1.688
X37.729 Y11.877 R1.687
G1 X37.767 Y11.816
G2 X37.95 Y11.41 R1.687
X38.042 Y11.1 R39.629
X38.11 Y10.658 R1.688
G1 X38.111 Y10.586
G2 X38.074 Y10.202 R1.688
X38.297 Y9.889 R1.688
G1 X38.332 Y9.826
G2 X38.496 Y9.408 R1.688
X38.571 Y9.093 R39.629
X38.615 Y8.65 R1.688
G1 X38.613 Y8.578
G2 X38.555 Y8.195 R1.687
X38.763 Y7.869 R1.688
G1 X38.794 Y7.805
G2 X38.935 Y7.381 R1.688
X38.994 Y7.062 R39.629
X39.015 Y6.615 R1.688
G1 X39.009 Y6.544
G2 X38.931 Y6.166 R1.687
X39.122 Y5.83 R1.688
G1 X39.15 Y5.764
G2 X39.268 Y5.333 R1.687
X39.31 Y5.012 R39.629
X39.308 Y4.565 R1.688
G1 X39.298 Y4.494
G2 X39.201 Y4.12 R1.688
X39.373 Y3.774 R1.687
G1 X39.398 Y3.707
G2 X39.493 Y3.271 R1.688
X39.519 Y2.948 R39.629
X39.493 Y2.501 R1.688
G1 X39.479 Y2.431
G2 X39.363 Y2.063 R1.687
X39.517 Y1.71 R1.687
G1 X39.538 Y1.641
G2 X39.61 Y1.199 R1.688
X39.619 Y0.875 R39.629
X39.57 Y0.432 R1.687
G1 X39.553 Y0.363
G2 X39.417 Y0. R1.687
X39.553 Y-0.363 R1.687
G1 X39.57 Y-0.432
G2 X39.619 Y-0.875 R1.687
X39.61 Y-1.199 R39.629
X39.538 Y-1.641 R1.688
G1 X39.517 Y-1.71
G2 X39.363 Y-2.063 R1.687
X39.479 Y-2.431 R1.688
G1 X39.493 Y-2.501
G2 X39.519 Y-2.948 R1.688
X39.493 Y-3.271 R39.629
X39.398 Y-3.707 R1.687
G1 X39.373 Y-3.774
G2 X39.201 Y-4.12 R1.688
X39.298 Y-4.494 R1.687
G1 X39.308 Y-4.565
G2 X39.31 Y-5.012 R1.688
X39.268 Y-5.333 R39.629
X39.15 Y-5.764 R1.687
G1 X39.122 Y-5.83
G2 X38.931 Y-6.166 R1.687
X39.009 Y-6.544 R1.688
G1 X39.015 Y-6.615
G2 X38.994 Y-7.062 R1.688
X38.935 Y-7.381 R39.629
X38.794 Y-7.805 R1.688
G1 X38.763 Y-7.869
G2 X38.555 Y-8.195 R1.688
X38.613 Y-8.578 R1.688
G1 X38.615 Y-8.65
G2 X38.571 Y-9.093 R1.688
X38.496 Y-9.408 R39.629
X38.332 Y-9.826 R1.688
G1 X38.297 Y-9.889
G2 X38.074 Y-10.202 R1.687
X38.111 Y-10.586 R1.688
G1 X38.11 Y-10.658
G2 X38.042 Y-11.1 R1.687
X37.95 Y-11.41 R39.629
X37.767 Y-11.816 R1.687
G1 X37.729 Y-11.877
G2 X37.488 Y-12.181 R1.688
X37.505 Y-12.565 R1.687
G1 X37.5 Y-12.637
G2 X37.409 Y-13.075 R1.687
X37.301 Y-13.381 R39.629
X37.096 Y-13.777 R1.687
G1 X37.055 Y-13.836
G2 X36.799 Y-14.126 R1.687
X36.795 Y-14.513 R1.688
G1 X36.787 Y-14.584
G2 X36.674 Y-15.015 R1.687
X36.55 Y-15.314 R39.629
X36.324 Y-15.7 R1.687
G1 X36.28 Y-15.757
G2 X36.009 Y-16.032 R1.687
X35.986 Y-16.419 R1.687
G1 X35.973 Y-16.489
G2 X35.838 Y-16.914 R1.688
X35.698 Y-17.207 R39.629
X35.452 Y-17.58 R1.687
G1 X35.405 Y-17.634
G2 X35.121 Y-17.895 R1.688
X35.077 Y-18.278 R1.687
G1 X35.061 Y-18.347
G2 X34.903 Y-18.767 R1.687
X34.749 Y-19.051 R39.629
X34.484 Y-19.411 R1.687
G1 X34.435 Y-19.462
G2 X34.136 Y-19.708 R1.688
X34.072 Y-20.09 R1.687
G1 X34.052 Y-20.159
G2 X33.873 Y-20.568 R1.687
X33.704 Y-20.844 R39.629
X33.42 Y-21.19 R1.688
G1 X33.368 Y-21.239
G2 X33.058 Y-21.468 R1.688
X32.974 Y-21.844 R1.687
G1 X32.951 Y-21.912
G2 X32.751 Y-22.312 R1.687
X32.567 Y-22.579 R39.629
X32.265 Y-22.91 R1.687
G1 X32.21 Y-22.956
G2 X31.889 Y-23.169 R1.688
X31.785 Y-23.542 R1.687
G1 X31.758 Y-23.608
G2 X31.538 Y-23.996 R1.688
X31.34 Y-24.253 R39.629
X31.024 Y-24.566 R1.687
G1 X30.967 Y-24.609
G2 X30.633 Y-24.806 R1.687
X30.511 Y-25.171 R1.687
G1 X30.481 Y-25.236
G2 X30.239 Y-25.614 R1.688
X30.028 Y-25.86 R39.629
X29.695 Y-26.156 R1.688
G1 X29.636 Y-26.196
G2 X29.292 Y-26.375 R1.688
X29.151 Y-26.734 R1.688
G1 X29.117 Y-26.797
G2 X28.857 Y-27.161 R1.687
X28.634 Y-27.396 R39.629
X28.284 Y-27.675 R1.688
G1 X28.223 Y-27.712
G2 X27.872 Y-27.872 R1.687
X27.712 Y-28.223 R1.687
G1 X27.675 Y-28.284
G2 X27.396 Y-28.634 R1.688
X27.161 Y-28.857 R39.629
X26.797 Y-29.117 R1.687
G1 X26.734 Y-29.151
G2 X26.375 Y-29.292 R1.688
X26.196 Y-29.636 R1.688
G1 X26.156 Y-29.695
G2 X25.86 Y-30.028 R1.687
X25.614 Y-30.239 R39.629
X25.236 Y-30.481 R1.688
G1 X25.171 Y-30.511
G2 X24.806 Y-30.633 R1.687
X24.609 Y-30.967 R1.687
G1 X24.566 Y-31.024
G2 X24.253 Y-31.34 R1.687
X23.996 Y-31.538 R39.629
X23.608 Y-31.758 R1.688
G1 X23.542 Y-31.785
G2 X23.169 Y-31.889 R1.687
X22.956 Y-32.21 R1.687
G1 X22.91 Y-32.265
G2 X22.579 Y-32.567 R1.688
X22.453 Y-32.654 R39.629
X22.312 Y-32.751 Z-4.008 R39.629
X21.912 Y-32.951 Z-4.031 R1.687
G1 X21.844 Y-32.974 Z-4.034
G2 X21.468 Y-33.058 Z-4.053 R1.687
X21.239 Y-33.368 Z-4.072 R1.688
G1 X21.19 Y-33.42 Z-4.076
G2 X20.844 Y-33.704 Z-4.098 R1.688
X20.568 Y-33.873 Z-4.114 R39.629
X20.159 Y-34.052 Z-4.136 R1.687
G1 X20.09 Y-34.072 Z-4.14
G2 X19.708 Y-34.136 Z-4.159 R1.688
X19.462 Y-34.435 Z-4.178 R1.688
G1 X19.411 Y-34.484 Z-4.182
G2 X19.051 Y-34.749 Z-4.204 R1.688
X18.767 Y-34.903 Z-4.22 R39.629
X18.347 Y-35.061 Z-4.242 R1.688
G1 X18.278 Y-35.077 Z-4.246
G2 X17.895 Y-35.121 Z-4.265 R1.687
X17.634 Y-35.405 Z-4.284 R1.687
G1 X17.58 Y-35.452 Z-4.288
G2 X17.207 Y-35.698 Z-4.31 R1.687
X16.914 Y-35.838 Z-4.326 R39.629
X16.489 Y-35.973 Z-4.348 R1.687
G1 X16.419 Y-35.986 Z-4.352
G2 X16.032 Y-36.009 Z-4.371 R1.687
X15.757 Y-36.28 Z-4.39 R1.687
G1 X15.7 Y-36.324 Z-4.394
G2 X15.314 Y-36.55 Z-4.416 R1.687
X15.015 Y-36.674 Z-4.432 R39.629
X14.584 Y-36.787 Z-4.454 R1.688
G1 X14.513 Y-36.795 Z-4.457
G2 X14.126 Y-36.799 Z-4.477 R1.687
X13.836 Y-37.055 Z-4.496 R1.687
G1 X13.777 Y-37.096 Z-4.499
G2 X13.381 Y-37.301 Z-4.522 R1.688
X13.075 Y-37.409 Z-4.538 R39.629
X12.637 Y-37.5 Z-4.56 R1.687
G1 X12.565 Y-37.505 Z-4.563
G2 X12.181 Y-37.488 Z-4.582 R1.688
X11.877 Y-37.729 Z-4.602 R1.687
G1 X11.816 Y-37.767 Z-4.605
G2 X11.41 Y-37.95 Z-4.627 R1.687
X11.1 Y-38.042 Z-4.643 R39.629
X10.658 Y-38.11 Z-4.666 R1.688
G1 X10.586 Y-38.111 Z-4.669
G2 X10.202 Y-38.074 Z-4.688 R1.688
X9.889 Y-38.297 Z-4.707 R1.688
G1 X9.826 Y-38.332 Z-4.711
G2 X9.408 Y-38.496 Z-4.733 R1.688
X9.093 Y-38.571 Z-4.749 R39.629
X8.65 Y-38.615 Z-4.771 R1.688
G1 X8.578 Y-38.613 Z-4.775
G2 X8.195 Y-38.555 Z-4.794 R1.687
X7.869 Y-38.763 Z-4.813 R1.688
G1 X7.805 Y-38.794 Z-4.817
G2 X7.381 Y-38.935 Z-4.839 R1.688
X7.062 Y-38.994 Z-4.855 R39.629
X6.615 Y-39.015 Z-4.877 R1.688
G1 X6.544 Y-39.009 Z-4.881
G2 X6.166 Y-38.931 Z-4.9 R1.687
X5.83 Y-39.122 Z-4.919 R1.688
G1 X5.764 Y-39.15 Z-4.923
G2 X5.333 Y-39.268 Z-4.945 R1.687
X5.012 Y-39.31 Z-4.961 R39.629
X4.565 Y-39.308 Z-4.983 R1.688
G1 X4.494 Y-39.298 Z-4.987
G2 X4.12 Y-39.201 Z-5.006 R1.688
X3.774 Y-39.373 Z-5.025 R1.687
G1 X3.707 Y-39.398 Z-5.029
G2 X3.271 Y-39.493 Z-5.051 R1.688
X2.948 Y-39.519 Z-5.067 R39.629
X2.501 Y-39.493 Z-5.089 R1.688
G1 X2.431 Y-39.479 Z-5.092
G2 X2.063 Y-39.363 Z-5.112 R1.687
X1.71 Y-39.517 Z-5.131 R1.687
G1 X1.641 Y-39.538 Z-5.134
G2 X1.199 Y-39.61 Z-5.157 R1.688
X0.875 Y-39.619 Z-5.173 R39.629
X0.432 Y-39.57 Z-5.195 R1.687
G1 X0.363 Y-39.553 Z-5.198
G2 X0. Y-39.417 Z-5.217 R1.687
X-0.363 Y-39.553 Z-5.237 R1.687
G1 X-0.432 Y-39.57 Z-5.24
G2 X-0.626 Y-39.606 Z-5.25 R1.687
X-0.875 Y-39.619 R1.687
X-1.199 Y-39.61 R39.629
X-1.641 Y-39.538 R1.688
G1 X-1.71 Y-39.517
G2 X-2.063 Y-39.363 R1.687
X-2.431 Y-39.479 R1.688
G1 X-2.501 Y-39.493
G2 X-2.948 Y-39.519 R1.688
X-3.271 Y-39.493 R39.629
X-3.707 Y-39.398 R1.687
G1 X-3.774 Y-39.373
G2 X-4.12 Y-39.201 R1.688
X-4.494 Y-39.298 R1.687
G1 X-4.565 Y-39.308
G2 X-5.012 Y-39.31 R1.688
X-5.333 Y-39.268 R39.629
X-5.764 Y-39.15 R1.687
G1 X-5.83 Y-39.122
G2 X-6.166 Y-38.931 R1.687
X-6.544 Y-39.009 R1.688
G1 X-6.615 Y-39.015
G2 X-7.062 Y-38.994 R1.688
X-7.381 Y-38.935 R39.629
X-7.805 Y-38.794 R1.688
G1 X-7.869 Y-38.763
G2 X-8.195 Y-38.555 R1.688
X-8.578 Y-38.613 R1.688
G1 X-8.65 Y-38.615
G2 X-9.093 Y-38.571 R1.688
X-9.408 Y-38.496 R39.629
X-9.826 Y-38.332 R1.688
G1 X-9.889 Y-38.297
G2 X-10.202 Y-38.074 R1.687
X-10.586 Y-38.111 R1.688
G1 X-10.658 Y-38.11
G2 X-11.1 Y-38.042 R1.687
X-11.41 Y-37.95 R39.629
X-11.816 Y-37.767 R1.687
G1 X-11.877 Y-37.729
G2 X-12.181 Y-37.488 R1.688
X-12.565 Y-37.505 R1.687
G1 X-12.637 Y-37.5
G2 X-13.075 Y-37.409 R1.687
X-13.381 Y-37.301 R39.629
X-13.777 Y-37.096 R1.687
G1 X-13.836 Y-37.055
G2 X-14.126 Y-36.799 R1.687
X-14.513 Y-36.795 R1.688
G1 X-14.584 Y-36.787
G2 X-15.015 Y-36.674 R1.687
X-15.314 Y-36.55 R39.629
X-15.7 Y-36.324 R1.687
G1 X-15.757 Y-36.28
G2 X-16.032 Y-36.009 R1.687
X-16.419 Y-35.986 R1.687
G1 X-16.489 Y-35.973
G2 X-16.914 Y-35.838 R1.688
X-17.207 Y-35.698 R39.629
X-17.58 Y-35.452 R1.687
G1 X-17.634 Y-35.405
G2 X-17.895 Y-35.121 R1.688
X-18.278 Y-35.077 R1.687
G1 X-18.347 Y-35.061
G2 X-18.767 Y-34.903 R1.687
X-19.051 Y-34.749 R39.629
X-19.411 Y-34.484 R1.687
G1 X-19.462 Y-34.435
G2 X-19.708 Y-34.136 R1.688
X-20.09 Y-34.072 R1.687
G1 X-20.159 Y-34.052
G2 X-20.568 Y-33.873 R1.687
X-20.844 Y-33.704 R39.629
X-21.19 Y-33.42 R1.688
G1 X-21.239 Y-33.368
G2 X-21.468 Y-33.058 R1.688
X-21.844 Y-32.974 R1.687
G1 X-21.912 Y-32.951
G2 X-22.312 Y-32.751 R1.687
X-22.579 Y-32.567 R39.629
X-22.91 Y-32.265 R1.687
G1 X-22.956 Y-32.21
G2 X-23.169 Y-31.889 R1.688
X-23.542 Y-31.785 R1.687
G1 X-23.608 Y-31.758
G2 X-23.996 Y-31.538 R1.688
X-24.253 Y-31.34 R39.629
X-24.566 Y-31.024 R1.687
G1 X-24.609 Y-30.967
G2 X-24.806 Y-30.633 R1.687
X-25.171 Y-30.511 R1.687
G1 X-25.236 Y-30.481
G2 X-25.614 Y-30.239 R1.688
X-25.86 Y-30.028 R39.629
X-26.156 Y-29.695 R1.688
G1 X-26.196 Y-29.636
G2 X-26.375 Y-29.292 R1.688
X-26.734 Y-29.151 R1.688
G1 X-26.797 Y-29.117
G2 X-27.161 Y-28.857 R1.687
X-27.396 Y-28.634 R39.629
X-27.675 Y-28.284 R1.688
G1 X-27.712 Y-28.223
G2 X-27.872 Y-27.872 R1.687
X-28.223 Y-27.712 R1.687
G1 X-28.284 Y-27.675
G2 X-28.634 Y-27.396 R1.688
X-28.857 Y-27.161 R39.629
X-29.117 Y-26.797 R1.687
G1 X-29.151 Y-26.734
G2 X-29.292 Y-26.375 R1.688
X-29.636 Y-26.196 R1.688
G1 X-29.695 Y-26.156
G2 X-30.028 Y-25.86 R1.687
X-30.239 Y-25.614 R39.629
X-30.481 Y-25.236 R1.688
G1 X-30.511 Y-25.171
G2 X-30.633 Y-24.806 R1.687
X-30.967 Y-24.609 R1.687
G1 X-31.024 Y-24.566
G2 X-31.34 Y-24.253 R1.687
X-31.538 Y-23.996 R39.629
X-31.758 Y-23.608 R1.688
G1 X-31.785 Y-23.542
G2 X-31.889 Y-23.169 R1.687
X-32.21 Y-22.956 R1.687
G1 X-32.265 Y-22.91
G2 X-32.567 Y-22.579 R1.688
X-32.751 Y-22.312 R39.629
X-32.951 Y-21.912 R1.687
G1 X-32.974 Y-21.844
G2 X-33.058 Y-21.468 R1.687
X-33.368 Y-21.239 R1.688
G1 X-33.42 Y-21.19
G2 X-33.704 Y-20.844 R1.688
X-33.873 Y-20.568 R39.629
X-34.052 Y-20.159 R1.687
G1 X-34.072 Y-20.09
G2 X-34.136 Y-19.708 R1.688
X-34.435 Y-19.462 R1.688
G1 X-34.484 Y-19.411
G2 X-34.749 Y-19.051 R1.688
X-34.903 Y-18.767 R39.629
X-35.061 Y-18.347 R1.688
G1 X-35.077 Y-18.278
G2 X-35.121 Y-17.895 R1.687
X-35.405 Y-17.634 R1.687
G1 X-35.452 Y-17.58
G2 X-35.698 Y-17.207 R1.687
X-35.838 Y-16.914 R39.629
X-35.973 Y-16.489 R1.687
G1 X-35.986 Y-16.419
G2 X-36.009 Y-16.032 R1.687
X-36.28 Y-15.757 R1.687
G1 X-36.324 Y-15.7
G2 X-36.55 Y-15.314 R1.687
X-36.674 Y-15.015 R39.629
X-36.787 Y-14.584 R1.688
G1 X-36.795 Y-14.513
G2 X-36.799 Y-14.126 R1.687
X-37.055 Y-13.836 R1.687
G1 X-37.096 Y-13.777
G2 X-37.301 Y-13.381 R1.688
X-37.409 Y-13.075 R39.629
X-37.5 Y-12.637 R1.687
G1 X-37.505 Y-12.565
G2 X-37.488 Y-12.181 R1.688
X-37.729 Y-11.877 R1.687
G1 X-37.767 Y-11.816
G2 X-37.95 Y-11.41 R1.687
X-38.042 Y-11.1 R39.629
X-38.11 Y-10.658 R1.688
G1 X-38.111 Y-10.586
G2 X-38.074 Y-10.202 R1.688
X-38.297 Y-9.889 R1.688
G1 X-38.332 Y-9.826
G2 X-38.496 Y-9.408 R1.688
X-38.571 Y-9.093 R39.629
X-38.615 Y-8.65 R1.688
G1 X-38.613 Y-8.578
G2 X-38.555 Y-8.195 R1.687
X-38.763 Y-7.869 R1.688
G1 X-38.794 Y-7.805
G2 X-38.935 Y-7.381 R1.688
X-38.994 Y-7.062 R39.629
X-39.015 Y-6.615 R1.688
G1 X-39.009 Y-6.544
G2 X-38.931 Y-6.166 R1.687
X-39.122 Y-5.83 R1.688
G1 X-39.15 Y-5.764
G2 X-39.268 Y-5.333 R1.687
X-39.31 Y-5.012 R39.629
X-39.308 Y-4.565 R1.688
G1 X-39.298 Y-4.494
G2 X-39.201 Y-4.12 R1.688
X-39.373 Y-3.774 R1.687
G1 X-39.398 Y-3.707
G2 X-39.493 Y-3.271 R1.688
X-39.519 Y-2.948 R39.629
X-39.493 Y-2.501 R1.688
G1 X-39.479 Y-2.431
G2 X-39.363 Y-2.063 R1.687
X-39.517 Y-1.71 R1.687
G1 X-39.538 Y-1.641
G2 X-39.61 Y-1.199 R1.688
X-39.619 Y-0.875 R39.629
X-39.57 Y-0.432 R1.687
G1 X-39.553 Y-0.363
G2 X-39.417 Y0. R1.687
X-39.553 Y0.363 R1.687
G1 X-39.57 Y0.432
G2 X-39.619 Y0.875 R1.687
X-39.61 Y1.199 R39.629
X-39.538 Y1.641 R1.688
G1 X-39.517 Y1.71
G2 X-39.363 Y2.063 R1.687
X-39.479 Y2.431 R1.688
G1 X-39.493 Y2.501
G2 X-39.519 Y2.948 R1.688
X-39.493 Y3.271 R39.629
X-39.398 Y3.707 R1.687
G1 X-39.373 Y3.774
G2 X-39.201 Y4.12 R1.688
X-39.298 Y4.494 R1.687
G1 X-39.308 Y4.565
G2 X-39.31 Y5.012 R1.688
X-39.268 Y5.333 R39.629
X-39.15 Y5.764 R1.687
G1 X-39.122 Y5.83
G2 X-38.931 Y6.166 R1.687
X-39.009 Y6.544 R1.688
G1 X-39.015 Y6.615
G2 X-38.994 Y7.062 R1.688
X-38.935 Y7.381 R39.629
X-38.794 Y7.805 R1.688
G1 X-38.763 Y7.869
G2 X-38.555 Y8.195 R1.688
X-38.613 Y8.578 R1.688
G1 X-38.615 Y8.65
G2 X-38.571 Y9.093 R1.688
X-38.496 Y9.408 R39.629
X-38.332 Y9.826 R1.688
G1 X-38.297 Y9.889
G2 X-38.074 Y10.202 R1.687
X-38.111 Y10.586 R1.688
G1 X-38.11 Y10.658
G2 X-38.042 Y11.1 R1.687
X-37.95 Y11.41 R39.629
X-37.767 Y11.816 R1.687
G1 X-37.729 Y11.877
G2 X-37.488 Y12.181 R1.688
X-37.505 Y12.565 R1.687
G1 X-37.5 Y12.637
G2 X-37.409 Y13.075 R1.687
X-37.301 Y13.381 R39.629
X-37.096 Y13.777 R1.687
G1 X-37.055 Y13.836
G2 X-36.799 Y14.126 R1.687
X-36.795 Y14.513 R1.688
G1 X-36.787 Y14.584
G2 X-36.674 Y15.015 R1.687
X-36.55 Y15.314 R39.629
X-36.324 Y15.7 R1.687
G1 X-36.28 Y15.757
G2 X-36.009 Y16.032 R1.687
X-35.986 Y16.419 R1.687
G1 X-35.973 Y16.489
G2 X-35.838 Y16.914 R1.688
X-35.698 Y17.207 R39.629
X-35.452 Y17.58 R1.687
G1 X-35.405 Y17.634
G2 X-35.121 Y17.895 R1.688
X-35.077 Y18.278 R1.687
G1 X-35.061 Y18.347
G2 X-34.903 Y18.767 R1.687
X-34.749 Y19.051 R39.629
X-34.484 Y19.411 R1.687
G1 X-34.435 Y19.462
G2 X-34.136 Y19.708 R1.688
X-34.072 Y20.09 R1.687
G1 X-34.052 Y20.159
G2 X-33.873 Y20.568 R1.687
X-33.704 Y20.844 R39.629
X-33.42 Y21.19 R1.688
G1 X-33.368 Y21.239
G2 X-33.058 Y21.468 R1.688
X-32.974 Y21.844 R1.687
G1 X-32.951 Y21.912
G2 X-32.751 Y22.312 R1.687
X-32.567 Y22.579 R39.629
X-32.265 Y22.91 R1.687
G1 X-32.21 Y22.956
G2 X-31.889 Y23.169 R1.688
X-31.785 Y23.542 R1.687
G1 X-31.758 Y23.608
G2 X-31.538 Y23.996 R1.688
X-31.34 Y24.253 R39.629
X-31.024 Y24.566 R1.687
G1 X-30.967 Y24.609
G2 X-30.633 Y24.806 R1.687
X-30.511 Y25.171 R1.687
G1 X-30.481 Y25.236
G2 X-30.239 Y25.614 R1.688
X-30.028 Y25.86 R39.629
X-29.695 Y26.156 R1.688
G1 X-29.636 Y26.196
G2 X-29.292 Y26.375 R1.688
X-29.151 Y26.734 R1.688
G1 X-29.117 Y26.797
G2 X-28.857 Y27.161 R1.687
X-28.634 Y27.396 R39.629
X-28.284 Y27.675 R1.688
G1 X-28.223 Y27.712
G2 X-27.872 Y27.872 R1.687
X-27.712 Y28.223 R1.687
G1 X-27.675 Y28.284
G2 X-27.396 Y28.634 R1.688
X-27.161 Y28.857 R39.629
X-26.797 Y29.117 R1.687
G1 X-26.734 Y29.151
G2 X-26.375 Y29.292 R1.688
X-26.196 Y29.636 R1.688
G1 X-26.156 Y29.695
G2 X-25.86 Y30.028 R1.687
X-25.614 Y30.239 R39.629
X-25.236 Y30.481 R1.688
G1 X-25.171 Y30.511
G2 X-24.806 Y30.633 R1.687
X-24.609 Y30.967 R1.687
G1 X-24.566 Y31.024
G2 X-24.253 Y31.34 R1.687
X-23.996 Y31.538 R39.629
X-23.608 Y31.758 R1.688
G1 X-23.542 Y31.785
G2 X-23.169 Y31.889 R1.687
X-22.956 Y32.21 R1.687
G1 X-22.91 Y32.265
G2 X-22.579 Y32.567 R1.688
X-22.312 Y32.751 R39.629
X-21.912 Y32.951 R1.687
G1 X-21.844 Y32.974
G2 X-21.468 Y33.058 R1.687
X-21.239 Y33.368 R1.688
G1 X-21.19 Y33.42
G2 X-20.844 Y33.704 R1.688
X-20.568 Y33.873 R39.629
X-20.159 Y34.052 R1.687
G1 X-20.09 Y34.072
G2 X-19.708 Y34.136 R1.688
X-19.462 Y34.435 R1.688
G1 X-19.411 Y34.484
G2 X-19.051 Y34.749 R1.688
X-18.767 Y34.903 R39.629
X-18.347 Y35.061 R1.688
G1 X-18.278 Y35.077
G2 X-17.895 Y35.121 R1.687
X-17.634 Y35.405 R1.687
G1 X-17.58 Y35.452
G2 X-17.207 Y35.698 R1.687
X-16.914 Y35.838 R39.629
X-16.489 Y35.973 R1.687
G1 X-16.419 Y35.986
G2 X-16.032 Y36.009 R1.687
X-15.757 Y36.28 R1.687
G1 X-15.7 Y36.324
G2 X-15.314 Y36.55 R1.687
X-15.015 Y36.674 R39.629
X-14.584 Y36.787 R1.688
G1 X-14.513 Y36.795
G2 X-14.126 Y36.799 R1.687
X-13.836 Y37.055 R1.687
G1 X-13.777 Y37.096
G2 X-13.381 Y37.301 R1.688
X-13.075 Y37.409 R39.629
X-12.637 Y37.5 R1.687
G1 X-12.565 Y37.505
G2 X-12.181 Y37.488 R1.688
X-11.877 Y37.729 R1.687
G1 X-11.816 Y37.767
G2 X-11.41 Y37.95 R1.687
X-11.1 Y38.042 R39.629
X-10.658 Y38.11 R1.688
G1 X-10.586 Y38.111
G2 X-10.202 Y38.074 R1.688
X-9.889 Y38.297 R1.688
G1 X-9.826 Y38.332
G2 X-9.408 Y38.496 R1.688
X-9.093 Y38.571 R39.629
X-8.65 Y38.615 R1.688
G1 X-8.578 Y38.613
G2 X-8.195 Y38.555 R1.687
X-7.869 Y38.763 R1.688
G1 X-7.805 Y38.794
G2 X-7.381 Y38.935 R1.688
X-7.062 Y38.994 R39.629
X-6.615 Y39.015 R1.688
G1 X-6.544 Y39.009
G2 X-6.166 Y38.931 R1.687
X-5.83 Y39.122 R1.688
G1 X-5.764 Y39.15
G2 X-5.333 Y39.268 R1.687
X-5.012 Y39.31 R39.629
X-4.565 Y39.308 R1.688
G1 X-4.494 Y39.298
G2 X-4.12 Y39.201 R1.688
X-3.774 Y39.373 R1.687
G1 X-3.707 Y39.398
G2 X-3.271 Y39.493 R1.688
X-2.948 Y39.519 R39.629
X-2.501 Y39.493 R1.688
G1 X-2.431 Y39.479
G2 X-2.063 Y39.363 R1.687
X-1.71 Y39.517 R1.687
G1 X-1.641 Y39.538
G2 X-1.199 Y39.61 R1.688
X-0.875 Y39.619 R39.629
X-0.432 Y39.57 R1.687
G1 X-0.363 Y39.553
G2 X0. Y39.417 R1.687
X0.363 Y39.553 R1.687
G1 X0.432 Y39.57
G2 X0.875 Y39.619 R1.687
X1.199 Y39.61 R39.629
X1.641 Y39.538 R1.688
G1 X1.71 Y39.517
G2 X2.063 Y39.363 R1.687
X2.431 Y39.479 R1.688
G1 X2.501 Y39.493
G2 X2.948 Y39.519 R1.688
X3.271 Y39.493 R39.629
X3.707 Y39.398 R1.687
G1 X3.774 Y39.373
G2 X4.12 Y39.201 R1.688
X4.494 Y39.298 R1.687
G1 X4.565 Y39.308
G2 X5.012 Y39.31 R1.688
X5.333 Y39.268 R39.629
X5.764 Y39.15 R1.687
G1 X5.83 Y39.122
G2 X6.166 Y38.931 R1.687
X6.544 Y39.009 R1.688
G1 X6.615 Y39.015
G2 X7.062 Y38.994 R1.688
X7.381 Y38.935 R39.629
X7.805 Y38.794 R1.688
G1 X7.869 Y38.763
G2 X8.195 Y38.555 R1.688
X8.578 Y38.613 R1.688
G1 X8.65 Y38.615
G2 X9.093 Y38.571 R1.688
X9.408 Y38.496 R39.629
X9.826 Y38.332 R1.688
G1 X9.889 Y38.297
G2 X10.202 Y38.074 R1.687
X10.586 Y38.111 R1.688
G1 X10.658 Y38.11
G2 X11.1 Y38.042 R1.687
X11.41 Y37.95 R39.629
X11.816 Y37.767 R1.687
G1 X11.877 Y37.729
G2 X12.181 Y37.488 R1.688
X12.565 Y37.505 R1.687
G1 X12.637 Y37.5
G2 X13.075 Y37.409 R1.687
X13.381 Y37.301 R39.629
X13.777 Y37.096 R1.687
G1 X13.836 Y37.055
G2 X14.126 Y36.799 R1.687
X14.513 Y36.795 R1.688
G1 X14.584 Y36.787
G2 X15.015 Y36.674 R1.687
X15.314 Y36.55 R39.629
X15.7 Y36.324 R1.687
G1 X15.757 Y36.28
G2 X16.032 Y36.009 R1.687
X16.419 Y35.986 R1.687
G1 X16.489 Y35.973
G2 X16.914 Y35.838 R1.688
X17.207 Y35.698 R39.629
X17.58 Y35.452 R1.687
G1 X17.634 Y35.405
G2 X17.895 Y35.121 R1.688
X18.278 Y35.077 R1.687
G1 X18.347 Y35.061
G2 X18.767 Y34.903 R1.687
X19.051 Y34.749 R39.629
X19.411 Y34.484 R1.687
G1 X19.462 Y34.435
G2 X19.708 Y34.136 R1.688
X20.09 Y34.072 R1.687
G1 X20.159 Y34.052
G2 X20.568 Y33.873 R1.687
X20.844 Y33.704 R39.629
X21.19 Y33.42 R1.688
G1 X21.239 Y33.368
G2 X21.468 Y33.058 R1.688
X21.844 Y32.974 R1.687
G1 X21.912 Y32.951
G2 X22.312 Y32.751 R1.687
X22.579 Y32.567 R39.629
X22.91 Y32.265 R1.687
G1 X22.956 Y32.21
G2 X23.169 Y31.889 R1.688
X23.542 Y31.785 R1.687
G1 X23.608 Y31.758
G2 X23.996 Y31.538 R1.688
X24.253 Y31.34 R39.629
X24.566 Y31.024 R1.687
G1 X24.609 Y30.967
G2 X24.806 Y30.633 R1.687
X25.171 Y30.511 R1.687
G1 X25.236 Y30.481
G2 X25.614 Y30.239 R1.688
X25.86 Y30.028 R39.629
X26.156 Y29.695 R1.688
G1 X26.196 Y29.636
G2 X26.375 Y29.292 R1.688
X26.734 Y29.151 R1.688
G1 X26.797 Y29.117
G2 X27.161 Y28.857 R1.687
X27.396 Y28.634 R39.629
X27.675 Y28.284 R1.688
G1 X27.712 Y28.223
G2 X27.872 Y27.872 R1.687
X28.223 Y27.712 R1.687
G1 X28.284 Y27.675
G2 X28.634 Y27.396 R1.688
X28.857 Y27.161 R39.629
X29.117 Y26.797 R1.687
G1 X29.151 Y26.734
G2 X29.292 Y26.375 R1.688
X29.636 Y26.196 R1.688
G1 X29.695 Y26.156
G2 X30.028 Y25.86 R1.687
X30.239 Y25.614 R39.629
X30.481 Y25.236 R1.688
G1 X30.511 Y25.171
G2 X30.633 Y24.806 R1.687
X30.967 Y24.609 R1.687
G1 X31.024 Y24.566
G2 X31.34 Y24.253 R1.687
X31.538 Y23.996 R39.629
X31.758 Y23.608 R1.688
G1 X31.785 Y23.542
G2 X31.889 Y23.169 R1.687
X32.21 Y22.956 R1.687
G1 X32.265 Y22.91
G2 X32.567 Y22.579 R1.688
X32.751 Y22.312 R39.629
X32.951 Y21.912 R1.687
G1 X32.974 Y21.844
G2 X33.058 Y21.468 R1.687
X33.368 Y21.239 R1.688
G1 X33.42 Y21.19
G2 X33.704 Y20.844 R1.688
X33.873 Y20.568 R39.629
X34.052 Y20.159 R1.687
G1 X34.072 Y20.09
G2 X34.136 Y19.708 R1.688
X34.435 Y19.462 R1.688
G1 X34.484 Y19.411
G2 X34.749 Y19.051 R1.688
X34.903 Y18.767 R39.629
X35.061 Y18.347 R1.688
G1 X35.077 Y18.278
G2 X35.121 Y17.895 R1.687
X35.405 Y17.634 R1.687
G1 X35.452 Y17.58
G2 X35.698 Y17.207 R1.687
X35.838 Y16.914 R39.629
X35.973 Y16.489 R1.687
G1 X35.986 Y16.419
G2 X36.009 Y16.032 R1.687
X36.28 Y15.757 R1.687
G1 X36.324 Y15.7
G2 X36.55 Y15.314 R1.687
X36.674 Y15.015 R39.629
X36.787 Y14.584 R1.688
G1 X36.795 Y14.513
G2 X36.799 Y14.126 R1.687
X37.055 Y13.836 R1.687
G1 X37.096 Y13.777
G2 X37.301 Y13.381 R1.688
X37.409 Y13.075 R39.629
X37.5 Y12.637 R1.687
G1 X37.505 Y12.565
G2 X37.488 Y12.181 R1.688
X37.729 Y11.877 R1.687
G1 X37.767 Y11.816
G2 X37.95 Y11.41 R1.687
X38.042 Y11.1 R39.629
X38.11 Y10.658 R1.688
G1 X38.111 Y10.586
G2 X38.074 Y10.202 R1.688
X38.297 Y9.889 R1.688
G1 X38.332 Y9.826
G2 X38.496 Y9.408 R1.688
X38.571 Y9.093 R39.629
X38.615 Y8.65 R1.688
G1 X38.613 Y8.578
G2 X38.555 Y8.195 R1.687
X38.763 Y7.869 R1.688
G1 X38.794 Y7.805
G2 X38.935 Y7.381 R1.688
X38.994 Y7.062 R39.629
X39.015 Y6.615 R1.688
G1 X39.009 Y6.544
G2 X38.931 Y6.166 R1.687
X39.122 Y5.83 R1.688
G1 X39.15 Y5.764
G2 X39.268 Y5.333 R1.687
X39.31 Y5.012 R39.629
X39.308 Y4.565 R1.688
G1 X39.298 Y4.494
G2 X39.201 Y4.12 R1.688
X39.373 Y3.774 R1.687
G1 X39.398 Y3.707
G2 X39.493 Y3.271 R1.688
X39.519 Y2.948 R39.629
X39.493 Y2.501 R1.688
G1 X39.479 Y2.431
G2 X39.363 Y2.063 R1.687
X39.517 Y1.71 R1.687
G1 X39.538 Y1.641
G2 X39.61 Y1.199 R1.688
X39.619 Y0.875 R39.629
X39.57 Y0.432 R1.687
G1 X39.553 Y0.363
G2 X39.417 Y0. R1.687
X39.553 Y-0.363 R1.687
G1 X39.57 Y-0.432
G2 X39.619 Y-0.875 R1.687
X39.61 Y-1.199 R39.629
X39.538 Y-1.641 R1.688
G1 X39.517 Y-1.71
G2 X39.363 Y-2.063 R1.687
X39.479 Y-2.431 R1.688
G1 X39.493 Y-2.501
G2 X39.519 Y-2.948 R1.688
X39.493 Y-3.271 R39.629
X39.398 Y-3.707 R1.687
G1 X39.373 Y-3.774
G2 X39.201 Y-4.12 R1.688
X39.298 Y-4.494 R1.687
G1 X39.308 Y-4.565
G2 X39.31 Y-5.012 R1.688
X39.268 Y-5.333 R39.629
X39.15 Y-5.764 R1.687
G1 X39.122 Y-5.83
G2 X38.931 Y-6.166 R1.687
X39.009 Y-6.544 R1.688
G1 X39.015 Y-6.615
G2 X38.994 Y-7.062 R1.688
X38.935 Y-7.381 R39.629
X38.794 Y-7.805 R1.688
G1 X38.763 Y-7.869
G2 X38.555 Y-8.195 R1.688
X38.613 Y-8.578 R1.688
G1 X38.615 Y-8.65
G2 X38.571 Y-9.093 R1.688
X38.496 Y-9.408 R39.629
X38.332 Y-9.826 R1.688
G1 X38.297 Y-9.889
G2 X38.074 Y-10.202 R1.687
X38.111 Y-10.586 R1.688
G1 X38.11 Y-10.658
G2 X38.042 Y-11.1 R1.687
X37.95 Y-11.41 R39.629
X37.767 Y-11.816 R1.687
G1 X37.729 Y-11.877
G2 X37.488 Y-12.181 R1.688
X37.505 Y-12.565 R1.687
G1 X37.5 Y-12.637
G2 X37.409 Y-13.075 R1.687
X37.301 Y-13.381 R39.629
X37.096 Y-13.777 R1.687
G1 X37.055 Y-13.836
G2 X36.799 Y-14.126 R1.687
X36.795 Y-14.513 R1.688
G1 X36.787 Y-14.584
G2 X36.674 Y-15.015 R1.687
X36.55 Y-15.314 R39.629
X36.324 Y-15.7 R1.687
G1 X36.28 Y-15.757
G2 X36.009 Y-16.032 R1.687
X35.986 Y-16.419 R1.687
G1 X35.973 Y-16.489
G2 X35.838 Y-16.914 R1.688
X35.698 Y-17.207 R39.629
X35.452 Y-17.58 R1.687
G1 X35.405 Y-17.634
G2 X35.121 Y-17.895 R1.688
X35.077 Y-18.278 R1.687
G1 X35.061 Y-18.347
G2 X34.903 Y-18.767 R1.687
X34.749 Y-19.051 R39.629
X34.484 Y-19.411 R1.687
G1 X34.435 Y-19.462
G2 X34.136 Y-19.708 R1.688
X34.072 Y-20.09 R1.687
G1 X34.052 Y-20.159
G2 X33.873 Y-20.568 R1.687
X33.704 Y-20.844 R39.629
X33.42 Y-21.19 R1.688
G1 X33.368 Y-21.239
G2 X33.058 Y-21.468 R1.688
X32.974 Y-21.844 R1.687
G1 X32.951 Y-21.912
G2 X32.751 Y-22.312 R1.687
X32.567 Y-22.579 R39.629
X32.265 Y-22.91 R1.687
G1 X32.21 Y-22.956
G2 X31.889 Y-23.169 R1.688
X31.785 Y-23.542 R1.687
G1 X31.758 Y-23.608
G2 X31.538 Y-23.996 R1.688
X31.34 Y-24.253 R39.629
X31.024 Y-24.566 R1.687
G1 X30.967 Y-24.609
G2 X30.633 Y-24.806 R1.687
X30.511 Y-25.171 R1.687
G1 X30.481 Y-25.236
G2 X30.239 Y-25.614 R1.688
X30.028 Y-25.86 R39.629
X29.695 Y-26.156 R1.688
G1 X29.636 Y-26.196
G2 X29.292 Y-26.375 R1.688
X29.151 Y-26.734 R1.688
G1 X29.117 Y-26.797
G2 X28.857 Y-27.161 R1.687
X28.634 Y-27.396 R39.629
X28.284 Y-27.675 R1.688
G1 X28.223 Y-27.712
G2 X27.872 Y-27.872 R1.687
X27.712 Y-28.223 R1.687
G1 X27.675 Y-28.284
G2 X27.396 Y-28.634 R1.688
X27.161 Y-28.857 R39.629
X26.797 Y-29.117 R1.687
G1 X26.734 Y-29.151
G2 X26.375 Y-29.292 R1.688
X26.196 Y-29.636 R1.688
G1 X26.156 Y-29.695
G2 X25.86 Y-30.028 R1.687
X25.614 Y-30.239 R39.629
X25.236 Y-30.481 R1.688
G1 X25.171 Y-30.511
G2 X24.806 Y-30.633 R1.687
X24.609 Y-30.967 R1.687
G1 X24.566 Y-31.024
G2 X24.253 Y-31.34 R1.687
X23.996 Y-31.538 R39.629
X23.608 Y-31.758 R1.688
G1 X23.542 Y-31.785
G2 X23.169 Y-31.889 R1.687
X22.956 Y-32.21 R1.687
G1 X22.91 Y-32.265
G2 X22.579 Y-32.567 R1.688
X22.312 Y-32.751 R39.629
X21.912 Y-32.951 R1.687
G1 X21.844 Y-32.974
G2 X21.468 Y-33.058 R1.687
X21.239 Y-33.368 R1.688
G1 X21.19 Y-33.42
G2 X20.844 Y-33.704 R1.688
X20.568 Y-33.873 R39.629
X20.159 Y-34.052 R1.687
G1 X20.09 Y-34.072
G2 X19.708 Y-34.136 R1.688
X19.462 Y-34.435 R1.688
G1 X19.411 Y-34.484
G2 X19.051 Y-34.749 R1.688
X18.767 Y-34.903 R39.629
X18.347 Y-35.061 R1.688
G1 X18.278 Y-35.077
G2 X17.895 Y-35.121 R1.687
X17.634 Y-35.405 R1.687
G1 X17.58 Y-35.452
G2 X17.207 Y-35.698 R1.687
X16.914 Y-35.838 R39.629
X16.489 Y-35.973 R1.687
G1 X16.419 Y-35.986
G2 X16.032 Y-36.009 R1.687
X15.757 Y-36.28 R1.687
G1 X15.7 Y-36.324
G2 X15.314 Y-36.55 R1.687
X15.015 Y-36.674 R39.629
X14.584 Y-36.787 R1.688
G1 X14.513 Y-36.795
G2 X14.126 Y-36.799 R1.687
X13.836 Y-37.055 R1.687
G1 X13.777 Y-37.096
G2 X13.381 Y-37.301 R1.688
X13.075 Y-37.409 R39.629
X12.637 Y-37.5 R1.687
G1 X12.565 Y-37.505
G2 X12.181 Y-37.488 R1.688
X11.877 Y-37.729 R1.687
G1 X11.816 Y-37.767
G2 X11.41 Y-37.95 R1.687
X11.1 Y-38.042 R39.629
X10.658 Y-38.11 R1.688
G1 X10.586 Y-38.111
G2 X10.202 Y-38.074 R1.688
X9.889 Y-38.297 R1.688
G1 X9.826 Y-38.332
G2 X9.408 Y-38.496 R1.688
X9.093 Y-38.571 R39.629
X8.65 Y-38.615 R1.688
G1 X8.578 Y-38.613
G2 X8.195 Y-38.555 R1.687
X7.869 Y-38.763 R1.688
G1 X7.805 Y-38.794
G2 X7.381 Y-38.935 R1.688
X7.062 Y-38.994 R39.629
X6.615 Y-39.015 R1.688
G1 X6.544 Y-39.009
G2 X6.166 Y-38.931 R1.687
X5.83 Y-39.122 R1.688
G1 X5.764 Y-39.15
G2 X5.333 Y-39.268 R1.687
X5.012 Y-39.31 R39.629
X4.565 Y-39.308 R1.688
G1 X4.494 Y-39.298
G2 X4.12 Y-39.201 R1.688
X3.774 Y-39.373 R1.687
G1 X3.707 Y-39.398
G2 X3.271 Y-39.493 R1.688
X2.948 Y-39.519 R39.629
X2.501 Y-39.493 R1.688
G1 X2.431 Y-39.479
G2 X2.063 Y-39.363 R1.687
X1.71 Y-39.517 R1.687
G1 X1.641 Y-39.538
G2 X1.199 Y-39.61 R1.688
X0.875 Y-39.619 R39.629
X0.432 Y-39.57 R1.687
G1 X0.363 Y-39.553
G2 X0. Y-39.417 R1.687
X-0.363 Y-39.553 R1.687
G1 X-0.432 Y-39.57
G2 X-0.626 Y-39.606 R1.687
G0 Z10.

(2D CONTOUR3)
M8
G0 X-7.812 Y7.432
Z10.
Z5.
G1 Z2.5 F762.
G2 X7.812 Y-7.432 Z-3.473 R10.783
X-10.783 Y0. Z-8. R10.783
X10.783 R10.783
X-10.783 R10.783
X10.863 R10.823
X-10.863 R10.862
X10.863 R10.862
X-10.863 R10.862
X0.5 Y10.851 R10.862
X10.817 Y-0.999 R10.862
G0 Z10.

M9
M30
