(_120T_STEP2)
(T3  D=1. CR=0. - ZMIN=-5.25 - FLAT END MILL)
G90 G94 G91.1 G40 G49 G17
G21

(2D CONTOUR8)
M5
M9
T3
S10000 M3
G54
M9
G0 X36.209 Y12.908
G43 Z10. H3
Z5.
G1 Z2.5 F250.
G2 X36.288 Y12.684 Z2.458 R38.441
X36.315 Y12.554 Z2.435 R0.5
G1 X36.32 Y12.482 Z2.422
G2 X36.311 Y12.349 Z2.398 R0.5
G1 X36.297 Y12.279 Z2.386
G2 X36.249 Y12.143 Z2.36 R0.5
G1 X36.211 Y12.071 Z2.346
G2 X36.118 Y11.947 Z2.318 R0.5
G1 X36.059 Y11.889 Z2.304
G2 X36.001 Y11.841 Z2.29 R0.5
G1 X35.876 Y11.751 Z2.263
X35.788 Y11.682 Z2.244
X35.803 Y11.636 Z2.235
X35.805 Y11.63 Z2.234
X35.819 Y11.585 Z2.226
X35.931 Y11.581 Z2.206
X36.085 Y11.582 Z2.179
G2 X36.161 Y11.576 Z2.165 R0.5
G1 X36.242 Y11.564 Z2.151
G2 X36.39 Y11.519 Z2.123 R0.5
G1 X36.464 Y11.483 Z2.109
G2 X36.582 Y11.401 Z2.083 R0.5
G1 X36.635 Y11.353 Z2.071
G2 X36.721 Y11.249 Z2.047 R0.5
G1 X36.759 Y11.189 Z2.034
G2 X36.813 Y11.068 Z2.011 R0.5
X36.902 Y10.767 Z1.956 R38.441
X36.922 Y10.636 Z1.932 R0.5
G1 X36.924 Y10.565 Z1.92
G2 X36.908 Y10.432 Z1.896 R0.5
G1 X36.89 Y10.363 Z1.883
G2 X36.835 Y10.229 Z1.858 R0.5
G1 X36.792 Y10.158 Z1.843
G2 X36.694 Y10.04 Z1.816 R0.5
G1 X36.632 Y9.986 Z1.802
G2 X36.572 Y9.94 Z1.788 R0.5
G1 X36.442 Y9.857 Z1.761
X36.35 Y9.793 Z1.741
X36.363 Y9.746 Z1.733
X36.364 Y9.74 Z1.732
X36.376 Y9.694 Z1.723
X36.488 Y9.684 Z1.704
X36.642 Y9.677 Z1.676
G2 X36.717 Y9.668 Z1.663 R0.5
G1 X36.798 Y9.652 Z1.649
G2 X36.943 Y9.599 Z1.621 R0.5
G1 X37.015 Y9.559 Z1.607
G2 X37.129 Y9.471 Z1.581 R0.5
G1 X37.179 Y9.42 Z1.569
G2 X37.259 Y9.313 Z1.545 R0.5
G1 X37.294 Y9.25 Z1.532
G2 X37.342 Y9.126 Z1.509 R0.5
X37.415 Y8.821 Z1.453 R38.441
X37.428 Y8.69 Z1.43 R0.5
G1 X37.426 Y8.618 Z1.417
G2 X37.404 Y8.486 Z1.394 R0.5
G1 X37.382 Y8.418 Z1.381
G2 X37.32 Y8.287 Z1.356 R0.5
G1 X37.274 Y8.219 Z1.341
G2 X37.169 Y8.106 Z1.314 R0.5
G1 X37.105 Y8.055 Z1.299
G2 X37.042 Y8.013 Z1.286 R0.5
G1 X36.908 Y7.936 Z1.259
X36.813 Y7.877 Z1.239
X36.823 Y7.83 Z1.231
X36.824 Y7.824 Z1.229
X36.834 Y7.777 Z1.221
X36.945 Y7.761 Z1.201
X37.099 Y7.746 Z1.174
G2 X37.173 Y7.733 Z1.161 R0.5
G1 X37.253 Y7.713 Z1.146
G2 X37.394 Y7.652 Z1.119 R0.5
G1 X37.464 Y7.608 Z1.104
G2 X37.574 Y7.515 Z1.079 R0.5
G1 X37.621 Y7.461 Z1.066
G2 X37.695 Y7.35 Z1.043 R0.5
G1 X37.727 Y7.285 Z1.03
G2 X37.768 Y7.16 Z1.007 R0.5
X37.826 Y6.851 Z0.951 R38.441
X37.832 Y6.718 Z0.928 R0.5
G1 X37.826 Y6.647 Z0.915
G2 X37.796 Y6.516 Z0.891 R0.5
G1 X37.771 Y6.449 Z0.879
G2 X37.702 Y6.323 Z0.853 R0.5
G1 X37.653 Y6.257 Z0.839
G2 X37.542 Y6.15 Z0.811 R0.5
G1 X37.475 Y6.102 Z0.797
G2 X37.41 Y6.063 Z0.784 R0.5
G1 X37.273 Y5.994 Z0.756
X37.175 Y5.939 Z0.737
X37.182 Y5.892 Z0.728
X37.183 Y5.886 Z0.727
X37.19 Y5.839 Z0.719
X37.301 Y5.817 Z0.699
X37.453 Y5.794 Z0.672
G2 X37.527 Y5.777 Z0.658 R0.5
G1 X37.605 Y5.752 Z0.644
G2 X37.743 Y5.685 Z0.617 R0.5
G1 X37.811 Y5.637 Z0.602
G2 X37.916 Y5.538 Z0.577 R0.5
G1 X37.96 Y5.482 Z0.564
G2 X38.028 Y5.367 Z0.54 R0.5
G1 X38.056 Y5.301 Z0.528
G2 X38.091 Y5.173 Z0.504 R0.5
X38.132 Y4.862 Z0.449 R38.441
Y4.729 Z0.425 R0.5
G1 X38.122 Y4.658 Z0.413
G2 X38.086 Y4.53 Z0.389 R0.5
G1 X38.057 Y4.464 Z0.377
G2 X37.981 Y4.341 Z0.351 R0.5
G1 X37.928 Y4.278 Z0.336
G2 X37.813 Y4.177 Z0.309 R0.5
G1 X37.743 Y4.133 Z0.295
G2 X37.677 Y4.097 Z0.281 R0.5
G1 X37.535 Y4.035 Z0.254
X37.434 Y3.986 Z0.234
X37.44 Y3.938 Z0.226
Y3.932 Z0.225
X37.445 Y3.885 Z0.217
X37.554 Y3.857 Z0.197
X37.705 Y3.826 Z0.17
G2 X37.777 Y3.805 Z0.156 R0.5
G1 X37.855 Y3.777 Z0.142
G2 X37.99 Y3.701 Z0.114 R0.5
G1 X38.054 Y3.65 Z0.1
G2 X38.154 Y3.546 Z0.074 R0.5
G1 X38.195 Y3.488 Z0.062
G2 X38.257 Y3.369 Z0.038 R0.5
G1 X38.282 Y3.302 Z0.025
G2 X38.31 Y3.173 Z0.002 R0.5
X38.335 Y2.86 Z-0.053 R38.441
X38.327 Y2.727 Z-0.077 R0.5
G1 X38.313 Y2.657 Z-0.089
G2 X38.27 Y2.53 Z-0.113 R0.5
G1 X38.238 Y2.466 Z-0.126
G2 X38.157 Y2.348 Z-0.151 R0.5
G1 X38.101 Y2.287 Z-0.166
G2 X37.979 Y2.192 Z-0.193 R0.5
G1 X37.908 Y2.151 Z-0.208
G2 X37.839 Y2.12 Z-0.221 R0.5
G1 X37.695 Y2.065 Z-0.248
X37.592 Y2.021 Z-0.268
X37.595 Y1.973 Z-0.276
Y1.967 Z-0.277
X37.597 Y1.92 Z-0.286
X37.704 Y1.886 Z-0.306
X37.854 Y1.847 Z-0.333
G2 X37.925 Y1.823 Z-0.346 R0.5
G1 X38.001 Y1.79 Z-0.361
G2 X38.131 Y1.708 Z-0.388 R0.5
G1 X38.193 Y1.654 Z-0.402
G2 X38.287 Y1.544 Z-0.428 R0.5
G1 X38.325 Y1.484 Z-0.441
G2 X38.381 Y1.363 Z-0.464 R0.5
G1 X38.402 Y1.294 Z-0.477
G2 X38.423 Y1.163 Z-0.5 R0.5
X38.432 Y0.849 Z-0.556 R38.441
X38.417 Y0.718 Z-0.579 R0.5
G1 X38.4 Y0.649 Z-0.592
G2 X38.35 Y0.523 Z-0.615 R0.5
G1 X38.315 Y0.461 Z-0.628
G2 X38.227 Y0.347 Z-0.653 R0.5
G1 X38.168 Y0.29 Z-0.668
G2 X38.042 Y0.201 Z-0.695 R0.5
G1 X37.968 Y0.165 Z-0.71
G2 X37.898 Y0.136 Z-0.723 R0.5
G1 X37.751 Y0.089 Z-0.75
X37.646 Y0.051 Z-0.77
Y0.003 Z-0.779
Y-0.003 Z-0.78
Y-0.051 Z-0.788
X37.751 Y-0.089 Z-0.808
X37.898 Y-0.136 Z-0.835
G2 X37.968 Y-0.165 Z-0.848 R0.5
G1 X38.042 Y-0.201 Z-0.863
G2 X38.168 Y-0.29 Z-0.89 R0.5
G1 X38.227 Y-0.347 Z-0.905
G2 X38.315 Y-0.461 Z-0.93 R0.5
G1 X38.35 Y-0.523 Z-0.943
G2 X38.4 Y-0.649 Z-0.967 R0.5
G1 X38.417 Y-0.718 Z-0.979
G2 X38.432 Y-0.835 Z-1. R0.5
Y-0.849 R0.5 F400.
X38.423 Y-1.163 R38.441
X38.402 Y-1.294 R0.5
G1 X38.381 Y-1.363
G2 X38.325 Y-1.484 R0.5
G1 X38.287 Y-1.544
G2 X38.193 Y-1.654 R0.5
G1 X38.131 Y-1.708
G2 X38.001 Y-1.79 R0.5
G1 X37.925 Y-1.823
G2 X37.854 Y-1.847 R0.5
G1 X37.704 Y-1.886
X37.597 Y-1.919
X37.595 Y-1.967
Y-1.974
X37.592 Y-2.021
X37.695 Y-2.065
X37.839 Y-2.12
G2 X37.908 Y-2.151 R0.5
G1 X37.979 Y-2.192
G2 X38.101 Y-2.287 R0.5
G1 X38.157 Y-2.348
G2 X38.238 Y-2.466 R0.5
G1 X38.27 Y-2.53
G2 X38.313 Y-2.657 R0.5
G1 X38.327 Y-2.727
G2 X38.335 Y-2.86 R0.5
X38.31 Y-3.173 R38.441
X38.282 Y-3.302 R0.5
G1 X38.257 Y-3.369
G2 X38.195 Y-3.488 R0.5
G1 X38.154 Y-3.546
G2 X38.054 Y-3.65 R0.5
G1 X37.99 Y-3.701
G2 X37.855 Y-3.777 R0.5
G1 X37.777 Y-3.805
G2 X37.705 Y-3.826 R0.5
G1 X37.554 Y-3.857
X37.445 Y-3.885
X37.44 Y-3.932
Y-3.939
X37.434 Y-3.986
X37.535 Y-4.035
X37.677 Y-4.097
G2 X37.743 Y-4.133 R0.5
G1 X37.813 Y-4.177
G2 X37.928 Y-4.278 R0.5
G1 X37.981 Y-4.341
G2 X38.057 Y-4.464 R0.5
G1 X38.086 Y-4.53
G2 X38.122 Y-4.658 R0.5
G1 X38.132 Y-4.729
G2 Y-4.862 R0.5
X38.091 Y-5.173 R38.441
X38.056 Y-5.301 R0.5
G1 X38.028 Y-5.367
G2 X37.96 Y-5.482 R0.5
G1 X37.916 Y-5.538
G2 X37.811 Y-5.637 R0.5
G1 X37.743 Y-5.685
G2 X37.605 Y-5.752 R0.5
G1 X37.527 Y-5.777
G2 X37.453 Y-5.794 R0.5
G1 X37.301 Y-5.817
X37.191 Y-5.839
X37.183 Y-5.886
X37.182 Y-5.893
X37.175 Y-5.939
X37.273 Y-5.994
X37.41 Y-6.063
G2 X37.475 Y-6.102 R0.5
G1 X37.542 Y-6.15
G2 X37.653 Y-6.257 R0.5
G1 X37.702 Y-6.323
G2 X37.771 Y-6.449 R0.5
G1 X37.796 Y-6.516
G2 X37.826 Y-6.647 R0.5
G1 X37.832 Y-6.718
G2 X37.826 Y-6.851 R0.5
X37.768 Y-7.16 R38.441
X37.727 Y-7.285 R0.5
G1 X37.695 Y-7.35
G2 X37.621 Y-7.461 R0.5
G1 X37.574 Y-7.515
G2 X37.464 Y-7.608 R0.5
G1 X37.394 Y-7.652
G2 X37.253 Y-7.713 R0.5
G1 X37.173 Y-7.733
G2 X37.099 Y-7.746 R0.5
G1 X36.945 Y-7.761
X36.834 Y-7.777
X36.824 Y-7.824
X36.823 Y-7.83
X36.813 Y-7.877
X36.908 Y-7.936
X37.042 Y-8.013
G2 X37.105 Y-8.055 R0.5
G1 X37.169 Y-8.106
G2 X37.274 Y-8.219 R0.5
G1 X37.32 Y-8.287
G2 X37.382 Y-8.418 R0.5
G1 X37.404 Y-8.486
G2 X37.426 Y-8.618 R0.5
G1 X37.428 Y-8.69
G2 X37.415 Y-8.821 R0.5
X37.342 Y-9.126 R38.441
X37.294 Y-9.25 R0.5
G1 X37.259 Y-9.313
G2 X37.179 Y-9.42 R0.5
G1 X37.129 Y-9.471
G2 X37.015 Y-9.559 R0.5
G1 X36.943 Y-9.599
G2 X36.798 Y-9.652 R0.5
G1 X36.717 Y-9.668
G2 X36.642 Y-9.677 R0.5
G1 X36.488 Y-9.684
X36.376 Y-9.694
X36.364 Y-9.741
X36.363 Y-9.747
X36.35 Y-9.793
X36.442 Y-9.857
X36.572 Y-9.94
G2 X36.632 Y-9.986 R0.5
G1 X36.694 Y-10.04
G2 X36.792 Y-10.158 R0.5
G1 X36.835 Y-10.229
G2 X36.89 Y-10.363 R0.5
G1 X36.908 Y-10.432
G2 X36.924 Y-10.565 R0.5
G1 X36.922 Y-10.636
G2 X36.902 Y-10.767 R0.5
X36.813 Y-11.068 R38.441
X36.759 Y-11.189 R0.5
G1 X36.721 Y-11.249
G2 X36.635 Y-11.353 R0.5
G1 X36.582 Y-11.401
G2 X36.464 Y-11.483 R0.5
G1 X36.39 Y-11.519
G2 X36.242 Y-11.564 R0.5
G1 X36.161 Y-11.576
G2 X36.085 Y-11.582 R0.5
G1 X35.931 Y-11.581
X35.819 Y-11.585
X35.805 Y-11.631
X35.803 Y-11.637
X35.788 Y-11.682
X35.876 Y-11.751
X36.001 Y-11.841
G2 X36.059 Y-11.889 R0.5
G1 X36.118 Y-11.947
G2 X36.211 Y-12.071 R0.5
G1 X36.249 Y-12.143
G2 X36.297 Y-12.279 R0.5
G1 X36.311 Y-12.349
G2 X36.32 Y-12.482 R0.5
G1 X36.315 Y-12.554
G2 X36.288 Y-12.684 R0.5
X36.183 Y-12.98 R38.441
X36.123 Y-13.097 R0.5
G1 X36.082 Y-13.156
G2 X35.991 Y-13.255 R0.5
G1 X35.935 Y-13.3
G2 X35.812 Y-13.375 R0.5
G1 X35.737 Y-13.408
G2 X35.587 Y-13.445 R0.5
G1 X35.505 Y-13.453
G2 X35.43 Y-13.454 R0.5
G1 X35.276 Y-13.445
X35.164 Y-13.444
X35.147 Y-13.489
X35.145 Y-13.495
X35.127 Y-13.539
X35.212 Y-13.612
X35.332 Y-13.709
G2 X35.387 Y-13.76 R0.5
G1 X35.443 Y-13.821
G2 X35.529 Y-13.949 R0.5
G1 X35.564 Y-14.023
G2 X35.605 Y-14.162 R0.5
G1 X35.615 Y-14.232
G2 X35.617 Y-14.367 R0.5
G1 X35.608 Y-14.438
G2 X35.575 Y-14.566 R0.5
X35.455 Y-14.856 R38.441
X35.388 Y-14.97 R0.5
G1 X35.344 Y-15.026
G2 X35.248 Y-15.12 R0.5
G1 X35.19 Y-15.163
G2 X35.063 Y-15.231 R0.5
G1 X34.986 Y-15.26
G2 X34.835 Y-15.289 R0.5
G1 X34.753 Y-15.293
G2 X34.677 Y-15.29 R0.5
G1 X34.524 Y-15.273
X34.412 Y-15.266
X34.393 Y-15.309
X34.39 Y-15.315
X34.371 Y-15.358
X34.451 Y-15.437
X34.566 Y-15.539
G2 X34.619 Y-15.593 R0.5
G1 X34.671 Y-15.656
G2 X34.751 Y-15.79 R0.5
G1 X34.781 Y-15.866
G2 X34.815 Y-16.006 R0.5
G1 X34.822 Y-16.077
G2 X34.816 Y-16.211 R0.5
G1 X34.804 Y-16.281
G2 X34.764 Y-16.407 R0.5
X34.628 Y-16.691 R38.441
X34.556 Y-16.802 R0.5
G1 X34.509 Y-16.856
G2 X34.408 Y-16.944 R0.5
G1 X34.349 Y-16.984
G2 X34.218 Y-17.046 R0.5
G1 X34.139 Y-17.07
G2 X33.987 Y-17.092 R0.5
G1 X33.905 Y-17.091
G2 X33.83 Y-17.084 R0.5
G1 X33.677 Y-17.059
X33.566 Y-17.046
X33.544 Y-17.089
X33.542 Y-17.094
X33.52 Y-17.136
X33.596 Y-17.218
X33.706 Y-17.327
G2 X33.755 Y-17.384 R0.5
G1 X33.804 Y-17.45
G2 X33.876 Y-17.586 R0.5
G1 X33.903 Y-17.664
G2 X33.93 Y-17.806 R0.5
G1 X33.933 Y-17.878
G2 X33.92 Y-18.01 R0.5
G1 X33.904 Y-18.08
G2 X33.857 Y-18.204 R0.5
X33.707 Y-18.48 R38.441
X33.629 Y-18.587 R0.5
G1 X33.58 Y-18.638
G2 X33.474 Y-18.722 R0.5
G1 X33.413 Y-18.758
G2 X33.279 Y-18.813 R0.5
G1 X33.199 Y-18.833
G2 X33.046 Y-18.847 R0.5
G1 X32.964 Y-18.842
G2 X32.889 Y-18.831 R0.5
G1 X32.738 Y-18.798
X32.628 Y-18.779
X32.604 Y-18.821
X32.601 Y-18.826
X32.577 Y-18.867
X32.649 Y-18.953
X32.753 Y-19.067
G2 X32.799 Y-19.127 R0.5
G1 X32.845 Y-19.195
G2 X32.91 Y-19.335 R0.5
G1 X32.932 Y-19.414
G2 X32.951 Y-19.557 R0.5
G1 Y-19.629
G2 X32.931 Y-19.762 R0.5
G1 X32.911 Y-19.83
G2 X32.858 Y-19.951 R0.5
X32.694 Y-20.219 R38.441
X32.61 Y-20.322 R0.5
G1 X32.558 Y-20.371
G2 X32.449 Y-20.448 R0.5
G1 X32.385 Y-20.481
G2 X32.249 Y-20.529 R0.5
G1 X32.168 Y-20.545
G2 X32.014 Y-20.551 R0.5
G1 X31.932 Y-20.541
G2 X31.858 Y-20.527 R0.5
G1 X31.71 Y-20.486
X31.6 Y-20.461
X31.574 Y-20.501
X31.571 Y-20.506
X31.545 Y-20.546
X31.612 Y-20.636
X31.71 Y-20.755
G2 X31.753 Y-20.817 R0.5
G1 X31.795 Y-20.888
G2 X31.852 Y-21.031 R0.5
G1 X31.871 Y-21.111
G2 X31.883 Y-21.255 R0.5
G1 X31.878 Y-21.327
G2 X31.852 Y-21.457 R0.5
G1 X31.829 Y-21.525
G2 X31.769 Y-21.644 R0.5
X31.591 Y-21.903 R38.441
X31.502 Y-22.001 R0.5
G1 X31.447 Y-22.047
G2 X31.334 Y-22.118 R0.5
G1 X31.269 Y-22.148
G2 X31.13 Y-22.189 R0.5
G1 X31.049 Y-22.2
G2 X30.895 Y-22.198 R0.5
G1 X30.814 Y-22.184
G2 X30.74 Y-22.166 R0.5
G1 X30.594 Y-22.117
X30.486 Y-22.087
X30.458 Y-22.126
X30.455 Y-22.131
X30.426 Y-22.169
X30.489 Y-22.262
X30.58 Y-22.386
G2 X30.62 Y-22.451 R0.5
G1 X30.659 Y-22.523
G2 X30.708 Y-22.669 R0.5
G1 X30.722 Y-22.75
G2 X30.727 Y-22.894 R0.5
G1 X30.718 Y-22.965
G2 X30.685 Y-23.096 R0.5
G1 X30.658 Y-23.162
G2 X30.593 Y-23.277 R0.5
X30.401 Y-23.526 R38.441
X30.308 Y-23.619 R0.5
G1 X30.251 Y-23.662
G2 X30.133 Y-23.728 R0.5
G1 X30.066 Y-23.754
G2 X29.927 Y-23.787 R0.5
G1 X29.845 Y-23.795
G2 X29.691 Y-23.784 R0.5
G1 X29.61 Y-23.766
G2 X29.538 Y-23.744 R0.5
G1 X29.395 Y-23.688
X29.288 Y-23.652
X29.258 Y-23.69
X29.255 Y-23.694
X29.224 Y-23.731
X29.282 Y-23.827
X29.367 Y-23.956
G2 X29.403 Y-24.022 R0.5
G1 X29.438 Y-24.097
G2 X29.48 Y-24.246 R0.5
G1 X29.49 Y-24.327
G2 X29.486 Y-24.471 R0.5
G1 X29.474 Y-24.542
G2 X29.434 Y-24.669 R0.5
G1 X29.404 Y-24.734
G2 X29.333 Y-24.846 R0.5
X29.128 Y-25.085 R38.441
X29.03 Y-25.173 R0.5
G1 X28.97 Y-25.213
G2 X28.85 Y-25.272 R0.5
G1 X28.782 Y-25.295
G2 X28.641 Y-25.321 R0.5
G1 X28.559 Y-25.324
G2 X28.405 Y-25.306 R0.5
G1 X28.326 Y-25.284
G2 X28.255 Y-25.258 R0.5
G1 X28.115 Y-25.194
X28.01 Y-25.152
X27.978 Y-25.188
X27.974 Y-25.193
X27.942 Y-25.228
X27.995 Y-25.327
X28.073 Y-25.46
G2 X28.106 Y-25.528 R0.5
G1 X28.136 Y-25.604
G2 X28.17 Y-25.755 R0.5
G1 X28.176 Y-25.837
G2 X28.165 Y-25.981 R0.5
G1 X28.149 Y-26.051
G2 X28.103 Y-26.176 R0.5
G1 X28.069 Y-26.239
G2 X27.992 Y-26.347 R0.5
X27.776 Y-26.575 R38.441
X27.672 Y-26.658 R0.5
G1 X27.611 Y-26.694
G2 X27.488 Y-26.747 R0.5
G1 X27.419 Y-26.767
G2 X27.277 Y-26.785 R0.5
G1 X27.194 Y-26.784
G2 X27.042 Y-26.758 R0.5
G1 X26.964 Y-26.731
G2 X26.895 Y-26.702 R0.5
G1 X26.758 Y-26.631
X26.656 Y-26.584
X26.622 Y-26.618
X26.618 Y-26.622
X26.584 Y-26.656
X26.631 Y-26.758
X26.702 Y-26.895
G2 X26.731 Y-26.964 R0.5
G1 X26.758 Y-27.042
G2 X26.784 Y-27.194 R0.5
G1 X26.785 Y-27.277
G2 X26.767 Y-27.419 R0.5
G1 X26.747 Y-27.488
G2 X26.694 Y-27.611 R0.5
G1 X26.658 Y-27.672
G2 X26.575 Y-27.776 R0.5
X26.347 Y-27.992 R38.441
X26.239 Y-28.069 R0.5
G1 X26.176 Y-28.103
G2 X26.051 Y-28.149 R0.5
G1 X25.981 Y-28.165
G2 X25.837 Y-28.176 R0.5
G1 X25.755 Y-28.17
G2 X25.604 Y-28.136 R0.5
G1 X25.528 Y-28.106
G2 X25.46 Y-28.073 R0.5
G1 X25.327 Y-27.995
X25.228 Y-27.942
X25.192 Y-27.975
X25.188 Y-27.979
X25.152 Y-28.01
X25.194 Y-28.115
X25.258 Y-28.255
G2 X25.284 Y-28.326 R0.5
G1 X25.306 Y-28.405
G2 X25.324 Y-28.559 R0.5
G1 X25.321 Y-28.641
G2 X25.295 Y-28.782 R0.5
G1 X25.272 Y-28.85
G2 X25.213 Y-28.97 R0.5
G1 X25.173 Y-29.03
G2 X25.085 Y-29.128 R0.5
X24.846 Y-29.333 R38.441
X24.734 Y-29.404 R0.5
G1 X24.669 Y-29.434
G2 X24.542 Y-29.474 R0.5
G1 X24.471 Y-29.486
G2 X24.327 Y-29.49 R0.5
G1 X24.246 Y-29.48
G2 X24.097 Y-29.438 R0.5
G1 X24.022 Y-29.403
G2 X23.956 Y-29.367 R0.5
G1 X23.827 Y-29.282
X23.731 Y-29.224
X23.694 Y-29.255
X23.689 Y-29.259
X23.652 Y-29.288
X23.688 Y-29.395
X23.744 Y-29.538
G2 X23.766 Y-29.61 R0.5
G1 X23.784 Y-29.691
G2 X23.795 Y-29.845 R0.5
G1 X23.787 Y-29.927
G2 X23.754 Y-30.066 R0.5
G1 X23.728 Y-30.133
G2 X23.662 Y-30.251 R0.5
G1 X23.619 Y-30.308
G2 X23.526 Y-30.401 R0.5
X23.277 Y-30.593 R38.441
X23.162 Y-30.658 R0.5
G1 X23.096 Y-30.685
G2 X22.965 Y-30.718 R0.5
G1 X22.894 Y-30.727
G2 X22.75 Y-30.722 R0.5
G1 X22.669 Y-30.708
G2 X22.523 Y-30.659 R0.5
G1 X22.451 Y-30.62
G2 X22.386 Y-30.58 R0.5
G1 X22.262 Y-30.489
X22.169 Y-30.426
X22.13 Y-30.455
X22.125 Y-30.459
X22.087 Y-30.486
X22.117 Y-30.594
X22.166 Y-30.74
G2 X22.184 Y-30.814 R0.5
G1 X22.198 Y-30.895
G2 X22.2 Y-31.049 R0.5
G1 X22.189 Y-31.13
G2 X22.148 Y-31.269 R0.5
G1 X22.118 Y-31.334
G2 X22.047 Y-31.447 R0.5
G1 X22.001 Y-31.502
G2 X21.903 Y-31.591 R0.5
X21.644 Y-31.769 R38.441
X21.525 Y-31.829 R0.5
G1 X21.457 Y-31.852
G2 X21.327 Y-31.878 R0.5
G1 X21.255 Y-31.883
G2 X21.111 Y-31.871 R0.5
G1 X21.031 Y-31.852
G2 X20.888 Y-31.795 R0.5
G1 X20.817 Y-31.753
G2 X20.755 Y-31.71 R0.5
G1 X20.636 Y-31.612
X20.546 Y-31.545
X20.506 Y-31.571
X20.501 Y-31.575
X20.461 Y-31.6
X20.486 Y-31.71
X20.527 Y-31.858
G2 X20.541 Y-31.932 R0.5
G1 X20.551 Y-32.014
G2 X20.545 Y-32.168 R0.5
G1 X20.529 Y-32.249
G2 X20.481 Y-32.385 R0.5
G1 X20.448 Y-32.449
G2 X20.371 Y-32.558 R0.5
G1 X20.322 Y-32.61
G2 X20.219 Y-32.694 R0.5
X19.951 Y-32.858 R38.441
X19.83 Y-32.911 R0.5
G1 X19.762 Y-32.931
G2 X19.629 Y-32.951 R0.5
G1 X19.557
G2 X19.414 Y-32.932 R0.5
G1 X19.335 Y-32.91
G2 X19.195 Y-32.845 R0.5
G1 X19.127 Y-32.799
G2 X19.067 Y-32.753 R0.5
G1 X18.953 Y-32.649
X18.867 Y-32.577
X18.826 Y-32.601
X18.82 Y-32.604
X18.779 Y-32.628
X18.798 Y-32.738
X18.831 Y-32.889
G2 X18.842 Y-32.964 R0.5
G1 X18.847 Y-33.046
G2 X18.833 Y-33.199 R0.5
G1 X18.813 Y-33.279
G2 X18.758 Y-33.413 R0.5
G1 X18.722 Y-33.474
G2 X18.638 Y-33.58 R0.5
G1 X18.587 Y-33.629
G2 X18.48 Y-33.707 R0.5
X18.204 Y-33.857 R38.441
X18.08 Y-33.904 R0.5
G1 X18.01 Y-33.92
G2 X17.878 Y-33.933 R0.5
G1 X17.806 Y-33.93
G2 X17.664 Y-33.903 R0.5
G1 X17.586 Y-33.876
G2 X17.45 Y-33.804 R0.5
G1 X17.384 Y-33.755
G2 X17.327 Y-33.706 R0.5
G1 X17.218 Y-33.596
X17.136 Y-33.52
X17.094 Y-33.542
X17.088 Y-33.545
X17.046 Y-33.566
X17.059 Y-33.677
X17.084 Y-33.83
G2 X17.091 Y-33.905 R0.5
G1 X17.092 Y-33.987
G2 X17.07 Y-34.139 R0.5
G1 X17.046 Y-34.218
G2 X16.984 Y-34.349 R0.5
G1 X16.944 Y-34.408
G2 X16.856 Y-34.509 R0.5
G1 X16.802 Y-34.556
G2 X16.691 Y-34.628 R0.5
X16.407 Y-34.764 R38.441
X16.281 Y-34.804 R0.5
G1 X16.211 Y-34.816
G2 X16.077 Y-34.822 R0.5
G1 X16.006 Y-34.815
G2 X15.866 Y-34.781 R0.5
G1 X15.79 Y-34.751
G2 X15.656 Y-34.671 R0.5
G1 X15.593 Y-34.619
G2 X15.539 Y-34.566 R0.5
G1 X15.437 Y-34.451
X15.358 Y-34.371
X15.315 Y-34.39
X15.309 Y-34.393
X15.266 Y-34.412
X15.273 Y-34.524
X15.29 Y-34.677
G2 X15.293 Y-34.753 R0.5
G1 X15.289 Y-34.835
G2 X15.26 Y-34.986 R0.5
G1 X15.231 Y-35.063
G2 X15.163 Y-35.19 R0.5
G1 X15.12 Y-35.248
G2 X15.026 Y-35.344 R0.5
G1 X14.97 Y-35.388
G2 X14.856 Y-35.455 R0.5
X14.566 Y-35.575 R38.441
X14.438 Y-35.608 R0.5
G1 X14.367 Y-35.617
G2 X14.232 Y-35.615 R0.5
G1 X14.162 Y-35.605
G2 X14.023 Y-35.564 R0.5
G1 X13.949 Y-35.529
G2 X13.821 Y-35.443 R0.5
G1 X13.76 Y-35.387
G2 X13.709 Y-35.332 R0.5
G1 X13.612 Y-35.212
X13.539 Y-35.127
X13.494 Y-35.145
X13.488 Y-35.147
X13.444 Y-35.164
X13.445 Y-35.276
X13.454 Y-35.43
G2 X13.453 Y-35.505 R0.5
G1 X13.445 Y-35.587
G2 X13.408 Y-35.737 R0.5
G1 X13.375 Y-35.812
G2 X13.3 Y-35.935 R0.5
G1 X13.255 Y-35.991
G2 X13.156 Y-36.082 R0.5
G1 X13.097 Y-36.123
G2 X12.98 Y-36.183 R0.5
X12.684 Y-36.288 R38.441
X12.554 Y-36.315 R0.5
G1 X12.482 Y-36.32
G2 X12.349 Y-36.311 R0.5
G1 X12.279 Y-36.297
G2 X12.143 Y-36.249 R0.5
G1 X12.071 Y-36.211
G2 X11.947 Y-36.118 R0.5
G1 X11.889 Y-36.059
G2 X11.841 Y-36.001 R0.5
G1 X11.751 Y-35.876
X11.682 Y-35.788
X11.636 Y-35.803
X11.63 Y-35.805
X11.585 Y-35.819
X11.581 Y-35.931
X11.582 Y-36.085
G2 X11.576 Y-36.161 R0.5
G1 X11.564 Y-36.242
G2 X11.519 Y-36.39 R0.5
G1 X11.483 Y-36.464
G2 X11.401 Y-36.582 R0.5
G1 X11.353 Y-36.635
G2 X11.249 Y-36.721 R0.5
G1 X11.189 Y-36.759
G2 X11.068 Y-36.813 R0.5
X10.767 Y-36.902 R38.441
X10.636 Y-36.922 R0.5
G1 X10.565 Y-36.924
G2 X10.432 Y-36.908 R0.5
G1 X10.363 Y-36.89
G2 X10.229 Y-36.835 R0.5
G1 X10.158 Y-36.792
G2 X10.04 Y-36.694 R0.5
G1 X9.986 Y-36.632
G2 X9.94 Y-36.572 R0.5
G1 X9.857 Y-36.442
X9.793 Y-36.35
X9.746 Y-36.363
X9.74 Y-36.364
X9.694 Y-36.376
X9.684 Y-36.488
X9.677 Y-36.642
G2 X9.668 Y-36.717 R0.5
G1 X9.652 Y-36.798
G2 X9.599 Y-36.943 R0.5
G1 X9.559 Y-37.015
G2 X9.471 Y-37.129 R0.5
G1 X9.42 Y-37.179
G2 X9.313 Y-37.259 R0.5
G1 X9.25 Y-37.294
G2 X9.126 Y-37.342 R0.5
X8.821 Y-37.415 R38.441
X8.69 Y-37.428 R0.5
G1 X8.618 Y-37.426
G2 X8.486 Y-37.404 R0.5
G1 X8.418 Y-37.382
G2 X8.287 Y-37.32 R0.5
G1 X8.219 Y-37.274
G2 X8.106 Y-37.169 R0.5
G1 X8.055 Y-37.105
G2 X8.013 Y-37.042 R0.5
G1 X7.936 Y-36.908
X7.877 Y-36.813
X7.83 Y-36.823
X7.824 Y-36.824
X7.777 Y-36.834
X7.761 Y-36.945
X7.746 Y-37.099
G2 X7.733 Y-37.173 R0.5
G1 X7.713 Y-37.253
G2 X7.652 Y-37.394 R0.5
G1 X7.608 Y-37.464
G2 X7.515 Y-37.574 R0.5
G1 X7.461 Y-37.621
G2 X7.35 Y-37.695 R0.5
G1 X7.285 Y-37.727
G2 X7.16 Y-37.768 R0.5
X6.851 Y-37.826 R38.441
X6.718 Y-37.832 R0.5
G1 X6.647 Y-37.826
G2 X6.516 Y-37.796 R0.5
G1 X6.449 Y-37.771
G2 X6.323 Y-37.702 R0.5
G1 X6.257 Y-37.653
G2 X6.15 Y-37.542 R0.5
G1 X6.102 Y-37.475
G2 X6.063 Y-37.41 R0.5
G1 X5.994 Y-37.273
X5.939 Y-37.175
X5.892 Y-37.182
X5.886 Y-37.183
X5.839 Y-37.19
X5.817 Y-37.301
X5.794 Y-37.453
G2 X5.777 Y-37.527 R0.5
G1 X5.752 Y-37.605
G2 X5.685 Y-37.743 R0.5
G1 X5.637 Y-37.811
G2 X5.538 Y-37.916 R0.5
G1 X5.482 Y-37.96
G2 X5.367 Y-38.028 R0.5
G1 X5.301 Y-38.056
G2 X5.173 Y-38.091 R0.5
X4.862 Y-38.132 R38.441
X4.729 R0.5
G1 X4.658 Y-38.122
G2 X4.53 Y-38.086 R0.5
G1 X4.464 Y-38.057
G2 X4.341 Y-37.981 R0.5
G1 X4.278 Y-37.928
G2 X4.177 Y-37.813 R0.5
G1 X4.133 Y-37.743
G2 X4.097 Y-37.677 R0.5
G1 X4.035 Y-37.535
X3.986 Y-37.434
X3.938 Y-37.44
X3.932
X3.885 Y-37.445
X3.857 Y-37.554
X3.826 Y-37.705
G2 X3.805 Y-37.777 R0.5
G1 X3.777 Y-37.855
G2 X3.701 Y-37.99 R0.5
G1 X3.65 Y-38.054
G2 X3.546 Y-38.154 R0.5
G1 X3.488 Y-38.195
G2 X3.369 Y-38.257 R0.5
G1 X3.302 Y-38.282
G2 X3.173 Y-38.31 R0.5
X2.86 Y-38.335 R38.441
X2.727 Y-38.327 R0.5
G1 X2.657 Y-38.313
G2 X2.53 Y-38.27 R0.5
G1 X2.466 Y-38.238
G2 X2.348 Y-38.157 R0.5
G1 X2.287 Y-38.101
G2 X2.192 Y-37.979 R0.5
G1 X2.151 Y-37.908
G2 X2.12 Y-37.839 R0.5
G1 X2.065 Y-37.695
X2.021 Y-37.592
X1.973 Y-37.595
X1.967
X1.92 Y-37.597
X1.886 Y-37.704
X1.847 Y-37.854
G2 X1.823 Y-37.925 R0.5
G1 X1.79 Y-38.001
G2 X1.708 Y-38.131 R0.5
G1 X1.654 Y-38.193
G2 X1.544 Y-38.287 R0.5
G1 X1.484 Y-38.325
G2 X1.363 Y-38.381 R0.5
G1 X1.294 Y-38.402
G2 X1.163 Y-38.423 R0.5
X0.849 Y-38.432 R38.441
X0.718 Y-38.417 R0.5
G1 X0.649 Y-38.4
G2 X0.523 Y-38.35 R0.5
G1 X0.461 Y-38.315
G2 X0.347 Y-38.227 R0.5
G1 X0.29 Y-38.168
G2 X0.201 Y-38.042 R0.5
G1 X0.165 Y-37.968
G2 X0.136 Y-37.898 R0.5
G1 X0.089 Y-37.751
X0.051 Y-37.646
X0.003
X-0.003
X-0.051
X-0.089 Y-37.751
X-0.136 Y-37.898
G2 X-0.165 Y-37.968 R0.5
G1 X-0.201 Y-38.042
G2 X-0.29 Y-38.168 R0.5
G1 X-0.347 Y-38.227
G2 X-0.461 Y-38.315 R0.5
G1 X-0.523 Y-38.35
G2 X-0.649 Y-38.4 R0.5
G1 X-0.718 Y-38.417
G2 X-0.849 Y-38.432 R0.5
X-1.163 Y-38.423 R38.441
X-1.294 Y-38.402 R0.5
G1 X-1.363 Y-38.381
G2 X-1.484 Y-38.325 R0.5
G1 X-1.544 Y-38.287
G2 X-1.654 Y-38.193 R0.5
G1 X-1.708 Y-38.131
G2 X-1.79 Y-38.001 R0.5
G1 X-1.823 Y-37.925
G2 X-1.847 Y-37.854 R0.5
G1 X-1.886 Y-37.704
X-1.919 Y-37.597
X-1.967 Y-37.595
X-1.974
X-2.021 Y-37.592
X-2.065 Y-37.695
X-2.12 Y-37.839
G2 X-2.151 Y-37.908 R0.5
G1 X-2.192 Y-37.979
G2 X-2.287 Y-38.101 R0.5
G1 X-2.348 Y-38.157
G2 X-2.466 Y-38.238 R0.5
G1 X-2.53 Y-38.27
G2 X-2.657 Y-38.313 R0.5
G1 X-2.727 Y-38.327
G2 X-2.86 Y-38.335 R0.5
X-3.173 Y-38.31 R38.441
X-3.302 Y-38.282 R0.5
G1 X-3.369 Y-38.257
G2 X-3.488 Y-38.195 R0.5
G1 X-3.546 Y-38.154
G2 X-3.65 Y-38.054 R0.5
G1 X-3.701 Y-37.99
G2 X-3.777 Y-37.855 R0.5
G1 X-3.805 Y-37.777
G2 X-3.826 Y-37.705 R0.5
G1 X-3.857 Y-37.554
X-3.885 Y-37.445
X-3.932 Y-37.44
X-3.939
X-3.986 Y-37.434
X-4.035 Y-37.535
X-4.097 Y-37.677
G2 X-4.133 Y-37.743 R0.5
G1 X-4.177 Y-37.813
G2 X-4.278 Y-37.928 R0.5
G1 X-4.341 Y-37.981
G2 X-4.464 Y-38.057 R0.5
G1 X-4.53 Y-38.086
G2 X-4.658 Y-38.122 R0.5
G1 X-4.729 Y-38.132
G2 X-4.862 R0.5
X-5.173 Y-38.091 R38.441
X-5.301 Y-38.056 R0.5
G1 X-5.367 Y-38.028
G2 X-5.482 Y-37.96 R0.5
G1 X-5.538 Y-37.916
G2 X-5.637 Y-37.811 R0.5
G1 X-5.685 Y-37.743
G2 X-5.752 Y-37.605 R0.5
G1 X-5.777 Y-37.527
G2 X-5.794 Y-37.453 R0.5
G1 X-5.817 Y-37.301
X-5.839 Y-37.191
X-5.886 Y-37.183
X-5.893 Y-37.182
X-5.939 Y-37.175
X-5.994 Y-37.273
X-6.063 Y-37.41
G2 X-6.102 Y-37.475 R0.5
G1 X-6.15 Y-37.542
G2 X-6.257 Y-37.653 R0.5
G1 X-6.323 Y-37.702
G2 X-6.449 Y-37.771 R0.5
G1 X-6.516 Y-37.796
G2 X-6.647 Y-37.826 R0.5
G1 X-6.718 Y-37.832
G2 X-6.851 Y-37.826 R0.5
X-7.16 Y-37.768 R38.441
X-7.285 Y-37.727 R0.5
G1 X-7.35 Y-37.695
G2 X-7.461 Y-37.621 R0.5
G1 X-7.515 Y-37.574
G2 X-7.608 Y-37.464 R0.5
G1 X-7.652 Y-37.394
G2 X-7.713 Y-37.253 R0.5
G1 X-7.733 Y-37.173
G2 X-7.746 Y-37.099 R0.5
G1 X-7.761 Y-36.945
X-7.777 Y-36.834
X-7.824 Y-36.824
X-7.83 Y-36.823
X-7.877 Y-36.813
X-7.936 Y-36.908
X-8.013 Y-37.042
G2 X-8.055 Y-37.105 R0.5
G1 X-8.106 Y-37.169
G2 X-8.219 Y-37.274 R0.5
G1 X-8.287 Y-37.32
G2 X-8.418 Y-37.382 R0.5
G1 X-8.486 Y-37.404
G2 X-8.618 Y-37.426 R0.5
G1 X-8.69 Y-37.428
G2 X-8.821 Y-37.415 R0.5
X-9.126 Y-37.342 R38.441
X-9.25 Y-37.294 R0.5
G1 X-9.313 Y-37.259
G2 X-9.42 Y-37.179 R0.5
G1 X-9.471 Y-37.129
G2 X-9.559 Y-37.015 R0.5
G1 X-9.599 Y-36.943
G2 X-9.652 Y-36.798 R0.5
G1 X-9.668 Y-36.717
G2 X-9.677 Y-36.642 R0.5
G1 X-9.684 Y-36.488
X-9.694 Y-36.376
X-9.741 Y-36.364
X-9.747 Y-36.363
X-9.793 Y-36.35
X-9.857 Y-36.442
X-9.94 Y-36.572
G2 X-9.986 Y-36.632 R0.5
G1 X-10.04 Y-36.694
G2 X-10.158 Y-36.792 R0.5
G1 X-10.229 Y-36.835
G2 X-10.363 Y-36.89 R0.5
G1 X-10.432 Y-36.908
G2 X-10.565 Y-36.924 R0.5
G1 X-10.636 Y-36.922
G2 X-10.767 Y-36.902 R0.5
X-11.068 Y-36.813 R38.441
X-11.189 Y-36.759 R0.5
G1 X-11.249 Y-36.721
G2 X-11.353 Y-36.635 R0.5
G1 X-11.401 Y-36.582
G2 X-11.483 Y-36.464 R0.5
G1 X-11.519 Y-36.39
G2 X-11.564 Y-36.242 R0.5
G1 X-11.576 Y-36.161
G2 X-11.582 Y-36.085 R0.5
G1 X-11.581 Y-35.931
X-11.585 Y-35.819
X-11.631 Y-35.805
X-11.637 Y-35.803
X-11.682 Y-35.788
X-11.751 Y-35.876
X-11.841 Y-36.001
G2 X-11.889 Y-36.059 R0.5
G1 X-11.947 Y-36.118
G2 X-12.071 Y-36.211 R0.5
G1 X-12.143 Y-36.249
G2 X-12.279 Y-36.297 R0.5
G1 X-12.349 Y-36.311
G2 X-12.482 Y-36.32 R0.5
G1 X-12.554 Y-36.315
G2 X-12.684 Y-36.288 R0.5
X-12.98 Y-36.183 R38.441
X-13.097 Y-36.123 R0.5
G1 X-13.156 Y-36.082
G2 X-13.255 Y-35.991 R0.5
G1 X-13.3 Y-35.935
G2 X-13.375 Y-35.812 R0.5
G1 X-13.408 Y-35.737
G2 X-13.445 Y-35.587 R0.5
G1 X-13.453 Y-35.505
G2 X-13.454 Y-35.43 R0.5
G1 X-13.445 Y-35.276
X-13.444 Y-35.164
X-13.489 Y-35.147
X-13.495 Y-35.145
X-13.539 Y-35.127
X-13.612 Y-35.212
X-13.709 Y-35.332
G2 X-13.76 Y-35.387 R0.5
G1 X-13.821 Y-35.443
G2 X-13.949 Y-35.529 R0.5
G1 X-14.023 Y-35.564
G2 X-14.162 Y-35.605 R0.5
G1 X-14.232 Y-35.615
G2 X-14.367 Y-35.617 R0.5
G1 X-14.438 Y-35.608
G2 X-14.566 Y-35.575 R0.5
X-14.856 Y-35.455 R38.441
X-14.97 Y-35.388 R0.5
G1 X-15.026 Y-35.344
G2 X-15.12 Y-35.248 R0.5
G1 X-15.163 Y-35.19
G2 X-15.231 Y-35.063 R0.5
G1 X-15.26 Y-34.986
G2 X-15.289 Y-34.835 R0.5
G1 X-15.293 Y-34.753
G2 X-15.29 Y-34.677 R0.5
G1 X-15.273 Y-34.524
X-15.266 Y-34.412
X-15.309 Y-34.393
X-15.315 Y-34.39
X-15.358 Y-34.371
X-15.437 Y-34.451
X-15.539 Y-34.566
G2 X-15.593 Y-34.619 R0.5
G1 X-15.656 Y-34.671
G2 X-15.79 Y-34.751 R0.5
G1 X-15.866 Y-34.781
G2 X-16.006 Y-34.815 R0.5
G1 X-16.077 Y-34.822
G2 X-16.211 Y-34.816 R0.5
G1 X-16.281 Y-34.804
G2 X-16.407 Y-34.764 R0.5
X-16.691 Y-34.628 R38.441
X-16.802 Y-34.556 R0.5
G1 X-16.856 Y-34.509
G2 X-16.944 Y-34.408 R0.5
G1 X-16.984 Y-34.349
G2 X-17.046 Y-34.218 R0.5
G1 X-17.07 Y-34.139
G2 X-17.092 Y-33.987 R0.5
G1 X-17.091 Y-33.905
G2 X-17.084 Y-33.83 R0.5
G1 X-17.059 Y-33.677
X-17.046 Y-33.566
X-17.089 Y-33.544
X-17.094 Y-33.542
X-17.136 Y-33.52
X-17.218 Y-33.596
X-17.327 Y-33.706
G2 X-17.384 Y-33.755 R0.5
G1 X-17.45 Y-33.804
G2 X-17.586 Y-33.876 R0.5
G1 X-17.664 Y-33.903
G2 X-17.806 Y-33.93 R0.5
G1 X-17.878 Y-33.933
G2 X-18.01 Y-33.92 R0.5
G1 X-18.08 Y-33.904
G2 X-18.204 Y-33.857 R0.5
X-18.48 Y-33.707 R38.441
X-18.587 Y-33.629 R0.5
G1 X-18.638 Y-33.58
G2 X-18.722 Y-33.474 R0.5
G1 X-18.758 Y-33.413
G2 X-18.813 Y-33.279 R0.5
G1 X-18.833 Y-33.199
G2 X-18.847 Y-33.046 R0.5
G1 X-18.842 Y-32.964
G2 X-18.831 Y-32.889 R0.5
G1 X-18.798 Y-32.738
X-18.779 Y-32.628
X-18.821 Y-32.604
X-18.826 Y-32.601
X-18.867 Y-32.577
X-18.953 Y-32.649
X-19.067 Y-32.753
G2 X-19.127 Y-32.799 R0.5
G1 X-19.195 Y-32.845
G2 X-19.335 Y-32.91 R0.5
G1 X-19.414 Y-32.932
G2 X-19.557 Y-32.951 R0.5
G1 X-19.629
G2 X-19.762 Y-32.931 R0.5
G1 X-19.83 Y-32.911
G2 X-19.951 Y-32.858 R0.5
X-20.219 Y-32.694 R38.441
X-20.322 Y-32.61 R0.5
G1 X-20.371 Y-32.558
G2 X-20.448 Y-32.449 R0.5
G1 X-20.481 Y-32.385
G2 X-20.529 Y-32.249 R0.5
G1 X-20.545 Y-32.168
G2 X-20.551 Y-32.014 R0.5
G1 X-20.541 Y-31.932
G2 X-20.527 Y-31.858 R0.5
G1 X-20.486 Y-31.71
X-20.461 Y-31.6
X-20.501 Y-31.574
X-20.506 Y-31.571
X-20.546 Y-31.545
X-20.636 Y-31.612
X-20.755 Y-31.71
G2 X-20.817 Y-31.753 R0.5
G1 X-20.888 Y-31.795
G2 X-21.031 Y-31.852 R0.5
G1 X-21.111 Y-31.871
G2 X-21.255 Y-31.883 R0.5
G1 X-21.327 Y-31.878
G2 X-21.457 Y-31.852 R0.5
G1 X-21.525 Y-31.829
G2 X-21.644 Y-31.769 R0.5
X-21.903 Y-31.591 R38.441
X-22.001 Y-31.502 R0.5
G1 X-22.047 Y-31.447
G2 X-22.118 Y-31.334 R0.5
G1 X-22.148 Y-31.269
G2 X-22.189 Y-31.13 R0.5
G1 X-22.2 Y-31.049
G2 X-22.198 Y-30.895 R0.5
G1 X-22.184 Y-30.814
G2 X-22.166 Y-30.74 R0.5
G1 X-22.117 Y-30.594
X-22.087 Y-30.486
X-22.126 Y-30.458
X-22.131 Y-30.455
X-22.169 Y-30.426
X-22.262 Y-30.489
X-22.386 Y-30.58
G2 X-22.451 Y-30.62 R0.5
G1 X-22.523 Y-30.659
G2 X-22.669 Y-30.708 R0.5
G1 X-22.75 Y-30.722
G2 X-22.894 Y-30.727 R0.5
G1 X-22.965 Y-30.718
G2 X-23.096 Y-30.685 R0.5
G1 X-23.162 Y-30.658
G2 X-23.277 Y-30.593 R0.5
X-23.526 Y-30.401 R38.441
X-23.619 Y-30.308 R0.5
G1 X-23.662 Y-30.251
G2 X-23.728 Y-30.133 R0.5
G1 X-23.754 Y-30.066
G2 X-23.787 Y-29.927 R0.5
G1 X-23.795 Y-29.845
G2 X-23.784 Y-29.691 R0.5
G1 X-23.766 Y-29.61
G2 X-23.744 Y-29.538 R0.5
G1 X-23.688 Y-29.395
X-23.652 Y-29.288
X-23.69 Y-29.258
X-23.694 Y-29.255
X-23.731 Y-29.224
X-23.827 Y-29.282
X-23.956 Y-29.367
G2 X-24.022 Y-29.403 R0.5
G1 X-24.097 Y-29.438
G2 X-24.246 Y-29.48 R0.5
G1 X-24.327 Y-29.49
G2 X-24.471 Y-29.486 R0.5
G1 X-24.542 Y-29.474
G2 X-24.669 Y-29.434 R0.5
G1 X-24.734 Y-29.404
G2 X-24.846 Y-29.333 R0.5
X-25.085 Y-29.128 R38.441
X-25.173 Y-29.03 R0.5
G1 X-25.213 Y-28.97
G2 X-25.272 Y-28.85 R0.5
G1 X-25.295 Y-28.782
G2 X-25.321 Y-28.641 R0.5
G1 X-25.324 Y-28.559
G2 X-25.306 Y-28.405 R0.5
G1 X-25.284 Y-28.326
G2 X-25.258 Y-28.255 R0.5
G1 X-25.194 Y-28.115
X-25.152 Y-28.01
X-25.188 Y-27.978
X-25.193 Y-27.974
X-25.228 Y-27.942
X-25.327 Y-27.995
X-25.46 Y-28.073
G2 X-25.528 Y-28.106 R0.5
G1 X-25.604 Y-28.136
G2 X-25.755 Y-28.17 R0.5
G1 X-25.837 Y-28.176
G2 X-25.981 Y-28.165 R0.5
G1 X-26.051 Y-28.149
G2 X-26.176 Y-28.103 R0.5
G1 X-26.239 Y-28.069
G2 X-26.347 Y-27.992 R0.5
X-26.575 Y-27.776 R38.441
X-26.658 Y-27.672 R0.5
G1 X-26.694 Y-27.611
G2 X-26.747 Y-27.488 R0.5
G1 X-26.767 Y-27.419
G2 X-26.785 Y-27.277 R0.5
G1 X-26.784 Y-27.194
G2 X-26.758 Y-27.042 R0.5
G1 X-26.731 Y-26.964
G2 X-26.702 Y-26.895 R0.5
G1 X-26.631 Y-26.758
X-26.584 Y-26.656
X-26.618 Y-26.622
X-26.622 Y-26.618
X-26.656 Y-26.584
X-26.758 Y-26.631
X-26.895 Y-26.702
G2 X-26.964 Y-26.731 R0.5
G1 X-27.042 Y-26.758
G2 X-27.194 Y-26.784 R0.5
G1 X-27.277 Y-26.785
G2 X-27.419 Y-26.767 R0.5
G1 X-27.488 Y-26.747
G2 X-27.611 Y-26.694 R0.5
G1 X-27.672 Y-26.658
G2 X-27.776 Y-26.575 R0.5
X-27.992 Y-26.347 R38.441
X-28.069 Y-26.239 R0.5
G1 X-28.103 Y-26.176
G2 X-28.149 Y-26.051 R0.5
G1 X-28.165 Y-25.981
G2 X-28.176 Y-25.837 R0.5
G1 X-28.17 Y-25.755
G2 X-28.136 Y-25.604 R0.5
G1 X-28.106 Y-25.528
G2 X-28.073 Y-25.46 R0.5
G1 X-27.995 Y-25.327
X-27.942 Y-25.228
X-27.975 Y-25.192
X-27.979 Y-25.188
X-28.01 Y-25.152
X-28.115 Y-25.194
X-28.255 Y-25.258
G2 X-28.326 Y-25.284 R0.5
G1 X-28.405 Y-25.306
G2 X-28.559 Y-25.324 R0.5
G1 X-28.641 Y-25.321
G2 X-28.782 Y-25.295 R0.5
G1 X-28.85 Y-25.272
G2 X-28.97 Y-25.213 R0.5
G1 X-29.03 Y-25.173
G2 X-29.128 Y-25.085 R0.5
X-29.333 Y-24.846 R38.441
X-29.404 Y-24.734 R0.5
G1 X-29.434 Y-24.669
G2 X-29.474 Y-24.542 R0.5
G1 X-29.486 Y-24.471
G2 X-29.49 Y-24.327 R0.5
G1 X-29.48 Y-24.246
G2 X-29.438 Y-24.097 R0.5
G1 X-29.403 Y-24.022
G2 X-29.367 Y-23.956 R0.5
G1 X-29.282 Y-23.827
X-29.224 Y-23.731
X-29.255 Y-23.694
X-29.259 Y-23.689
X-29.288 Y-23.652
X-29.395 Y-23.688
X-29.538 Y-23.744
G2 X-29.61 Y-23.766 R0.5
G1 X-29.691 Y-23.784
G2 X-29.845 Y-23.795 R0.5
G1 X-29.927 Y-23.787
G2 X-30.066 Y-23.754 R0.5
G1 X-30.133 Y-23.728
G2 X-30.251 Y-23.662 R0.5
G1 X-30.308 Y-23.619
G2 X-30.401 Y-23.526 R0.5
X-30.593 Y-23.277 R38.441
X-30.658 Y-23.162 R0.5
G1 X-30.685 Y-23.096
G2 X-30.718 Y-22.965 R0.5
G1 X-30.727 Y-22.894
G2 X-30.722 Y-22.75 R0.5
G1 X-30.708 Y-22.669
G2 X-30.659 Y-22.523 R0.5
G1 X-30.62 Y-22.451
G2 X-30.58 Y-22.386 R0.5
G1 X-30.489 Y-22.262
X-30.426 Y-22.169
X-30.455 Y-22.13
X-30.459 Y-22.125
X-30.486 Y-22.087
X-30.594 Y-22.117
X-30.74 Y-22.166
G2 X-30.814 Y-22.184 R0.5
G1 X-30.895 Y-22.198
G2 X-31.049 Y-22.2 R0.5
G1 X-31.13 Y-22.189
G2 X-31.269 Y-22.148 R0.5
G1 X-31.334 Y-22.118
G2 X-31.447 Y-22.047 R0.5
G1 X-31.502 Y-22.001
G2 X-31.591 Y-21.903 R0.5
X-31.769 Y-21.644 R38.441
X-31.829 Y-21.525 R0.5
G1 X-31.852 Y-21.457
G2 X-31.878 Y-21.327 R0.5
G1 X-31.883 Y-21.255
G2 X-31.871 Y-21.111 R0.5
G1 X-31.852 Y-21.031
G2 X-31.795 Y-20.888 R0.5
G1 X-31.753 Y-20.817
G2 X-31.71 Y-20.755 R0.5
G1 X-31.612 Y-20.636
X-31.545 Y-20.546
X-31.571 Y-20.506
X-31.575 Y-20.501
X-31.6 Y-20.461
X-31.71 Y-20.486
X-31.858 Y-20.527
G2 X-31.932 Y-20.541 R0.5
G1 X-32.014 Y-20.551
G2 X-32.168 Y-20.545 R0.5
G1 X-32.249 Y-20.529
G2 X-32.385 Y-20.481 R0.5
G1 X-32.449 Y-20.448
G2 X-32.558 Y-20.371 R0.5
G1 X-32.61 Y-20.322
G2 X-32.694 Y-20.219 R0.5
X-32.858 Y-19.951 R38.441
X-32.911 Y-19.83 R0.5
G1 X-32.931 Y-19.762
G2 X-32.951 Y-19.629 R0.5
G1 Y-19.557
G2 X-32.932 Y-19.414 R0.5
G1 X-32.91 Y-19.335
G2 X-32.845 Y-19.195 R0.5
G1 X-32.799 Y-19.127
G2 X-32.753 Y-19.067 R0.5
G1 X-32.649 Y-18.953
X-32.577 Y-18.867
X-32.601 Y-18.826
X-32.604 Y-18.82
X-32.628 Y-18.779
X-32.738 Y-18.798
X-32.889 Y-18.831
G2 X-32.964 Y-18.842 R0.5
G1 X-33.046 Y-18.847
G2 X-33.199 Y-18.833 R0.5
G1 X-33.279 Y-18.813
G2 X-33.413 Y-18.758 R0.5
G1 X-33.474 Y-18.722
G2 X-33.58 Y-18.638 R0.5
G1 X-33.629 Y-18.587
G2 X-33.707 Y-18.48 R0.5
X-33.857 Y-18.204 R38.441
X-33.904 Y-18.08 R0.5
G1 X-33.92 Y-18.01
G2 X-33.933 Y-17.878 R0.5
G1 X-33.93 Y-17.806
G2 X-33.903 Y-17.664 R0.5
G1 X-33.876 Y-17.586
G2 X-33.804 Y-17.45 R0.5
G1 X-33.755 Y-17.384
G2 X-33.706 Y-17.327 R0.5
G1 X-33.596 Y-17.218
X-33.52 Y-17.136
X-33.542 Y-17.094
X-33.545 Y-17.088
X-33.566 Y-17.046
X-33.677 Y-17.059
X-33.83 Y-17.084
G2 X-33.905 Y-17.091 R0.5
G1 X-33.987 Y-17.092
G2 X-34.139 Y-17.07 R0.5
G1 X-34.218 Y-17.046
G2 X-34.349 Y-16.984 R0.5
G1 X-34.408 Y-16.944
G2 X-34.509 Y-16.856 R0.5
G1 X-34.556 Y-16.802
G2 X-34.628 Y-16.691 R0.5
X-34.764 Y-16.407 R38.441
X-34.804 Y-16.281 R0.5
G1 X-34.816 Y-16.211
G2 X-34.822 Y-16.077 R0.5
G1 X-34.815 Y-16.006
G2 X-34.781 Y-15.866 R0.5
G1 X-34.751 Y-15.79
G2 X-34.671 Y-15.656 R0.5
G1 X-34.619 Y-15.593
G2 X-34.566 Y-15.539 R0.5
G1 X-34.451 Y-15.437
X-34.371 Y-15.358
X-34.39 Y-15.315
X-34.393 Y-15.309
X-34.412 Y-15.266
X-34.524 Y-15.273
X-34.677 Y-15.29
G2 X-34.753 Y-15.293 R0.5
G1 X-34.835 Y-15.289
G2 X-34.986 Y-15.26 R0.5
G1 X-35.063 Y-15.231
G2 X-35.19 Y-15.163 R0.5
G1 X-35.248 Y-15.12
G2 X-35.344 Y-15.026 R0.5
G1 X-35.388 Y-14.97
G2 X-35.455 Y-14.856 R0.5
X-35.575 Y-14.566 R38.441
X-35.608 Y-14.438 R0.5
G1 X-35.617 Y-14.367
G2 X-35.615 Y-14.232 R0.5
G1 X-35.605 Y-14.162
G2 X-35.564 Y-14.023 R0.5
G1 X-35.529 Y-13.949
G2 X-35.443 Y-13.821 R0.5
G1 X-35.387 Y-13.76
G2 X-35.332 Y-13.709 R0.5
G1 X-35.212 Y-13.612
X-35.127 Y-13.539
X-35.145 Y-13.494
X-35.147 Y-13.488
X-35.164 Y-13.444
X-35.276 Y-13.445
X-35.43 Y-13.454
G2 X-35.505 Y-13.453 R0.5
G1 X-35.587 Y-13.445
G2 X-35.737 Y-13.408 R0.5
G1 X-35.812 Y-13.375
G2 X-35.935 Y-13.3 R0.5
G1 X-35.991 Y-13.255
G2 X-36.082 Y-13.156 R0.5
G1 X-36.123 Y-13.097
G2 X-36.183 Y-12.98 R0.5
X-36.288 Y-12.684 R38.441
X-36.315 Y-12.554 R0.5
G1 X-36.32 Y-12.482
G2 X-36.311 Y-12.349 R0.5
G1 X-36.297 Y-12.279
G2 X-36.249 Y-12.143 R0.5
G1 X-36.211 Y-12.071
G2 X-36.118 Y-11.947 R0.5
G1 X-36.059 Y-11.889
G2 X-36.001 Y-11.841 R0.5
G1 X-35.876 Y-11.751
X-35.788 Y-11.682
X-35.803 Y-11.636
X-35.805 Y-11.63
X-35.819 Y-11.585
X-35.931 Y-11.581
X-36.085 Y-11.582
G2 X-36.161 Y-11.576 R0.5
G1 X-36.242 Y-11.564
G2 X-36.39 Y-11.519 R0.5
G1 X-36.464 Y-11.483
G2 X-36.582 Y-11.401 R0.5
G1 X-36.635 Y-11.353
G2 X-36.721 Y-11.249 R0.5
G1 X-36.759 Y-11.189
G2 X-36.813 Y-11.068 R0.5
X-36.902 Y-10.767 R38.441
X-36.922 Y-10.636 R0.5
G1 X-36.924 Y-10.565
G2 X-36.908 Y-10.432 R0.5
G1 X-36.89 Y-10.363
G2 X-36.835 Y-10.229 R0.5
G1 X-36.792 Y-10.158
G2 X-36.694 Y-10.04 R0.5
G1 X-36.632 Y-9.986
G2 X-36.572 Y-9.94 R0.5
G1 X-36.442 Y-9.857
X-36.35 Y-9.793
X-36.363 Y-9.746
X-36.364 Y-9.74
X-36.376 Y-9.694
X-36.488 Y-9.684
X-36.642 Y-9.677
G2 X-36.717 Y-9.668 R0.5
G1 X-36.798 Y-9.652
G2 X-36.943 Y-9.599 R0.5
G1 X-37.015 Y-9.559
G2 X-37.129 Y-9.471 R0.5
G1 X-37.179 Y-9.42
G2 X-37.259 Y-9.313 R0.5
G1 X-37.294 Y-9.25
G2 X-37.342 Y-9.126 R0.5
X-37.415 Y-8.821 R38.441
X-37.428 Y-8.69 R0.5
G1 X-37.426 Y-8.618
G2 X-37.404 Y-8.486 R0.5
G1 X-37.382 Y-8.418
G2 X-37.32 Y-8.287 R0.5
G1 X-37.274 Y-8.219
G2 X-37.169 Y-8.106 R0.5
G1 X-37.105 Y-8.055
G2 X-37.042 Y-8.013 R0.5
G1 X-36.908 Y-7.936
X-36.813 Y-7.877
X-36.823 Y-7.83
X-36.824 Y-7.824
X-36.834 Y-7.777
X-36.945 Y-7.761
X-37.099 Y-7.746
G2 X-37.173 Y-7.733 R0.5
G1 X-37.253 Y-7.713
G2 X-37.394 Y-7.652 R0.5
G1 X-37.464 Y-7.608
G2 X-37.574 Y-7.515 R0.5
G1 X-37.621 Y-7.461
G2 X-37.695 Y-7.35 R0.5
G1 X-37.727 Y-7.285
G2 X-37.768 Y-7.16 R0.5
X-37.826 Y-6.851 R38.441
X-37.832 Y-6.718 R0.5
G1 X-37.826 Y-6.647
G2 X-37.796 Y-6.516 R0.5
G1 X-37.771 Y-6.449
G2 X-37.702 Y-6.323 R0.5
G1 X-37.653 Y-6.257
G2 X-37.542 Y-6.15 R0.5
G1 X-37.475 Y-6.102
G2 X-37.41 Y-6.063 R0.5
G1 X-37.273 Y-5.994
X-37.175 Y-5.939
X-37.182 Y-5.892
X-37.183 Y-5.886
X-37.19 Y-5.839
X-37.301 Y-5.817
X-37.453 Y-5.794
G2 X-37.527 Y-5.777 R0.5
G1 X-37.605 Y-5.752
G2 X-37.743 Y-5.685 R0.5
G1 X-37.811 Y-5.637
G2 X-37.916 Y-5.538 R0.5
G1 X-37.96 Y-5.482
G2 X-38.028 Y-5.367 R0.5
G1 X-38.056 Y-5.301
G2 X-38.091 Y-5.173 R0.5
X-38.132 Y-4.862 R38.441
Y-4.729 R0.5
G1 X-38.122 Y-4.658
G2 X-38.086 Y-4.53 R0.5
G1 X-38.057 Y-4.464
G2 X-37.981 Y-4.341 R0.5
G1 X-37.928 Y-4.278
G2 X-37.813 Y-4.177 R0.5
G1 X-37.743 Y-4.133
G2 X-37.677 Y-4.097 R0.5
G1 X-37.535 Y-4.035
X-37.434 Y-3.986
X-37.44 Y-3.938
Y-3.932
X-37.445 Y-3.885
X-37.554 Y-3.857
X-37.705 Y-3.826
G2 X-37.777 Y-3.805 R0.5
G1 X-37.855 Y-3.777
G2 X-37.99 Y-3.701 R0.5
G1 X-38.054 Y-3.65
G2 X-38.154 Y-3.546 R0.5
G1 X-38.195 Y-3.488
G2 X-38.257 Y-3.369 R0.5
G1 X-38.282 Y-3.302
G2 X-38.31 Y-3.173 R0.5
X-38.335 Y-2.86 R38.441
X-38.327 Y-2.727 R0.5
G1 X-38.313 Y-2.657
G2 X-38.27 Y-2.53 R0.5
G1 X-38.238 Y-2.466
G2 X-38.157 Y-2.348 R0.5
G1 X-38.101 Y-2.287
G2 X-37.979 Y-2.192 R0.5
G1 X-37.908 Y-2.151
G2 X-37.839 Y-2.12 R0.5
G1 X-37.695 Y-2.065
X-37.592 Y-2.021
X-37.595 Y-1.973
Y-1.967
X-37.597 Y-1.92
X-37.704 Y-1.886
X-37.854 Y-1.847
G2 X-37.925 Y-1.823 R0.5
G1 X-38.001 Y-1.79
G2 X-38.131 Y-1.708 R0.5
G1 X-38.193 Y-1.654
G2 X-38.287 Y-1.544 R0.5
G1 X-38.325 Y-1.484
G2 X-38.381 Y-1.363 R0.5
G1 X-38.402 Y-1.294
G2 X-38.423 Y-1.163 R0.5
X-38.432 Y-0.849 R38.441
X-38.417 Y-0.718 R0.5
G1 X-38.4 Y-0.649
G2 X-38.35 Y-0.523 R0.5
G1 X-38.315 Y-0.461
G2 X-38.227 Y-0.347 R0.5
G1 X-38.168 Y-0.29
G2 X-38.042 Y-0.201 R0.5
G1 X-37.968 Y-0.165
G2 X-37.898 Y-0.136 R0.5
G1 X-37.751 Y-0.089
X-37.646 Y-0.051
Y-0.003
Y0.003
Y0.051
X-37.751 Y0.089
X-37.898 Y0.136
G2 X-37.968 Y0.165 R0.5
G1 X-38.042 Y0.201
G2 X-38.168 Y0.29 R0.5
G1 X-38.227 Y0.347
G2 X-38.315 Y0.461 R0.5
G1 X-38.35 Y0.523
G2 X-38.4 Y0.649 R0.5
G1 X-38.417 Y0.718
G2 X-38.432 Y0.849 R0.5
X-38.423 Y1.163 R38.441
X-38.402 Y1.294 R0.5
G1 X-38.381 Y1.363
G2 X-38.325 Y1.484 R0.5
G1 X-38.287 Y1.544
G2 X-38.193 Y1.654 R0.5
G1 X-38.131 Y1.708
G2 X-38.001 Y1.79 R0.5
G1 X-37.925 Y1.823
G2 X-37.854 Y1.847 R0.5
G1 X-37.704 Y1.886
X-37.597 Y1.919
X-37.595 Y1.967
Y1.974
X-37.592 Y2.021
X-37.695 Y2.065
X-37.839 Y2.12
G2 X-37.908 Y2.151 R0.5
G1 X-37.979 Y2.192
G2 X-38.101 Y2.287 R0.5
G1 X-38.157 Y2.348
G2 X-38.238 Y2.466 R0.5
G1 X-38.27 Y2.53
G2 X-38.313 Y2.657 R0.5
G1 X-38.327 Y2.727
G2 X-38.335 Y2.86 R0.5
X-38.31 Y3.173 R38.441
X-38.282 Y3.302 R0.5
G1 X-38.257 Y3.369
G2 X-38.195 Y3.488 R0.5
G1 X-38.154 Y3.546
G2 X-38.054 Y3.65 R0.5
G1 X-37.99 Y3.701
G2 X-37.855 Y3.777 R0.5
G1 X-37.777 Y3.805
G2 X-37.705 Y3.826 R0.5
G1 X-37.554 Y3.857
X-37.445 Y3.885
X-37.44 Y3.932
Y3.939
X-37.434 Y3.986
X-37.535 Y4.035
X-37.677 Y4.097
G2 X-37.743 Y4.133 R0.5
G1 X-37.813 Y4.177
G2 X-37.928 Y4.278 R0.5
G1 X-37.981 Y4.341
G2 X-38.057 Y4.464 R0.5
G1 X-38.086 Y4.53
G2 X-38.122 Y4.658 R0.5
G1 X-38.132 Y4.729
G2 Y4.862 R0.5
X-38.091 Y5.173 R38.441
X-38.056 Y5.301 R0.5
G1 X-38.028 Y5.367
G2 X-37.96 Y5.482 R0.5
G1 X-37.916 Y5.538
G2 X-37.811 Y5.637 R0.5
G1 X-37.743 Y5.685
G2 X-37.605 Y5.752 R0.5
G1 X-37.527 Y5.777
G2 X-37.453 Y5.794 R0.5
G1 X-37.301 Y5.817
X-37.191 Y5.839
X-37.183 Y5.886
X-37.182 Y5.893
X-37.175 Y5.939
X-37.273 Y5.994
X-37.41 Y6.063
G2 X-37.475 Y6.102 R0.5
G1 X-37.542 Y6.15
G2 X-37.653 Y6.257 R0.5
G1 X-37.702 Y6.323
G2 X-37.771 Y6.449 R0.5
G1 X-37.796 Y6.516
G2 X-37.826 Y6.647 R0.5
G1 X-37.832 Y6.718
G2 X-37.826 Y6.851 R0.5
X-37.768 Y7.16 R38.441
X-37.727 Y7.285 R0.5
G1 X-37.695 Y7.35
G2 X-37.621 Y7.461 R0.5
G1 X-37.574 Y7.515
G2 X-37.464 Y7.608 R0.5
G1 X-37.394 Y7.652
G2 X-37.253 Y7.713 R0.5
G1 X-37.173 Y7.733
G2 X-37.099 Y7.746 R0.5
G1 X-36.945 Y7.761
X-36.834 Y7.777
X-36.824 Y7.824
X-36.823 Y7.83
X-36.813 Y7.877
X-36.908 Y7.936
X-37.042 Y8.013
G2 X-37.105 Y8.055 R0.5
G1 X-37.169 Y8.106
G2 X-37.274 Y8.219 R0.5
G1 X-37.32 Y8.287
G2 X-37.382 Y8.418 R0.5
G1 X-37.404 Y8.486
G2 X-37.426 Y8.618 R0.5
G1 X-37.428 Y8.69
G2 X-37.415 Y8.821 R0.5
X-37.342 Y9.126 R38.441
X-37.294 Y9.25 R0.5
G1 X-37.259 Y9.313
G2 X-37.179 Y9.42 R0.5
G1 X-37.129 Y9.471
G2 X-37.015 Y9.559 R0.5
G1 X-36.943 Y9.599
G2 X-36.798 Y9.652 R0.5
G1 X-36.717 Y9.668
G2 X-36.642 Y9.677 R0.5
G1 X-36.488 Y9.684
X-36.376 Y9.694
X-36.364 Y9.741
X-36.363 Y9.747
X-36.35 Y9.793
X-36.442 Y9.857
X-36.572 Y9.94
G2 X-36.632 Y9.986 R0.5
G1 X-36.694 Y10.04
G2 X-36.792 Y10.158 R0.5
G1 X-36.835 Y10.229
G2 X-36.89 Y10.363 R0.5
G1 X-36.908 Y10.432
G2 X-36.924 Y10.565 R0.5
G1 X-36.922 Y10.636
G2 X-36.902 Y10.767 R0.5
X-36.813 Y11.068 R38.441
X-36.759 Y11.189 R0.5
G1 X-36.721 Y11.249
G2 X-36.635 Y11.353 R0.5
G1 X-36.582 Y11.401
G2 X-36.464 Y11.483 R0.5
G1 X-36.39 Y11.519
G2 X-36.242 Y11.564 R0.5
G1 X-36.161 Y11.576
G2 X-36.085 Y11.582 R0.5
G1 X-35.931 Y11.581
X-35.819 Y11.585
X-35.805 Y11.631
X-35.803 Y11.637
X-35.788 Y11.682
X-35.876 Y11.751
X-36.001 Y11.841
G2 X-36.059 Y11.889 R0.5
G1 X-36.118 Y11.947
G2 X-36.211 Y12.071 R0.5
G1 X-36.249 Y12.143
G2 X-36.297 Y12.279 R0.5
G1 X-36.311 Y12.349
G2 X-36.32 Y12.482 R0.5
G1 X-36.315 Y12.554
G2 X-36.288 Y12.684 R0.5
X-36.183 Y12.98 R38.441
X-36.123 Y13.097 R0.5
G1 X-36.082 Y13.156
G2 X-35.991 Y13.255 R0.5
G1 X-35.935 Y13.3
G2 X-35.812 Y13.375 R0.5
G1 X-35.737 Y13.408
G2 X-35.587 Y13.445 R0.5
G1 X-35.505 Y13.453
G2 X-35.43 Y13.454 R0.5
G1 X-35.276 Y13.445
X-35.164 Y13.444
X-35.147 Y13.489
X-35.145 Y13.495
X-35.127 Y13.539
X-35.212 Y13.612
X-35.332 Y13.709
G2 X-35.387 Y13.76 R0.5
G1 X-35.443 Y13.821
G2 X-35.529 Y13.949 R0.5
G1 X-35.564 Y14.023
G2 X-35.605 Y14.162 R0.5
G1 X-35.615 Y14.232
G2 X-35.617 Y14.367 R0.5
G1 X-35.608 Y14.438
G2 X-35.575 Y14.566 R0.5
X-35.455 Y14.856 R38.441
X-35.388 Y14.97 R0.5
G1 X-35.344 Y15.026
G2 X-35.248 Y15.12 R0.5
G1 X-35.19 Y15.163
G2 X-35.063 Y15.231 R0.5
G1 X-34.986 Y15.26
G2 X-34.835 Y15.289 R0.5
G1 X-34.753 Y15.293
G2 X-34.677 Y15.29 R0.5
G1 X-34.524 Y15.273
X-34.412 Y15.266
X-34.393 Y15.309
X-34.39 Y15.315
X-34.371 Y15.358
X-34.451 Y15.437
X-34.566 Y15.539
G2 X-34.619 Y15.593 R0.5
G1 X-34.671 Y15.656
G2 X-34.751 Y15.79 R0.5
G1 X-34.781 Y15.866
G2 X-34.815 Y16.006 R0.5
G1 X-34.822 Y16.077
G2 X-34.816 Y16.211 R0.5
G1 X-34.804 Y16.281
G2 X-34.764 Y16.407 R0.5
X-34.628 Y16.691 R38.441
X-34.556 Y16.802 R0.5
G1 X-34.509 Y16.856
G2 X-34.408 Y16.944 R0.5
G1 X-34.349 Y16.984
G2 X-34.218 Y17.046 R0.5
G1 X-34.139 Y17.07
G2 X-33.987 Y17.092 R0.5
G1 X-33.905 Y17.091
G2 X-33.83 Y17.084 R0.5
G1 X-33.677 Y17.059
X-33.566 Y17.046
X-33.544 Y17.089
X-33.542 Y17.094
X-33.52 Y17.136
X-33.596 Y17.218
X-33.706 Y17.327
G2 X-33.755 Y17.384 R0.5
G1 X-33.804 Y17.45
G2 X-33.876 Y17.586 R0.5
G1 X-33.903 Y17.664
G2 X-33.93 Y17.806 R0.5
G1 X-33.933 Y17.878
G2 X-33.92 Y18.01 R0.5
G1 X-33.904 Y18.08
G2 X-33.857 Y18.204 R0.5
X-33.707 Y18.48 R38.441
X-33.629 Y18.587 R0.5
G1 X-33.58 Y18.638
G2 X-33.474 Y18.722 R0.5
G1 X-33.413 Y18.758
G2 X-33.279 Y18.813 R0.5
G1 X-33.199 Y18.833
G2 X-33.046 Y18.847 R0.5
G1 X-32.964 Y18.842
G2 X-32.889 Y18.831 R0.5
G1 X-32.738 Y18.798
X-32.628 Y18.779
X-32.604 Y18.821
X-32.601 Y18.826
X-32.577 Y18.867
X-32.649 Y18.953
X-32.753 Y19.067
G2 X-32.799 Y19.127 R0.5
G1 X-32.845 Y19.195
G2 X-32.91 Y19.335 R0.5
G1 X-32.932 Y19.414
G2 X-32.951 Y19.557 R0.5
G1 Y19.629
G2 X-32.931 Y19.762 R0.5
G1 X-32.911 Y19.83
G2 X-32.858 Y19.951 R0.5
X-32.694 Y20.219 R38.441
X-32.61 Y20.322 R0.5
G1 X-32.558 Y20.371
G2 X-32.449 Y20.448 R0.5
G1 X-32.385 Y20.481
G2 X-32.249 Y20.529 R0.5
G1 X-32.168 Y20.545
G2 X-32.014 Y20.551 R0.5
G1 X-31.932 Y20.541
G2 X-31.858 Y20.527 R0.5
G1 X-31.71 Y20.486
X-31.6 Y20.461
X-31.574 Y20.501
X-31.571 Y20.506
X-31.545 Y20.546
X-31.612 Y20.636
X-31.71 Y20.755
G2 X-31.753 Y20.817 R0.5
G1 X-31.795 Y20.888
G2 X-31.852 Y21.031 R0.5
G1 X-31.871 Y21.111
G2 X-31.883 Y21.255 R0.5
G1 X-31.878 Y21.327
G2 X-31.852 Y21.457 R0.5
G1 X-31.829 Y21.525
G2 X-31.769 Y21.644 R0.5
X-31.591 Y21.903 R38.441
X-31.502 Y22.001 R0.5
G1 X-31.447 Y22.047
G2 X-31.334 Y22.118 R0.5
G1 X-31.269 Y22.148
G2 X-31.13 Y22.189 R0.5
G1 X-31.049 Y22.2
G2 X-30.895 Y22.198 R0.5
G1 X-30.814 Y22.184
G2 X-30.74 Y22.166 R0.5
G1 X-30.594 Y22.117
X-30.486 Y22.087
X-30.458 Y22.126
X-30.455 Y22.131
X-30.426 Y22.169
X-30.489 Y22.262
X-30.58 Y22.386
G2 X-30.62 Y22.451 R0.5
G1 X-30.659 Y22.523
G2 X-30.708 Y22.669 R0.5
G1 X-30.722 Y22.75
G2 X-30.727 Y22.894 R0.5
G1 X-30.718 Y22.965
G2 X-30.685 Y23.096 R0.5
G1 X-30.658 Y23.162
G2 X-30.593 Y23.277 R0.5
X-30.401 Y23.526 R38.441
X-30.308 Y23.619 R0.5
G1 X-30.251 Y23.662
G2 X-30.133 Y23.728 R0.5
G1 X-30.066 Y23.754
G2 X-29.927 Y23.787 R0.5
G1 X-29.845 Y23.795
G2 X-29.691 Y23.784 R0.5
G1 X-29.61 Y23.766
G2 X-29.538 Y23.744 R0.5
G1 X-29.395 Y23.688
X-29.288 Y23.652
X-29.258 Y23.69
X-29.255 Y23.694
X-29.224 Y23.731
X-29.282 Y23.827
X-29.367 Y23.956
G2 X-29.403 Y24.022 R0.5
G1 X-29.438 Y24.097
G2 X-29.48 Y24.246 R0.5
G1 X-29.49 Y24.327
G2 X-29.486 Y24.471 R0.5
G1 X-29.474 Y24.542
G2 X-29.434 Y24.669 R0.5
G1 X-29.404 Y24.734
G2 X-29.333 Y24.846 R0.5
X-29.128 Y25.085 R38.441
X-29.03 Y25.173 R0.5
G1 X-28.97 Y25.213
G2 X-28.85 Y25.272 R0.5
G1 X-28.782 Y25.295
G2 X-28.641 Y25.321 R0.5
G1 X-28.559 Y25.324
G2 X-28.405 Y25.306 R0.5
G1 X-28.326 Y25.284
G2 X-28.255 Y25.258 R0.5
G1 X-28.115 Y25.194
X-28.01 Y25.152
X-27.978 Y25.188
X-27.974 Y25.193
X-27.942 Y25.228
X-27.995 Y25.327
X-28.073 Y25.46
G2 X-28.106 Y25.528 R0.5
G1 X-28.136 Y25.604
G2 X-28.17 Y25.755 R0.5
G1 X-28.176 Y25.837
G2 X-28.165 Y25.981 R0.5
G1 X-28.149 Y26.051
G2 X-28.103 Y26.176 R0.5
G1 X-28.069 Y26.239
G2 X-27.992 Y26.347 R0.5
X-27.776 Y26.575 R38.441
X-27.672 Y26.658 R0.5
G1 X-27.611 Y26.694
G2 X-27.488 Y26.747 R0.5
G1 X-27.419 Y26.767
G2 X-27.277 Y26.785 R0.5
G1 X-27.194 Y26.784
G2 X-27.042 Y26.758 R0.5
G1 X-26.964 Y26.731
G2 X-26.895 Y26.702 R0.5
G1 X-26.758 Y26.631
X-26.656 Y26.584
X-26.622 Y26.618
X-26.618 Y26.622
X-26.584 Y26.656
X-26.631 Y26.758
X-26.702 Y26.895
G2 X-26.731 Y26.964 R0.5
G1 X-26.758 Y27.042
G2 X-26.784 Y27.194 R0.5
G1 X-26.785 Y27.277
G2 X-26.767 Y27.419 R0.5
G1 X-26.747 Y27.488
G2 X-26.694 Y27.611 R0.5
G1 X-26.658 Y27.672
G2 X-26.575 Y27.776 R0.5
X-26.347 Y27.992 R38.441
X-26.239 Y28.069 R0.5
G1 X-26.176 Y28.103
G2 X-26.051 Y28.149 R0.5
G1 X-25.981 Y28.165
G2 X-25.837 Y28.176 R0.5
G1 X-25.755 Y28.17
G2 X-25.604 Y28.136 R0.5
G1 X-25.528 Y28.106
G2 X-25.46 Y28.073 R0.5
G1 X-25.327 Y27.995
X-25.228 Y27.942
X-25.192 Y27.975
X-25.188 Y27.979
X-25.152 Y28.01
X-25.194 Y28.115
X-25.258 Y28.255
G2 X-25.284 Y28.326 R0.5
G1 X-25.306 Y28.405
G2 X-25.324 Y28.559 R0.5
G1 X-25.321 Y28.641
G2 X-25.295 Y28.782 R0.5
G1 X-25.272 Y28.85
G2 X-25.213 Y28.97 R0.5
G1 X-25.173 Y29.03
G2 X-25.085 Y29.128 R0.5
X-24.846 Y29.333 R38.441
X-24.734 Y29.404 R0.5
G1 X-24.669 Y29.434
G2 X-24.542 Y29.474 R0.5
G1 X-24.471 Y29.486
G2 X-24.327 Y29.49 R0.5
G1 X-24.246 Y29.48
G2 X-24.097 Y29.438 R0.5
G1 X-24.022 Y29.403
G2 X-23.956 Y29.367 R0.5
G1 X-23.827 Y29.282
X-23.731 Y29.224
X-23.694 Y29.255
X-23.689 Y29.259
X-23.652 Y29.288
X-23.688 Y29.395
X-23.744 Y29.538
G2 X-23.766 Y29.61 R0.5
G1 X-23.784 Y29.691
G2 X-23.795 Y29.845 R0.5
G1 X-23.787 Y29.927
G2 X-23.754 Y30.066 R0.5
G1 X-23.728 Y30.133
G2 X-23.662 Y30.251 R0.5
G1 X-23.619 Y30.308
G2 X-23.526 Y30.401 R0.5
X-23.277 Y30.593 R38.441
X-23.162 Y30.658 R0.5
G1 X-23.096 Y30.685
G2 X-22.965 Y30.718 R0.5
G1 X-22.894 Y30.727
G2 X-22.75 Y30.722 R0.5
G1 X-22.669 Y30.708
G2 X-22.523 Y30.659 R0.5
G1 X-22.451 Y30.62
G2 X-22.386 Y30.58 R0.5
G1 X-22.262 Y30.489
X-22.169 Y30.426
X-22.13 Y30.455
X-22.125 Y30.459
X-22.087 Y30.486
X-22.117 Y30.594
X-22.166 Y30.74
G2 X-22.184 Y30.814 R0.5
G1 X-22.198 Y30.895
G2 X-22.2 Y31.049 R0.5
G1 X-22.189 Y31.13
G2 X-22.148 Y31.269 R0.5
G1 X-22.118 Y31.334
G2 X-22.047 Y31.447 R0.5
G1 X-22.001 Y31.502
G2 X-21.903 Y31.591 R0.5
X-21.644 Y31.769 R38.441
X-21.525 Y31.829 R0.5
G1 X-21.457 Y31.852
G2 X-21.327 Y31.878 R0.5
G1 X-21.255 Y31.883
G2 X-21.111 Y31.871 R0.5
G1 X-21.031 Y31.852
G2 X-20.888 Y31.795 R0.5
G1 X-20.817 Y31.753
G2 X-20.755 Y31.71 R0.5
G1 X-20.636 Y31.612
X-20.546 Y31.545
X-20.506 Y31.571
X-20.501 Y31.575
X-20.461 Y31.6
X-20.486 Y31.71
X-20.527 Y31.858
G2 X-20.541 Y31.932 R0.5
G1 X-20.551 Y32.014
G2 X-20.545 Y32.168 R0.5
G1 X-20.529 Y32.249
G2 X-20.481 Y32.385 R0.5
G1 X-20.448 Y32.449
G2 X-20.371 Y32.558 R0.5
G1 X-20.322 Y32.61
G2 X-20.219 Y32.694 R0.5
X-19.951 Y32.858 R38.441
X-19.83 Y32.911 R0.5
G1 X-19.762 Y32.931
G2 X-19.629 Y32.951 R0.5
G1 X-19.557
G2 X-19.414 Y32.932 R0.5
G1 X-19.335 Y32.91
G2 X-19.195 Y32.845 R0.5
G1 X-19.127 Y32.799
G2 X-19.067 Y32.753 R0.5
G1 X-18.953 Y32.649
X-18.867 Y32.577
X-18.826 Y32.601
X-18.82 Y32.604
X-18.779 Y32.628
X-18.798 Y32.738
X-18.831 Y32.889
G2 X-18.842 Y32.964 R0.5
G1 X-18.847 Y33.046
G2 X-18.833 Y33.199 R0.5
G1 X-18.813 Y33.279
G2 X-18.758 Y33.413 R0.5
G1 X-18.722 Y33.474
G2 X-18.638 Y33.58 R0.5
G1 X-18.587 Y33.629
G2 X-18.48 Y33.707 R0.5
X-18.204 Y33.857 R38.441
X-18.08 Y33.904 R0.5
G1 X-18.01 Y33.92
G2 X-17.878 Y33.933 R0.5
G1 X-17.806 Y33.93
G2 X-17.664 Y33.903 R0.5
G1 X-17.586 Y33.876
G2 X-17.45 Y33.804 R0.5
G1 X-17.384 Y33.755
G2 X-17.327 Y33.706 R0.5
G1 X-17.218 Y33.596
X-17.136 Y33.52
X-17.094 Y33.542
X-17.088 Y33.545
X-17.046 Y33.566
X-17.059 Y33.677
X-17.084 Y33.83
G2 X-17.091 Y33.905 R0.5
G1 X-17.092 Y33.987
G2 X-17.07 Y34.139 R0.5
G1 X-17.046 Y34.218
G2 X-16.984 Y34.349 R0.5
G1 X-16.944 Y34.408
G2 X-16.856 Y34.509 R0.5
G1 X-16.802 Y34.556
G2 X-16.691 Y34.628 R0.5
X-16.407 Y34.764 R38.441
X-16.281 Y34.804 R0.5
G1 X-16.211 Y34.816
G2 X-16.077 Y34.822 R0.5
G1 X-16.006 Y34.815
G2 X-15.866 Y34.781 R0.5
G1 X-15.79 Y34.751
G2 X-15.656 Y34.671 R0.5
G1 X-15.593 Y34.619
G2 X-15.539 Y34.566 R0.5
G1 X-15.437 Y34.451
X-15.358 Y34.371
X-15.315 Y34.39
X-15.309 Y34.393
X-15.266 Y34.412
X-15.273 Y34.524
X-15.29 Y34.677
G2 X-15.293 Y34.753 R0.5
G1 X-15.289 Y34.835
G2 X-15.26 Y34.986 R0.5
G1 X-15.231 Y35.063
G2 X-15.163 Y35.19 R0.5
G1 X-15.12 Y35.248
G2 X-15.026 Y35.344 R0.5
G1 X-14.97 Y35.388
G2 X-14.856 Y35.455 R0.5
X-14.566 Y35.575 R38.441
X-14.438 Y35.608 R0.5
G1 X-14.367 Y35.617
G2 X-14.232 Y35.615 R0.5
G1 X-14.162 Y35.605
G2 X-14.023 Y35.564 R0.5
G1 X-13.949 Y35.529
G2 X-13.821 Y35.443 R0.5
G1 X-13.76 Y35.387
G2 X-13.709 Y35.332 R0.5
G1 X-13.612 Y35.212
X-13.539 Y35.127
X-13.494 Y35.145
X-13.488 Y35.147
X-13.444 Y35.164
X-13.445 Y35.276
X-13.454 Y35.43
G2 X-13.453 Y35.505 R0.5
G1 X-13.445 Y35.587
G2 X-13.408 Y35.737 R0.5
G1 X-13.375 Y35.812
G2 X-13.3 Y35.935 R0.5
G1 X-13.255 Y35.991
G2 X-13.156 Y36.082 R0.5
G1 X-13.097 Y36.123
G2 X-12.98 Y36.183 R0.5
X-12.684 Y36.288 R38.441
X-12.554 Y36.315 R0.5
G1 X-12.482 Y36.32
G2 X-12.349 Y36.311 R0.5
G1 X-12.279 Y36.297
G2 X-12.143 Y36.249 R0.5
G1 X-12.071 Y36.211
G2 X-11.947 Y36.118 R0.5
G1 X-11.889 Y36.059
G2 X-11.841 Y36.001 R0.5
G1 X-11.751 Y35.876
X-11.682 Y35.788
X-11.636 Y35.803
X-11.63 Y35.805
X-11.585 Y35.819
X-11.581 Y35.931
X-11.582 Y36.085
G2 X-11.576 Y36.161 R0.5
G1 X-11.564 Y36.242
G2 X-11.519 Y36.39 R0.5
G1 X-11.483 Y36.464
G2 X-11.401 Y36.582 R0.5
G1 X-11.353 Y36.635
G2 X-11.249 Y36.721 R0.5
G1 X-11.189 Y36.759
G2 X-11.068 Y36.813 R0.5
X-10.767 Y36.902 R38.441
X-10.636 Y36.922 R0.5
G1 X-10.565 Y36.924
G2 X-10.432 Y36.908 R0.5
G1 X-10.363 Y36.89
G2 X-10.229 Y36.835 R0.5
G1 X-10.158 Y36.792
G2 X-10.04 Y36.694 R0.5
G1 X-9.986 Y36.632
G2 X-9.94 Y36.572 R0.5
G1 X-9.857 Y36.442
X-9.793 Y36.35
X-9.746 Y36.363
X-9.74 Y36.364
X-9.694 Y36.376
X-9.684 Y36.488
X-9.677 Y36.642
G2 X-9.668 Y36.717 R0.5
G1 X-9.652 Y36.798
G2 X-9.599 Y36.943 R0.5
G1 X-9.559 Y37.015
G2 X-9.471 Y37.129 R0.5
G1 X-9.42 Y37.179
G2 X-9.313 Y37.259 R0.5
G1 X-9.25 Y37.294
G2 X-9.126 Y37.342 R0.5
X-8.821 Y37.415 R38.441
X-8.69 Y37.428 R0.5
G1 X-8.618 Y37.426
G2 X-8.486 Y37.404 R0.5
G1 X-8.418 Y37.382
G2 X-8.287 Y37.32 R0.5
G1 X-8.219 Y37.274
G2 X-8.106 Y37.169 R0.5
G1 X-8.055 Y37.105
G2 X-8.013 Y37.042 R0.5
G1 X-7.936 Y36.908
X-7.877 Y36.813
X-7.83 Y36.823
X-7.824 Y36.824
X-7.777 Y36.834
X-7.761 Y36.945
X-7.746 Y37.099
G2 X-7.733 Y37.173 R0.5
G1 X-7.713 Y37.253
G2 X-7.652 Y37.394 R0.5
G1 X-7.608 Y37.464
G2 X-7.515 Y37.574 R0.5
G1 X-7.461 Y37.621
G2 X-7.35 Y37.695 R0.5
G1 X-7.285 Y37.727
G2 X-7.16 Y37.768 R0.5
X-6.851 Y37.826 R38.441
X-6.718 Y37.832 R0.5
G1 X-6.647 Y37.826
G2 X-6.516 Y37.796 R0.5
G1 X-6.449 Y37.771
G2 X-6.323 Y37.702 R0.5
G1 X-6.257 Y37.653
G2 X-6.15 Y37.542 R0.5
G1 X-6.102 Y37.475
G2 X-6.063 Y37.41 R0.5
G1 X-5.994 Y37.273
X-5.939 Y37.175
X-5.892 Y37.182
X-5.886 Y37.183
X-5.839 Y37.19
X-5.817 Y37.301
X-5.794 Y37.453
G2 X-5.777 Y37.527 R0.5
G1 X-5.752 Y37.605
G2 X-5.685 Y37.743 R0.5
G1 X-5.637 Y37.811
G2 X-5.538 Y37.916 R0.5
G1 X-5.482 Y37.96
G2 X-5.367 Y38.028 R0.5
G1 X-5.301 Y38.056
G2 X-5.173 Y38.091 R0.5
X-4.862 Y38.132 R38.441
X-4.729 R0.5
G1 X-4.658 Y38.122
G2 X-4.53 Y38.086 R0.5
G1 X-4.464 Y38.057
G2 X-4.341 Y37.981 R0.5
G1 X-4.278 Y37.928
G2 X-4.177 Y37.813 R0.5
G1 X-4.133 Y37.743
G2 X-4.097 Y37.677 R0.5
G1 X-4.035 Y37.535
X-3.986 Y37.434
X-3.938 Y37.44
X-3.932
X-3.885 Y37.445
X-3.857 Y37.554
X-3.826 Y37.705
G2 X-3.805 Y37.777 R0.5
G1 X-3.777 Y37.855
G2 X-3.701 Y37.99 R0.5
G1 X-3.65 Y38.054
G2 X-3.546 Y38.154 R0.5
G1 X-3.488 Y38.195
G2 X-3.369 Y38.257 R0.5
G1 X-3.302 Y38.282
G2 X-3.173 Y38.31 R0.5
X-2.86 Y38.335 R38.441
X-2.727 Y38.327 R0.5
G1 X-2.657 Y38.313
G2 X-2.53 Y38.27 R0.5
G1 X-2.466 Y38.238
G2 X-2.348 Y38.157 R0.5
G1 X-2.287 Y38.101
G2 X-2.192 Y37.979 R0.5
G1 X-2.151 Y37.908
G2 X-2.12 Y37.839 R0.5
G1 X-2.065 Y37.695
X-2.021 Y37.592
X-1.973 Y37.595
X-1.967
X-1.92 Y37.597
X-1.886 Y37.704
X-1.847 Y37.854
G2 X-1.823 Y37.925 R0.5
G1 X-1.79 Y38.001
G2 X-1.708 Y38.131 R0.5
G1 X-1.654 Y38.193
G2 X-1.544 Y38.287 R0.5
G1 X-1.484 Y38.325
G2 X-1.363 Y38.381 R0.5
G1 X-1.294 Y38.402
G2 X-1.163 Y38.423 R0.5
X-0.849 Y38.432 R38.441
X-0.718 Y38.417 R0.5
G1 X-0.649 Y38.4
G2 X-0.523 Y38.35 R0.5
G1 X-0.461 Y38.315
G2 X-0.347 Y38.227 R0.5
G1 X-0.29 Y38.168
G2 X-0.201 Y38.042 R0.5
G1 X-0.165 Y37.968
G2 X-0.136 Y37.898 R0.5
G1 X-0.089 Y37.751
X-0.051 Y37.646
X-0.003
X0.003
X0.051
X0.089 Y37.751
X0.136 Y37.898
G2 X0.165 Y37.968 R0.5
G1 X0.201 Y38.042
G2 X0.29 Y38.168 R0.5
G1 X0.347 Y38.227
G2 X0.461 Y38.315 R0.5
G1 X0.523 Y38.35
G2 X0.649 Y38.4 R0.5
G1 X0.718 Y38.417
G2 X0.849 Y38.432 R0.5
X1.163 Y38.423 R38.441
X1.294 Y38.402 R0.5
G1 X1.363 Y38.381
G2 X1.484 Y38.325 R0.5
G1 X1.544 Y38.287
G2 X1.654 Y38.193 R0.5
G1 X1.708 Y38.131
G2 X1.79 Y38.001 R0.5
G1 X1.823 Y37.925
G2 X1.847 Y37.854 R0.5
G1 X1.886 Y37.704
X1.919 Y37.597
X1.967 Y37.595
X1.974
X2.021 Y37.592
X2.065 Y37.695
X2.12 Y37.839
G2 X2.151 Y37.908 R0.5
G1 X2.192 Y37.979
G2 X2.287 Y38.101 R0.5
G1 X2.348 Y38.157
G2 X2.466 Y38.238 R0.5
G1 X2.53 Y38.27
G2 X2.657 Y38.313 R0.5
G1 X2.727 Y38.327
G2 X2.86 Y38.335 R0.5
X3.173 Y38.31 R38.441
X3.302 Y38.282 R0.5
G1 X3.369 Y38.257
G2 X3.488 Y38.195 R0.5
G1 X3.546 Y38.154
G2 X3.65 Y38.054 R0.5
G1 X3.701 Y37.99
G2 X3.777 Y37.855 R0.5
G1 X3.805 Y37.777
G2 X3.826 Y37.705 R0.5
G1 X3.857 Y37.554
X3.885 Y37.445
X3.932 Y37.44
X3.939
X3.986 Y37.434
X4.035 Y37.535
X4.097 Y37.677
G2 X4.133 Y37.743 R0.5
G1 X4.177 Y37.813
G2 X4.278 Y37.928 R0.5
G1 X4.341 Y37.981
G2 X4.464 Y38.057 R0.5
G1 X4.53 Y38.086
G2 X4.658 Y38.122 R0.5
G1 X4.729 Y38.132
G2 X4.862 R0.5
X5.173 Y38.091 R38.441
X5.301 Y38.056 R0.5
G1 X5.367 Y38.028
G2 X5.482 Y37.96 R0.5
G1 X5.538 Y37.916
G2 X5.637 Y37.811 R0.5
G1 X5.685 Y37.743
G2 X5.752 Y37.605 R0.5
G1 X5.777 Y37.527
G2 X5.794 Y37.453 R0.5
G1 X5.817 Y37.301
X5.839 Y37.191
X5.886 Y37.183
X5.893 Y37.182
X5.939 Y37.175
X5.994 Y37.273
X6.063 Y37.41
G2 X6.102 Y37.475 R0.5
G1 X6.15 Y37.542
G2 X6.257 Y37.653 R0.5
G1 X6.323 Y37.702
G2 X6.449 Y37.771 R0.5
G1 X6.516 Y37.796
G2 X6.647 Y37.826 R0.5
G1 X6.718 Y37.832
G2 X6.851 Y37.826 R0.5
X7.16 Y37.768 R38.441
X7.285 Y37.727 R0.5
G1 X7.35 Y37.695
G2 X7.461 Y37.621 R0.5
G1 X7.515 Y37.574
G2 X7.608 Y37.464 R0.5
G1 X7.652 Y37.394
G2 X7.713 Y37.253 R0.5
G1 X7.733 Y37.173
G2 X7.746 Y37.099 R0.5
G1 X7.761 Y36.945
X7.777 Y36.834
X7.824 Y36.824
X7.83 Y36.823
X7.877 Y36.813
X7.936 Y36.908
X8.013 Y37.042
G2 X8.055 Y37.105 R0.5
G1 X8.106 Y37.169
G2 X8.219 Y37.274 R0.5
G1 X8.287 Y37.32
G2 X8.418 Y37.382 R0.5
G1 X8.486 Y37.404
G2 X8.618 Y37.426 R0.5
G1 X8.69 Y37.428
G2 X8.821 Y37.415 R0.5
X9.126 Y37.342 R38.441
X9.25 Y37.294 R0.5
G1 X9.313 Y37.259
G2 X9.42 Y37.179 R0.5
G1 X9.471 Y37.129
G2 X9.559 Y37.015 R0.5
G1 X9.599 Y36.943
G2 X9.652 Y36.798 R0.5
G1 X9.668 Y36.717
G2 X9.677 Y36.642 R0.5
G1 X9.684 Y36.488
X9.694 Y36.376
X9.741 Y36.364
X9.747 Y36.363
X9.793 Y36.35
X9.857 Y36.442
X9.94 Y36.572
G2 X9.986 Y36.632 R0.5
G1 X10.04 Y36.694
G2 X10.158 Y36.792 R0.5
G1 X10.229 Y36.835
G2 X10.363 Y36.89 R0.5
G1 X10.432 Y36.908
G2 X10.565 Y36.924 R0.5
G1 X10.636 Y36.922
G2 X10.767 Y36.902 R0.5
X11.068 Y36.813 R38.441
X11.189 Y36.759 R0.5
G1 X11.249 Y36.721
G2 X11.353 Y36.635 R0.5
G1 X11.401 Y36.582
G2 X11.483 Y36.464 R0.5
G1 X11.519 Y36.39
G2 X11.564 Y36.242 R0.5
G1 X11.576 Y36.161
G2 X11.582 Y36.085 R0.5
G1 X11.581 Y35.931
X11.585 Y35.819
X11.631 Y35.805
X11.637 Y35.803
X11.682 Y35.788
X11.751 Y35.876
X11.841 Y36.001
G2 X11.889 Y36.059 R0.5
G1 X11.947 Y36.118
G2 X12.071 Y36.211 R0.5
G1 X12.143 Y36.249
G2 X12.279 Y36.297 R0.5
G1 X12.349 Y36.311
G2 X12.482 Y36.32 R0.5
G1 X12.554 Y36.315
G2 X12.684 Y36.288 R0.5
X12.98 Y36.183 R38.441
X13.097 Y36.123 R0.5
G1 X13.156 Y36.082
G2 X13.255 Y35.991 R0.5
G1 X13.3 Y35.935
G2 X13.375 Y35.812 R0.5
G1 X13.408 Y35.737
G2 X13.445 Y35.587 R0.5
G1 X13.453 Y35.505
G2 X13.454 Y35.43 R0.5
G1 X13.445 Y35.276
X13.444 Y35.164
X13.489 Y35.147
X13.495 Y35.145
X13.539 Y35.127
X13.612 Y35.212
X13.709 Y35.332
G2 X13.76 Y35.387 R0.5
G1 X13.821 Y35.443
G2 X13.949 Y35.529 R0.5
G1 X14.023 Y35.564
G2 X14.162 Y35.605 R0.5
G1 X14.232 Y35.615
G2 X14.367 Y35.617 R0.5
G1 X14.438 Y35.608
G2 X14.566 Y35.575 R0.5
X14.856 Y35.455 R38.441
X14.97 Y35.388 R0.5
G1 X15.026 Y35.344
G2 X15.12 Y35.248 R0.5
G1 X15.163 Y35.19
G2 X15.231 Y35.063 R0.5
G1 X15.26 Y34.986
G2 X15.289 Y34.835 R0.5
G1 X15.293 Y34.753
G2 X15.29 Y34.677 R0.5
G1 X15.273 Y34.524
X15.266 Y34.412
X15.309 Y34.393
X15.315 Y34.39
X15.358 Y34.371
X15.437 Y34.451
X15.539 Y34.566
G2 X15.593 Y34.619 R0.5
G1 X15.656 Y34.671
G2 X15.79 Y34.751 R0.5
G1 X15.866 Y34.781
G2 X16.006 Y34.815 R0.5
G1 X16.077 Y34.822
G2 X16.211 Y34.816 R0.5
G1 X16.281 Y34.804
G2 X16.407 Y34.764 R0.5
X16.691 Y34.628 R38.441
X16.802 Y34.556 R0.5
G1 X16.856 Y34.509
G2 X16.944 Y34.408 R0.5
G1 X16.984 Y34.349
G2 X17.046 Y34.218 R0.5
G1 X17.07 Y34.139
G2 X17.092 Y33.987 R0.5
G1 X17.091 Y33.905
G2 X17.084 Y33.83 R0.5
G1 X17.059 Y33.677
X17.046 Y33.566
X17.089 Y33.544
X17.094 Y33.542
X17.136 Y33.52
X17.218 Y33.596
X17.327 Y33.706
G2 X17.384 Y33.755 R0.5
G1 X17.45 Y33.804
G2 X17.586 Y33.876 R0.5
G1 X17.664 Y33.903
G2 X17.806 Y33.93 R0.5
G1 X17.878 Y33.933
G2 X18.01 Y33.92 R0.5
G1 X18.08 Y33.904
G2 X18.204 Y33.857 R0.5
X18.48 Y33.707 R38.441
X18.587 Y33.629 R0.5
G1 X18.638 Y33.58
G2 X18.722 Y33.474 R0.5
G1 X18.758 Y33.413
G2 X18.813 Y33.279 R0.5
G1 X18.833 Y33.199
G2 X18.847 Y33.046 R0.5
G1 X18.842 Y32.964
G2 X18.831 Y32.889 R0.5
G1 X18.798 Y32.738
X18.779 Y32.628
X18.821 Y32.604
X18.826 Y32.601
X18.867 Y32.577
X18.953 Y32.649
X19.067 Y32.753
G2 X19.127 Y32.799 R0.5
G1 X19.195 Y32.845
G2 X19.335 Y32.91 R0.5
G1 X19.414 Y32.932
G2 X19.557 Y32.951 R0.5
G1 X19.629
G2 X19.762 Y32.931 R0.5
G1 X19.83 Y32.911
G2 X19.951 Y32.858 R0.5
X20.219 Y32.694 R38.441
X20.322 Y32.61 R0.5
G1 X20.371 Y32.558
G2 X20.448 Y32.449 R0.5
G1 X20.481 Y32.385
G2 X20.529 Y32.249 R0.5
G1 X20.545 Y32.168
G2 X20.551 Y32.014 R0.5
G1 X20.541 Y31.932
G2 X20.527 Y31.858 R0.5
G1 X20.486 Y31.71
X20.461 Y31.6
X20.501 Y31.574
X20.506 Y31.571
X20.546 Y31.545
X20.636 Y31.612
X20.755 Y31.71
G2 X20.817 Y31.753 R0.5
G1 X20.888 Y31.795
G2 X21.031 Y31.852 R0.5
G1 X21.111 Y31.871
G2 X21.255 Y31.883 R0.5
G1 X21.327 Y31.878
G2 X21.457 Y31.852 R0.5
G1 X21.525 Y31.829
G2 X21.644 Y31.769 R0.5
X21.903 Y31.591 R38.441
X22.001 Y31.502 R0.5
G1 X22.047 Y31.447
G2 X22.118 Y31.334 R0.5
G1 X22.148 Y31.269
G2 X22.189 Y31.13 R0.5
G1 X22.2 Y31.049
G2 X22.198 Y30.895 R0.5
G1 X22.184 Y30.814
G2 X22.166 Y30.74 R0.5
G1 X22.117 Y30.594
X22.087 Y30.486
X22.126 Y30.458
X22.131 Y30.455
X22.169 Y30.426
X22.262 Y30.489
X22.386 Y30.58
G2 X22.451 Y30.62 R0.5
G1 X22.523 Y30.659
G2 X22.669 Y30.708 R0.5
G1 X22.75 Y30.722
G2 X22.894 Y30.727 R0.5
G1 X22.965 Y30.718
G2 X23.096 Y30.685 R0.5
G1 X23.162 Y30.658
G2 X23.277 Y30.593 R0.5
X23.526 Y30.401 R38.441
X23.619 Y30.308 R0.5
G1 X23.662 Y30.251
G2 X23.728 Y30.133 R0.5
G1 X23.754 Y30.066
G2 X23.787 Y29.927 R0.5
G1 X23.795 Y29.845
G2 X23.784 Y29.691 R0.5
G1 X23.766 Y29.61
G2 X23.744 Y29.538 R0.5
G1 X23.688 Y29.395
X23.652 Y29.288
X23.69 Y29.258
X23.694 Y29.255
X23.731 Y29.224
X23.827 Y29.282
X23.956 Y29.367
G2 X24.022 Y29.403 R0.5
G1 X24.097 Y29.438
G2 X24.246 Y29.48 R0.5
G1 X24.327 Y29.49
G2 X24.471 Y29.486 R0.5
G1 X24.542 Y29.474
G2 X24.669 Y29.434 R0.5
G1 X24.734 Y29.404
G2 X24.846 Y29.333 R0.5
X25.085 Y29.128 R38.441
X25.173 Y29.03 R0.5
G1 X25.213 Y28.97
G2 X25.272 Y28.85 R0.5
G1 X25.295 Y28.782
G2 X25.321 Y28.641 R0.5
G1 X25.324 Y28.559
G2 X25.306 Y28.405 R0.5
G1 X25.284 Y28.326
G2 X25.258 Y28.255 R0.5
G1 X25.194 Y28.115
X25.152 Y28.01
X25.188 Y27.978
X25.193 Y27.974
X25.228 Y27.942
X25.327 Y27.995
X25.46 Y28.073
G2 X25.528 Y28.106 R0.5
G1 X25.604 Y28.136
G2 X25.755 Y28.17 R0.5
G1 X25.837 Y28.176
G2 X25.981 Y28.165 R0.5
G1 X26.051 Y28.149
G2 X26.176 Y28.103 R0.5
G1 X26.239 Y28.069
G2 X26.347 Y27.992 R0.5
X26.575 Y27.776 R38.441
X26.658 Y27.672 R0.5
G1 X26.694 Y27.611
G2 X26.747 Y27.488 R0.5
G1 X26.767 Y27.419
G2 X26.785 Y27.277 R0.5
G1 X26.784 Y27.194
G2 X26.758 Y27.042 R0.5
G1 X26.731 Y26.964
G2 X26.702 Y26.895 R0.5
G1 X26.631 Y26.758
X26.584 Y26.656
X26.618 Y26.622
X26.622 Y26.618
X26.656 Y26.584
X26.758 Y26.631
X26.895 Y26.702
G2 X26.964 Y26.731 R0.5
G1 X27.042 Y26.758
G2 X27.194 Y26.784 R0.5
G1 X27.277 Y26.785
G2 X27.419 Y26.767 R0.5
G1 X27.488 Y26.747
G2 X27.611 Y26.694 R0.5
G1 X27.672 Y26.658
G2 X27.776 Y26.575 R0.5
X27.992 Y26.347 R38.441
X28.069 Y26.239 R0.5
G1 X28.103 Y26.176
G2 X28.149 Y26.051 R0.5
G1 X28.165 Y25.981
G2 X28.176 Y25.837 R0.5
G1 X28.17 Y25.755
G2 X28.136 Y25.604 R0.5
G1 X28.106 Y25.528
G2 X28.073 Y25.46 R0.5
G1 X27.995 Y25.327
X27.942 Y25.228
X27.975 Y25.192
X27.979 Y25.188
X28.01 Y25.152
X28.115 Y25.194
X28.255 Y25.258
G2 X28.326 Y25.284 R0.5
G1 X28.405 Y25.306
G2 X28.559 Y25.324 R0.5
G1 X28.641 Y25.321
G2 X28.782 Y25.295 R0.5
G1 X28.85 Y25.272
G2 X28.97 Y25.213 R0.5
G1 X29.03 Y25.173
G2 X29.128 Y25.085 R0.5
X29.333 Y24.846 R38.441
X29.404 Y24.734 R0.5
G1 X29.434 Y24.669
G2 X29.474 Y24.542 R0.5
G1 X29.486 Y24.471
G2 X29.49 Y24.327 R0.5
G1 X29.48 Y24.246
G2 X29.438 Y24.097 R0.5
G1 X29.403 Y24.022
G2 X29.367 Y23.956 R0.5
G1 X29.282 Y23.827
X29.224 Y23.731
X29.255 Y23.694
X29.259 Y23.689
X29.288 Y23.652
X29.395 Y23.688
X29.538 Y23.744
G2 X29.61 Y23.766 R0.5
G1 X29.691 Y23.784
G2 X29.845 Y23.795 R0.5
G1 X29.927 Y23.787
G2 X30.066 Y23.754 R0.5
G1 X30.133 Y23.728
G2 X30.251 Y23.662 R0.5
G1 X30.308 Y23.619
G2 X30.401 Y23.526 R0.5
X30.593 Y23.277 R38.441
X30.658 Y23.162 R0.5
G1 X30.685 Y23.096
G2 X30.718 Y22.965 R0.5
G1 X30.727 Y22.894
G2 X30.722 Y22.75 R0.5
G1 X30.708 Y22.669
G2 X30.659 Y22.523 R0.5
G1 X30.62 Y22.451
G2 X30.58 Y22.386 R0.5
G1 X30.489 Y22.262
X30.426 Y22.169
X30.455 Y22.13
X30.459 Y22.125
X30.486 Y22.087
X30.594 Y22.117
X30.74 Y22.166
G2 X30.814 Y22.184 R0.5
G1 X30.895 Y22.198
G2 X31.049 Y22.2 R0.5
G1 X31.13 Y22.189
G2 X31.269 Y22.148 R0.5
G1 X31.334 Y22.118
G2 X31.447 Y22.047 R0.5
G1 X31.502 Y22.001
G2 X31.591 Y21.903 R0.5
X31.769 Y21.644 R38.441
X31.829 Y21.525 R0.5
G1 X31.852 Y21.457
G2 X31.878 Y21.327 R0.5
G1 X31.883 Y21.255
G2 X31.871 Y21.111 R0.5
G1 X31.852 Y21.031
G2 X31.795 Y20.888 R0.5
G1 X31.753 Y20.817
G2 X31.71 Y20.755 R0.5
G1 X31.612 Y20.636
X31.545 Y20.546
X31.571 Y20.506
X31.575 Y20.501
X31.6 Y20.461
X31.71 Y20.486
X31.858 Y20.527
G2 X31.932 Y20.541 R0.5
G1 X32.014 Y20.551
G2 X32.168 Y20.545 R0.5
G1 X32.249 Y20.529
G2 X32.385 Y20.481 R0.5
G1 X32.449 Y20.448
G2 X32.558 Y20.371 R0.5
G1 X32.61 Y20.322
G2 X32.694 Y20.219 R0.5
X32.858 Y19.951 R38.441
X32.911 Y19.83 R0.5
G1 X32.931 Y19.762
G2 X32.951 Y19.629 R0.5
G1 Y19.557
G2 X32.932 Y19.414 R0.5
G1 X32.91 Y19.335
G2 X32.845 Y19.195 R0.5
G1 X32.799 Y19.127
G2 X32.753 Y19.067 R0.5
G1 X32.649 Y18.953
X32.577 Y18.867
X32.601 Y18.826
X32.604 Y18.82
X32.628 Y18.779
X32.738 Y18.798
X32.889 Y18.831
G2 X32.964 Y18.842 R0.5
G1 X33.046 Y18.847
G2 X33.199 Y18.833 R0.5
G1 X33.279 Y18.813
G2 X33.413 Y18.758 R0.5
G1 X33.474 Y18.722
G2 X33.58 Y18.638 R0.5
G1 X33.629 Y18.587
G2 X33.707 Y18.48 R0.5
X33.857 Y18.204 R38.441
X33.904 Y18.08 R0.5
G1 X33.92 Y18.01
G2 X33.933 Y17.878 R0.5
G1 X33.93 Y17.806
G2 X33.903 Y17.664 R0.5
G1 X33.876 Y17.586
G2 X33.804 Y17.45 R0.5
G1 X33.755 Y17.384
G2 X33.706 Y17.327 R0.5
G1 X33.596 Y17.218
X33.52 Y17.136
X33.542 Y17.094
X33.545 Y17.088
X33.566 Y17.046
X33.677 Y17.059
X33.83 Y17.084
G2 X33.905 Y17.091 R0.5
G1 X33.987 Y17.092
G2 X34.139 Y17.07 R0.5
G1 X34.218 Y17.046
G2 X34.349 Y16.984 R0.5
G1 X34.408 Y16.944
G2 X34.509 Y16.856 R0.5
G1 X34.556 Y16.802
G2 X34.628 Y16.691 R0.5
X34.764 Y16.407 R38.441
X34.804 Y16.281 R0.5
G1 X34.816 Y16.211
G2 X34.822 Y16.077 R0.5
G1 X34.815 Y16.006
G2 X34.781 Y15.866 R0.5
G1 X34.751 Y15.79
G2 X34.671 Y15.656 R0.5
G1 X34.619 Y15.593
G2 X34.566 Y15.539 R0.5
G1 X34.451 Y15.437
X34.371 Y15.358
X34.39 Y15.315
X34.393 Y15.309
X34.412 Y15.266
X34.524 Y15.273
X34.677 Y15.29
G2 X34.753 Y15.293 R0.5
G1 X34.835 Y15.289
G2 X34.986 Y15.26 R0.5
G1 X35.063 Y15.231
G2 X35.19 Y15.163 R0.5
G1 X35.248 Y15.12
G2 X35.344 Y15.026 R0.5
G1 X35.388 Y14.97
G2 X35.455 Y14.856 R0.5
X35.575 Y14.566 R38.441
X35.608 Y14.438 R0.5
G1 X35.617 Y14.367
G2 X35.615 Y14.232 R0.5
G1 X35.605 Y14.162
G2 X35.564 Y14.023 R0.5
G1 X35.529 Y13.949
G2 X35.443 Y13.821 R0.5
G1 X35.387 Y13.76
G2 X35.332 Y13.709 R0.5
G1 X35.212 Y13.612
X35.127 Y13.539
X35.145 Y13.494
X35.147 Y13.488
X35.164 Y13.444
X35.276 Y13.445
X35.43 Y13.454
G2 X35.505 Y13.453 R0.5
G1 X35.587 Y13.445
G2 X35.737 Y13.408 R0.5
G1 X35.812 Y13.375
G2 X35.935 Y13.3 R0.5
G1 X35.991 Y13.255
G2 X36.082 Y13.156 R0.5
G1 X36.123 Y13.097
G2 X36.183 Y12.98 R0.5
X36.288 Y12.684 R38.441
X36.315 Y12.554 R0.5
G1 X36.32 Y12.482
G2 X36.311 Y12.349 R0.5
G1 X36.297 Y12.279
G2 X36.249 Y12.143 R0.5
G1 X36.211 Y12.071
G2 X36.118 Y11.947 R0.5
G1 X36.059 Y11.889
G2 X36.001 Y11.841 R0.5
G1 X35.876 Y11.751
X35.788 Y11.682
X35.803 Y11.636
X35.805 Y11.63
X35.819 Y11.585
X35.931 Y11.581
X36.085 Y11.582
G2 X36.161 Y11.576 R0.5
G1 X36.242 Y11.564
G2 X36.39 Y11.519 R0.5
G1 X36.464 Y11.483
G2 X36.582 Y11.401 R0.5
G1 X36.635 Y11.353
G2 X36.721 Y11.249 R0.5
G1 X36.759 Y11.189
G2 X36.813 Y11.068 R0.5
X36.902 Y10.767 R38.441
X36.922 Y10.636 R0.5
G1 X36.924 Y10.565
G2 X36.908 Y10.432 R0.5
G1 X36.89 Y10.363
G2 X36.835 Y10.229 R0.5
G1 X36.792 Y10.158
G2 X36.694 Y10.04 R0.5
G1 X36.632 Y9.986
G2 X36.572 Y9.94 R0.5
G1 X36.442 Y9.857
X36.35 Y9.793
X36.363 Y9.746
X36.364 Y9.74
X36.376 Y9.694
X36.488 Y9.684
X36.642 Y9.677
G2 X36.717 Y9.668 R0.5
G1 X36.798 Y9.652
G2 X36.943 Y9.599 R0.5
G1 X37.015 Y9.559
G2 X37.129 Y9.471 R0.5
G1 X37.179 Y9.42
G2 X37.259 Y9.313 R0.5
G1 X37.294 Y9.25
G2 X37.342 Y9.126 R0.5
X37.415 Y8.821 R38.441
X37.428 Y8.69 R0.5
G1 X37.426 Y8.618
G2 X37.404 Y8.486 R0.5
G1 X37.382 Y8.418
G2 X37.32 Y8.287 R0.5
G1 X37.274 Y8.219
G2 X37.169 Y8.106 R0.5
G1 X37.105 Y8.055
G2 X37.042 Y8.013 R0.5
G1 X36.908 Y7.936
X36.813 Y7.877
X36.823 Y7.83
X36.824 Y7.824
X36.834 Y7.777
X36.945 Y7.761
X37.099 Y7.746
G2 X37.173 Y7.733 R0.5
G1 X37.253 Y7.713
G2 X37.394 Y7.652 R0.5
G1 X37.464 Y7.608
G2 X37.574 Y7.515 R0.5
G1 X37.621 Y7.461
G2 X37.695 Y7.35 R0.5
G1 X37.727 Y7.285
G2 X37.768 Y7.16 R0.5
X37.826 Y6.851 R38.441
X37.832 Y6.718 R0.5
G1 X37.826 Y6.647
G2 X37.796 Y6.516 R0.5
G1 X37.771 Y6.449
G2 X37.702 Y6.323 R0.5
G1 X37.653 Y6.257
G2 X37.542 Y6.15 R0.5
G1 X37.475 Y6.102
G2 X37.41 Y6.063 R0.5
G1 X37.273 Y5.994
X37.175 Y5.939
X37.182 Y5.892
X37.183 Y5.886
X37.19 Y5.839
X37.301 Y5.817
X37.453 Y5.794
G2 X37.527 Y5.777 R0.5
G1 X37.605 Y5.752
G2 X37.743 Y5.685 R0.5
G1 X37.811 Y5.637
G2 X37.916 Y5.538 R0.5
G1 X37.96 Y5.482
G2 X38.028 Y5.367 R0.5
G1 X38.056 Y5.301
G2 X38.091 Y5.173 R0.5
X38.132 Y4.862 R38.441
Y4.729 R0.5
G1 X38.122 Y4.658
G2 X38.086 Y4.53 R0.5
G1 X38.057 Y4.464
G2 X37.981 Y4.341 R0.5
G1 X37.928 Y4.278
G2 X37.813 Y4.177 R0.5
G1 X37.743 Y4.133
G2 X37.677 Y4.097 R0.5
G1 X37.535 Y4.035
X37.434 Y3.986
X37.44 Y3.938
Y3.932
X37.445 Y3.885
X37.554 Y3.857
X37.705 Y3.826
G2 X37.777 Y3.805 R0.5
G1 X37.855 Y3.777
G2 X37.99 Y3.701 R0.5
G1 X38.054 Y3.65
G2 X38.154 Y3.546 R0.5
G1 X38.195 Y3.488
G2 X38.257 Y3.369 R0.5
G1 X38.282 Y3.302
G2 X38.31 Y3.173 R0.5
X38.335 Y2.86 R38.441
X38.327 Y2.727 R0.5
G1 X38.313 Y2.657
G2 X38.27 Y2.53 R0.5
G1 X38.238 Y2.466
G2 X38.157 Y2.348 R0.5
G1 X38.101 Y2.287
G2 X37.979 Y2.192 R0.5
G1 X37.908 Y2.151
G2 X37.839 Y2.12 R0.5
G1 X37.695 Y2.065
X37.592 Y2.021
X37.595 Y1.973
Y1.967
X37.597 Y1.92
X37.704 Y1.886
X37.854 Y1.847
G2 X37.925 Y1.823 R0.5
G1 X38.001 Y1.79
G2 X38.131 Y1.708 R0.5
G1 X38.193 Y1.654
G2 X38.287 Y1.544 R0.5
G1 X38.325 Y1.484
G2 X38.381 Y1.363 R0.5
G1 X38.402 Y1.294
G2 X38.423 Y1.163 R0.5
X38.432 Y0.849 R38.441
X38.417 Y0.718 R0.5
G1 X38.4 Y0.649
G2 X38.35 Y0.523 R0.5
G1 X38.315 Y0.461
G2 X38.227 Y0.347 R0.5
G1 X38.168 Y0.29
G2 X38.042 Y0.201 R0.5
G1 X37.968 Y0.165
G2 X37.898 Y0.136 R0.5
G1 X37.751 Y0.089
X37.646 Y0.051
Y0.003
Y-0.003
Y-0.051
X37.751 Y-0.089
X37.898 Y-0.136
G2 X37.968 Y-0.165 R0.5
G1 X38.042 Y-0.201
G2 X38.168 Y-0.29 R0.5
G1 X38.227 Y-0.347
G2 X38.315 Y-0.461 R0.5
G1 X38.35 Y-0.523
G2 X38.4 Y-0.649 R0.5
G1 X38.417 Y-0.718
G2 X38.432 Y-0.835 R0.5
Y-0.849 R0.5 F250.
X38.423 Y-1.163 Z-1.01 R38.441
X38.402 Y-1.294 Z-1.014 R0.5
G1 X38.381 Y-1.363 Z-1.016
G2 X38.325 Y-1.484 Z-1.02 R0.5
G1 X38.287 Y-1.544 Z-1.022
G2 X38.193 Y-1.654 Z-1.026 R0.5
G1 X38.131 Y-1.708 Z-1.028
G2 X38.001 Y-1.79 Z-1.033 R0.5
G1 X37.925 Y-1.823 Z-1.035
G2 X37.854 Y-1.847 Z-1.037 R0.5
G1 X37.704 Y-1.886 Z-1.042
X37.597 Y-1.919 Z-1.045
X37.595 Y-1.967 Z-1.047
Y-1.974
X37.592 Y-2.021 Z-1.048
X37.695 Y-2.065 Z-1.051
X37.839 Y-2.12 Z-1.056
G2 X37.908 Y-2.151 Z-1.058 R0.5
G1 X37.979 Y-2.192 Z-1.061
G2 X38.101 Y-2.287 Z-1.065 R0.5
G1 X38.157 Y-2.348 Z-1.068
G2 X38.238 Y-2.466 Z-1.072 R0.5
G1 X38.27 Y-2.53 Z-1.074
G2 X38.313 Y-2.657 Z-1.078 R0.5
G1 X38.327 Y-2.727 Z-1.08
G2 X38.335 Y-2.86 Z-1.084 R0.5
X38.31 Y-3.173 Z-1.093 R38.441
X38.282 Y-3.302 Z-1.097 R0.5
G1 X38.257 Y-3.369 Z-1.099
G2 X38.195 Y-3.488 Z-1.103 R0.5
G1 X38.154 Y-3.546 Z-1.105
G2 X38.054 Y-3.65 Z-1.109 R0.5
G1 X37.99 Y-3.701 Z-1.112
G2 X37.855 Y-3.777 Z-1.116 R0.5
G1 X37.777 Y-3.805 Z-1.119
G2 X37.705 Y-3.826 Z-1.121 R0.5
G1 X37.554 Y-3.857 Z-1.125
X37.445 Y-3.885 Z-1.129
X37.44 Y-3.932 Z-1.13
Y-3.939
X37.434 Y-3.986 Z-1.132
X37.535 Y-4.035 Z-1.135
X37.677 Y-4.097 Z-1.139
G2 X37.743 Y-4.133 Z-1.142 R0.5
G1 X37.813 Y-4.177 Z-1.144
G2 X37.928 Y-4.278 Z-1.148 R0.5
G1 X37.981 Y-4.341 Z-1.151
G2 X38.057 Y-4.464 Z-1.155 R0.5
G1 X38.086 Y-4.53 Z-1.157
G2 X38.122 Y-4.658 Z-1.161 R0.5
G1 X38.132 Y-4.729 Z-1.163
G2 Y-4.862 Z-1.167 R0.5
X38.091 Y-5.173 Z-1.176 R38.441
X38.056 Y-5.301 Z-1.18 R0.5
G1 X38.028 Y-5.367 Z-1.182
G2 X37.96 Y-5.482 Z-1.186 R0.5
G1 X37.916 Y-5.538 Z-1.188
G2 X37.811 Y-5.637 Z-1.193 R0.5
G1 X37.743 Y-5.685 Z-1.195
G2 X37.605 Y-5.752 Z-1.199 R0.5
G1 X37.527 Y-5.777 Z-1.202
G2 X37.453 Y-5.794 Z-1.204 R0.5
G1 X37.301 Y-5.817 Z-1.209
X37.191 Y-5.839 Z-1.212
X37.183 Y-5.886 Z-1.213
X37.182 Y-5.893
X37.175 Y-5.939 Z-1.215
X37.273 Y-5.994 Z-1.218
X37.41 Y-6.063 Z-1.223
G2 X37.475 Y-6.102 Z-1.225 R0.5
G1 X37.542 Y-6.15 Z-1.227
G2 X37.653 Y-6.257 Z-1.232 R0.5
G1 X37.702 Y-6.323 Z-1.234
G2 X37.771 Y-6.449 Z-1.238 R0.5
G1 X37.796 Y-6.516 Z-1.241
G2 X37.826 Y-6.647 Z-1.244 R0.5
G1 X37.832 Y-6.718 Z-1.247
G2 X37.826 Y-6.851 Z-1.25 R0.5
X37.768 Y-7.16 Z-1.26 R38.441
X37.727 Y-7.285 Z-1.264 R0.5
G1 X37.695 Y-7.35 Z-1.266
G2 X37.621 Y-7.461 Z-1.27 R0.5
G1 X37.574 Y-7.515 Z-1.272
G2 X37.464 Y-7.608 Z-1.276 R0.5
G1 X37.394 Y-7.652 Z-1.278
G2 X37.253 Y-7.713 Z-1.283 R0.5
G1 X37.173 Y-7.733 Z-1.285
G2 X37.099 Y-7.746 Z-1.287 R0.5
G1 X36.945 Y-7.761 Z-1.292
X36.834 Y-7.777 Z-1.295
X36.824 Y-7.824 Z-1.297
X36.823 Y-7.83
X36.813 Y-7.877 Z-1.298
X36.908 Y-7.936 Z-1.301
X37.042 Y-8.013 Z-1.306
G2 X37.105 Y-8.055 Z-1.308 R0.5
G1 X37.169 Y-8.106 Z-1.311
G2 X37.274 Y-8.219 Z-1.315 R0.5
G1 X37.32 Y-8.287 Z-1.318
G2 X37.382 Y-8.418 Z-1.322 R0.5
G1 X37.404 Y-8.486 Z-1.324
G2 X37.426 Y-8.618 Z-1.328 R0.5
G1 X37.428 Y-8.69 Z-1.33
G2 X37.415 Y-8.821 Z-1.334 R0.5
X37.342 Y-9.126 Z-1.343 R38.441
X37.294 Y-9.25 Z-1.347 R0.5
G1 X37.259 Y-9.313 Z-1.349
G2 X37.179 Y-9.42 Z-1.353 R0.5
G1 X37.129 Y-9.471 Z-1.355
G2 X37.015 Y-9.559 Z-1.359 R0.5
G1 X36.943 Y-9.599 Z-1.362
G2 X36.798 Y-9.652 Z-1.366 R0.5
G1 X36.717 Y-9.668 Z-1.369
G2 X36.642 Y-9.677 Z-1.371 R0.5
G1 X36.488 Y-9.684 Z-1.375
X36.376 Y-9.694 Z-1.379
X36.364 Y-9.741 Z-1.38
X36.363 Y-9.747
X36.35 Y-9.793 Z-1.382
X36.442 Y-9.857 Z-1.385
X36.572 Y-9.94 Z-1.389
G2 X36.632 Y-9.986 Z-1.392 R0.5
G1 X36.694 Y-10.04 Z-1.394
G2 X36.792 Y-10.158 Z-1.398 R0.5
G1 X36.835 Y-10.229 Z-1.401
G2 X36.89 Y-10.363 Z-1.405 R0.5
G1 X36.908 Y-10.432 Z-1.407
G2 X36.924 Y-10.565 Z-1.411 R0.5
G1 X36.922 Y-10.636 Z-1.413
G2 X36.902 Y-10.767 Z-1.417 R0.5
X36.813 Y-11.068 Z-1.426 R38.441
X36.759 Y-11.189 Z-1.43 R0.5
G1 X36.721 Y-11.249 Z-1.432
G2 X36.635 Y-11.353 Z-1.436 R0.5
G1 X36.582 Y-11.401 Z-1.438
G2 X36.464 Y-11.483 Z-1.443 R0.5
G1 X36.39 Y-11.519 Z-1.445
G2 X36.242 Y-11.564 Z-1.449 R0.5
G1 X36.161 Y-11.576 Z-1.452
G2 X36.085 Y-11.582 Z-1.454 R0.5
G1 X35.931 Y-11.581 Z-1.459
X35.819 Y-11.585 Z-1.462
X35.805 Y-11.631 Z-1.463
X35.803 Y-11.637
X35.788 Y-11.682 Z-1.465
X35.876 Y-11.751 Z-1.468
X36.001 Y-11.841 Z-1.473
G2 X36.059 Y-11.889 Z-1.475 R0.5
G1 X36.118 Y-11.947 Z-1.477
G2 X36.211 Y-12.071 Z-1.482 R0.5
G1 X36.249 Y-12.143 Z-1.484
G2 X36.297 Y-12.279 Z-1.488 R0.5
G1 X36.311 Y-12.349 Z-1.491
G2 X36.32 Y-12.482 Z-1.494 R0.5
G1 X36.315 Y-12.554 Z-1.497
G2 X36.288 Y-12.684 Z-1.5 R0.5
X36.183 Y-12.98 Z-1.51 R38.441
X36.123 Y-13.097 Z-1.513 R0.5
G1 X36.082 Y-13.156 Z-1.516
G2 X35.991 Y-13.255 Z-1.52 R0.5
G1 X35.935 Y-13.3 Z-1.522
G2 X35.812 Y-13.375 Z-1.526 R0.5
G1 X35.737 Y-13.408 Z-1.528
G2 X35.587 Y-13.445 Z-1.533 R0.5
G1 X35.505 Y-13.453 Z-1.535
G2 X35.43 Y-13.454 Z-1.537 R0.5
G1 X35.276 Y-13.445 Z-1.542
X35.164 Y-13.444 Z-1.545
X35.147 Y-13.489 Z-1.547
X35.145 Y-13.495
X35.127 Y-13.539 Z-1.548
X35.212 Y-13.612 Z-1.551
X35.332 Y-13.709 Z-1.556
G2 X35.387 Y-13.76 Z-1.558 R0.5
G1 X35.443 Y-13.821 Z-1.561
G2 X35.529 Y-13.949 Z-1.565 R0.5
G1 X35.564 Y-14.023 Z-1.568
G2 X35.605 Y-14.162 Z-1.572 R0.5
G1 X35.615 Y-14.232 Z-1.574
G2 X35.617 Y-14.367 Z-1.578 R0.5
G1 X35.608 Y-14.438 Z-1.58
G2 X35.575 Y-14.566 Z-1.584 R0.5
X35.455 Y-14.856 Z-1.593 R38.441
X35.388 Y-14.97 Z-1.597 R0.5
G1 X35.344 Y-15.026 Z-1.599
G2 X35.248 Y-15.12 Z-1.603 R0.5
G1 X35.19 Y-15.163 Z-1.605
G2 X35.063 Y-15.231 Z-1.609 R0.5
G1 X34.986 Y-15.26 Z-1.612
G2 X34.835 Y-15.289 Z-1.616 R0.5
G1 X34.753 Y-15.293 Z-1.619
G2 X34.677 Y-15.29 Z-1.621 R0.5
G1 X34.524 Y-15.273 Z-1.625
X34.412 Y-15.266 Z-1.629
X34.393 Y-15.309 Z-1.63
X34.39 Y-15.315
X34.371 Y-15.358 Z-1.632
X34.451 Y-15.437 Z-1.635
X34.566 Y-15.539 Z-1.639
G2 X34.619 Y-15.593 Z-1.641 R0.5
G1 X34.671 Y-15.656 Z-1.644
G2 X34.751 Y-15.79 Z-1.648 R0.5
G1 X34.781 Y-15.866 Z-1.651
G2 X34.815 Y-16.006 Z-1.655 R0.5
G1 X34.822 Y-16.077 Z-1.657
G2 X34.816 Y-16.211 Z-1.661 R0.5
G1 X34.804 Y-16.281 Z-1.663
G2 X34.764 Y-16.407 Z-1.667 R0.5
X34.628 Y-16.691 Z-1.676 R38.441
X34.556 Y-16.802 Z-1.68 R0.5
G1 X34.509 Y-16.856 Z-1.682
G2 X34.408 Y-16.944 Z-1.686 R0.5
G1 X34.349 Y-16.984 Z-1.688
G2 X34.218 Y-17.046 Z-1.693 R0.5
G1 X34.139 Y-17.07 Z-1.695
G2 X33.987 Y-17.092 Z-1.699 R0.5
G1 X33.905 Y-17.091 Z-1.702
G2 X33.83 Y-17.084 Z-1.704 R0.5
G1 X33.677 Y-17.059 Z-1.709
X33.566 Y-17.046 Z-1.712
X33.544 Y-17.089 Z-1.713
X33.542 Y-17.094
X33.52 Y-17.136 Z-1.715
X33.596 Y-17.218 Z-1.718
X33.706 Y-17.327 Z-1.723
G2 X33.755 Y-17.384 Z-1.725 R0.5
G1 X33.804 Y-17.45 Z-1.727
G2 X33.876 Y-17.586 Z-1.732 R0.5
G1 X33.903 Y-17.664 Z-1.734
G2 X33.93 Y-17.806 Z-1.738 R0.5
G1 X33.933 Y-17.878 Z-1.741
G2 X33.92 Y-18.01 Z-1.744 R0.5
G1 X33.904 Y-18.08 Z-1.747
G2 X33.857 Y-18.204 Z-1.75 R0.5
X33.707 Y-18.48 Z-1.76 R38.441
X33.629 Y-18.587 Z-1.763 R0.5
G1 X33.58 Y-18.638 Z-1.766
G2 X33.474 Y-18.722 Z-1.77 R0.5
G1 X33.413 Y-18.758 Z-1.772
G2 X33.279 Y-18.813 Z-1.776 R0.5
G1 X33.199 Y-18.833 Z-1.778
G2 X33.046 Y-18.847 Z-1.783 R0.5
G1 X32.964 Y-18.842 Z-1.785
G2 X32.889 Y-18.831 Z-1.787 R0.5
G1 X32.738 Y-18.798 Z-1.792
X32.628 Y-18.779 Z-1.795
X32.604 Y-18.821 Z-1.797
X32.601 Y-18.826
X32.577 Y-18.867 Z-1.798
X32.649 Y-18.953 Z-1.801
X32.753 Y-19.067 Z-1.806
G2 X32.799 Y-19.127 Z-1.808 R0.5
G1 X32.845 Y-19.195 Z-1.811
G2 X32.91 Y-19.335 Z-1.815 R0.5
G1 X32.932 Y-19.414 Z-1.818
G2 X32.951 Y-19.557 Z-1.822 R0.5
G1 Y-19.629 Z-1.824
G2 X32.931 Y-19.762 Z-1.828 R0.5
G1 X32.911 Y-19.83 Z-1.83
G2 X32.858 Y-19.951 Z-1.834 R0.5
X32.694 Y-20.219 Z-1.843 R38.441
X32.61 Y-20.322 Z-1.847 R0.5
G1 X32.558 Y-20.371 Z-1.849
G2 X32.449 Y-20.448 Z-1.853 R0.5
G1 X32.385 Y-20.481 Z-1.855
G2 X32.249 Y-20.529 Z-1.859 R0.5
G1 X32.168 Y-20.545 Z-1.862
G2 X32.014 Y-20.551 Z-1.866 R0.5
G1 X31.932 Y-20.541 Z-1.869
G2 X31.858 Y-20.527 Z-1.871 R0.5
G1 X31.71 Y-20.486 Z-1.875
X31.6 Y-20.461 Z-1.879
X31.574 Y-20.501 Z-1.88
X31.571 Y-20.506
X31.545 Y-20.546 Z-1.881
X31.612 Y-20.636 Z-1.885
X31.71 Y-20.755 Z-1.889
G2 X31.753 Y-20.817 Z-1.892 R0.5
G1 X31.795 Y-20.888 Z-1.894
G2 X31.852 Y-21.031 Z-1.898 R0.5
G1 X31.871 Y-21.111 Z-1.901
G2 X31.883 Y-21.255 Z-1.905 R0.5
G1 X31.878 Y-21.327 Z-1.907
G2 X31.852 Y-21.457 Z-1.911 R0.5
G1 X31.829 Y-21.525 Z-1.913
G2 X31.769 Y-21.644 Z-1.917 R0.5
X31.591 Y-21.903 Z-1.926 R38.441
X31.502 Y-22.001 Z-1.93 R0.5
G1 X31.447 Y-22.047 Z-1.932
G2 X31.334 Y-22.118 Z-1.936 R0.5
G1 X31.269 Y-22.148 Z-1.938
G2 X31.13 Y-22.189 Z-1.943 R0.5
G1 X31.049 Y-22.2 Z-1.945
G2 X30.895 Y-22.198 Z-1.949 R0.5
G1 X30.814 Y-22.184 Z-1.952
G2 X30.74 Y-22.166 Z-1.954 R0.5
G1 X30.594 Y-22.117 Z-1.959
X30.486 Y-22.087 Z-1.962
X30.458 Y-22.126 Z-1.963
X30.455 Y-22.131
X30.426 Y-22.169 Z-1.965
X30.489 Y-22.262 Z-1.968
X30.58 Y-22.386 Z-1.973
G2 X30.62 Y-22.451 Z-1.975 R0.5
G1 X30.659 Y-22.523 Z-1.977
G2 X30.708 Y-22.669 Z-1.982 R0.5
G1 X30.722 Y-22.75 Z-1.984
G2 X30.727 Y-22.894 Z-1.988 R0.5
G1 X30.718 Y-22.965 Z-1.99
G2 X30.685 Y-23.096 Z-1.994 R0.5
G1 X30.658 Y-23.162 Z-1.997
G2 X30.601 Y-23.265 Z-2. R0.5
X30.593 Y-23.277 R0.5 F400.
X30.401 Y-23.526 R38.441
X30.308 Y-23.619 R0.5
G1 X30.251 Y-23.662
G2 X30.133 Y-23.728 R0.5
G1 X30.066 Y-23.754
G2 X29.927 Y-23.787 R0.5
G1 X29.845 Y-23.795
G2 X29.691 Y-23.784 R0.5
G1 X29.61 Y-23.766
G2 X29.538 Y-23.744 R0.5
G1 X29.395 Y-23.688
X29.288 Y-23.652
X29.258 Y-23.69
X29.255 Y-23.694
X29.224 Y-23.731
X29.282 Y-23.827
X29.367 Y-23.956
G2 X29.403 Y-24.022 R0.5
G1 X29.438 Y-24.097
G2 X29.48 Y-24.246 R0.5
G1 X29.49 Y-24.327
G2 X29.486 Y-24.471 R0.5
G1 X29.474 Y-24.542
G2 X29.434 Y-24.669 R0.5
G1 X29.404 Y-24.734
G2 X29.333 Y-24.846 R0.5
X29.128 Y-25.085 R38.441
X29.03 Y-25.173 R0.5
G1 X28.97 Y-25.213
G2 X28.85 Y-25.272 R0.5
G1 X28.782 Y-25.295
G2 X28.641 Y-25.321 R0.5
G1 X28.559 Y-25.324
G2 X28.405 Y-25.306 R0.5
G1 X28.326 Y-25.284
G2 X28.255 Y-25.258 R0.5
G1 X28.115 Y-25.194
X28.01 Y-25.152
X27.978 Y-25.188
X27.974 Y-25.193
X27.942 Y-25.228
X27.995 Y-25.327
X28.073 Y-25.46
G2 X28.106 Y-25.528 R0.5
G1 X28.136 Y-25.604
G2 X28.17 Y-25.755 R0.5
G1 X28.176 Y-25.837
G2 X28.165 Y-25.981 R0.5
G1 X28.149 Y-26.051
G2 X28.103 Y-26.176 R0.5
G1 X28.069 Y-26.239
G2 X27.992 Y-26.347 R0.5
X27.776 Y-26.575 R38.441
X27.672 Y-26.658 R0.5
G1 X27.611 Y-26.694
G2 X27.488 Y-26.747 R0.5
G1 X27.419 Y-26.767
G2 X27.277 Y-26.785 R0.5
G1 X27.194 Y-26.784
G2 X27.042 Y-26.758 R0.5
G1 X26.964 Y-26.731
G2 X26.895 Y-26.702 R0.5
G1 X26.758 Y-26.631
X26.656 Y-26.584
X26.622 Y-26.618
X26.618 Y-26.622
X26.584 Y-26.656
X26.631 Y-26.758
X26.702 Y-26.895
G2 X26.731 Y-26.964 R0.5
G1 X26.758 Y-27.042
G2 X26.784 Y-27.194 R0.5
G1 X26.785 Y-27.277
G2 X26.767 Y-27.419 R0.5
G1 X26.747 Y-27.488
G2 X26.694 Y-27.611 R0.5
G1 X26.658 Y-27.672
G2 X26.575 Y-27.776 R0.5
X26.347 Y-27.992 R38.441
X26.239 Y-28.069 R0.5
G1 X26.176 Y-28.103
G2 X26.051 Y-28.149 R0.5
G1 X25.981 Y-28.165
G2 X25.837 Y-28.176 R0.5
G1 X25.755 Y-28.17
G2 X25.604 Y-28.136 R0.5
G1 X25.528 Y-28.106
G2 X25.46 Y-28.073 R0.5
G1 X25.327 Y-27.995
X25.228 Y-27.942
X25.192 Y-27.975
X25.188 Y-27.979
X25.152 Y-28.01
X25.194 Y-28.115
X25.258 Y-28.255
G2 X25.284 Y-28.326 R0.5
G1 X25.306 Y-28.405
G2 X25.324 Y-28.559 R0.5
G1 X25.321 Y-28.641
G2 X25.295 Y-28.782 R0.5
G1 X25.272 Y-28.85
G2 X25.213 Y-28.97 R0.5
G1 X25.173 Y-29.03
G2 X25.085 Y-29.128 R0.5
X24.846 Y-29.333 R38.441
X24.734 Y-29.404 R0.5
G1 X24.669 Y-29.434
G2 X24.542 Y-29.474 R0.5
G1 X24.471 Y-29.486
G2 X24.327 Y-29.49 R0.5
G1 X24.246 Y-29.48
G2 X24.097 Y-29.438 R0.5
G1 X24.022 Y-29.403
G2 X23.956 Y-29.367 R0.5
G1 X23.827 Y-29.282
X23.731 Y-29.224
X23.694 Y-29.255
X23.689 Y-29.259
X23.652 Y-29.288
X23.688 Y-29.395
X23.744 Y-29.538
G2 X23.766 Y-29.61 R0.5
G1 X23.784 Y-29.691
G2 X23.795 Y-29.845 R0.5
G1 X23.787 Y-29.927
G2 X23.754 Y-30.066 R0.5
G1 X23.728 Y-30.133
G2 X23.662 Y-30.251 R0.5
G1 X23.619 Y-30.308
G2 X23.526 Y-30.401 R0.5
X23.277 Y-30.593 R38.441
X23.162 Y-30.658 R0.5
G1 X23.096 Y-30.685
G2 X22.965 Y-30.718 R0.5
G1 X22.894 Y-30.727
G2 X22.75 Y-30.722 R0.5
G1 X22.669 Y-30.708
G2 X22.523 Y-30.659 R0.5
G1 X22.451 Y-30.62
G2 X22.386 Y-30.58 R0.5
G1 X22.262 Y-30.489
X22.169 Y-30.426
X22.13 Y-30.455
X22.125 Y-30.459
X22.087 Y-30.486
X22.117 Y-30.594
X22.166 Y-30.74
G2 X22.184 Y-30.814 R0.5
G1 X22.198 Y-30.895
G2 X22.2 Y-31.049 R0.5
G1 X22.189 Y-31.13
G2 X22.148 Y-31.269 R0.5
G1 X22.118 Y-31.334
G2 X22.047 Y-31.447 R0.5
G1 X22.001 Y-31.502
G2 X21.903 Y-31.591 R0.5
X21.644 Y-31.769 R38.441
X21.525 Y-31.829 R0.5
G1 X21.457 Y-31.852
G2 X21.327 Y-31.878 R0.5
G1 X21.255 Y-31.883
G2 X21.111 Y-31.871 R0.5
G1 X21.031 Y-31.852
G2 X20.888 Y-31.795 R0.5
G1 X20.817 Y-31.753
G2 X20.755 Y-31.71 R0.5
G1 X20.636 Y-31.612
X20.546 Y-31.545
X20.506 Y-31.571
X20.501 Y-31.575
X20.461 Y-31.6
X20.486 Y-31.71
X20.527 Y-31.858
G2 X20.541 Y-31.932 R0.5
G1 X20.551 Y-32.014
G2 X20.545 Y-32.168 R0.5
G1 X20.529 Y-32.249
G2 X20.481 Y-32.385 R0.5
G1 X20.448 Y-32.449
G2 X20.371 Y-32.558 R0.5
G1 X20.322 Y-32.61
G2 X20.219 Y-32.694 R0.5
X19.951 Y-32.858 R38.441
X19.83 Y-32.911 R0.5
G1 X19.762 Y-32.931
G2 X19.629 Y-32.951 R0.5
G1 X19.557
G2 X19.414 Y-32.932 R0.5
G1 X19.335 Y-32.91
G2 X19.195 Y-32.845 R0.5
G1 X19.127 Y-32.799
G2 X19.067 Y-32.753 R0.5
G1 X18.953 Y-32.649
X18.867 Y-32.577
X18.826 Y-32.601
X18.82 Y-32.604
X18.779 Y-32.628
X18.798 Y-32.738
X18.831 Y-32.889
G2 X18.842 Y-32.964 R0.5
G1 X18.847 Y-33.046
G2 X18.833 Y-33.199 R0.5
G1 X18.813 Y-33.279
G2 X18.758 Y-33.413 R0.5
G1 X18.722 Y-33.474
G2 X18.638 Y-33.58 R0.5
G1 X18.587 Y-33.629
G2 X18.48 Y-33.707 R0.5
X18.204 Y-33.857 R38.441
X18.08 Y-33.904 R0.5
G1 X18.01 Y-33.92
G2 X17.878 Y-33.933 R0.5
G1 X17.806 Y-33.93
G2 X17.664 Y-33.903 R0.5
G1 X17.586 Y-33.876
G2 X17.45 Y-33.804 R0.5
G1 X17.384 Y-33.755
G2 X17.327 Y-33.706 R0.5
G1 X17.218 Y-33.596
X17.136 Y-33.52
X17.094 Y-33.542
X17.088 Y-33.545
X17.046 Y-33.566
X17.059 Y-33.677
X17.084 Y-33.83
G2 X17.091 Y-33.905 R0.5
G1 X17.092 Y-33.987
G2 X17.07 Y-34.139 R0.5
G1 X17.046 Y-34.218
G2 X16.984 Y-34.349 R0.5
G1 X16.944 Y-34.408
G2 X16.856 Y-34.509 R0.5
G1 X16.802 Y-34.556
G2 X16.691 Y-34.628 R0.5
X16.407 Y-34.764 R38.441
X16.281 Y-34.804 R0.5
G1 X16.211 Y-34.816
G2 X16.077 Y-34.822 R0.5
G1 X16.006 Y-34.815
G2 X15.866 Y-34.781 R0.5
G1 X15.79 Y-34.751
G2 X15.656 Y-34.671 R0.5
G1 X15.593 Y-34.619
G2 X15.539 Y-34.566 R0.5
G1 X15.437 Y-34.451
X15.358 Y-34.371
X15.315 Y-34.39
X15.309 Y-34.393
X15.266 Y-34.412
X15.273 Y-34.524
X15.29 Y-34.677
G2 X15.293 Y-34.753 R0.5
G1 X15.289 Y-34.835
G2 X15.26 Y-34.986 R0.5
G1 X15.231 Y-35.063
G2 X15.163 Y-35.19 R0.5
G1 X15.12 Y-35.248
G2 X15.026 Y-35.344 R0.5
G1 X14.97 Y-35.388
G2 X14.856 Y-35.455 R0.5
X14.566 Y-35.575 R38.441
X14.438 Y-35.608 R0.5
G1 X14.367 Y-35.617
G2 X14.232 Y-35.615 R0.5
G1 X14.162 Y-35.605
G2 X14.023 Y-35.564 R0.5
G1 X13.949 Y-35.529
G2 X13.821 Y-35.443 R0.5
G1 X13.76 Y-35.387
G2 X13.709 Y-35.332 R0.5
G1 X13.612 Y-35.212
X13.539 Y-35.127
X13.494 Y-35.145
X13.488 Y-35.147
X13.444 Y-35.164
X13.445 Y-35.276
X13.454 Y-35.43
G2 X13.453 Y-35.505 R0.5
G1 X13.445 Y-35.587
G2 X13.408 Y-35.737 R0.5
G1 X13.375 Y-35.812
G2 X13.3 Y-35.935 R0.5
G1 X13.255 Y-35.991
G2 X13.156 Y-36.082 R0.5
G1 X13.097 Y-36.123
G2 X12.98 Y-36.183 R0.5
X12.684 Y-36.288 R38.441
X12.554 Y-36.315 R0.5
G1 X12.482 Y-36.32
G2 X12.349 Y-36.311 R0.5
G1 X12.279 Y-36.297
G2 X12.143 Y-36.249 R0.5
G1 X12.071 Y-36.211
G2 X11.947 Y-36.118 R0.5
G1 X11.889 Y-36.059
G2 X11.841 Y-36.001 R0.5
G1 X11.751 Y-35.876
X11.682 Y-35.788
X11.636 Y-35.803
X11.63 Y-35.805
X11.585 Y-35.819
X11.581 Y-35.931
X11.582 Y-36.085
G2 X11.576 Y-36.161 R0.5
G1 X11.564 Y-36.242
G2 X11.519 Y-36.39 R0.5
G1 X11.483 Y-36.464
G2 X11.401 Y-36.582 R0.5
G1 X11.353 Y-36.635
G2 X11.249 Y-36.721 R0.5
G1 X11.189 Y-36.759
G2 X11.068 Y-36.813 R0.5
X10.767 Y-36.902 R38.441
X10.636 Y-36.922 R0.5
G1 X10.565 Y-36.924
G2 X10.432 Y-36.908 R0.5
G1 X10.363 Y-36.89
G2 X10.229 Y-36.835 R0.5
G1 X10.158 Y-36.792
G2 X10.04 Y-36.694 R0.5
G1 X9.986 Y-36.632
G2 X9.94 Y-36.572 R0.5
G1 X9.857 Y-36.442
X9.793 Y-36.35
X9.746 Y-36.363
X9.74 Y-36.364
X9.694 Y-36.376
X9.684 Y-36.488
X9.677 Y-36.642
G2 X9.668 Y-36.717 R0.5
G1 X9.652 Y-36.798
G2 X9.599 Y-36.943 R0.5
G1 X9.559 Y-37.015
G2 X9.471 Y-37.129 R0.5
G1 X9.42 Y-37.179
G2 X9.313 Y-37.259 R0.5
G1 X9.25 Y-37.294
G2 X9.126 Y-37.342 R0.5
X8.821 Y-37.415 R38.441
X8.69 Y-37.428 R0.5
G1 X8.618 Y-37.426
G2 X8.486 Y-37.404 R0.5
G1 X8.418 Y-37.382
G2 X8.287 Y-37.32 R0.5
G1 X8.219 Y-37.274
G2 X8.106 Y-37.169 R0.5
G1 X8.055 Y-37.105
G2 X8.013 Y-37.042 R0.5
G1 X7.936 Y-36.908
X7.877 Y-36.813
X7.83 Y-36.823
X7.824 Y-36.824
X7.777 Y-36.834
X7.761 Y-36.945
X7.746 Y-37.099
G2 X7.733 Y-37.173 R0.5
G1 X7.713 Y-37.253
G2 X7.652 Y-37.394 R0.5
G1 X7.608 Y-37.464
G2 X7.515 Y-37.574 R0.5
G1 X7.461 Y-37.621
G2 X7.35 Y-37.695 R0.5
G1 X7.285 Y-37.727
G2 X7.16 Y-37.768 R0.5
X6.851 Y-37.826 R38.441
X6.718 Y-37.832 R0.5
G1 X6.647 Y-37.826
G2 X6.516 Y-37.796 R0.5
G1 X6.449 Y-37.771
G2 X6.323 Y-37.702 R0.5
G1 X6.257 Y-37.653
G2 X6.15 Y-37.542 R0.5
G1 X6.102 Y-37.475
G2 X6.063 Y-37.41 R0.5
G1 X5.994 Y-37.273
X5.939 Y-37.175
X5.892 Y-37.182
X5.886 Y-37.183
X5.839 Y-37.19
X5.817 Y-37.301
X5.794 Y-37.453
G2 X5.777 Y-37.527 R0.5
G1 X5.752 Y-37.605
G2 X5.685 Y-37.743 R0.5
G1 X5.637 Y-37.811
G2 X5.538 Y-37.916 R0.5
G1 X5.482 Y-37.96
G2 X5.367 Y-38.028 R0.5
G1 X5.301 Y-38.056
G2 X5.173 Y-38.091 R0.5
X4.862 Y-38.132 R38.441
X4.729 R0.5
G1 X4.658 Y-38.122
G2 X4.53 Y-38.086 R0.5
G1 X4.464 Y-38.057
G2 X4.341 Y-37.981 R0.5
G1 X4.278 Y-37.928
G2 X4.177 Y-37.813 R0.5
G1 X4.133 Y-37.743
G2 X4.097 Y-37.677 R0.5
G1 X4.035 Y-37.535
X3.986 Y-37.434
X3.938 Y-37.44
X3.932
X3.885 Y-37.445
X3.857 Y-37.554
X3.826 Y-37.705
G2 X3.805 Y-37.777 R0.5
G1 X3.777 Y-37.855
G2 X3.701 Y-37.99 R0.5
G1 X3.65 Y-38.054
G2 X3.546 Y-38.154 R0.5
G1 X3.488 Y-38.195
G2 X3.369 Y-38.257 R0.5
G1 X3.302 Y-38.282
G2 X3.173 Y-38.31 R0.5
X2.86 Y-38.335 R38.441
X2.727 Y-38.327 R0.5
G1 X2.657 Y-38.313
G2 X2.53 Y-38.27 R0.5
G1 X2.466 Y-38.238
G2 X2.348 Y-38.157 R0.5
G1 X2.287 Y-38.101
G2 X2.192 Y-37.979 R0.5
G1 X2.151 Y-37.908
G2 X2.12 Y-37.839 R0.5
G1 X2.065 Y-37.695
X2.021 Y-37.592
X1.973 Y-37.595
X1.967
X1.92 Y-37.597
X1.886 Y-37.704
X1.847 Y-37.854
G2 X1.823 Y-37.925 R0.5
G1 X1.79 Y-38.001
G2 X1.708 Y-38.131 R0.5
G1 X1.654 Y-38.193
G2 X1.544 Y-38.287 R0.5
G1 X1.484 Y-38.325
G2 X1.363 Y-38.381 R0.5
G1 X1.294 Y-38.402
G2 X1.163 Y-38.423 R0.5
X0.849 Y-38.432 R38.441
X0.718 Y-38.417 R0.5
G1 X0.649 Y-38.4
G2 X0.523 Y-38.35 R0.5
G1 X0.461 Y-38.315
G2 X0.347 Y-38.227 R0.5
G1 X0.29 Y-38.168
G2 X0.201 Y-38.042 R0.5
G1 X0.165 Y-37.968
G2 X0.136 Y-37.898 R0.5
G1 X0.089 Y-37.751
X0.051 Y-37.646
X0.003
X-0.003
X-0.051
X-0.089 Y-37.751
X-0.136 Y-37.898
G2 X-0.165 Y-37.968 R0.5
G1 X-0.201 Y-38.042
G2 X-0.29 Y-38.168 R0.5
G1 X-0.347 Y-38.227
G2 X-0.461 Y-38.315 R0.5
G1 X-0.523 Y-38.35
G2 X-0.649 Y-38.4 R0.5
G1 X-0.718 Y-38.417
G2 X-0.849 Y-38.432 R0.5
X-1.163 Y-38.423 R38.441
X-1.294 Y-38.402 R0.5
G1 X-1.363 Y-38.381
G2 X-1.484 Y-38.325 R0.5
G1 X-1.544 Y-38.287
G2 X-1.654 Y-38.193 R0.5
G1 X-1.708 Y-38.131
G2 X-1.79 Y-38.001 R0.5
G1 X-1.823 Y-37.925
G2 X-1.847 Y-37.854 R0.5
G1 X-1.886 Y-37.704
X-1.919 Y-37.597
X-1.967 Y-37.595
X-1.974
X-2.021 Y-37.592
X-2.065 Y-37.695
X-2.12 Y-37.839
G2 X-2.151 Y-37.908 R0.5
G1 X-2.192 Y-37.979
G2 X-2.287 Y-38.101 R0.5
G1 X-2.348 Y-38.157
G2 X-2.466 Y-38.238 R0.5
G1 X-2.53 Y-38.27
G2 X-2.657 Y-38.313 R0.5
G1 X-2.727 Y-38.327
G2 X-2.86 Y-38.335 R0.5
X-3.173 Y-38.31 R38.441
X-3.302 Y-38.282 R0.5
G1 X-3.369 Y-38.257
G2 X-3.488 Y-38.195 R0.5
G1 X-3.546 Y-38.154
G2 X-3.65 Y-38.054 R0.5
G1 X-3.701 Y-37.99
G2 X-3.777 Y-37.855 R0.5
G1 X-3.805 Y-37.777
G2 X-3.826 Y-37.705 R0.5
G1 X-3.857 Y-37.554
X-3.885 Y-37.445
X-3.932 Y-37.44
X-3.939
X-3.986 Y-37.434
X-4.035 Y-37.535
X-4.097 Y-37.677
G2 X-4.133 Y-37.743 R0.5
G1 X-4.177 Y-37.813
G2 X-4.278 Y-37.928 R0.5
G1 X-4.341 Y-37.981
G2 X-4.464 Y-38.057 R0.5
G1 X-4.53 Y-38.086
G2 X-4.658 Y-38.122 R0.5
G1 X-4.729 Y-38.132
G2 X-4.862 R0.5
X-5.173 Y-38.091 R38.441
X-5.301 Y-38.056 R0.5
G1 X-5.367 Y-38.028
G2 X-5.482 Y-37.96 R0.5
G1 X-5.538 Y-37.916
G2 X-5.637 Y-37.811 R0.5
G1 X-5.685 Y-37.743
G2 X-5.752 Y-37.605 R0.5
G1 X-5.777 Y-37.527
G2 X-5.794 Y-37.453 R0.5
G1 X-5.817 Y-37.301
X-5.839 Y-37.191
X-5.886 Y-37.183
X-5.893 Y-37.182
X-5.939 Y-37.175
X-5.994 Y-37.273
X-6.063 Y-37.41
G2 X-6.102 Y-37.475 R0.5
G1 X-6.15 Y-37.542
G2 X-6.257 Y-37.653 R0.5
G1 X-6.323 Y-37.702
G2 X-6.449 Y-37.771 R0.5
G1 X-6.516 Y-37.796
G2 X-6.647 Y-37.826 R0.5
G1 X-6.718 Y-37.832
G2 X-6.851 Y-37.826 R0.5
X-7.16 Y-37.768 R38.441
X-7.285 Y-37.727 R0.5
G1 X-7.35 Y-37.695
G2 X-7.461 Y-37.621 R0.5
G1 X-7.515 Y-37.574
G2 X-7.608 Y-37.464 R0.5
G1 X-7.652 Y-37.394
G2 X-7.713 Y-37.253 R0.5
G1 X-7.733 Y-37.173
G2 X-7.746 Y-37.099 R0.5
G1 X-7.761 Y-36.945
X-7.777 Y-36.834
X-7.824 Y-36.824
X-7.83 Y-36.823
X-7.877 Y-36.813
X-7.936 Y-36.908
X-8.013 Y-37.042
G2 X-8.055 Y-37.105 R0.5
G1 X-8.106 Y-37.169
G2 X-8.219 Y-37.274 R0.5
G1 X-8.287 Y-37.32
G2 X-8.418 Y-37.382 R0.5
G1 X-8.486 Y-37.404
G2 X-8.618 Y-37.426 R0.5
G1 X-8.69 Y-37.428
G2 X-8.821 Y-37.415 R0.5
X-9.126 Y-37.342 R38.441
X-9.25 Y-37.294 R0.5
G1 X-9.313 Y-37.259
G2 X-9.42 Y-37.179 R0.5
G1 X-9.471 Y-37.129
G2 X-9.559 Y-37.015 R0.5
G1 X-9.599 Y-36.943
G2 X-9.652 Y-36.798 R0.5
G1 X-9.668 Y-36.717
G2 X-9.677 Y-36.642 R0.5
G1 X-9.684 Y-36.488
X-9.694 Y-36.376
X-9.741 Y-36.364
X-9.747 Y-36.363
X-9.793 Y-36.35
X-9.857 Y-36.442
X-9.94 Y-36.572
G2 X-9.986 Y-36.632 R0.5
G1 X-10.04 Y-36.694
G2 X-10.158 Y-36.792 R0.5
G1 X-10.229 Y-36.835
G2 X-10.363 Y-36.89 R0.5
G1 X-10.432 Y-36.908
G2 X-10.565 Y-36.924 R0.5
G1 X-10.636 Y-36.922
G2 X-10.767 Y-36.902 R0.5
X-11.068 Y-36.813 R38.441
X-11.189 Y-36.759 R0.5
G1 X-11.249 Y-36.721
G2 X-11.353 Y-36.635 R0.5
G1 X-11.401 Y-36.582
G2 X-11.483 Y-36.464 R0.5
G1 X-11.519 Y-36.39
G2 X-11.564 Y-36.242 R0.5
G1 X-11.576 Y-36.161
G2 X-11.582 Y-36.085 R0.5
G1 X-11.581 Y-35.931
X-11.585 Y-35.819
X-11.631 Y-35.805
X-11.637 Y-35.803
X-11.682 Y-35.788
X-11.751 Y-35.876
X-11.841 Y-36.001
G2 X-11.889 Y-36.059 R0.5
G1 X-11.947 Y-36.118
G2 X-12.071 Y-36.211 R0.5
G1 X-12.143 Y-36.249
G2 X-12.279 Y-36.297 R0.5
G1 X-12.349 Y-36.311
G2 X-12.482 Y-36.32 R0.5
G1 X-12.554 Y-36.315
G2 X-12.684 Y-36.288 R0.5
X-12.98 Y-36.183 R38.441
X-13.097 Y-36.123 R0.5
G1 X-13.156 Y-36.082
G2 X-13.255 Y-35.991 R0.5
G1 X-13.3 Y-35.935
G2 X-13.375 Y-35.812 R0.5
G1 X-13.408 Y-35.737
G2 X-13.445 Y-35.587 R0.5
G1 X-13.453 Y-35.505
G2 X-13.454 Y-35.43 R0.5
G1 X-13.445 Y-35.276
X-13.444 Y-35.164
X-13.489 Y-35.147
X-13.495 Y-35.145
X-13.539 Y-35.127
X-13.612 Y-35.212
X-13.709 Y-35.332
G2 X-13.76 Y-35.387 R0.5
G1 X-13.821 Y-35.443
G2 X-13.949 Y-35.529 R0.5
G1 X-14.023 Y-35.564
G2 X-14.162 Y-35.605 R0.5
G1 X-14.232 Y-35.615
G2 X-14.367 Y-35.617 R0.5
G1 X-14.438 Y-35.608
G2 X-14.566 Y-35.575 R0.5
X-14.856 Y-35.455 R38.441
X-14.97 Y-35.388 R0.5
G1 X-15.026 Y-35.344
G2 X-15.12 Y-35.248 R0.5
G1 X-15.163 Y-35.19
G2 X-15.231 Y-35.063 R0.5
G1 X-15.26 Y-34.986
G2 X-15.289 Y-34.835 R0.5
G1 X-15.293 Y-34.753
G2 X-15.29 Y-34.677 R0.5
G1 X-15.273 Y-34.524
X-15.266 Y-34.412
X-15.309 Y-34.393
X-15.315 Y-34.39
X-15.358 Y-34.371
X-15.437 Y-34.451
X-15.539 Y-34.566
G2 X-15.593 Y-34.619 R0.5
G1 X-15.656 Y-34.671
G2 X-15.79 Y-34.751 R0.5
G1 X-15.866 Y-34.781
G2 X-16.006 Y-34.815 R0.5
G1 X-16.077 Y-34.822
G2 X-16.211 Y-34.816 R0.5
G1 X-16.281 Y-34.804
G2 X-16.407 Y-34.764 R0.5
X-16.691 Y-34.628 R38.441
X-16.802 Y-34.556 R0.5
G1 X-16.856 Y-34.509
G2 X-16.944 Y-34.408 R0.5
G1 X-16.984 Y-34.349
G2 X-17.046 Y-34.218 R0.5
G1 X-17.07 Y-34.139
G2 X-17.092 Y-33.987 R0.5
G1 X-17.091 Y-33.905
G2 X-17.084 Y-33.83 R0.5
G1 X-17.059 Y-33.677
X-17.046 Y-33.566
X-17.089 Y-33.544
X-17.094 Y-33.542
X-17.136 Y-33.52
X-17.218 Y-33.596
X-17.327 Y-33.706
G2 X-17.384 Y-33.755 R0.5
G1 X-17.45 Y-33.804
G2 X-17.586 Y-33.876 R0.5
G1 X-17.664 Y-33.903
G2 X-17.806 Y-33.93 R0.5
G1 X-17.878 Y-33.933
G2 X-18.01 Y-33.92 R0.5
G1 X-18.08 Y-33.904
G2 X-18.204 Y-33.857 R0.5
X-18.48 Y-33.707 R38.441
X-18.587 Y-33.629 R0.5
G1 X-18.638 Y-33.58
G2 X-18.722 Y-33.474 R0.5
G1 X-18.758 Y-33.413
G2 X-18.813 Y-33.279 R0.5
G1 X-18.833 Y-33.199
G2 X-18.847 Y-33.046 R0.5
G1 X-18.842 Y-32.964
G2 X-18.831 Y-32.889 R0.5
G1 X-18.798 Y-32.738
X-18.779 Y-32.628
X-18.821 Y-32.604
X-18.826 Y-32.601
X-18.867 Y-32.577
X-18.953 Y-32.649
X-19.067 Y-32.753
G2 X-19.127 Y-32.799 R0.5
G1 X-19.195 Y-32.845
G2 X-19.335 Y-32.91 R0.5
G1 X-19.414 Y-32.932
G2 X-19.557 Y-32.951 R0.5
G1 X-19.629
G2 X-19.762 Y-32.931 R0.5
G1 X-19.83 Y-32.911
G2 X-19.951 Y-32.858 R0.5
X-20.219 Y-32.694 R38.441
X-20.322 Y-32.61 R0.5
G1 X-20.371 Y-32.558
G2 X-20.448 Y-32.449 R0.5
G1 X-20.481 Y-32.385
G2 X-20.529 Y-32.249 R0.5
G1 X-20.545 Y-32.168
G2 X-20.551 Y-32.014 R0.5
G1 X-20.541 Y-31.932
G2 X-20.527 Y-31.858 R0.5
G1 X-20.486 Y-31.71
X-20.461 Y-31.6
X-20.501 Y-31.574
X-20.506 Y-31.571
X-20.546 Y-31.545
X-20.636 Y-31.612
X-20.755 Y-31.71
G2 X-20.817 Y-31.753 R0.5
G1 X-20.888 Y-31.795
G2 X-21.031 Y-31.852 R0.5
G1 X-21.111 Y-31.871
G2 X-21.255 Y-31.883 R0.5
G1 X-21.327 Y-31.878
G2 X-21.457 Y-31.852 R0.5
G1 X-21.525 Y-31.829
G2 X-21.644 Y-31.769 R0.5
X-21.903 Y-31.591 R38.441
X-22.001 Y-31.502 R0.5
G1 X-22.047 Y-31.447
G2 X-22.118 Y-31.334 R0.5
G1 X-22.148 Y-31.269
G2 X-22.189 Y-31.13 R0.5
G1 X-22.2 Y-31.049
G2 X-22.198 Y-30.895 R0.5
G1 X-22.184 Y-30.814
G2 X-22.166 Y-30.74 R0.5
G1 X-22.117 Y-30.594
X-22.087 Y-30.486
X-22.126 Y-30.458
X-22.131 Y-30.455
X-22.169 Y-30.426
X-22.262 Y-30.489
X-22.386 Y-30.58
G2 X-22.451 Y-30.62 R0.5
G1 X-22.523 Y-30.659
G2 X-22.669 Y-30.708 R0.5
G1 X-22.75 Y-30.722
G2 X-22.894 Y-30.727 R0.5
G1 X-22.965 Y-30.718
G2 X-23.096 Y-30.685 R0.5
G1 X-23.162 Y-30.658
G2 X-23.277 Y-30.593 R0.5
X-23.526 Y-30.401 R38.441
X-23.619 Y-30.308 R0.5
G1 X-23.662 Y-30.251
G2 X-23.728 Y-30.133 R0.5
G1 X-23.754 Y-30.066
G2 X-23.787 Y-29.927 R0.5
G1 X-23.795 Y-29.845
G2 X-23.784 Y-29.691 R0.5
G1 X-23.766 Y-29.61
G2 X-23.744 Y-29.538 R0.5
G1 X-23.688 Y-29.395
X-23.652 Y-29.288
X-23.69 Y-29.258
X-23.694 Y-29.255
X-23.731 Y-29.224
X-23.827 Y-29.282
X-23.956 Y-29.367
G2 X-24.022 Y-29.403 R0.5
G1 X-24.097 Y-29.438
G2 X-24.246 Y-29.48 R0.5
G1 X-24.327 Y-29.49
G2 X-24.471 Y-29.486 R0.5
G1 X-24.542 Y-29.474
G2 X-24.669 Y-29.434 R0.5
G1 X-24.734 Y-29.404
G2 X-24.846 Y-29.333 R0.5
X-25.085 Y-29.128 R38.441
X-25.173 Y-29.03 R0.5
G1 X-25.213 Y-28.97
G2 X-25.272 Y-28.85 R0.5
G1 X-25.295 Y-28.782
G2 X-25.321 Y-28.641 R0.5
G1 X-25.324 Y-28.559
G2 X-25.306 Y-28.405 R0.5
G1 X-25.284 Y-28.326
G2 X-25.258 Y-28.255 R0.5
G1 X-25.194 Y-28.115
X-25.152 Y-28.01
X-25.188 Y-27.978
X-25.193 Y-27.974
X-25.228 Y-27.942
X-25.327 Y-27.995
X-25.46 Y-28.073
G2 X-25.528 Y-28.106 R0.5
G1 X-25.604 Y-28.136
G2 X-25.755 Y-28.17 R0.5
G1 X-25.837 Y-28.176
G2 X-25.981 Y-28.165 R0.5
G1 X-26.051 Y-28.149
G2 X-26.176 Y-28.103 R0.5
G1 X-26.239 Y-28.069
G2 X-26.347 Y-27.992 R0.5
X-26.575 Y-27.776 R38.441
X-26.658 Y-27.672 R0.5
G1 X-26.694 Y-27.611
G2 X-26.747 Y-27.488 R0.5
G1 X-26.767 Y-27.419
G2 X-26.785 Y-27.277 R0.5
G1 X-26.784 Y-27.194
G2 X-26.758 Y-27.042 R0.5
G1 X-26.731 Y-26.964
G2 X-26.702 Y-26.895 R0.5
G1 X-26.631 Y-26.758
X-26.584 Y-26.656
X-26.618 Y-26.622
X-26.622 Y-26.618
X-26.656 Y-26.584
X-26.758 Y-26.631
X-26.895 Y-26.702
G2 X-26.964 Y-26.731 R0.5
G1 X-27.042 Y-26.758
G2 X-27.194 Y-26.784 R0.5
G1 X-27.277 Y-26.785
G2 X-27.419 Y-26.767 R0.5
G1 X-27.488 Y-26.747
G2 X-27.611 Y-26.694 R0.5
G1 X-27.672 Y-26.658
G2 X-27.776 Y-26.575 R0.5
X-27.992 Y-26.347 R38.441
X-28.069 Y-26.239 R0.5
G1 X-28.103 Y-26.176
G2 X-28.149 Y-26.051 R0.5
G1 X-28.165 Y-25.981
G2 X-28.176 Y-25.837 R0.5
G1 X-28.17 Y-25.755
G2 X-28.136 Y-25.604 R0.5
G1 X-28.106 Y-25.528
G2 X-28.073 Y-25.46 R0.5
G1 X-27.995 Y-25.327
X-27.942 Y-25.228
X-27.975 Y-25.192
X-27.979 Y-25.188
X-28.01 Y-25.152
X-28.115 Y-25.194
X-28.255 Y-25.258
G2 X-28.326 Y-25.284 R0.5
G1 X-28.405 Y-25.306
G2 X-28.559 Y-25.324 R0.5
G1 X-28.641 Y-25.321
G2 X-28.782 Y-25.295 R0.5
G1 X-28.85 Y-25.272
G2 X-28.97 Y-25.213 R0.5
G1 X-29.03 Y-25.173
G2 X-29.128 Y-25.085 R0.5
X-29.333 Y-24.846 R38.441
X-29.404 Y-24.734 R0.5
G1 X-29.434 Y-24.669
G2 X-29.474 Y-24.542 R0.5
G1 X-29.486 Y-24.471
G2 X-29.49 Y-24.327 R0.5
G1 X-29.48 Y-24.246
G2 X-29.438 Y-24.097 R0.5
G1 X-29.403 Y-24.022
G2 X-29.367 Y-23.956 R0.5
G1 X-29.282 Y-23.827
X-29.224 Y-23.731
X-29.255 Y-23.694
X-29.259 Y-23.689
X-29.288 Y-23.652
X-29.395 Y-23.688
X-29.538 Y-23.744
G2 X-29.61 Y-23.766 R0.5
G1 X-29.691 Y-23.784
G2 X-29.845 Y-23.795 R0.5
G1 X-29.927 Y-23.787
G2 X-30.066 Y-23.754 R0.5
G1 X-30.133 Y-23.728
G2 X-30.251 Y-23.662 R0.5
G1 X-30.308 Y-23.619
G2 X-30.401 Y-23.526 R0.5
X-30.593 Y-23.277 R38.441
X-30.658 Y-23.162 R0.5
G1 X-30.685 Y-23.096
G2 X-30.718 Y-22.965 R0.5
G1 X-30.727 Y-22.894
G2 X-30.722 Y-22.75 R0.5
G1 X-30.708 Y-22.669
G2 X-30.659 Y-22.523 R0.5
G1 X-30.62 Y-22.451
G2 X-30.58 Y-22.386 R0.5
G1 X-30.489 Y-22.262
X-30.426 Y-22.169
X-30.455 Y-22.13
X-30.459 Y-22.125
X-30.486 Y-22.087
X-30.594 Y-22.117
X-30.74 Y-22.166
G2 X-30.814 Y-22.184 R0.5
G1 X-30.895 Y-22.198
G2 X-31.049 Y-22.2 R0.5
G1 X-31.13 Y-22.189
G2 X-31.269 Y-22.148 R0.5
G1 X-31.334 Y-22.118
G2 X-31.447 Y-22.047 R0.5
G1 X-31.502 Y-22.001
G2 X-31.591 Y-21.903 R0.5
X-31.769 Y-21.644 R38.441
X-31.829 Y-21.525 R0.5
G1 X-31.852 Y-21.457
G2 X-31.878 Y-21.327 R0.5
G1 X-31.883 Y-21.255
G2 X-31.871 Y-21.111 R0.5
G1 X-31.852 Y-21.031
G2 X-31.795 Y-20.888 R0.5
G1 X-31.753 Y-20.817
G2 X-31.71 Y-20.755 R0.5
G1 X-31.612 Y-20.636
X-31.545 Y-20.546
X-31.571 Y-20.506
X-31.575 Y-20.501
X-31.6 Y-20.461
X-31.71 Y-20.486
X-31.858 Y-20.527
G2 X-31.932 Y-20.541 R0.5
G1 X-32.014 Y-20.551
G2 X-32.168 Y-20.545 R0.5
G1 X-32.249 Y-20.529
G2 X-32.385 Y-20.481 R0.5
G1 X-32.449 Y-20.448
G2 X-32.558 Y-20.371 R0.5
G1 X-32.61 Y-20.322
G2 X-32.694 Y-20.219 R0.5
X-32.858 Y-19.951 R38.441
X-32.911 Y-19.83 R0.5
G1 X-32.931 Y-19.762
G2 X-32.951 Y-19.629 R0.5
G1 Y-19.557
G2 X-32.932 Y-19.414 R0.5
G1 X-32.91 Y-19.335
G2 X-32.845 Y-19.195 R0.5
G1 X-32.799 Y-19.127
G2 X-32.753 Y-19.067 R0.5
G1 X-32.649 Y-18.953
X-32.577 Y-18.867
X-32.601 Y-18.826
X-32.604 Y-18.82
X-32.628 Y-18.779
X-32.738 Y-18.798
X-32.889 Y-18.831
G2 X-32.964 Y-18.842 R0.5
G1 X-33.046 Y-18.847
G2 X-33.199 Y-18.833 R0.5
G1 X-33.279 Y-18.813
G2 X-33.413 Y-18.758 R0.5
G1 X-33.474 Y-18.722
G2 X-33.58 Y-18.638 R0.5
G1 X-33.629 Y-18.587
G2 X-33.707 Y-18.48 R0.5
X-33.857 Y-18.204 R38.441
X-33.904 Y-18.08 R0.5
G1 X-33.92 Y-18.01
G2 X-33.933 Y-17.878 R0.5
G1 X-33.93 Y-17.806
G2 X-33.903 Y-17.664 R0.5
G1 X-33.876 Y-17.586
G2 X-33.804 Y-17.45 R0.5
G1 X-33.755 Y-17.384
G2 X-33.706 Y-17.327 R0.5
G1 X-33.596 Y-17.218
X-33.52 Y-17.136
X-33.542 Y-17.094
X-33.545 Y-17.088
X-33.566 Y-17.046
X-33.677 Y-17.059
X-33.83 Y-17.084
G2 X-33.905 Y-17.091 R0.5
G1 X-33.987 Y-17.092
G2 X-34.139 Y-17.07 R0.5
G1 X-34.218 Y-17.046
G2 X-34.349 Y-16.984 R0.5
G1 X-34.408 Y-16.944
G2 X-34.509 Y-16.856 R0.5
G1 X-34.556 Y-16.802
G2 X-34.628 Y-16.691 R0.5
X-34.764 Y-16.407 R38.441
X-34.804 Y-16.281 R0.5
G1 X-34.816 Y-16.211
G2 X-34.822 Y-16.077 R0.5
G1 X-34.815 Y-16.006
G2 X-34.781 Y-15.866 R0.5
G1 X-34.751 Y-15.79
