(_WEAR)
(T1  D=3.175 CR=0. - ZMIN=-10. - FLAT END MILL)
G90 G94 G91.1 G40 G49 G17
G21

(2D POCKET1)
M5
M9
T1
S10000 M3
G54
M8
G0 X1.489 Y1.483
G43 Z10. H1
Z5.
G1 Z3. F400.
Z2.813
G3 X1.456 Y1.477 Z2.67 R1.508
X1.364 Y1.455 Z2.558 R1.508
X1.236 Y1.413 Z2.5 R1.508
X2.289 Y-1.413 Z1.665 R1.508
X1.236 Y1.413 Z0.829 R1.508
X2.289 Y-1.413 Z-0.006 R1.508
X1.236 Y1.413 Z-0.842 R1.508
X2.289 Y-1.413 Z-1.677 R1.508
X3.271 Y0. Z-2. R1.508
X1.711 R0.78
X3.305 R0.797
X-1.305 R2.305
X3.305 R2.305
X2.944 Y0.119 R0.2
G1 X2.03 Y-1.117
G3 X2.256 Y-1.425 R0.2
X1.27 Y1.425 Z-2.835 R1.508
X2.256 Y-1.425 Z-3.671 R1.508
X3.271 Y0. Z-4. R1.508
X1.711 R0.78
X3.305 R0.797
X-1.305 R2.305
X3.305 R2.305
X2.944 Y0.119 R0.2
G1 X2.03 Y-1.117
G3 X2.256 Y-1.425 R0.2
X1.27 Y1.425 Z-4.835 R1.508
X2.256 Y-1.425 Z-5.671 R1.508
X3.271 Y0. Z-6. R1.508
X1.711 R0.78
X3.305 R0.797
X-1.305 R2.305
X3.305 R2.305
X2.944 Y0.119 R0.2
G1 X2.03 Y-1.117
G3 X2.256 Y-1.425 R0.2
X1.27 Y1.425 Z-6.835 R1.508
X2.256 Y-1.425 Z-7.671 R1.508
X3.271 Y0. Z-8. R1.508
X1.711 R0.78
X3.305 R0.797
X-1.305 R2.305
X3.305 R2.305
X2.944 Y0.119 R0.2
G1 X2.03 Y-1.117
G3 X2.256 Y-1.425 R0.2
X1.27 Y1.425 Z-8.835 R1.508
X2.256 Y-1.425 Z-9.671 R1.508
X3.271 Y0. Z-10. R1.508
X1.711 R0.78
X3.305 R0.797
X-1.305 R2.305
X3.305 R2.305
X3.096 Y0.15 R0.159
G1 X2.625 Y-0.008
G3 X2.675 Y-0.317 R0.159
G1 G41 X2.993 Y-0.42 P1.587
G3 X3.412 Y0. R0.42
X-1.412 R2.412 F200.
X3.412 R2.412
X-1.412 R2.412
X3.412 R2.412
X2.993 Y0.42 R0.42 F400.
G1 G40 X2.675 Y0.317
G18 G3 X2.358 Z-9.683 R0.317
G0 Z10.
G17

M9
M30
