()
(T1  D=3.175 CR=0. - ZMIN=-10. - FLAT END MILL)
G90 G94 G91.1 G40 G49 G17
G21

(2D POCKET1)
M5
M9
T1
S10000 M3
G54
M8
G0 X1.284 Y1.413
G43 Z10. H1
Z5.
G1 Z2.5 F400.
G3 X2.337 Y-1.413 Z1.665 R1.508
X1.284 Y1.413 Z0.829 R1.508
X2.337 Y-1.413 Z-0.006 R1.508
X1.284 Y1.413 Z-0.842 R1.508
X2.337 Y-1.413 Z-1.677 R1.508
X3.319 Y0. Z-2. R1.508
X1.654 R0.833
X3.362 R0.854
X-1.362 R2.362
X3.362 R2.362
X3.002 Y0.12 R0.2
G1 X2.078 Y-1.117
G3 X2.304 Y-1.425 R0.2
X1.318 Y1.425 Z-2.835 R1.508
X2.304 Y-1.425 Z-3.671 R1.508
X3.319 Y0. Z-4. R1.508
X1.654 R0.833
X3.362 R0.854
X-1.362 R2.362
X3.362 R2.362
X3.002 Y0.12 R0.2
G1 X2.078 Y-1.117
G3 X2.304 Y-1.425 R0.2
X1.318 Y1.425 Z-4.835 R1.508
X2.304 Y-1.425 Z-5.671 R1.508
X3.319 Y0. Z-6. R1.508
X1.654 R0.833
X3.362 R0.854
X-1.362 R2.362
X3.362 R2.362
X3.002 Y0.12 R0.2
G1 X2.078 Y-1.117
G3 X2.304 Y-1.425 R0.2
X1.318 Y1.425 Z-6.835 R1.508
X2.304 Y-1.425 Z-7.671 R1.508
X3.319 Y0. Z-8. R1.508
X1.654 R0.833
X3.362 R0.854
X-1.362 R2.362
X3.362 R2.362
X2.994 Y0.108 R0.2
G1 X2.205 Y-1.129
G3 X2.439 Y-1.425 R0.2
X1.453 Y1.425 Z-8.835 R1.508
X2.439 Y-1.425 Z-9.671 R1.508
X3.454 Y0. Z-10. R1.508
X1.654 R0.9
X3.362 R0.854 F200.
X-1.362 R2.362
X3.473 R2.418
X-1.473 R2.473
X3.473 R2.473
X-1.473 R2.473
X3.473 R2.473
G1 X2.869 Z-9.94 F400.
G0 Z10.

(2D CONTOUR1)
M8
G0 X-7.902 Y7.011
Z10.
Z5.
G1 Z3. F400.
Z2.5
G2 X10.564 Y0. Z-2. R10.564
X-10.564 R10.564
X10.564 R10.564
X8.795 Y-2.367 R2.469
G3 X6.43 Y-4.14 R4.243
G2 X-6.43 Y4.14 R7.648
X6.43 Y-4.14 R7.648
G1 Z0.5
X7.902 Y-7.011
G2 X-10.564 Y0. Z-4. R10.564
X10.564 R10.564
X-10.564 R10.564
X-8.795 Y2.367 R2.469
G3 X-6.43 Y4.14 R4.243
G2 X6.43 Y-4.14 R7.648
X-6.43 Y4.14 R7.648
G0 Z5.
X7.902 Y-7.011
G1 Z-1. F400.
Z-1.5
G2 X-10.564 Y0. Z-6. R10.564
X10.564 R10.564
X-10.564 R10.564
X-8.795 Y2.367 R2.469
G3 X-6.43 Y4.14 R4.243
G2 X6.43 Y-4.14 R7.648
X-6.43 Y4.14 R7.648
G0 Z5.
X7.902 Y-7.011
G1 Z-3. F400.
Z-3.5
G2 X-10.564 Y0. Z-8. R10.564
X10.564 R10.564
X-10.564 R10.564
X-8.795 Y2.367 R2.469
G3 X-6.43 Y4.14 R4.243
G2 X6.43 Y-4.14 R7.648
X-6.43 Y4.14 R7.648
X-6.33 Y4.183 R0.098
G3 X-6.23 Y4.225 R0.099
G2 X6.23 Y-4.225 R7.528 F200.
X-6.23 Y4.225 R7.528
X6.23 Y-4.225 R7.528
X-6.23 Y4.225 R7.528
G0 Z10.

(2D CONTOUR2)
M8
G0 X-8.464 Y1.451
Z10.
Z-3.
G1 Z-5. F400.
Z-5.5
G2 X8.587 Y0. Z-10. R8.587
X-8.587 R8.587
X8.587 R8.587
G0 Z10.

M9
M30
