()
(T1  D=3.175 CR=0. - ZMIN=-10. - FLAT END MILL)
G90 G94 G91.1 G40 G49 G17
G21

(2D POCKET1)
M5
M9
T1
S10000 M3
G54
M8
G0 X1.49 Y1.483
G43 Z10. H1
Z5.
G1 Z3. F400.
Z2.813
G3 X1.457 Y1.477 Z2.67 R1.508
X1.365 Y1.455 Z2.558 R1.508
X1.237 Y1.413 Z2.5 R1.508
X2.29 Y-1.413 Z1.665 R1.508
X1.237 Y1.413 Z0.829 R1.508
X2.29 Y-1.413 Z-0.006 R1.508
X1.237 Y1.413 Z-0.842 R1.508
X2.29 Y-1.413 Z-1.677 R1.508
X3.272 Y0. Z-2. R1.508
X1.714 R0.779
X3.303 R0.794
X-1.303 R2.303
X3.303 R2.303
X2.942 Y0.119 R0.2
G1 X2.03 Y-1.118
G3 X2.257 Y-1.425 R0.2
X1.271 Y1.425 Z-2.835 R1.508
X2.257 Y-1.425 Z-3.671 R1.508
X3.272 Y0. Z-4. R1.508
X1.714 R0.779
X3.303 R0.794
X-1.303 R2.303
X3.303 R2.303
X2.942 Y0.119 R0.2
G1 X2.03 Y-1.118
G3 X2.257 Y-1.425 R0.2
X1.271 Y1.425 Z-4.835 R1.508
X2.257 Y-1.425 Z-5.671 R1.508
X3.272 Y0. Z-6. R1.508
X1.714 R0.779
X3.303 R0.794
X-1.303 R2.303
X3.303 R2.303
X2.942 Y0.119 R0.2
G1 X2.03 Y-1.118
G3 X2.257 Y-1.425 R0.2
X1.271 Y1.425 Z-6.835 R1.508
X2.257 Y-1.425 Z-7.671 R1.508
X3.272 Y0. Z-8. R1.508
X1.714 R0.779
X3.303 R0.794
X-1.303 R2.303
X3.303 R2.303
X2.942 Y0.119 R0.2
G1 X2.03 Y-1.118
G3 X2.257 Y-1.425 R0.2
X1.271 Y1.425 Z-8.835 R1.508
X2.257 Y-1.425 Z-9.671 R1.508
X3.272 Y0. Z-10. R1.508
X1.714 R0.779
X3.303 R0.794
X-1.303 R2.303
X3.303 R2.303
X3.132 Y0.158 R0.159
G1 X0.983 Y0.
G3 X0.995 Y-0.317 R0.159
G1 G41 X2.995 Y-2.005 P1.587
G3 X5. Y0. R2.005
X-3. R4. F200.
X5. R4.
X-3. R4.
X5. R4.
X2.995 Y2.005 R2.005 F400.
G1 G40 X0.995 Y0.317
G18 G3 X0.678 Z-9.683 R0.317
G0 Z10.
G17

(2D CONTOUR1)
M8
G0 X11.576 Y0.317
Z10.
Z5.
G1 Z3. F400.
Z2.817
G18 G3 X11.259 Z2.5 R0.318
G1 X10.941
G17 G3 X10.624 Y0. R0.318
G2 X-7.85 Y-7.158 Z-2. R10.624
X7.85 Y7.158 R10.624
X-7.85 Y-7.158 R10.624
X-8.139 Y-4.22 R2.468
G3 X-7.594 Y-1.318 R4.219
G2 X7.594 Y1.318 R7.707
X-7.594 Y-1.318 R7.707
G3 X-7.961 Y-1.059 R0.317
G1 X-8.274 Y-1.113
X-8.344 Y-1.126 Z-1.992
X-8.41 Y-1.137 Z-1.969
X-8.469 Y-1.147 Z-1.931
X-8.519 Y-1.156 Z-1.88
X-8.556 Y-1.162 Z-1.82
X-8.579 Y-1.166 Z-1.753
X-8.587 Y-1.168 Z-1.683
Z0.817
X-11.576 Y-0.317
G18 G2 X-11.259 Z0.5 R0.317
G1 X-10.941
G17 G3 X-10.624 Y0. R0.318
G2 X7.85 Y7.158 Z-4. R10.624
X-7.85 Y-7.158 R10.624
X7.85 Y7.158 R10.624
X8.139 Y4.22 R2.468
G3 X7.594 Y1.318 R4.219
G2 X-7.594 Y-1.318 R7.707
X7.594 Y1.318 R7.707
G3 X7.961 Y1.059 R0.317
G1 X8.274 Y1.113
X8.344 Y1.126 Z-3.992
X8.41 Y1.137 Z-3.969
X8.469 Y1.147 Z-3.931
X8.519 Y1.156 Z-3.88
X8.556 Y1.162 Z-3.82
X8.579 Y1.166 Z-3.753
X8.587 Y1.168 Z-3.683
Z-1.183
X11.576 Y0.317
G18 G3 X11.259 Z-1.5 R0.317
G1 X10.941
G17 G3 X10.624 Y0. R0.318
G2 X-7.85 Y-7.158 Z-6. R10.624
X7.85 Y7.158 R10.624
X-7.85 Y-7.158 R10.624
X-8.139 Y-4.22 R2.468
G3 X-7.594 Y-1.318 R4.219
G2 X7.594 Y1.318 R7.707
X-7.594 Y-1.318 R7.707
G3 X-7.961 Y-1.059 R0.317
G1 X-8.274 Y-1.113
X-8.344 Y-1.126 Z-5.992
X-8.41 Y-1.137 Z-5.969
X-8.469 Y-1.147 Z-5.931
X-8.519 Y-1.156 Z-5.88
X-8.556 Y-1.162 Z-5.82
X-8.579 Y-1.166 Z-5.753
X-8.587 Y-1.168 Z-5.683
Z-3.183
X-11.576 Y-0.317
G18 G2 X-11.259 Z-3.5 R0.318
G1 X-10.941
G17 G3 X-10.624 Y0. R0.318
G2 X7.85 Y7.158 Z-8. R10.624
X-7.85 Y-7.158 R10.624
X7.85 Y7.158 R10.624
X8.139 Y4.22 R2.468
G3 X7.594 Y1.318 R4.219
G2 X-7.594 Y-1.318 R7.707
X7.594 Y1.318 R7.707
G3 X7.826 Y1.205 R0.159
G1 X8.267 Y1.443
G3 X8.164 Y1.739 R0.159
G1 G41 X7.56 Y3.366 P1.587
G3 X5.912 Y1.026 R2.024
G2 X-5.912 Y-1.026 R6. F200.
X5.912 Y1.026 R6.
G3 X8.252 Y-0.622 R2.024 F400.
G1 G40 X8.273 Y1.113
X8.342 Y1.125 Z-7.992
X8.408 Y1.137 Z-7.969
X8.468 Y1.147 Z-7.931
X8.517 Y1.156 Z-7.88
X8.555 Y1.162 Z-7.82
X8.578 Y1.166 Z-7.753
X8.586 Y1.168 Z-7.683
G0 Z10.

(2D CONTOUR2)
M8
G0 X-8.464 Y1.451
Z10.
Z-3.
G1 Z-5. F400.
Z-5.5
G2 X8.587 Y0. Z-10. R8.587
X-8.587 R8.587
X8.587 R8.587
G0 Z10.

M9
M30
