(_-0.5)
(T1  D=3.175 CR=0. - ZMIN=-10. - FLAT END MILL)
G90 G94 G91.1 G40 G49 G17
G21

(2D POCKET1)
M5
M9
T1
S10000 M3
G54
M8
G0 X1.49 Y1.483
G43 Z10. H1
Z5.
G1 Z3. F400.
Z2.813
G3 X1.457 Y1.477 Z2.67 R1.508
X1.365 Y1.455 Z2.558 R1.508
X1.237 Y1.413 Z2.5 R1.508
X2.29 Y-1.413 Z1.665 R1.508
X1.237 Y1.413 Z0.829 R1.508
X2.29 Y-1.413 Z-0.006 R1.508
X1.237 Y1.413 Z-0.842 R1.508
X2.29 Y-1.413 Z-1.677 R1.508
X3.272 Y0. Z-2. R1.508
X1.714 R0.779
X3.303 R0.794
X-1.303 R2.303
X3.303 R2.303
X2.942 Y0.119 R0.2
G1 X2.03 Y-1.118
G3 X2.257 Y-1.425 R0.2
X1.271 Y1.425 Z-2.835 R1.508
X2.257 Y-1.425 Z-3.671 R1.508
X3.272 Y0. Z-4. R1.508
X1.714 R0.779
X3.303 R0.794
X-1.303 R2.303
X3.303 R2.303
X2.942 Y0.119 R0.2
G1 X2.03 Y-1.118
G3 X2.257 Y-1.425 R0.2
X1.271 Y1.425 Z-4.835 R1.508
X2.257 Y-1.425 Z-5.671 R1.508
X3.272 Y0. Z-6. R1.508
X1.714 R0.779
X3.303 R0.794
X-1.303 R2.303
X3.303 R2.303
X2.942 Y0.119 R0.2
G1 X2.03 Y-1.118
G3 X2.257 Y-1.425 R0.2
X1.271 Y1.425 Z-6.835 R1.508
X2.257 Y-1.425 Z-7.671 R1.508
X3.272 Y0. Z-8. R1.508
X1.714 R0.779
X3.303 R0.794
X-1.303 R2.303
X3.303 R2.303
X2.942 Y0.119 R0.2
G1 X2.03 Y-1.118
G3 X2.257 Y-1.425 R0.2
X1.271 Y1.425 Z-8.835 R1.508
X2.257 Y-1.425 Z-9.671 R1.508
X3.272 Y0. Z-10. R1.508
X1.714 R0.779
X3.303 R0.794
X-1.303 R2.303
X3.303 R2.303
X3.132 Y0.158 R0.159
G1 X0.983 Y0.
G3 X0.995 Y-0.317 R0.159
G1 G41 X2.995 Y-2.005 P1.587
G3 X5. Y0. R2.005
X-3. R4. F200.
X5. R4.
X2.995 Y2.005 R2.005 F400.
G1 G40 X0.995 Y0.317
G18 G3 X0.678 Z-9.683 R0.317
G0 Z10.
G17

M9
M30
