(_-0.5)
(T1  D=3.175 CR=0. - ZMIN=-10. - FLAT END MILL)
G90 G94 G91.1 G40 G49 G17
G21

(2D POCKET1)
M5
M9
T1
S10000 M3
G54
M8
G0 X-0.055 Y1.483
G43 Z10. H1
Z5.
G1 Z3. F400.
Z2.813
G3 X-0.088 Y1.477 Z2.67 R1.508
X-0.179 Y1.455 Z2.558 R1.508
X-0.307 Y1.413 Z2.5 R1.508
X0.745 Y-1.413 Z1.665 R1.508
X-0.307 Y1.413 Z0.829 R1.508
X0.745 Y-1.413 Z-0.006 R1.508
X-0.307 Y1.413 Z-0.842 R1.508
X0.745 Y-1.413 Z-1.677 R1.508
X1.727 Y0. Z-2. R1.508
X0.273 R0.727
X1.727 R0.727
G2 X2.232 Y0.951 R1.149
G3 X2.199 Y2.027 R0.637
X-0.665 Y1.665 R2.355
X2.665 Y-1.665 R2.355
X2.413 Y1.884 R2.355
X2.199 Y2.027 R2.355
X1.916 Y1.94 R0.2
G1 X0.466 Y-1.151
G3 X0.712 Y-1.425 R0.2
X-0.274 Y1.425 Z-2.835 R1.508
X0.712 Y-1.425 Z-3.671 R1.508
X1.727 Y0. Z-4. R1.508
X0.273 R0.727
X1.727 R0.727
G2 X2.232 Y0.951 R1.149
G3 X2.199 Y2.027 R0.637
X-0.665 Y1.665 R2.355
X2.665 Y-1.665 R2.355
X2.413 Y1.884 R2.355
X2.199 Y2.027 R2.355
X1.916 Y1.94 R0.2
G1 X0.466 Y-1.151
G3 X0.712 Y-1.425 R0.2
X-0.274 Y1.425 Z-4.835 R1.508
X0.712 Y-1.425 Z-5.671 R1.508
X1.727 Y0. Z-6. R1.508
X0.273 R0.727
X1.727 R0.727
G2 X2.232 Y0.951 R1.149
G3 X2.199 Y2.027 R0.637
X-0.665 Y1.665 R2.355
X2.665 Y-1.665 R2.355
X2.413 Y1.884 R2.355
X2.199 Y2.027 R2.355
X1.916 Y1.94 R0.2
G1 X0.466 Y-1.151
G3 X0.712 Y-1.425 R0.2
X-0.274 Y1.425 Z-6.835 R1.508
X0.712 Y-1.425 Z-7.671 R1.508
X1.727 Y0. Z-8. R1.508
X0.273 R0.727
X1.727 R0.727
G2 X2.232 Y0.951 R1.149
G3 X2.199 Y2.027 R0.637
X-0.665 Y1.665 R2.355
X2.665 Y-1.665 R2.355
X2.413 Y1.884 R2.355
X2.199 Y2.027 R2.355
X1.916 Y1.94 R0.2
G1 X0.466 Y-1.151
G3 X0.712 Y-1.425 R0.2
X-0.274 Y1.425 Z-8.835 R1.508
X0.712 Y-1.425 Z-9.671 R1.508
X1.727 Y0. Z-10. R1.508
X0.273 R0.727
X1.727 R0.727
G2 X2.232 Y0.951 R1.149
G3 X2.199 Y2.027 R0.637
X-0.665 Y1.665 R2.355
X2.665 Y-1.665 R2.355
X2.413 Y1.884 R2.355
X2.199 Y2.027 R2.355
X1.976 Y1.961 R0.159
G1 X1.016 Y0.027
G3 X1.295 Y-0.125 R0.159
G1 G41 X3.767 Y0.737 P1.587
G3 X3.061 Y3.486 R2.007
X-1.864 Y2.864 R4.05 F200.
X3.864 Y-2.864 R4.05
X3.43 Y3.24 R4.05
X-1.864 Y2.864 R4.05
X3.864 Y-2.864 R4.05
X3.43 Y3.24 R4.05
X3.061 Y3.486 R4.05
X0.312 Y2.78 R2.007 F400.
G1 G40 X0.749 Y0.198
X0.713 Y0.138 Z-9.992
X0.678 Y0.08 Z-9.969
X0.648 Y0.028 Z-9.931
X0.622 Y-0.015 Z-9.88
X0.603 Y-0.048 Z-9.82
X0.591 Y-0.068 Z-9.753
X0.587 Y-0.075 Z-9.683
G0 Z10.

M9
M30
