()
(T1  D=3.175 CR=0. - ZMIN=-10. - FLAT END MILL)
G90 G94 G91.1 G40 G49 G17
G21

(2D POCKET1)
M5
M9
T1
S10000 M3
G54
M8
G0 X1.236 Y1.413
G43 Z10. H1
Z5.
G1 Z2.5 F400.
G3 X2.289 Y-1.413 Z1.665 R1.508
X1.236 Y1.413 Z0.829 R1.508
X2.289 Y-1.413 Z-0.006 R1.508
X1.236 Y1.413 Z-0.842 R1.508
X2.289 Y-1.413 Z-1.677 R1.508
X3.271 Y0. Z-2. R1.508
X1.711 R0.78
X3.305 R0.797
X-1.305 R2.305
X3.305 R2.305
X2.944 Y0.119 R0.2
G1 X2.03 Y-1.117
G3 X2.256 Y-1.425 R0.2
X1.27 Y1.425 Z-2.835 R1.508
X2.256 Y-1.425 Z-3.671 R1.508
X3.271 Y0. Z-4. R1.508
X1.711 R0.78
X3.305 R0.797
X-1.305 R2.305
X3.305 R2.305
X2.944 Y0.119 R0.2
G1 X2.03 Y-1.117
G3 X2.256 Y-1.425 R0.2
X1.27 Y1.425 Z-4.835 R1.508
X2.256 Y-1.425 Z-5.671 R1.508
X3.271 Y0. Z-6. R1.508
X1.711 R0.78
X3.305 R0.797
X-1.305 R2.305
X3.305 R2.305
X2.944 Y0.119 R0.2
G1 X2.03 Y-1.117
G3 X2.256 Y-1.425 R0.2
X1.27 Y1.425 Z-6.835 R1.508
X2.256 Y-1.425 Z-7.671 R1.508
X3.271 Y0. Z-8. R1.508
X1.711 R0.78
X3.305 R0.797
X-1.305 R2.305
X3.305 R2.305
X2.936 Y0.106 R0.2
G1 X2.16 Y-1.13
G3 X2.395 Y-1.425 R0.2
X1.409 Y1.425 Z-8.835 R1.508
X2.395 Y-1.425 Z-9.671 R1.508
X3.41 Y0. Z-10. R1.508
X1.711 R0.849
X3.305 R0.797
X-1.305 R2.305
X3.412 R2.359
X-1.412 R2.412
X3.412 R2.412
G1 X2.809 Z-9.94
G0 Z10.

(2D CONTOUR1)
M8
G0 X7.401 Y1.67
Z10.
Z5.
G1 Z3. F400.
Z2.5
G2 X0.84 Y-7.541 Z0.25 R7.588
X-7.588 Y0. Z-2. R7.588
X7.588 R7.588
X-7.588 R7.588
X-0.575 Y7.566 Z-4. R7.587
X0.575 Y-7.566 R7.587
X-0.575 Y7.566 R7.587
X7.5 Y1.147 Z-6. R7.588
X-7.5 Y-1.147 R7.588
X7.5 Y1.147 R7.588
X1.713 Y-7.392 Z-8. R7.588
X-1.713 Y7.392 R7.588
X1.713 Y-7.392 R7.588
X-1.713 Y7.392 R7.588
X1.713 Y-7.392 R7.588
G0 Z10.

(2D CONTOUR2)
M8
G0 X-8.464 Y1.451
Z10.
Z5.
G1 Z3. F400.
Z2.5
G2 X8.587 Y0. Z-2. R8.587
X-8.587 R8.587
X8.587 R8.587
X2.124 Y-8.321 Z-4. R8.587
X-2.124 Y8.321 R8.587
X2.124 Y-8.321 R8.587
X-7.536 Y-4.117 Z-6. R8.587
X7.536 Y4.117 R8.587
X-7.536 Y-4.117 R8.587
X-5.853 Y6.284 Z-8. R8.587
X5.853 Y-6.284 R8.587
X-5.853 Y6.284 R8.587
X4.641 Y7.226 Z-10. R8.588
X-4.641 Y-7.226 R8.588
X4.641 Y7.226 R8.588
G0 Z10.

M9
M30
