(_OFF)
(T1  D=3.175 CR=0. - ZMIN=-10. - FLAT END MILL)
G90 G94 G91.1 G40 G49 G17
G21

(2D POCKET1)
M5
M9
T1
S10000 M3
G54
M8
G0 X-0.158 Y1.413
G43 Z10. H1
Z5.
G1 Z3. F400.
Z2.5
G3 X0.895 Y-1.413 Z1.665 R1.508
X-0.158 Y1.413 Z0.829 R1.508
X0.895 Y-1.413 Z-0.006 R1.508
X-0.158 Y1.413 Z-0.842 R1.508
X0.895 Y-1.413 Z-1.677 R1.508
X1.876 Y0. Z-2. R1.508
X0.124 R0.876
X4.892 R2.384
X-2.892 R3.892
X4.892 R3.892
X3.384 Y1.508 Z-2.379 R1.508
G1 X0.368 Z-2.862
G3 Y-1.508 Z-3.621 R1.508
X1.876 Y0. Z-4. R1.508
X0.124 R0.876
X4.892 R2.384
X-2.892 R3.892
X4.892 R3.892
X3.384 Y1.508 Z-4.379 R1.508
G1 X0.368 Z-4.862
G3 Y-1.508 Z-5.621 R1.508
X1.876 Y0. Z-6. R1.508
X0.124 R0.876
X4.892 R2.384
X-2.892 R3.892
X4.892 R3.892
X3.384 Y1.508 Z-6.379 R1.508
G1 X0.368 Z-6.862
G3 Y-1.508 Z-7.621 R1.508
X1.876 Y0. Z-8. R1.508
X0.124 R0.876
X4.892 R2.384
X-2.892 R3.892
X4.892 R3.892
X3.384 Y1.508 Z-8.379 R1.508
G1 X0.368 Z-8.862
G3 Y-1.508 Z-9.621 R1.508
X1.876 Y0. Z-10. R1.508
X0.124 R0.876 F200.
X4.892 R2.384
X-2.892 R3.892
X5. R3.946
X-3. R4.
X5. R4.
X-3. R4.
X5. R4.
G0 Z10.

M9
M30
