(_5_9)
(T1  D=3.175 CR=0. - ZMIN=-6. - FLAT END MILL)
G90 G94 G91.1 G40 G49 G17
G21

(2D POCKET1)
M5
M9
T1
S10000 M3
G54
M8
G0 X-0.341 Y0.531
G43 Z10. H1
Z5.
G1 Z2.5 F400.
G3 X0.036 Y-0.938 Z2.08 R0.758
X-0.341 Y0.531 Z1.66 R0.758
X0.036 Y-0.938 Z1.24 R0.758
X-0.341 Y0.531 Z0.82 R0.758
X0.036 Y-0.938 Z0.4 R0.758
X-0.341 Y0.531 Z-0.02 R0.758
X0.036 Y-0.938 Z-0.44 R0.758
X-0.341 Y0.531 Z-0.86 R0.758
X0.036 Y-0.938 Z-1.28 R0.758
X-0.341 Y0.531 Z-1.7 R0.758
X-0.608 Y-0.81 Z-2. R0.758
X0.608 Y0.81 R1.013
X-0.608 Y-0.81 R1.013
X0.608 Y0.81 Z-2.561 R1.012
X-0.608 Y-0.81 Z-3.122 R1.012
X0.608 Y0.81 Z-3.683 R1.012
X-0.918 Y0.428 Z-4. R1.012
X0.918 Y-0.428 R1.012
X-0.918 Y0.428 R1.012
X0.918 Y-0.428 Z-4.561 R1.012
X-0.918 Y0.428 Z-5.122 R1.012
X0.918 Y-0.428 Z-5.683 R1.012
X0.23 Y0.986 Z-6. R1.012
X-0.23 Y-0.986 R1.012
X0.23 Y0.986 R1.012
G1 X0.093 Y0.399 Z-5.94
G0 Z10.

(2D CONTOUR1)
M8
G0 X-5.684 Y-2.444
Z10.
Z5.
G1 Z3. F400.
Z2.5
G2 X5.684 Y2.444 Z1.821 R6.188
X-5.684 Y-2.444 Z1.142 R6.188
X5.684 Y2.444 Z0.464 R6.188
X-5.684 Y-2.444 Z-0.215 R6.188
X5.684 Y2.444 Z-0.894 R6.188
X-5.684 Y-2.444 Z-1.573 R6.188
X0. Y6.188 Z-2. R6.188
Y-6.188 R6.188
Y6.188 R6.188
Y-6.188 Z-2.679 R6.188
X-6.166 Y-0.521 Z-3. R6.188
X6.166 Y0.521 R6.188
X-6.166 Y-0.521 R6.188
G0 Z10.

(2D CONTOUR2)
M8
G0 X-2.973 Y-8.588
Z10.
Z5.
G1 Z3. F400.
Z2.5
G2 X0. Y9.087 Z-2. R9.087
Y-9.087 R9.087
Y9.087 R9.087
X8.619 Y2.881 Z-4. R9.087
X-8.619 Y-2.881 R9.087
X8.619 Y2.881 R9.087
X5.466 Y-7.26 Z-6. R9.088
X-5.466 Y7.26 R9.088
X5.466 Y-7.26 R9.088
G0 Z10.

M9
M30
