(HEATSINK_MILL)
(T2  D=3.175 CR=0. - ZMIN=-5. - FLAT END MILL)
G90 G94 G91.1 G40 G49 G17
G21

(2D ADAPTIVE1)
M5
M9
T2
S10000 M3
G54
M8
G0 X-0.718 Y16.203
G43 Z10. H2
Z5.
Z2.862
G1 Z2.545 F400.
G3 X0.257 Y19.058 Z2.38 R1.508
X-0.718 Y16.203 Z2.214 R1.508
X0.257 Y19.058 Z2.049 R1.508
X-0.718 Y16.203 Z1.883 R1.508
X0.257 Y19.058 Z1.718 R1.508
X-0.718 Y16.203 Z1.552 R1.508
X0.257 Y19.058 Z1.387 R1.508
X-0.718 Y16.203 Z1.221 R1.508
X0.257 Y19.058 Z1.056 R1.508
X-0.718 Y16.203 Z0.89 R1.508
X0.257 Y19.058 Z0.725 R1.508
X-0.718 Y16.203 Z0.56 R1.508
X0.257 Y19.058 Z0.394 R1.508
X-0.718 Y16.203 Z0.229 R1.508
X0.257 Y19.058 Z0.063 R1.508
X-0.718 Y16.203 Z-0.102 R1.508
X0.257 Y19.058 Z-0.268 R1.508
X-0.718 Y16.203 Z-0.433 R1.508
X1.278 Y17.63 Z-0.533 R1.508
X-1.739 R1.508
X1.278 R1.508
G1 X1.282 Y17.783 F762.
X1.411 Y18.328
X1.431 Y18.462
X1.43 Y18.597
X1.411 Y18.73
X1.376 Y18.861
X1.326 Y18.986
X1.264 Y19.106
X1.191 Y19.22
X1.108 Y19.326
X1.017 Y19.425
X0.915 Y19.518
X0.803 Y19.606
X0.68 Y19.686
X0.547 Y19.759
X0.405 Y19.822
X0.256 Y19.875
X0.098 Y19.917
X-0.065 Y19.947
X-0.233 Y19.963
X-0.404 Y19.966
X-0.578 Y19.956
X-0.752 Y19.931
X-0.926 Y19.891
X-1.098 Y19.837
X-1.266 Y19.77
X-1.43 Y19.688
X-1.588 Y19.592
X-1.738 Y19.484
X-1.88 Y19.363
X-2.013 Y19.23
X-2.135 Y19.087
X-2.245 Y18.934
X-2.344 Y18.772
X-2.429 Y18.602
X-2.5 Y18.425
X-2.557 Y18.243
X-2.6 Y18.056
X-2.627 Y17.866
X-2.639 Y17.675
X-2.636 Y17.482
X-2.617 Y17.291
X-2.583 Y17.101
X-2.533 Y16.915
X-2.469 Y16.733
X-2.391 Y16.556
X-2.298 Y16.387
X-2.192 Y16.225
X-2.073 Y16.072
X-1.943 Y15.93
X-1.801 Y15.798
X-1.649 Y15.678
X-1.488 Y15.57
X-1.319 Y15.476
X-1.143 Y15.395
X-0.961 Y15.329
X-0.774 Y15.278
X-0.583 Y15.242
X-0.391 Y15.221
X-0.197 Y15.216
X-0.003 Y15.226
X0.189 Y15.252
X0.378 Y15.294
X0.564 Y15.35
X0.744 Y15.421
X0.918 Y15.506
X1.085 Y15.605
X1.243 Y15.717
X1.392 Y15.842
X1.53 Y15.978
X1.657 Y16.124
X1.772 Y16.281
X1.915 Y16.513
X2.111 Y16.895
X2.238 Y17.204
X2.323 Y17.467
X2.381 Y17.71
X2.416 Y17.94
X2.431 Y18.162
X2.429 Y18.377
X2.41 Y18.588
X2.375 Y18.793
X2.324 Y18.994
X2.256 Y19.19
X2.173 Y19.381
X2.074 Y19.567
X1.959 Y19.745
X1.829 Y19.915
X1.684 Y20.077
X1.525 Y20.227
X1.351 Y20.367
X1.164 Y20.494
X0.965 Y20.607
X0.755 Y20.705
X0.534 Y20.787
X0.304 Y20.852
X0.068 Y20.899
X-0.175 Y20.927
X-0.422 Y20.936
X-0.671 Y20.925
X-0.921 Y20.893
X-1.17 Y20.841
X-1.415 Y20.769
X-1.655 Y20.676
X-1.889 Y20.564
X-2.114 Y20.433
X-2.33 Y20.283
X-2.533 Y20.116
X-2.724 Y19.931
X-2.9 Y19.732
X-3.059 Y19.518
X-3.202 Y19.291
X-3.326 Y19.053
X-3.431 Y18.804
X-3.516 Y18.548
X-3.581 Y18.285
X-3.624 Y18.017
X-3.645 Y17.746
Y17.473
X-3.623 Y17.202
X-3.579 Y16.932
X-3.513 Y16.667
X-3.427 Y16.408
X-3.319 Y16.156
X-3.192 Y15.913
X-3.045 Y15.681
X-2.881 Y15.462
X-2.699 Y15.257
X-2.501 Y15.066
X-2.289 Y14.892
X-2.063 Y14.736
X-1.825 Y14.598
X-1.577 Y14.48
X-1.32 Y14.382
X-1.056 Y14.305
X-0.787 Y14.249
X-0.514 Y14.216
X-0.239 Y14.204
X0.036 Y14.214
X0.309 Y14.246
X0.579 Y14.3
X0.843 Y14.376
X1.101 Y14.473
X1.35 Y14.59
X1.589 Y14.726
X1.816 Y14.881
X2.042 Y15.064
X2.283 Y15.293
X2.51 Y15.547
X2.724 Y15.829
X2.916 Y16.129
X3.081 Y16.438
X3.216 Y16.75
X3.323 Y17.064
X3.402 Y17.377
X3.455 Y17.689
X3.482 Y17.999
X3.484 Y18.306
X3.462 Y18.61
X3.416 Y18.909
X3.346 Y19.201
X3.253 Y19.487
X3.138 Y19.764
X3. Y20.031
X2.841 Y20.288
X2.661 Y20.532
X2.461 Y20.762
X2.242 Y20.976
X2.004 Y21.174
X1.749 Y21.354
X1.478 Y21.514
X1.192 Y21.653
X0.894 Y21.769
X0.585 Y21.862
X0.267 Y21.931
X-0.058 Y21.974
X-0.388 Y21.991
X-0.72 Y21.981
X-1.053 Y21.944
X-1.384 Y21.881
X-1.71 Y21.79
X-2.031 Y21.673
X-2.342 Y21.53
X-2.643 Y21.362
X-2.93 Y21.168
X-3.202 Y20.952
X-3.457 Y20.713
X-3.693 Y20.454
X-3.908 Y20.176
X-4.101 Y19.88
X-4.27 Y19.569
X-4.414 Y19.244
X-4.531 Y18.909
X-4.622 Y18.564
X-4.684 Y18.212
X-4.718 Y17.856
X-4.724 Y17.498
X-4.7 Y17.14
X-4.648 Y16.785
X-4.568 Y16.435
X-4.459 Y16.092
X-4.324 Y15.758
X-4.161 Y15.437
X-3.974 Y15.129
X-3.762 Y14.837
X-3.528 Y14.563
X-3.272 Y14.308
X-2.996 Y14.075
X-2.702 Y13.864
X-2.393 Y13.678
X-2.069 Y13.517
X-1.733 Y13.383
X-1.388 Y13.276
X-1.035 Y13.197
X-0.677 Y13.146
X-0.316 Y13.125
X0.046 Y13.132
X0.406 Y13.169
X0.762 Y13.234
X1.111 Y13.328
X1.452 Y13.449
X1.785 Y13.599
X2.117 Y13.782
X2.443 Y13.997
X2.761 Y14.245
X3.065 Y14.525
X3.35 Y14.833
X3.61 Y15.165
X3.843 Y15.516
X4.046 Y15.883
X4.218 Y16.261
X4.357 Y16.649
X4.464 Y17.044
X4.538 Y17.441
X4.58 Y17.841
X4.589 Y18.239
X4.566 Y18.634
X4.512 Y19.025
X4.428 Y19.408
X4.313 Y19.783
X4.168 Y20.147
X3.994 Y20.499
X3.793 Y20.836
X3.564 Y21.157
X3.309 Y21.459
X3.03 Y21.742
X2.727 Y22.002
X2.403 Y22.239
X2.059 Y22.45
X1.696 Y22.634
X1.318 Y22.789
X0.926 Y22.914
X0.523 Y23.007
X0.112 Y23.069
X-0.306 Y23.097
X-0.726 Y23.092
X-1.148 Y23.052
X-1.567 Y22.979
X-1.98 Y22.872
X-2.386 Y22.731
X-2.781 Y22.557
X-3.162 Y22.352
X-3.527 Y22.115
X-3.874 Y21.849
X-4.198 Y21.555
X-4.499 Y21.235
X-4.775 Y20.89
X-5.022 Y20.524
X-5.24 Y20.138
X-5.426 Y19.735
X-5.58 Y19.318
X-5.7 Y18.888
X-5.786 Y18.45
X-5.836 Y18.005
X-5.85 Y17.558
X-5.828 Y17.11
X-5.77 Y16.665
X-5.677 Y16.225
X-5.548 Y15.794
X-5.386 Y15.374
X-5.19 Y14.969
X-4.961 Y14.58
X-4.703 Y14.211
X-4.415 Y13.863
X-4.1 Y13.54
X-3.76 Y13.243
X-3.398 Y12.973
X-3.015 Y12.734
X-2.613 Y12.527
X-2.197 Y12.352
X-1.767 Y12.211
X-1.327 Y12.105
X-0.881 Y12.034
X-0.43 Y12.
X0.022 Y12.002
X0.473 Y12.04
X0.92 Y12.115
X1.362 Y12.226
X1.798 Y12.373
X2.226 Y12.557
X2.645 Y12.778
X3.052 Y13.038
X3.444 Y13.334
X3.817 Y13.666
X4.165 Y14.029
X4.484 Y14.422
X4.77 Y14.839
X5.023 Y15.277
X5.238 Y15.733
X5.415 Y16.202
X5.554 Y16.682
X5.652 Y17.168
X5.712 Y17.658
X5.731 Y18.149
X5.711 Y18.637
X5.653 Y19.121
X5.556 Y19.597
X5.421 Y20.064
X5.249 Y20.517
X5.042 Y20.956
X4.799 Y21.377
X4.523 Y21.777
X4.215 Y22.156
X3.877 Y22.509
X3.509 Y22.836
X3.116 Y23.133
X2.697 Y23.399
X2.257 Y23.632
X1.797 Y23.829
X1.321 Y23.99
X0.831 Y24.112
X0.33 Y24.195
X-0.178 Y24.238
X-0.69 Y24.24
X-1.203 Y24.201
X-1.714 Y24.12
X-2.218 Y23.998
X-2.713 Y23.835
X-3.195 Y23.633
X-3.661 Y23.391
X-4.108 Y23.112
X-4.532 Y22.797
X-4.93 Y22.448
X-5.301 Y22.067
X-5.64 Y21.657
X-5.946 Y21.219
X-6.217 Y20.757
X-6.45 Y20.275
X-6.644 Y19.774
X-6.797 Y19.258
X-6.909 Y18.731
X-6.978 Y18.196
X-7.004 Y17.656
X-6.987 Y17.116
X-6.926 Y16.578
X-6.822 Y16.046
X-6.676 Y15.524
X-6.488 Y15.015
X-6.259 Y14.522
X-5.992 Y14.049
X-5.688 Y13.599
X-5.348 Y13.174
X-4.975 Y12.778
X-4.571 Y12.413
X-4.14 Y12.082
X-3.683 Y11.786
X-3.203 Y11.528
X-2.704 Y11.309
X-2.19 Y11.13
X-1.662 Y10.994
X-1.125 Y10.9
X-0.583 Y10.85
X-0.037 Y10.843
X0.508 Y10.881
X1.05 Y10.962
X1.588 Y11.087
X2.118 Y11.256
X2.638 Y11.47
X3.146 Y11.728
X3.637 Y12.03
X4.108 Y12.373
X4.554 Y12.757
X4.97 Y13.178
X5.352 Y13.633
X5.698 Y14.118
X6.003 Y14.63
X6.266 Y15.163
X6.485 Y15.715
X6.658 Y16.28
X6.785 Y16.856
X6.865 Y17.438
X6.898 Y18.022
X6.884 Y18.606
X6.824 Y19.185
X6.717 Y19.756
X6.565 Y20.316
X6.368 Y20.862
X6.129 Y21.39
X5.847 Y21.898
X5.526 Y22.382
X5.165 Y22.84
X4.769 Y23.269
X4.337 Y23.665
X3.874 Y24.027
X3.382 Y24.351
X2.863 Y24.636
X2.321 Y24.879
X1.759 Y25.079
X1.181 Y25.234
X0.589 Y25.342
X-0.011 Y25.403
X-0.617 Y25.415
X-1.224 Y25.378
X-1.828 Y25.293
X-2.423 Y25.16
X-3.005 Y24.979
X-3.571 Y24.753
X-4.118 Y24.483
X-4.641 Y24.17
X-5.138 Y23.817
X-5.607 Y23.427
X-6.043 Y23.001
X-6.444 Y22.542
X-6.808 Y22.053
X-7.134 Y21.537
X-7.417 Y20.997
X-7.658 Y20.437
X-7.855 Y19.86
X-8.006 Y19.269
X-8.111 Y18.669
X-8.17 Y18.062
X-8.181 Y17.452
X-8.146 Y16.844
X-8.063 Y16.24
X-7.935 Y15.643
X-7.761 Y15.059
X-7.543 Y14.49
X-7.282 Y13.939
X-6.98 Y13.409
X-6.638 Y12.905
X-6.258 Y12.427
X-5.843 Y11.981
X-5.395 Y11.567
X-4.916 Y11.189
X-4.411 Y10.849
X-3.88 Y10.548
X-3.328 Y10.288
X-2.758 Y10.072
X-2.173 Y9.9
X-1.577 Y9.774
X-0.972 Y9.695
X-0.364 Y9.661
X0.246 Y9.675
X0.853 Y9.735
X1.453 Y9.841
X2.044 Y9.992
X2.622 Y10.187
X3.183 Y10.424
X3.726 Y10.701
X4.248 Y11.018
X4.745 Y11.37
X5.216 Y11.758
X5.657 Y12.179
X6.066 Y12.631
X6.441 Y13.112
X6.782 Y13.617
X7.086 Y14.146
X7.352 Y14.694
X7.579 Y15.26
X7.766 Y15.84
X7.911 Y16.433
X8.012 Y17.034
X8.069 Y17.641
X8.082 Y18.251
X8.051 Y18.859
X7.976 Y19.465
X7.858 Y20.063
X7.698 Y20.651
X7.496 Y21.226
X7.253 Y21.786
X6.97 Y22.326
X6.649 Y22.844
X6.289 Y23.336
X5.895 Y23.802
X5.469 Y24.237
X5.012 Y24.641
X4.528 Y25.012
X4.019 Y25.348
X3.488 Y25.647
X2.937 Y25.908
X2.368 Y26.128
X1.785 Y26.306
X1.683 Y26.329
X1.55 Y26.351
X1.496 Y26.353
X-1.452
X-2.057 Y26.322
X-2.526 Y26.261
X-3.027 Y26.154
X-3.578 Y25.989
X-4.146 Y25.767
X-4.695 Y25.502
X-5.223 Y25.197
X-5.728 Y24.855
X-6.207 Y24.478
X-6.657 Y24.067
X-7.079 Y23.627
X-7.469 Y23.158
X-7.827 Y22.664
X-8.151 Y22.148
X-8.44 Y21.611
X-8.692 Y21.056
X-8.905 Y20.485
X-9.078 Y19.9
X-9.211 Y19.305
X-9.304 Y18.702
X-9.357 Y18.095
X-9.37 Y17.485
X-9.343 Y16.876
X-9.307 Y16.561
X-9.277 Y16.42
X-9.221 Y16.288
X-9.14 Y16.169
X-8.933 Y15.911
X-8.779 Y15.649
X-8.675 Y15.372
X-8.379 Y14.5
X-8.319 Y14.265
X-8.302 Y14.126
X-8.285 Y13.992
X-8.207 Y13.679
X-8.091 Y13.334
X-7.919 Y12.933
X-7.708 Y12.532
X-7.424 Y12.084
X-7.07 Y11.614
X-6.665 Y11.158
X-6.227 Y10.734
X-5.759 Y10.343
X-5.264 Y9.987
X-4.745 Y9.667
X-4.205 Y9.383
X-3.648 Y9.136
X-3.075 Y8.927
X-2.49 Y8.756
X-1.895 Y8.623
X-1.292 Y8.531
X-0.684 Y8.481
X-0.075 Y8.472
X0.534 Y8.504
X1.14 Y8.576
X1.739 Y8.687
X2.33 Y8.836
X2.911 Y9.024
X3.478 Y9.248
X4.028 Y9.51
X4.561 Y9.806
X5.074 Y10.136
X5.565 Y10.498
X6.032 Y10.89
X6.474 Y11.31
X6.888 Y11.757
X7.274 Y12.229
X7.628 Y12.725
X7.769 Y12.951
X7.841 Y13.103
X7.877 Y13.266
X7.874 Y13.434
X7.867 Y13.572
X7.887 Y13.849
X8.087 Y14.957
X8.115 Y15.095
X8.157 Y15.234
X8.246 Y15.439
X8.604 Y16.065
X8.764 Y16.375
X8.88 Y16.65
X8.99 Y16.988
X9.085 Y17.383
X9.155 Y17.83
X9.195 Y18.361
X9.192 Y18.955
X9.14 Y19.562
X9.043 Y20.164
X8.903 Y20.757
X8.722 Y21.34
X8.503 Y21.909
X8.247 Y22.462
X7.956 Y22.998
X7.632 Y23.514
X7.276 Y24.009
X6.889 Y24.481
X6.473 Y24.926
X6.029 Y25.344
X5.559 Y25.733
X5.066 Y26.092
X4.826 Y26.244
X4.704 Y26.304
X4.574 Y26.34
X4.44 Y26.353
X1.496
G3 X1.375 Y26.324 R0.318 F400.
X1.247 Y25.854 R0.318 F762.
G1 X8.075 Y16.052
G3 X8.519 Y15.975 R0.317
X8.604 Y16.065 R0.317 F400.
G1 X8.849 Y16.48 F762.
X8.939 Y16.62
X9.078 Y16.782
X9.216 Y16.917
X9.355 Y17.032
X9.474 Y17.142
X9.568 Y17.242
X9.656 Y17.354
X9.748 Y17.493
X9.847 Y17.671
X9.936 Y17.867
X10.022 Y18.105
X10.101 Y18.393
X10.161 Y18.717
X10.203 Y19.106
X10.214 Y19.565
X10.187 Y20.057
X10.108 Y20.631
X9.977 Y21.226
X9.803 Y21.81
X9.589 Y22.382
X9.341 Y22.938
X9.059 Y23.479
X8.746 Y24.002
X8.403 Y24.506
X8.031 Y24.989
X7.632 Y25.45
X7.207 Y25.887
X6.914 Y26.157
X6.765 Y26.263
X6.594 Y26.33
X6.412 Y26.353
X4.44
G3 X4.319 Y26.324 R0.318 F400.
X4.171 Y25.885 R0.318 F762.
G1 X8.881 Y17.132
G3 X9.244 Y16.977 R0.317
X9.355 Y17.032 R0.317 F400.
G1 X10.186 Y17.713 F762.
X10.271 Y17.766
X10.382 Y17.842
X10.483 Y17.932
X10.578 Y18.035
X10.669 Y18.151
X10.769 Y18.301
X10.862 Y18.469
X10.953 Y18.67
X11.038 Y18.907
X11.111 Y19.174
X11.172 Y19.499
X11.209 Y19.856
X11.219 Y20.276
X11.191 Y20.77
X11.118 Y21.305
X10.987 Y21.901
X10.809 Y22.484
X10.592 Y23.053
X10.34 Y23.609
X10.056 Y24.148
X9.743 Y24.671
X9.402 Y25.177
X9.035 Y25.664
X8.678 Y26.088
X8.518 Y26.231
X8.323 Y26.321
X8.111 Y26.353
X6.412
G3 X6.292 Y26.324 R0.318 F400.
X6.135 Y25.902 R0.317 F762.
G1 X9.827 Y17.91
G3 X10.153 Y17.728 R0.317
X10.271 Y17.766 R0.318 F400.
G1 X10.463 Y17.867 F762.
X10.955 Y18.047
X11.08 Y18.099
X11.198 Y18.165
X11.308 Y18.242
X11.411 Y18.331
X11.513 Y18.433
X11.619 Y18.559
X11.724 Y18.706
X11.828 Y18.878
X11.93 Y19.083
X12.022 Y19.315
X12.108 Y19.592
X12.177 Y19.903
X12.227 Y20.26
X12.252 Y20.684
X12.243 Y21.128
X12.189 Y21.653
X12.08 Y22.245
X11.922 Y22.834
X11.722 Y23.41
X11.487 Y23.973
X11.22 Y24.521
X10.923 Y25.053
X10.598 Y25.569
X10.237 Y26.081
X10.076 Y26.228
X9.879 Y26.321
X9.664 Y26.353
X8.111
G3 X7.99 Y26.324 R0.318 F400.
X7.823 Y25.929 R0.317 F762.
G1 X10.559 Y18.244
G3 X10.832 Y18.034 R0.318
X10.955 Y18.047 R0.318 F400.
G1 X11.632 Y18.28 F762.
X11.848 Y18.346
X11.978 Y18.385
X12.099 Y18.444
X12.214 Y18.515
X12.321 Y18.597
X12.436 Y18.7
X12.545 Y18.815
X12.664 Y18.962
X12.774 Y19.124
X12.89 Y19.327
X12.994 Y19.547
X13.096 Y19.82
X13.177 Y20.107
X13.248 Y20.463
X13.293 Y20.848
X13.31 Y21.293
X13.287 Y21.807
X13.216 Y22.375
X13.092 Y22.972
X12.923 Y23.558
X12.714 Y24.131
X12.472 Y24.69
X12.2 Y25.236
X11.9 Y25.767
X11.738 Y26.016
X11.62 Y26.156
X11.47 Y26.263
X11.299 Y26.33
X11.117 Y26.353
X9.664
G3 X9.544 Y26.324 R0.318 F400.
X9.37 Y25.947 R0.317 F762.
G1 X11.505 Y18.573
G3 X11.725 Y18.356 R0.318
X11.848 Y18.346 R0.318 F400.
G1 X11.987 Y18.368 F762.
X12.264 Y18.379
X12.445 Y18.377
X12.579 Y18.383
X12.712 Y18.408
X12.841 Y18.449
X12.964 Y18.504
X13.082 Y18.569
X13.205 Y18.652
X13.327 Y18.75
X13.457 Y18.871
X13.584 Y19.011
X13.716 Y19.182
X13.843 Y19.379
X13.966 Y19.605
X14.085 Y19.876
X14.186 Y20.167
X14.28 Y20.526
X14.347 Y20.908
X14.389 Y21.352
X14.396 Y21.867
X14.359 Y22.421
X14.27 Y23.025
X14.132 Y23.619
X13.954 Y24.202
X13.741 Y24.773
X13.497 Y25.331
X13.257 Y25.807
X13.141 Y25.997
X13.023 Y26.145
X12.872 Y26.258
X12.696 Y26.328
X12.509 Y26.353
X11.117
G3 X10.997 Y26.324 R0.318 F400.
X10.816 Y25.979 R0.317 F762.
G1 X12.146 Y18.638
G3 X12.324 Y18.407 R0.318
X12.445 Y18.377 R0.318 F400.
G1 X13.234 Y18.365 F762.
X13.276 Y18.362
X13.411 Y18.361
X13.545 Y18.378
X13.676 Y18.411
X13.803 Y18.457
X13.925 Y18.513
X14.054 Y18.587
X14.189 Y18.678
X14.33 Y18.791
X14.47 Y18.923
X14.619 Y19.087
X14.76 Y19.272
X14.907 Y19.5
X15.039 Y19.746
X15.169 Y20.043
X15.287 Y20.383
X15.384 Y20.757
X15.461 Y21.202
X15.506 Y21.697
X15.512 Y22.219
X15.471 Y22.816
X15.38 Y23.419
X15.246 Y24.014
X15.075 Y24.599
X14.87 Y25.174
X14.665 Y25.656
X14.475 Y26.007
X14.357 Y26.151
X14.206 Y26.26
X14.033 Y26.329
X13.848 Y26.353
X12.509
G3 X12.388 Y26.324 R0.318 F400.
X12.204 Y26.002 R0.317 F762.
G1 X12.989 Y18.645
G3 X13.157 Y18.397 R0.317
X13.276 Y18.362 R0.317 F400.
G1 X13.511 Y18.349 F762.
X13.649 Y18.326
X13.876 Y18.258
X14.006 Y18.22
X14.14 Y18.205
X14.275 Y18.207
X14.409 Y18.225
X14.54 Y18.256
X14.67 Y18.299
X14.806 Y18.357
X14.952 Y18.434
X15.1 Y18.527
X15.261 Y18.647
X15.416 Y18.784
X15.585 Y18.959
X15.744 Y19.153
X15.906 Y19.387
X16.067 Y19.663
X16.211 Y19.965
X16.352 Y20.331
X16.472 Y20.74
X16.563 Y21.177
X16.627 Y21.692
X16.653 Y22.266
X16.631 Y22.875
X16.562 Y23.481
X16.451 Y24.081
X16.303 Y24.672
X16.119 Y25.253
X15.961 Y25.651
X15.788 Y25.991
X15.67 Y26.141
X15.517 Y26.256
X15.34 Y26.328
X15.151 Y26.353
X13.848
G3 X13.728 Y26.324 R0.318 F400.
X13.542 Y26.03 R0.317 F762.
G1 X13.674 Y18.549
G3 X13.772 Y18.325 R0.317
X13.876 Y18.258 R0.317 F400.
G1 X14.619 Y17.979 F762.
X14.748 Y17.938
X14.881 Y17.918
X15.016 Y17.915
X15.151 Y17.925
X15.284 Y17.947
X15.428 Y17.984
X15.574 Y18.033
X15.737 Y18.104
X15.899 Y18.191
X16.076 Y18.304
X16.255 Y18.44
X16.436 Y18.602
X16.629 Y18.805
X16.809 Y19.028
X16.995 Y19.301
X17.177 Y19.619
X17.336 Y19.959
X17.488 Y20.365
X17.624 Y20.84
X17.724 Y21.34
X17.79 Y21.902
X17.812 Y22.511
X17.787 Y23.121
X17.72 Y23.727
X17.615 Y24.327
X17.474 Y24.92
X17.32 Y25.415
X17.185 Y25.749
X17.06 Y25.995
X16.942 Y26.143
X16.79 Y26.257
X16.615 Y26.328
X16.427 Y26.353
X15.151
G3 X15.031 Y26.324 R0.318 F400.
X14.845 Y26.052 R0.317 F762.
G1 X14.425 Y18.289
G3 X14.517 Y18.049 R0.318
X14.619 Y17.979 R0.318 F400.
G1 X15.035 Y17.816 F762.
X15.227 Y17.71
X15.345 Y17.644
X15.472 Y17.599
X15.604 Y17.571
X15.739 Y17.558
X15.874
X16.011 Y17.57
X16.157 Y17.595
X16.316 Y17.636
X16.486 Y17.694
X16.661 Y17.77
X16.854 Y17.874
X17.043 Y17.995
X17.251 Y18.154
X17.457 Y18.339
X17.662 Y18.556
X17.877 Y18.823
X18.08 Y19.12
X18.277 Y19.468
X18.468 Y19.876
X18.64 Y20.339
X18.778 Y20.827
X18.891 Y21.391
X18.961 Y21.997
X18.984 Y22.606
X18.966 Y23.216
X18.909 Y23.823
X18.816 Y24.425
X18.684 Y25.021
X18.551 Y25.455
X18.428 Y25.766
X18.318 Y25.991
X18.2 Y26.141
X18.048 Y26.256
X17.871 Y26.328
X17.681 Y26.353
X16.427
G3 X16.306 Y26.324 R0.318 F400.
X16.123 Y26.075 R0.317 F762.
G1 X15.099 Y18.007
G3 X15.143 Y17.801 R0.318
X15.227 Y17.71 R0.318 F400.
G1 X15.712 Y17.311 F762.
X15.819 Y17.228
X15.937 Y17.163
X16.063 Y17.114
X16.194 Y17.08
X16.327 Y17.058
X16.463 Y17.048
X16.611 Y17.05
X16.77 Y17.064
X16.947 Y17.094
X17.127 Y17.14
X17.329 Y17.209
X17.531 Y17.297
X17.749 Y17.414
X17.98 Y17.563
X18.205 Y17.734
X18.446 Y17.95
X18.691 Y18.209
X18.923 Y18.496
X19.16 Y18.846
X19.391 Y19.251
X19.599 Y19.696
X19.783 Y20.189
X19.944 Y20.756
X20.062 Y21.354
X20.136 Y21.959
X20.168 Y22.568
X20.161 Y23.178
X20.118 Y23.786
X20.04 Y24.39
X19.924 Y24.976
X19.801 Y25.414
X19.686 Y25.725
X19.565 Y25.977
X19.448 Y26.133
X19.294 Y26.252
X19.114 Y26.327
X18.921 Y26.353
X17.681
G3 X17.561 Y26.324 R0.318 F400.
X17.382 Y26.1 R0.318 F762.
G1 X15.618 Y17.608
G3 X15.64 Y17.411 R0.318
X15.712 Y17.311 R0.317 F400.
G1 X16.299 Y16.798 F762.
X16.398 Y16.706
X16.512 Y16.634
X16.635 Y16.577
X16.762 Y16.533
X16.893 Y16.501
X17.036 Y16.479
X17.185 Y16.469
X17.357 Y16.47
X17.535 Y16.487
X17.73 Y16.52
X17.944 Y16.575
X18.16 Y16.649
X18.402 Y16.755
X18.646 Y16.885
X18.898 Y17.047
X19.17 Y17.255
X19.437 Y17.495
X19.706 Y17.779
X19.982 Y18.122
X20.253 Y18.521
X20.498 Y18.951
X20.73 Y19.448
X20.941 Y20.015
X21.107 Y20.602
X21.23 Y21.199
X21.312 Y21.803
X21.356 Y22.411
X21.365 Y23.021
X21.339 Y23.63
X21.277 Y24.236
X21.177 Y24.838
X21.06 Y25.309
X20.952 Y25.633
X20.849 Y25.873
X20.805 Y25.956
X20.689 Y26.12
X20.533 Y26.246
X20.349 Y26.325
X20.15 Y26.353
X18.921
G3 X18.8 Y26.324 R0.318 F400.
X18.625 Y26.117 R0.318 F762.
G1 X16.228 Y17.093
G3 X16.235 Y16.904 R0.317
X16.299 Y16.798 R0.317 F400.
G1 X16.465 Y16.618 F762.
X16.566 Y16.48
X16.629 Y16.369
X16.702 Y16.256
X16.793 Y16.156
X16.897 Y16.07
X17.01 Y15.997
X17.131 Y15.936
X17.257 Y15.887
X17.391 Y15.848
X17.544 Y15.815
X17.706 Y15.795
X17.893 Y15.786
X18.085 Y15.792
X18.301 Y15.817
X18.532 Y15.863
X18.773 Y15.931
X19.04 Y16.03
X19.31 Y16.155
X19.591 Y16.314
X19.895 Y16.521
X20.2 Y16.765
X20.503 Y17.051
X20.812 Y17.395
X21.123 Y17.8
X21.421 Y18.263
X21.689 Y18.763
X21.934 Y19.321
X22.134 Y19.897
X22.294 Y20.485
X22.415 Y21.083
X22.5 Y21.687
X22.551 Y22.294
X22.568 Y22.904
X22.553 Y23.513
X22.504 Y24.121
X22.417 Y24.725
X22.306 Y25.221
X22.201 Y25.563
X22.099 Y25.816
X22.037 Y25.941
X21.922 Y26.11
X21.764 Y26.241
X21.577 Y26.324
X21.374 Y26.353
X20.15
G3 X20.029 Y26.324 R0.318 F400.
X19.86 Y26.138 R0.317 F762.
G1 X16.61 Y16.62
G3 X16.594 Y16.488 R0.318
X16.629 Y16.369 R0.318 F400.
G1 X17.005 Y15.694 F762.
X17.076 Y15.579
X17.165 Y15.478
X17.266 Y15.388
X17.375 Y15.309
X17.492 Y15.241
X17.62 Y15.181
X17.761 Y15.128
X17.918 Y15.082
X18.097 Y15.046
X18.286 Y15.023
X18.503 Y15.015
X18.728 Y15.024
X18.975 Y15.054
X19.249 Y15.11
X19.524 Y15.19
X19.826 Y15.305
X20.15 Y15.458
X20.47 Y15.643
X20.805 Y15.874
X21.16 Y16.163
X21.522 Y16.51
X21.863 Y16.894
X22.198 Y17.339
X22.525 Y17.854
X22.809 Y18.393
X23.053 Y18.951
X23.259 Y19.525
X23.429 Y20.111
X23.563 Y20.706
X23.665 Y21.307
X23.733 Y21.913
X23.769 Y22.521
X23.775 Y23.131
X23.748 Y23.74
X23.688 Y24.347
X23.592 Y24.931
X23.49 Y25.339
X23.382 Y25.661
X23.248 Y25.957
X23.131 Y26.12
X22.975 Y26.246
X22.791 Y26.325
X22.592 Y26.353
X21.374
G3 X21.253 Y26.324 R0.318 F400.
X21.09 Y26.154 R0.318 F762.
G1 X16.993 Y15.956
G3 X16.971 Y15.813 R0.317
X17.005 Y15.694 R0.317 F400.
G1 X17.179 Y15.372 F762.
X17.252 Y15.208
X17.29 Y15.095
X17.333 Y14.967
X17.403 Y14.852
X17.488 Y14.747
X17.584 Y14.653
X17.69 Y14.568
X17.802 Y14.493
X17.934 Y14.419
X18.075 Y14.355
X18.244 Y14.294
X18.423 Y14.245
X18.626 Y14.206
X18.853 Y14.182
X19.09 Y14.176
X19.362 Y14.191
X19.647 Y14.229
X19.947 Y14.295
X20.279 Y14.396
X20.627 Y14.533
X20.979 Y14.706
X21.36 Y14.933
X21.757 Y15.214
X22.156 Y15.548
X22.536 Y15.922
X22.924 Y16.37
X23.284 Y16.862
X23.607 Y17.38
X23.733 Y17.621
X23.777 Y17.727
X23.804 Y17.839
X23.813 Y17.954
Y25.833
Y25.867
Y25.895
X23.806 Y26.03
X23.753 Y26.158
X23.661 Y26.262
X23.54 Y26.329
X23.403 Y26.352
G3 X23.28 Y26.332 R0.482 F400.
X23.098 Y26.23 R0.482 F762.
X23.67 Y25.591 R0.429
X23.79 Y25.773 R0.429
X23.813 Y25.895 R0.429 F400.
G1 X23.809 Y26.068 F762.
X23.774 Y26.172
X23.701 Y26.264
X23.625 Y26.319
X23.521 Y26.35
X22.592 Y26.353
G3 X22.472 Y26.324 R0.318 F400.
X22.315 Y26.168 R0.318 F762.
G1 X17.314 Y15.28
G3 X17.293 Y15.219 R0.318
X17.29 Y15.095 R0.317 F400.
G1 X17.395 Y14.541 F762.
X17.401 Y14.5
X17.429 Y14.367
X17.478 Y14.242
X17.543 Y14.124
X17.622 Y14.014
X17.711 Y13.912
X17.809 Y13.819
X17.921 Y13.729
X18.049 Y13.641
X18.2 Y13.555
X18.364 Y13.478
X18.557 Y13.406
X18.763 Y13.347
X18.994 Y13.301
X19.257 Y13.27
X19.527 Y13.26
X19.832 Y13.274
X20.167 Y13.316
X20.506 Y13.386
X20.875 Y13.494
X21.278 Y13.648
X21.7 Y13.849
X22.114 Y14.09
X22.545 Y14.389
X22.991 Y14.754
X23.43 Y15.178
X23.642 Y15.418
X23.735 Y15.561
X23.793 Y15.721
X23.813 Y15.891
Y17.954
G3 X23.784 Y18.075 R0.317 F400.
X23.334 Y18.216 R0.317 F762.
G1 X17.555 Y14.811
G3 X17.411 Y14.623 R0.317
X17.401 Y14.5 R0.318 F400.
G1 X17.52 Y13.711 F762.
X17.541 Y13.577
X17.586 Y13.45
X17.647 Y13.33
X17.72 Y13.216
X17.804 Y13.11
X17.9 Y13.006
X18.014 Y12.902
X18.145 Y12.8
X18.301 Y12.697
X18.469 Y12.605
X18.67 Y12.516
X18.888 Y12.439
X19.132 Y12.374
X19.41 Y12.324
X19.701 Y12.295
X20.022 Y12.289
X20.384 Y12.312
X20.762 Y12.366
X21.162 Y12.457
X21.593 Y12.592
X22.053 Y12.778
X22.53 Y13.016
X22.998 Y13.3
X23.481 Y13.647
X23.552 Y13.708
X23.692 Y13.868
X23.782 Y14.061
X23.813 Y14.272
Y15.891
G3 X23.784 Y16.012 R0.317 F400.
X23.383 Y16.177 R0.318 F762.
G1 X17.724 Y14.029
G3 X17.536 Y13.834 R0.317
X17.52 Y13.711 R0.318 F400.
G1 X17.532 Y13.572 F762.
X17.529 Y13.397
X17.498 Y13.219
X17.483 Y13.085
X17.486 Y12.95
X17.509 Y12.817
X17.549 Y12.688
X17.602 Y12.564
X17.667 Y12.446
X17.745 Y12.328
X17.837 Y12.212
X17.949 Y12.091
X18.081 Y11.971
X18.231 Y11.853
X18.411 Y11.735
X18.606 Y11.629
X18.832 Y11.528
X19.09 Y11.436
X19.364 Y11.363
X19.678 Y11.306
X20.029 Y11.272
X20.389 Y11.265
X20.79 Y11.289
X21.233 Y11.353
X21.707 Y11.46
X22.183 Y11.608
X22.685 Y11.811
X23.189 Y12.063
X23.455 Y12.223
X23.603 Y12.341
X23.717 Y12.493
X23.788 Y12.669
X23.813 Y12.857
Y14.272
G3 X23.784 Y14.393 R0.317 F400.
X23.435 Y14.573 R0.318 F762.
G1 X17.749 Y13.467
G3 X17.547 Y13.333 R0.317
X17.498 Y13.219 R0.317 F400.
G1 X17.355 Y12.465 F762.
X17.336 Y12.331
X17.338 Y12.196
X17.357 Y12.062
X17.39 Y11.932
X17.436 Y11.805
X17.494 Y11.68
X17.567 Y11.549
X17.656 Y11.417
X17.769 Y11.276
X17.897 Y11.14
X18.053 Y10.999
X18.23 Y10.863
X18.432 Y10.732
X18.672 Y10.602
X18.93 Y10.489
X19.22 Y10.388
X19.554 Y10.301
X19.914 Y10.238
X20.3 Y10.202
X20.737 Y10.197
X21.211 Y10.229
X21.71 Y10.303
X22.217 Y10.421
X22.755 Y10.592
X23.148 Y10.754
X23.459 Y10.916
X23.606 Y11.034
X23.718 Y11.186
X23.788 Y11.361
X23.813 Y11.548
Y12.857
G3 X23.784 Y12.978 R0.317 F400.
X23.47 Y13.163 R0.318 F762.
G1 X17.64 Y12.708
G3 X17.407 Y12.577 R0.317
X17.355 Y12.465 R0.317 F400.
G1 X17.252 Y11.984 F762.
X17.2 Y11.835
X17.157 Y11.707
X17.134 Y11.574
X17.129 Y11.439
X17.14 Y11.304
X17.165 Y11.172
X17.202 Y11.042
X17.254 Y10.904
X17.319 Y10.766
X17.406 Y10.615
X17.509 Y10.465
X17.635 Y10.309
X17.789 Y10.148
X17.961 Y9.995
X18.17 Y9.836
X18.408 Y9.685
X18.67 Y9.546
X18.976 Y9.414
X19.322 Y9.297
X19.687 Y9.205
X20.104 Y9.135
X20.569 Y9.095
X21.071 Y9.093
X21.582 Y9.131
X22.131 Y9.217
X22.645 Y9.34
X23.004 Y9.458
X23.29 Y9.578
X23.412 Y9.64
X23.577 Y9.757
X23.704 Y9.913
X23.785 Y10.099
X23.813 Y10.299
Y11.548
G3 X23.784 Y11.669 R0.317 F400.
X23.504 Y11.854 R0.318 F762.
G1 X17.501 Y12.025
G3 X17.271 Y11.936 R0.318
X17.2 Y11.835 R0.317 F400.
G1 X17.109 Y11.634 F762.
X16.898 Y11.281
X16.833 Y11.162
X16.792 Y11.033
X16.768 Y10.901
X16.76 Y10.766
X16.765 Y10.631
X16.782 Y10.497
X16.812 Y10.352
X16.856 Y10.205
X16.919 Y10.042
X16.998 Y9.877
X17.1 Y9.704
X17.228 Y9.521
X17.373 Y9.344
X17.554 Y9.159
X17.766 Y8.972
X18.002 Y8.797
X18.28 Y8.623
X18.602 Y8.455
X18.945 Y8.311
X19.338 Y8.182
X19.785 Y8.073
X20.276 Y7.995
X20.786 Y7.956
X21.331 Y7.958
X21.901 Y8.005
X22.415 Y8.09
X22.808 Y8.188
X23.126 Y8.295
X23.417 Y8.427
X23.58 Y8.543
X23.706 Y8.699
X23.785 Y8.883
X23.813 Y9.082
Y10.299
G3 X23.784 Y10.419 R0.317 F400.
X23.536 Y10.602 R0.317 F762.
G1 X17.203 Y11.421
G3 X16.985 Y11.369 R0.318
X16.898 Y11.281 R0.317 F400.
G1 X16.494 Y10.623 F762.
X16.426 Y10.506
X16.379 Y10.379
X16.347 Y10.248
X16.33 Y10.114
X16.325 Y9.979
X16.332 Y9.837
X16.352 Y9.689
X16.386 Y9.526
X16.438 Y9.353
X16.508 Y9.174
X16.603 Y8.978
X16.717 Y8.786
X16.861 Y8.581
X17.038 Y8.367
X17.238 Y8.163
X17.479 Y7.952
X17.765 Y7.741
X18.074 Y7.549
X18.433 Y7.364
X18.849 Y7.191
X19.313 Y7.039
X19.8 Y6.923
X20.33 Y6.84
X20.909 Y6.797
X21.5 Y6.801
X22.058 Y6.849
X22.534 Y6.93
X22.88 Y7.017
X23.169 Y7.115
X23.419 Y7.227
X23.581 Y7.344
X23.707 Y7.5
X23.786 Y7.683
X23.813 Y7.881
Y9.082
G3 X23.784 Y9.202 R0.317 F400.
X23.558 Y9.382 R0.318 F762.
G1 X16.818 Y10.753
G3 X16.583 Y10.709 R0.318
X16.494 Y10.623 R0.318 F400.
G1 X16.42 Y10.512 F762.
X16.282 Y10.344
X16.143 Y10.214
X16.043 Y10.123
X15.964 Y10.014
X15.9 Y9.895
X15.852 Y9.769
X15.817 Y9.639
X15.795 Y9.505
X15.783 Y9.368
X15.782 Y9.211
X15.795 Y9.05
X15.824 Y8.867
X15.869 Y8.68
X15.935 Y8.479
X16.027 Y8.262
X16.139 Y8.046
X16.285 Y7.811
X16.463 Y7.572
X16.667 Y7.339
X16.917 Y7.096
X17.216 Y6.85
X17.541 Y6.622
X17.92 Y6.4
X18.354 Y6.191
X18.84 Y6.003
X19.372 Y5.845
X19.928 Y5.727
X20.533 Y5.649
X21.142 Y5.62
X21.744 Y5.638
X22.256 Y5.694
X22.688 Y5.778
X23. Y5.864
X23.247 Y5.955
X23.382 Y6.017
X23.558 Y6.131
X23.696 Y6.29
X23.783 Y6.482
X23.813 Y6.69
Y7.881
G3 X23.784 Y8.002 R0.317 F400.
X23.584 Y8.175 R0.318 F762.
G1 X16.421 Y10.264
G3 X16.255 Y10.267 R0.318
X16.143 Y10.214 R0.317 F400.
G1 X15.589 Y9.772 F762.
X15.488 Y9.683
X15.401 Y9.58
X15.328 Y9.466
X15.268 Y9.345
X15.22 Y9.219
X15.183 Y9.086
X15.156 Y8.946
X15.138 Y8.784
X15.132 Y8.615
X15.142 Y8.426
X15.168 Y8.223
X15.213 Y8.01
X15.283 Y7.776
X15.376 Y7.538
X15.497 Y7.288
X15.656 Y7.016
X15.843 Y6.75
X16.068 Y6.479
X16.342 Y6.197
X16.666 Y5.914
X17.02 Y5.651
X17.433 Y5.394
X17.909 Y5.148
X18.437 Y4.926
X19.017 Y4.737
X19.609 Y4.594
X20.211 Y4.497
X20.819 Y4.445
X21.428 Y4.438
X21.991 Y4.474
X22.475 Y4.545
X22.831 Y4.626
X23.12 Y4.718
X23.405 Y4.84
X23.572 Y4.955
X23.702 Y5.113
X23.784 Y5.299
X23.813 Y5.501
Y6.69
G3 X23.784 Y6.81 R0.317 F400.
X23.605 Y6.977 R0.318 F762.
G1 X15.887 Y9.815
G3 X15.701 Y9.825 R0.317
X15.589 Y9.772 R0.318 F400.
G1 X15.173 Y9.448 F762.
X15.012 Y9.344
X14.894 Y9.278
X14.797 Y9.185
X14.712 Y9.08
X14.639 Y8.966
X14.578 Y8.846
X14.527 Y8.718
X14.483 Y8.578
X14.447 Y8.417
X14.422 Y8.249
X14.411 Y8.054
X14.414 Y7.851
X14.437 Y7.627
X14.481 Y7.381
X14.547 Y7.132
X14.644 Y6.861
X14.774 Y6.569
X14.931 Y6.281
X15.134 Y5.973
X15.383 Y5.653
X15.675 Y5.334
X16.004 Y5.029
X16.398 Y4.718
X16.857 Y4.412
X17.378 Y4.123
X17.933 Y3.87
X18.506 Y3.661
X19.093 Y3.497
X19.69 Y3.375
X20.295 Y3.294
X20.903 Y3.253
X21.513 Y3.254
X22.082 Y3.298
X22.545 Y3.371
X22.879 Y3.452
X23.159 Y3.544
X23.413 Y3.655
X23.577 Y3.771
X23.705 Y3.928
X23.785 Y4.113
X23.813 Y4.313
Y5.501
G3 X23.784 Y5.622 R0.317 F400.
X23.62 Y5.782 R0.317 F762.
G1 X15.267 Y9.347
G3 X15.132 Y9.373 R0.318
X15.012 Y9.344 R0.318 F400.
G1 X14.882 Y9.28 F762.
X14.489 Y9.141
X14.364 Y9.091
X14.248 Y9.022
X14.143 Y8.938
X14.048 Y8.842
X13.963 Y8.737
X13.889 Y8.624
X13.823 Y8.503
X13.759 Y8.359
X13.704 Y8.205
X13.657 Y8.029
X13.622 Y7.833
X13.601 Y7.627
X13.597 Y7.389
X13.612 Y7.142
X13.65 Y6.877
X13.717 Y6.582
X13.811 Y6.282
X13.938 Y5.964
X14.109 Y5.623
X14.324 Y5.268
X14.571 Y4.924
X14.874 Y4.568
X15.24 Y4.201
X15.672 Y3.833
X16.16 Y3.481
X16.681 Y3.165
X17.226 Y2.891
X17.789 Y2.658
X18.367 Y2.464
X18.957 Y2.308
X19.555 Y2.19
X20.159 Y2.108
X20.767 Y2.062
X21.377 Y2.056
X21.957 Y2.092
X22.465 Y2.165
X22.818 Y2.245
X23.115 Y2.338
X23.403 Y2.461
X23.572 Y2.577
X23.702 Y2.734
X23.784 Y2.921
X23.813 Y3.124
Y4.313
G3 X23.784 Y4.433 R0.317 F400.
X23.639 Y4.584 R0.317 F762.
G1 X14.726 Y9.121
G3 X14.613 Y9.154 R0.318
X14.489 Y9.141 R0.318 F400.
G1 X13.788 Y8.911 F762.
X13.661 Y8.864
X13.541 Y8.804
X13.429 Y8.729
X13.326 Y8.641
X13.232 Y8.544
X13.146 Y8.436
X13.065 Y8.317
X12.986 Y8.177
X12.913 Y8.02
X12.849 Y7.846
X12.792 Y7.644
X12.751 Y7.433
X12.723 Y7.192
X12.715 Y6.928
X12.727 Y6.653
X12.767 Y6.344
X12.837 Y6.012
X12.937 Y5.675
X13.078 Y5.311
X13.264 Y4.924
X13.497 Y4.526
X13.771 Y4.135
X14.111 Y3.722
X14.519 Y3.302
X14.977 Y2.9
X15.465 Y2.535
X15.979 Y2.207
X16.515 Y1.916
X17.07 Y1.662
X17.639 Y1.445
X18.221 Y1.262
X18.812 Y1.113
X19.411 Y0.998
X20.015 Y0.915
X20.623 Y0.867
X21.232 Y0.855
X21.835 Y0.884
X22.37 Y0.954
X22.753 Y1.035
X23.066 Y1.128
X23.291 Y1.215
X23.394 Y1.265
X23.566 Y1.381
X23.699 Y1.539
X23.784 Y1.728
X23.813 Y1.932
Y3.124
G3 X23.784 Y3.244 R0.317 F400.
X23.653 Y3.388 R0.317 F762.
G1 X14.03 Y8.881
G3 X13.912 Y8.92 R0.317
X13.788 Y8.911 R0.318 F400.
G1 X13.511 Y8.827 F762.
X13.372 Y8.803
X13.192 Y8.791
X13.057 Y8.781
X12.927 Y8.747
X12.803 Y8.694
X12.686 Y8.626
X12.576 Y8.547
X12.475 Y8.458
X12.375 Y8.355
X12.28 Y8.238
X12.182 Y8.097
X12.093 Y7.944
X12.008 Y7.765
X11.931 Y7.565
X11.867 Y7.346
X11.815 Y7.092
X11.782 Y6.826
X11.769 Y6.533
X11.781 Y6.204
X11.821 Y5.861
X11.894 Y5.497
X12.008 Y5.098
X12.167 Y4.675
X12.366 Y4.25
X12.615 Y3.813
X12.931 Y3.352
X13.312 Y2.88
X13.732 Y2.438
X14.184 Y2.028
X14.663 Y1.652
X15.167 Y1.309
X15.693 Y1.
X16.237 Y0.724
X16.796 Y0.481
X17.368 Y0.27
X17.95 Y0.09
X18.542 Y-0.06
X19.139 Y-0.18
X19.743 Y-0.269
X20.35 Y-0.327
X20.959 Y-0.349
X21.568 Y-0.334
X22.129 Y-0.281
X22.599 Y-0.198
X22.935 Y-0.11
X23.196 Y-0.019
X23.425 Y0.083
X23.585 Y0.2
X23.708 Y0.356
X23.786 Y0.538
X23.813 Y0.735
Y1.932
G3 X23.784 Y2.053 R0.317 F400.
X23.666 Y2.189 R0.317 F762.
G1 X13.358 Y8.742
G3 X13.313 Y8.766 R0.317
X13.192 Y8.791 R0.317 F400.
G1 X12.499 Y8.807 F762.
X12.364 Y8.805
X12.231 Y8.781
X12.103 Y8.74
X11.979 Y8.685
X11.862 Y8.618
X11.751 Y8.541
X11.639 Y8.45
X11.522 Y8.337
X11.41 Y8.21
X11.295 Y8.057
X11.189 Y7.888
X11.087 Y7.694
X10.991 Y7.469
X10.911 Y7.23
X10.844 Y6.956
X10.794 Y6.649
X10.768 Y6.331
Y5.975
X10.799 Y5.578
X10.866 Y5.164
X10.97 Y4.738
X11.123 Y4.279
X11.33 Y3.789
X11.599 Y3.274
X11.921 Y2.762
X12.287 Y2.274
X12.688 Y1.815
X13.12 Y1.385
X13.58 Y0.985
X14.064 Y0.614
X14.57 Y0.274
X15.094 Y-0.038
X15.635 Y-0.319
X16.19 Y-0.572
X16.757 Y-0.796
X17.335 Y-0.991
X17.922 Y-1.157
X18.515 Y-1.295
X19.115 Y-1.404
X19.72 Y-1.485
X20.327 Y-1.536
X20.937 Y-1.554
X21.546 Y-1.537
X22.137 Y-1.479
X22.614 Y-1.393
X22.937 Y-1.308
X23.208 Y-1.212
X23.426 Y-1.114
X23.586 Y-0.997
X23.709 Y-0.841
X23.786 Y-0.659
X23.813 Y-0.463
Y0.735
G3 X23.784 Y0.855 R0.317 F400.
X23.678 Y0.983 R0.317 F762.
G1 X12.661 Y8.75
G3 X12.619 Y8.775 R0.318
X12.499 Y8.807 R0.318 F400.
G1 X11.848 Y8.838 F762.
X11.772 Y8.85
X11.638 Y8.864
X11.503 Y8.854
X11.371 Y8.826
X11.243 Y8.784
X11.119 Y8.73
X10.997 Y8.663
X10.876 Y8.583
X10.745 Y8.481
X10.619 Y8.365
X10.487 Y8.223
X10.359 Y8.061
X10.235 Y7.875
X10.113 Y7.655
X10.007 Y7.42
X9.909 Y7.151
X9.825 Y6.839
X9.763 Y6.514
X9.725 Y6.15
X9.715 Y5.746
X9.739 Y5.308
X9.8 Y4.863
X9.907 Y4.377
X10.068 Y3.849
X10.288 Y3.294
X10.557 Y2.747
X10.868 Y2.223
X11.216 Y1.723
X11.6 Y1.248
X12.013 Y0.8
X12.453 Y0.378
X12.917 Y-0.017
X13.402 Y-0.387
X13.907 Y-0.729
X14.428 Y-1.045
X14.964 Y-1.335
X15.514 Y-1.599
X16.076 Y-1.835
X16.649 Y-2.044
X17.231 Y-2.227
X17.82 Y-2.384
X18.416 Y-2.514
X19.016 Y-2.618
X19.621 Y-2.695
X20.229 Y-2.744
X20.838 Y-2.763
X21.448 Y-2.749
X22.047 Y-2.695
X22.558 Y-2.607
X22.896 Y-2.521
X23.181 Y-2.423
X23.421 Y-2.316
X23.583 Y-2.199
X23.707 Y-2.043
X23.786 Y-1.86
X23.813 Y-1.663
Y-0.463
G3 X23.784 Y-0.343 R0.317 F400.
X23.688 Y-0.222 R0.317 F762.
G1 X11.905 Y8.79
G3 X11.887 Y8.803 R0.317
X11.772 Y8.85 R0.318 F400.
G1 X11.571 Y8.894 F762.
X11.277 Y9.003
X11.15 Y9.047
X11.017 Y9.074
X10.883 Y9.081
X10.748 Y9.071
X10.615 Y9.047
X10.485 Y9.01
X10.357 Y8.962
X10.218 Y8.897
X10.08 Y8.818
X9.93 Y8.715
X9.784 Y8.597
X9.633 Y8.453
X9.479 Y8.28
X9.335 Y8.09
X9.19 Y7.863
X9.053 Y7.605
X8.933 Y7.327
X8.823 Y7.003
X8.73 Y6.636
X8.666 Y6.254
X8.63 Y5.833
X8.627 Y5.366
X8.665 Y4.853
X8.748 Y4.323
X8.881 Y3.768
X9.07 Y3.189
X9.304 Y2.626
X9.578 Y2.081
X9.889 Y1.556
X10.233 Y1.053
X10.608 Y0.572
X11.01 Y0.114
X11.438 Y-0.32
X11.89 Y-0.73
X12.362 Y-1.116
X12.853 Y-1.478
X13.36 Y-1.815
X13.883 Y-2.129
X14.42 Y-2.418
X14.969 Y-2.684
X15.529 Y-2.925
X16.099 Y-3.141
X16.677 Y-3.333
X17.264 Y-3.501
X17.856 Y-3.644
X18.454 Y-3.763
X19.057 Y-3.856
X19.663 Y-3.923
X20.271 Y-3.963
X20.881 Y-3.974
X21.49 Y-3.953
X22.097 Y-3.893
X22.591 Y-3.804
X22.924 Y-3.716
X23.201 Y-3.618
X23.427 Y-3.516
X23.586 Y-3.398
X23.709 Y-3.243
X23.786 Y-3.061
X23.813 Y-2.865
Y-1.663
G3 X23.784 Y-1.542 R0.317 F400.
G1 X23.755 Y-1.478 Z-0.525
X23.727 Y-1.417 Z-0.502
X23.702 Y-1.362 Z-0.464
X23.681 Y-1.316 Z-0.414
X23.665 Y-1.282 Z-0.353
X23.656 Y-1.26 Z-0.286
X23.652 Y-1.253 Z-0.216
G0 Z5.
X10.931 Y8.902
Z0.102
G1 Z-0.216 F400.
X10.939 Y8.901 Z-0.286
X10.962 Y8.9 Z-0.353
X11. Y8.898 Z-0.414
X11.05 Y8.894 Z-0.464
X11.11 Y8.891 Z-0.502
X11.177 Y8.886 Z-0.525
X11.248 Y8.882 Z-0.533
G3 X11.277 Y9.003 R0.063
G1 X10.52 Y9.308 F762.
X10.392 Y9.353
X10.259 Y9.376
X10.125 Y9.384
X9.99 Y9.376
X9.856 Y9.356
X9.724 Y9.325
X9.577 Y9.278
X9.428 Y9.216
X9.268 Y9.134
X9.102 Y9.032
X8.935 Y8.909
X8.758 Y8.756
X8.589 Y8.584
X8.417 Y8.378
X8.243 Y8.133
X8.086 Y7.868
X7.936 Y7.563
X7.798 Y7.211
X7.681 Y6.826
X7.591 Y6.415
X7.528 Y5.947
X7.5 Y5.432
X7.515 Y4.875
X7.577 Y4.303
X7.69 Y3.704
X7.851 Y3.116
X8.055 Y2.541
X8.297 Y1.982
X8.574 Y1.439
X8.883 Y0.913
X9.223 Y0.407
X9.59 Y-0.08
X9.982 Y-0.546
X10.4 Y-0.991
X10.839 Y-1.414
X11.298 Y-1.815
X11.776 Y-2.194
X12.271 Y-2.55
X12.78 Y-2.885
X13.304 Y-3.198
X13.839 Y-3.489
X14.387 Y-3.757
X14.945 Y-4.003
X15.512 Y-4.227
X16.087 Y-4.428
X16.67 Y-4.607
X17.26 Y-4.762
X17.855 Y-4.894
X18.455 Y-5.002
X19.059 Y-5.087
X19.666 Y-5.147
X20.275 Y-5.181
X20.884 Y-5.188
X21.494 Y-5.163
X22.1 Y-5.1
X22.602 Y-5.007
X22.934 Y-4.918
X23.21 Y-4.819
X23.43 Y-4.719
X23.588 Y-4.602
X23.71 Y-4.447
X23.786 Y-4.266
X23.813 Y-4.071
Y-2.865
G3 X23.784 Y-2.745 R0.317 F400.
G1 X23.755 Y-2.68 Z-0.525
X23.727 Y-2.619 Z-0.502
X23.702 Y-2.565 Z-0.464
X23.681 Y-2.519 Z-0.414
X23.665 Y-2.484 Z-0.353
X23.656 Y-2.463 Z-0.286
X23.652 Y-2.456 Z-0.216
G0 Z5.
X10.173 Y9.208
Z0.102
G1 Z-0.216 F400.
X10.181 Z-0.286
X10.204 Y9.206 Z-0.353
X10.242 Y9.204 Z-0.414
X10.292 Y9.2 Z-0.464
X10.352 Y9.196 Z-0.502
X10.419 Y9.192 Z-0.525
X10.49 Y9.187 Z-0.533
G3 X10.52 Y9.308 R0.063
G1 X10.267 Y9.418 F762.
X10.047 Y9.554
X10.044 Y9.557
X9.934 Y9.635
X9.819 Y9.705
X9.694 Y9.756
X9.563 Y9.79
X9.43 Y9.81
X9.295 Y9.816
X9.16 Y9.81
X8.893 Y9.767
X8.636 Y9.687
X8.39 Y9.576
X8.156 Y9.44
X7.937 Y9.282
X7.733 Y9.106
X7.543 Y8.914
X7.286 Y8.601
X7.061 Y8.264
X6.858 Y7.888
X6.796 Y7.688
X6.793 Y7.479
X6.848 Y7.278
X6.957 Y7.099
X7.079 Y6.926
X7.155 Y6.788
X7.209 Y6.649
X7.282 Y6.372
X7.299 Y6.095
X7.303 Y2.495
X7.316 Y2.221
X7.352 Y1.947
X7.425 Y1.607
X7.536 Y1.236
X7.707 Y0.796
X7.955 Y0.286
X8.264 Y-0.239
X8.611 Y-0.741
X8.988 Y-1.22
X9.391 Y-1.677
X9.818 Y-2.112
X10.266 Y-2.526
X10.732 Y-2.919
X11.215 Y-3.292
X11.713 Y-3.644
X12.224 Y-3.975
X12.749 Y-4.286
X13.285 Y-4.576
X13.832 Y-4.846
X14.388 Y-5.096
X14.953 Y-5.324
X15.527 Y-5.532
X16.107 Y-5.719
X16.694 Y-5.884
X17.287 Y-6.027
X17.884 Y-6.148
X18.486 Y-6.246
X19.091 Y-6.322
X19.698 Y-6.375
X20.308 Y-6.402
X20.917 Y-6.403
X21.526 Y-6.373
X22.132 Y-6.305
X22.63 Y-6.209
X22.956 Y-6.119
X23.227 Y-6.02
X23.381 Y-5.949
X23.558 Y-5.835
X23.695 Y-5.675
X23.783 Y-5.484
X23.813 Y-5.276
Y-4.071
G3 X23.784 Y-3.95 R0.317 F400.
G1 X23.755 Y-3.886 Z-0.525
X23.727 Y-3.825 Z-0.502
X23.702 Y-3.77 Z-0.464
X23.681 Y-3.724 Z-0.414
X23.665 Y-3.69 Z-0.353
X23.656 Y-3.668 Z-0.286
X23.652 Y-3.661 Z-0.216
G0 Z5.
X7.526 Y2.212
Z0.102
G1 Z-0.216 F400.
X7.523 Y2.219 Z-0.286
X7.516 Y2.242 Z-0.353
X7.504 Y2.277 Z-0.414
X7.488 Y2.325 Z-0.464
X7.469 Y2.382 Z-0.502
X7.448 Y2.446 Z-0.525
X7.426 Y2.513 Z-0.533
G3 X7.303 Y2.495 R0.063
G1 Y0.28 F762.
X7.312 Y0.093
X7.34 Y-0.125
X7.39 Y-0.356
X7.475 Y-0.641
X7.595 Y-0.948
X7.776 Y-1.321
X8.022 Y-1.74
X8.357 Y-2.217
X8.747 Y-2.686
X9.167 Y-3.128
X9.611 Y-3.545
X10.076 Y-3.94
X10.558 Y-4.314
X11.054 Y-4.667
X11.565 Y-5.001
X12.087 Y-5.315
X12.621 Y-5.61
X13.165 Y-5.886
X13.718 Y-6.142
X14.28 Y-6.379
X14.849 Y-6.596
X15.426 Y-6.793
X16.01 Y-6.97
X16.599 Y-7.126
X17.194 Y-7.262
X17.792 Y-7.378
X18.395 Y-7.472
X19. Y-7.545
X19.608 Y-7.595
X20.217 Y-7.622
X20.827 Y-7.623
X21.436 Y-7.596
X22.042 Y-7.532
X22.562 Y-7.436
X22.924 Y-7.339
X23.191 Y-7.244
X23.429 Y-7.135
X23.587 Y-7.018
X23.709 Y-6.863
X23.786 Y-6.682
X23.813 Y-6.487
Y-5.276
G3 X23.784 Y-5.155 R0.317 F400.
G1 X23.755 Y-5.091 Z-0.525
X23.727 Y-5.03 Z-0.502
X23.702 Y-4.975 Z-0.464
X23.681 Y-4.929 Z-0.414
X23.665 Y-4.895 Z-0.353
X23.656 Y-4.873 Z-0.286
X23.652 Y-4.866 Z-0.216
G0 Z5.
X7.526 Y-0.004
Z0.102
G1 Z-0.216 F400.
X7.523 Y0.004 Z-0.286
X7.516 Y0.026 Z-0.353
X7.504 Y0.062 Z-0.414
X7.488 Y0.11 Z-0.464
X7.469 Y0.167 Z-0.502
X7.448 Y0.231 Z-0.525
X7.426 Y0.298 Z-0.533
G3 X7.303 Y0.28 R0.063
G1 Y-1.52 F762.
X7.313 Y-1.725
X7.336 Y-1.902
X7.382 Y-2.117
X7.45 Y-2.344
X7.554 Y-2.611
X7.699 Y-2.909
X7.906 Y-3.262
X8.176 Y-3.646
X8.552 Y-4.098
X8.977 Y-4.535
X9.431 Y-4.942
X9.906 Y-5.324
X10.398 Y-5.684
X10.905 Y-6.023
X11.425 Y-6.342
X11.955 Y-6.642
X12.496 Y-6.924
X13.046 Y-7.187
X13.605 Y-7.431
X14.171 Y-7.657
X14.745 Y-7.863
X15.325 Y-8.051
X15.911 Y-8.219
X16.502 Y-8.368
X17.098 Y-8.498
X17.698 Y-8.609
X18.301 Y-8.699
X18.906 Y-8.769
X19.514 Y-8.818
X20.123 Y-8.844
X20.733 Y-8.846
X21.342 Y-8.821
X21.949 Y-8.76
X22.497 Y-8.665
X22.869 Y-8.569
X23.167 Y-8.466
X23.423 Y-8.35
X23.584 Y-8.233
X23.708 Y-8.077
X23.786 Y-7.894
X23.813 Y-7.697
Y-6.487
G3 X23.784 Y-6.366 R0.317 F400.
G1 X23.755 Y-6.302 Z-0.525
X23.727 Y-6.241 Z-0.502
X23.702 Y-6.186 Z-0.464
X23.681 Y-6.14 Z-0.414
X23.665 Y-6.106 Z-0.353
X23.656 Y-6.084 Z-0.286
X23.652 Y-6.077 Z-0.216
G0 Z5.
X7.526 Y-1.804
Z0.102
G1 Z-0.216 F400.
X7.523 Y-1.796 Z-0.286
X7.516 Y-1.774 Z-0.353
X7.504 Y-1.738 Z-0.414
X7.488 Y-1.69 Z-0.464
X7.469 Y-1.633 Z-0.502
X7.448 Y-1.569 Z-0.525
X7.426 Y-1.502 Z-0.533
G3 X7.303 Y-1.52 R0.063
G1 Y-3.182 F762.
X7.312 Y-3.371
X7.335 Y-3.548
X7.374 Y-3.729
X7.437 Y-3.94
X7.533 Y-4.187
X7.659 Y-4.446
X7.841 Y-4.756
X8.081 Y-5.097
X8.404 Y-5.486
X8.83 Y-5.922
X9.288 Y-6.324
X9.77 Y-6.698
X10.27 Y-7.047
X10.784 Y-7.374
X11.311 Y-7.681
X11.849 Y-7.969
X12.396 Y-8.238
X12.951 Y-8.489
X13.515 Y-8.722
X14.085 Y-8.937
X14.662 Y-9.134
X15.245 Y-9.312
X15.834 Y-9.473
X16.426 Y-9.615
X17.023 Y-9.739
X17.624 Y-9.844
X18.228 Y-9.931
X18.834 Y-9.997
X19.442 Y-10.044
X20.051 Y-10.069
X20.66 Y-10.07
X21.27 Y-10.045
X21.877 Y-9.987
X22.445 Y-9.892
X22.834 Y-9.794
X23.142 Y-9.69
X23.419 Y-9.565
X23.581 Y-9.448
X23.706 Y-9.292
X23.785 Y-9.108
X23.813 Y-8.91
Y-7.697
G3 X23.784 Y-7.577 R0.317 F400.
G1 X23.755 Y-7.512 Z-0.525
X23.727 Y-7.451 Z-0.502
X23.702 Y-7.397 Z-0.464
X23.681 Y-7.351 Z-0.414
X23.665 Y-7.316 Z-0.353
X23.656 Y-7.295 Z-0.286
X23.652 Y-7.288 Z-0.216
G0 Z5.
X7.526 Y-3.465
Z0.102
G1 Z-0.216 F400.
X7.523 Y-3.458 Z-0.286
X7.516 Y-3.435 Z-0.353
X7.504 Y-3.399 Z-0.414
X7.488 Y-3.352 Z-0.464
X7.469 Y-3.295 Z-0.502
X7.448 Y-3.231 Z-0.525
X7.426 Y-3.164 Z-0.533
G3 X7.303 Y-3.182 R0.063
G1 Y-4.781 F762.
X7.31 Y-4.934
X7.33 Y-5.086
X7.368 Y-5.262
X7.431 Y-5.472
X7.514 Y-5.687
X7.636 Y-5.938
X7.8 Y-6.216
X8.023 Y-6.534
X8.31 Y-6.88
X8.704 Y-7.284
X9.164 Y-7.684
X9.649 Y-8.053
X10.155 Y-8.394
X10.675 Y-8.712
X11.208 Y-9.009
X11.751 Y-9.286
X12.303 Y-9.545
X12.863 Y-9.786
X13.43 Y-10.009
X14.004 Y-10.215
X14.584 Y-10.403
X15.17 Y-10.573
X15.76 Y-10.726
X16.354 Y-10.862
X16.952 Y-10.981
X17.554 Y-11.081
X18.158 Y-11.164
X18.764 Y-11.227
X19.372 Y-11.272
X19.981 Y-11.295
X20.591 Y-11.296
X21.2 Y-11.271
X21.808 Y-11.215
X22.389 Y-11.121
X22.8 Y-11.02
X23.117 Y-10.915
X23.415 Y-10.782
X23.579 Y-10.665
X23.705 Y-10.509
X23.785 Y-10.324
X23.813 Y-10.125
Y-8.91
G3 X23.784 Y-8.79 R0.317 F400.
G1 X23.755 Y-8.725 Z-0.525
X23.727 Y-8.664 Z-0.502
X23.702 Y-8.609 Z-0.464
X23.681 Y-8.564 Z-0.414
X23.665 Y-8.529 Z-0.353
X23.656 Y-8.508 Z-0.286
X23.652 Y-8.501 Z-0.216
G0 Z5.
X7.526 Y-5.064
Z0.102
G1 Z-0.216 F400.
X7.523 Y-5.057 Z-0.286
X7.516 Y-5.035 Z-0.353
X7.504 Y-4.999 Z-0.414
X7.488 Y-4.951 Z-0.464
X7.469 Y-4.894 Z-0.502
X7.448 Y-4.83 Z-0.525
X7.426 Y-4.763 Z-0.533
G3 X7.303 Y-4.781 R0.063
G1 Y-6.228 F762.
X7.313 Y-6.432
X7.332 Y-6.578
X7.369 Y-6.753
X7.427 Y-6.946
X7.507 Y-7.151
X7.627 Y-7.398
X7.775 Y-7.649
X7.987 Y-7.952
X8.25 Y-8.269
X8.61 Y-8.638
X9.07 Y-9.039
X9.558 Y-9.403
X10.068 Y-9.739
X10.593 Y-10.049
X11.13 Y-10.336
X11.678 Y-10.604
X12.235 Y-10.854
X12.799 Y-11.085
X13.37 Y-11.299
X13.947 Y-11.496
X14.529 Y-11.675
X15.117 Y-11.838
X15.709 Y-11.984
X16.305 Y-12.114
X16.904 Y-12.227
X17.506 Y-12.322
X18.111 Y-12.401
X18.717 Y-12.461
X19.326 Y-12.502
X19.935 Y-12.523
X20.545 Y-12.522
X21.154 Y-12.496
X21.761 Y-12.441
X22.355 Y-12.347
X22.78 Y-12.244
X23.103 Y-12.138
X23.331 Y-12.042
X23.413 Y-12.
X23.577 Y-11.883
X23.705 Y-11.727
X23.785 Y-11.542
X23.813 Y-11.342
Y-10.125
G3 X23.784 Y-10.004 R0.317 F400.
G1 X23.755 Y-9.94 Z-0.525
X23.727 Y-9.879 Z-0.502
X23.702 Y-9.824 Z-0.464
X23.681 Y-9.779 Z-0.414
X23.665 Y-9.744 Z-0.353
X23.656 Y-9.723 Z-0.286
X23.652 Y-9.715 Z-0.216
G0 Z5.
X7.526 Y-6.511
Z0.102
G1 Z-0.216 F400.
X7.523 Y-6.504 Z-0.286
X7.516 Y-6.482 Z-0.353
X7.504 Y-6.446 Z-0.414
X7.488 Y-6.398 Z-0.464
X7.469 Y-6.341 Z-0.502
X7.448 Y-6.277 Z-0.525
X7.426 Y-6.21 Z-0.533
G3 X7.303 Y-6.228 R0.063
G1 Y-7.751 F762.
X7.309 Y-7.886
X7.329 Y-8.033
X7.368 Y-8.208
X7.421 Y-8.384
X7.503 Y-8.592
X7.619 Y-8.827
X7.764 Y-9.071
X7.967 Y-9.358
X8.223 Y-9.664
X8.563 Y-10.009
X9.019 Y-10.402
X9.511 Y-10.763
X10.024 Y-11.091
X10.554 Y-11.393
X11.096 Y-11.673
X11.648 Y-11.931
X12.209 Y-12.171
X12.777 Y-12.392
X13.351 Y-12.597
X13.931 Y-12.785
X14.516 Y-12.956
X15.106 Y-13.112
X15.7 Y-13.251
X16.297 Y-13.373
X16.897 Y-13.48
X17.5 Y-13.57
X18.106 Y-13.643
X18.713 Y-13.698
X19.321 Y-13.736
X19.931 Y-13.753
X20.54 Y-13.749
X21.149 Y-13.72
X21.757 Y-13.663
X22.358 Y-13.566
X22.781 Y-13.463
X23.106 Y-13.356
X23.334 Y-13.259
X23.414 Y-13.218
X23.578 Y-13.101
X23.705 Y-12.945
X23.785 Y-12.76
X23.813 Y-12.561
Y-11.342
G3 X23.784 Y-11.221 R0.317 F400.
G1 X23.755 Y-11.157 Z-0.525
X23.727 Y-11.096 Z-0.502
X23.702 Y-11.041 Z-0.464
X23.681 Y-10.995 Z-0.414
X23.665 Y-10.961 Z-0.353
X23.656 Y-10.94 Z-0.286
X23.652 Y-10.932 Z-0.216
G0 Z5.
X7.526 Y-8.034
Z0.102
G1 Z-0.216 F400.
X7.523 Y-8.027 Z-0.286
X7.516 Y-8.005 Z-0.353
X7.504 Y-7.969 Z-0.414
X7.488 Y-7.921 Z-0.464
X7.469 Y-7.864 Z-0.502
X7.448 Y-7.8 Z-0.525
X7.426 Y-7.733 Z-0.533
G3 X7.303 Y-7.751 R0.063
G1 Y-9.135 F762.
X7.311 Y-9.302
X7.33 Y-9.446
X7.366 Y-9.613
X7.416 Y-9.783
X7.495 Y-9.986
X7.604 Y-10.21
X7.742 Y-10.445
X7.935 Y-10.719
X8.174 Y-11.007
X8.492 Y-11.333
X8.914 Y-11.701
X9.404 Y-12.063
X9.918 Y-12.391
X10.449 Y-12.69
X10.994 Y-12.965
X11.548 Y-13.218
X12.111 Y-13.452
X12.682 Y-13.668
X13.258 Y-13.866
X13.84 Y-14.048
X14.427 Y-14.213
X15.018 Y-14.363
X15.613 Y-14.498
X16.211 Y-14.616
X16.812 Y-14.719
X17.415 Y-14.806
X18.021 Y-14.877
X18.628 Y-14.931
X19.237 Y-14.966
X19.846 Y-14.983
X20.456 Y-14.979
X21.065 Y-14.952
X21.672 Y-14.897
X22.275 Y-14.806
X22.738 Y-14.697
X23.07 Y-14.59
X23.307 Y-14.493
X23.408 Y-14.441
X23.575 Y-14.325
X23.703 Y-14.168
X23.785 Y-13.982
X23.813 Y-13.781
Y-12.561
G3 X23.784 Y-12.44 R0.317 F400.
G1 X23.755 Y-12.376 Z-0.525
X23.727 Y-12.315 Z-0.502
X23.702 Y-12.26 Z-0.464
X23.681 Y-12.214 Z-0.414
X23.665 Y-12.18 Z-0.353
X23.656 Y-12.158 Z-0.286
X23.652 Y-12.151 Z-0.216
G0 Z5.
X7.526 Y-9.419
Z0.102
G1 Z-0.216 F400.
X7.523 Y-9.411 Z-0.286
X7.516 Y-9.389 Z-0.353
X7.504 Y-9.353 Z-0.414
X7.488 Y-9.306 Z-0.464
X7.469 Y-9.248 Z-0.502
X7.448 Y-9.185 Z-0.525
X7.426 Y-9.118 Z-0.533
G3 X7.303 Y-9.135 R0.063
G1 Y-10.52 F762.
X7.311 Y-10.697
X7.331 Y-10.843
X7.364 Y-10.998
X7.415 Y-11.17
X7.495 Y-11.374
X7.594 Y-11.579
X7.734 Y-11.817
X7.915 Y-12.075
X8.153 Y-12.361
X8.453 Y-12.669
X8.854 Y-13.019
X9.344 Y-13.381
X9.86 Y-13.707
X10.393 Y-14.002
X10.94 Y-14.271
X11.164 Y-14.37
X11.323 Y-14.42
X11.488 Y-14.434
X11.653 Y-14.41
X12.269 Y-14.258
X12.541 Y-14.244
X12.818 Y-14.267
X13.649 Y-14.37
X13.927 Y-14.416
X14.065 Y-14.452
X14.264 Y-14.535
X15.312 Y-15.1
X15.451 Y-15.194
X15.568 Y-15.273
X15.83 Y-15.422
X16.165 Y-15.578
X16.612 Y-15.743
X17.199 Y-15.909
X17.797 Y-16.027
X18.401 Y-16.111
X19.008 Y-16.167
X19.617 Y-16.199
X20.227 Y-16.207
X20.836 Y-16.19
X21.444 Y-16.144
X22.049 Y-16.066
X22.573 Y-15.962
X22.937 Y-15.858
X23.216 Y-15.754
X23.439 Y-15.65
X23.593 Y-15.532
X23.712 Y-15.378
X23.787 Y-15.199
X23.813 Y-15.006
Y-13.781
G3 X23.784 Y-13.661 R0.317 F400.
X23.449 Y-13.478 R0.317 F762.
G1 X15.609 Y-14.637
G3 X15.373 Y-15.097 R0.318
X15.451 Y-15.194 R0.317 F400.
G1 X15.642 Y-15.366 F762.
X16.005 Y-15.785
X16.282 Y-16.116
X16.423 Y-16.269
X16.555 Y-16.391
X16.709 Y-16.511
X16.911 Y-16.645
X17.155 Y-16.78
X17.469 Y-16.922
X17.853 Y-17.059
X18.352 Y-17.194
X18.952 Y-17.305
X19.558 Y-17.37
X20.167 Y-17.4
X20.777 Y-17.396
X21.385 Y-17.362
X21.991 Y-17.292
X22.542 Y-17.187
X22.908 Y-17.087
X23.202 Y-16.98
X23.433 Y-16.872
X23.59 Y-16.755
X23.711 Y-16.6
X23.787 Y-16.42
X23.813 Y-16.226
Y-15.006
G3 X23.784 Y-14.885 R0.317 F400.
X23.454 Y-14.702 R0.317 F762.
G1 X16.492 Y-15.606
G3 X16.226 Y-16.005 R0.318
X16.282 Y-16.116 R0.317 F400.
G1 X16.463 Y-16.335 F762.
X16.559 Y-16.487
X16.697 Y-16.804
X16.727 Y-16.889
X16.777 Y-17.015
X16.842 Y-17.133
X16.918 Y-17.244
X17.016 Y-17.364
X17.136 Y-17.49
X17.277 Y-17.615
X17.463 Y-17.754
X17.679 Y-17.891
X17.942 Y-18.03
X18.264 Y-18.168
X18.666 Y-18.303
X19.134 Y-18.419
X19.718 Y-18.515
X20.326 Y-18.565
X20.935 Y-18.573
X21.544 Y-18.542
X22.15 Y-18.47
X22.643 Y-18.371
X22.972 Y-18.276
X23.242 Y-18.175
X23.387 Y-18.107
X23.561 Y-17.992
X23.697 Y-17.833
X23.783 Y-17.643
X23.813 Y-17.436
Y-16.226
G3 X23.784 Y-16.105 R0.317 F400.
X23.468 Y-15.92 R0.318 F762.
G1 X17.003 Y-16.481
G3 X16.714 Y-16.766 R0.318
X16.727 Y-16.889 R0.317 F400.
G1 X17.004 Y-17.72 F762.
X17.041 Y-17.858
X17.083 Y-17.987
X17.138 Y-18.11
X17.204 Y-18.228
X17.286 Y-18.348
X17.395 Y-18.482
X17.517 Y-18.612
X17.678 Y-18.756
X17.862 Y-18.897
X18.09 Y-19.043
X18.367 Y-19.191
X18.687 Y-19.331
X19.071 Y-19.463
X19.542 Y-19.583
X20.073 Y-19.674
X20.673 Y-19.728
X21.283 Y-19.733
X21.892 Y-19.693
X22.398 Y-19.619
X22.787 Y-19.529
X23.1 Y-19.43
X23.322 Y-19.34
X23.405 Y-19.298
X23.573 Y-19.182
X23.702 Y-19.025
X23.784 Y-18.838
X23.813 Y-18.637
Y-17.436
G3 X23.784 Y-17.316 R0.317 F400.
X23.478 Y-17.13 R0.317 F762.
G1 X17.333 Y-17.469
G3 X17.037 Y-17.735 R0.318
X17.041 Y-17.858 R0.317 F400.
G1 X17.079 Y-17.997 F762.
X17.098 Y-18.135
X17.103 Y-18.412
X17.099 Y-18.488
X17.1 Y-18.623
X17.115 Y-18.757
X17.147 Y-18.889
X17.193 Y-19.016
X17.251 Y-19.14
X17.323 Y-19.268
X17.42 Y-19.411
X17.531 Y-19.55
X17.679 Y-19.707
X17.843 Y-19.855
X18.06 Y-20.021
X18.294 Y-20.172
X18.599 Y-20.336
X18.925 Y-20.479
X19.333 Y-20.62
X19.804 Y-20.742
X20.309 Y-20.829
X20.884 Y-20.882
X21.472 Y-20.889
X22.025 Y-20.851
X22.493 Y-20.781
X22.841 Y-20.699
X23.133 Y-20.606
X23.408 Y-20.487
X23.574 Y-20.371
X23.703 Y-20.214
X23.785 Y-20.028
X23.813 Y-19.827
Y-18.637
G3 X23.784 Y-18.516 R0.317 F400.
X23.502 Y-18.33 R0.317 F762.
G1 X17.423 Y-18.196
G3 X17.133 Y-18.369 R0.318
X17.099 Y-18.488 R0.318 F400.
G1 X17.055 Y-19.381 F762.
X17.051 Y-19.516
X17.061 Y-19.651
X17.086 Y-19.784
X17.124 Y-19.913
X17.175 Y-20.045
X17.241 Y-20.183
X17.33 Y-20.335
X17.437 Y-20.487
X17.573 Y-20.652
X17.734 Y-20.816
X17.932 Y-20.99
X18.164 Y-21.162
X18.438 Y-21.333
X18.772 Y-21.506
X19.127 Y-21.655
X19.562 Y-21.798
X20.063 Y-21.919
X20.587 Y-22.001
X21.144 Y-22.044
X21.698 Y-22.041
X22.19 Y-22.
X22.621 Y-21.928
X22.936 Y-21.849
X23.194 Y-21.762
X23.418 Y-21.664
X23.581 Y-21.548
X23.706 Y-21.392
X23.785 Y-21.208
X23.813 Y-21.009
Y-19.827
G3 X23.784 Y-19.706 R0.317 F400.
X23.517 Y-19.521 R0.318 F762.
G1 X17.392 Y-19.101
G3 X17.092 Y-19.263 R0.318
X17.055 Y-19.381 R0.318 F400.
G1 X17.044 Y-19.52 F762.
X16.988 Y-19.797
X16.914 Y-19.977
X16.869 Y-20.104
X16.845 Y-20.237
X16.838 Y-20.372
X16.846 Y-20.507
X16.868 Y-20.64
X16.901 Y-20.771
X16.951 Y-20.921
X17.015 Y-21.07
X17.105 Y-21.24
X17.21 Y-21.406
X17.35 Y-21.591
X17.511 Y-21.773
X17.709 Y-21.962
X17.947 Y-22.156
X18.216 Y-22.341
X18.552 Y-22.535
X18.92 Y-22.709
X19.339 Y-22.868
X19.824 Y-23.008
X20.358 Y-23.117
X20.911 Y-23.185
X21.46 Y-23.207
X21.971 Y-23.187
X22.438 Y-23.131
X22.789 Y-23.06
X23.08 Y-22.976
X23.296 Y-22.894
X23.388 Y-22.851
X23.562 Y-22.736
X23.697 Y-22.577
X23.783 Y-22.387
X23.813 Y-22.181
Y-21.009
G3 X23.784 Y-20.889 R0.317 F400.
X23.541 Y-20.706 R0.317 F762.
G1 X17.249 Y-19.794
G3 X16.986 Y-19.876 R0.317
X16.914 Y-19.977 R0.317 F400.
G1 X16.593 Y-20.704 F762.
X16.544 Y-20.829
X16.513 Y-20.961
X16.498 Y-21.095
X16.497 Y-21.23
X16.508 Y-21.365
X16.531 Y-21.51
X16.569 Y-21.663
X16.626 Y-21.832
X16.7 Y-22.005
X16.801 Y-22.197
X16.92 Y-22.385
X17.077 Y-22.594
X17.259 Y-22.8
X17.48 Y-23.012
X17.751 Y-23.233
X18.045 Y-23.436
X18.401 Y-23.642
X18.824 Y-23.843
X19.28 Y-24.017
X19.781 Y-24.163
X20.331 Y-24.276
X20.902 Y-24.346
X21.474 Y-24.37
X22. Y-24.35
X22.447 Y-24.297
X22.787 Y-24.229
X23.08 Y-24.145
X23.293 Y-24.065
X23.387 Y-24.02
X23.562 Y-23.906
X23.697 Y-23.747
X23.783 Y-23.557
X23.813 Y-23.35
Y-22.181
G3 X23.784 Y-22.06 R0.317 F400.
X23.559 Y-21.881 R0.317 F762.
G1 X16.941 Y-20.533
G3 X16.669 Y-20.605 R0.318
X16.593 Y-20.704 R0.318 F400.
G1 X16.42 Y-21.069 F762.
X16.282 Y-21.277
X16.203 Y-21.386
X16.146 Y-21.509
X16.105 Y-21.637
X16.079 Y-21.77
X16.066 Y-21.904
Y-22.045
X16.076 Y-22.19
X16.102 Y-22.355
X16.143 Y-22.526
X16.204 Y-22.713
X16.288 Y-22.912
X16.394 Y-23.119
X16.535 Y-23.344
X16.696 Y-23.563
X16.902 Y-23.798
X17.151 Y-24.041
X17.43 Y-24.273
X17.771 Y-24.512
X18.17 Y-24.747
X18.599 Y-24.955
X19.085 Y-25.144
X19.631 Y-25.307
X20.219 Y-25.433
X20.821 Y-25.512
X21.407 Y-25.541
X21.945 Y-25.525
X22.406 Y-25.473
X22.755 Y-25.406
X23.056 Y-25.322
X23.272 Y-25.242
X23.382 Y-25.192
X23.558 Y-25.078
X23.696 Y-24.919
X23.783 Y-24.727
X23.813 Y-24.519
Y-23.35
G3 X23.784 Y-23.229 R0.317 F400.
X23.577 Y-23.054 R0.318 F762.
G1 X16.596 Y-21.186
G3 X16.382 Y-21.204 R0.318
X16.282 Y-21.277 R0.317 F400.
G1 X16.122 Y-21.458 F762.
X15.837 Y-21.735
X15.745 Y-21.834
X15.67 Y-21.946
X15.61 Y-22.067
X15.564 Y-22.194
X15.53 Y-22.324
X15.508 Y-22.459
X15.495 Y-22.607
Y-22.767
X15.509 Y-22.947
X15.538 Y-23.13
X15.589 Y-23.339
X15.658 Y-23.55
X15.755 Y-23.781
X15.883 Y-24.027
X16.035 Y-24.269
X16.231 Y-24.533
X16.469 Y-24.804
X16.74 Y-25.067
X17.068 Y-25.337
X17.456 Y-25.608
X17.885 Y-25.859
X18.362 Y-26.089
X18.907 Y-26.299
X19.053 Y-26.339
X19.194 Y-26.352
X22.516
X22.773 Y-26.34
X22.988 Y-26.311
X23.165 Y-26.274
X23.341 Y-26.22
X23.532 Y-26.11
X23.683 Y-25.948
X23.779 Y-25.749
X23.813 Y-25.53
G3 X23.784 Y-25.409 R0.317 F400.
X23.351 Y-25.258 R0.317 F762.
G1 X22.383 Y-25.752
G3 X22.396 Y-26.324 R0.318
X22.516 Y-26.352 R0.317 F400.
G1 X23.521 Y-26.35 F762.
X23.625 Y-26.319
X23.706 Y-26.259
X23.778 Y-26.166
X23.81 Y-26.062
X23.813 Y-24.519
G3 X23.784 Y-24.399 R0.317 F400.
X23.598 Y-24.23 R0.318 F762.
G1 X16.154 Y-21.67
G3 X15.944 Y-21.672 R0.318
X15.837 Y-21.735 R0.318 F400.
G1 X15.407 Y-22.151 F762.
X15.254 Y-22.289
X15.154 Y-22.38
X15.075 Y-22.489
X15.009 Y-22.607
X14.956 Y-22.731
X14.914 Y-22.859
X14.881 Y-23.003
X14.858 Y-23.154
X14.847 Y-23.327
X14.849 Y-23.513
X14.867 Y-23.712
X14.907 Y-23.936
X14.965 Y-24.162
X15.053 Y-24.415
X15.169 Y-24.68
X15.314 Y-24.948
X15.503 Y-25.24
X15.733 Y-25.539
X15.999 Y-25.833
X16.325 Y-26.14
X16.388 Y-26.19
X16.529 Y-26.279
X16.686 Y-26.334
X16.851 Y-26.352
X19.194
G3 X19.315 Y-26.324 R0.318 F400.
X19.399 Y-25.802 R0.318 F762.
G1 X15.647 Y-22.32
G3 X15.368 Y-22.241 R0.317
X15.254 Y-22.289 R0.318 F400.
G1 X15.035 Y-22.435 F762.
X14.82 Y-22.535
X14.699 Y-22.595
X14.591 Y-22.675
X14.495 Y-22.77
X14.411 Y-22.876
X14.339 Y-22.99
X14.277 Y-23.11
X14.222 Y-23.244
X14.177 Y-23.387
X14.138 Y-23.554
X14.112 Y-23.732
X14.099 Y-23.93
X14.102 Y-24.15
X14.123 Y-24.376
X14.168 Y-24.633
X14.238 Y-24.901
X14.336 Y-25.183
X14.471 Y-25.49
X14.642 Y-25.806
X14.778 Y-26.015
X14.897 Y-26.156
X15.046 Y-26.263
X15.217 Y-26.33
X15.4 Y-26.352
X16.851
G3 X16.971 Y-26.324 R0.318 F400.
X17.113 Y-25.873 R0.317 F762.
G1 X15.21 Y-22.668
G3 X14.942 Y-22.513 R0.317
X14.82 Y-22.535 R0.318 F400.
G1 X14.139 Y-22.821 F762.
X14.017 Y-22.879
X13.905 Y-22.954
X13.803 Y-23.042
X13.711 Y-23.141
X13.629 Y-23.248
X13.554 Y-23.367
X13.487 Y-23.494
X13.422 Y-23.647
X13.368 Y-23.811
X13.322 Y-23.996
X13.288 Y-24.205
X13.27 Y-24.423
Y-24.674
X13.291 Y-24.937
X13.337 Y-25.219
X13.405 Y-25.497
X13.489 Y-25.752
X13.576 Y-25.955
X13.693 Y-26.119
X13.849 Y-26.245
X14.033 Y-26.325
X14.233 Y-26.352
X15.4
G3 X15.52 Y-26.324 R0.318 F400.
X15.684 Y-25.92 R0.317 F762.
G1 X14.547 Y-23.002
G3 X14.261 Y-22.8 R0.317
X14.139 Y-22.821 R0.317 F400.
G1 X13.788 Y-22.959 F762.
X13.649 Y-22.998
X13.539 Y-23.017
X13.407 Y-23.047
X13.283 Y-23.099
X13.166 Y-23.168
X13.059 Y-23.249
X12.96 Y-23.341
X12.87 Y-23.442
X12.782 Y-23.56
X12.701 Y-23.688
X12.62 Y-23.843
X12.549 Y-24.008
X12.485 Y-24.2
X12.433 Y-24.413
X12.396 Y-24.637
X12.376 Y-24.884
Y-25.139
X12.392 Y-25.35
X12.427 Y-25.567
X12.472 Y-25.748
X12.504 Y-25.845
X12.609 Y-26.05
X12.773 Y-26.212
X12.979 Y-26.317
X13.207 Y-26.352
X14.233
G3 X14.353 Y-26.324 R0.318 F400.
X14.531 Y-25.962 R0.317 F762.
G1 X13.892 Y-23.259
G3 X13.663 Y-23.024 R0.317
X13.539 Y-23.017 R0.317 F400.
G1 X13.095 Y-23.047 F762.
X12.957 Y-23.05
X12.822 Y-23.06
X12.69 Y-23.087
X12.563 Y-23.133
X12.442 Y-23.193
X12.328 Y-23.266
X12.222 Y-23.349
X12.119 Y-23.444
X12.017 Y-23.555
X11.913 Y-23.687
X11.817 Y-23.832
X11.724 Y-24.001
X11.639 Y-24.188
X11.569 Y-24.387
X11.511 Y-24.6
X11.47 Y-24.824
X11.448 Y-25.032
X11.444 Y-25.242
X11.455 Y-25.44
X11.478 Y-25.605
X11.533 Y-25.83
X11.637 Y-26.04
X11.801 Y-26.208
X12.01 Y-26.315
X12.241 Y-26.352
X13.207
G3 X13.327 Y-26.324 R0.318 F400.
X13.512 Y-26.006 R0.318 F762.
G1 X13.269 Y-23.339
G3 X13.078 Y-23.076 R0.318
X12.957 Y-23.05 R0.317 F400.
G1 X12.188 Y-23.061 F762.
X12.053 Y-23.062
X11.92 Y-23.084
X11.79 Y-23.122
X11.666 Y-23.175
X11.548 Y-23.24
X11.435 Y-23.315
X11.319 Y-23.407
X11.208 Y-23.511
X11.093 Y-23.637
X10.982 Y-23.78
X10.88 Y-23.937
X10.784 Y-24.112
X10.699 Y-24.305
X10.628 Y-24.508
X10.572 Y-24.721
X10.535 Y-24.926
X10.517 Y-25.114
X10.514 Y-25.318
X10.525 Y-25.492
X10.547 Y-25.648
X10.591 Y-25.834
X10.696 Y-26.043
X10.86 Y-26.209
X11.067 Y-26.316
X11.298 Y-26.352
X12.241
G3 X12.362 Y-26.324 R0.318 F400.
X12.547 Y-26.027 R0.318 F762.
G1 X12.481 Y-23.369
G3 X12.307 Y-23.094 R0.317
X12.188 Y-23.061 R0.317 F400.
G1 X11.987 Y-23.044 F762.
X11.848 Y-23.018
X11.668 Y-22.957
X11.538 Y-22.919
X11.404 Y-22.907
X11.269 Y-22.914
X11.136 Y-22.937
X11.006 Y-22.974
X10.881 Y-23.024
X10.76 Y-23.085
X10.635 Y-23.161
X10.506 Y-23.254
X10.38 Y-23.361
X10.253 Y-23.489
X10.128 Y-23.636
X10.012 Y-23.797
X9.906 Y-23.973
X9.809 Y-24.167
X9.726 Y-24.373
X9.659 Y-24.587
X9.609 Y-24.811
X9.581 Y-25.007
X9.569 Y-25.203
X9.573 Y-25.397
X9.589 Y-25.56
X9.64 Y-25.802
X9.714 Y-25.981
X9.832 Y-26.135
X9.985 Y-26.253
X10.164 Y-26.327
X10.356 Y-26.352
X11.298
G3 X11.419 Y-26.324 R0.318 F400.
X11.603 Y-26.066 R0.318 F762.
G1 X11.87 Y-23.283
G3 X11.773 Y-23.023 R0.317
X11.668 Y-22.957 R0.318 F400.
G1 X11.017 Y-22.722 F762.
X10.888 Y-22.682
X10.755 Y-22.659
X10.62 Y-22.654
X10.486 Y-22.664
X10.353 Y-22.689
X10.223 Y-22.725
X10.093 Y-22.774
X9.96 Y-22.837
X9.817 Y-22.918
X9.678 Y-23.013
X9.535 Y-23.128
X9.391 Y-23.265
X9.254 Y-23.418
X9.124 Y-23.59
X9.002 Y-23.779
X8.893 Y-23.984
X8.798 Y-24.204
X8.72 Y-24.431
X8.661 Y-24.663
X8.624 Y-24.883
X8.605 Y-25.101
X8.603 Y-25.298
X8.616 Y-25.474
X8.645 Y-25.658
X8.691 Y-25.84
X8.796 Y-26.047
X8.96 Y-26.211
X9.166 Y-26.316
X9.395 Y-26.352
X10.356
G3 X10.476 Y-26.324 R0.318 F400.
X10.657 Y-26.092 R0.317 F762.
G1 X11.209 Y-23.073
G3 X11.12 Y-22.791 R0.318
X11.017 Y-22.722 R0.318 F400.
G1 X10.602 Y-22.559 F762.
X10.463 Y-22.495
X10.401 Y-22.458
X10.282 Y-22.394
X10.153 Y-22.354
X10.02 Y-22.332
X9.885 Y-22.325
X9.75 Y-22.333
X9.617 Y-22.354
X9.485 Y-22.385
X9.341 Y-22.432
X9.192 Y-22.494
X9.041 Y-22.572
X8.881 Y-22.672
X8.723 Y-22.789
X8.567 Y-22.925
X8.41 Y-23.085
X8.258 Y-23.269
X8.117 Y-23.468
X7.99 Y-23.684
X7.877 Y-23.917
X7.782 Y-24.161
X7.707 Y-24.411
X7.652 Y-24.667
X7.62 Y-24.912
X7.609 Y-25.12
X7.616 Y-25.342
X7.636 Y-25.525
X7.668 Y-25.691
X7.701 Y-25.81
X7.776 Y-25.987
X7.894 Y-26.138
X8.047 Y-26.255
X8.225 Y-26.328
X8.415 Y-26.352
X9.395
G3 X9.516 Y-26.324 R0.318 F400.
X9.692 Y-26.114 R0.317 F762.
G1 X10.536 Y-22.803
G3 X10.49 Y-22.545 R0.317
X10.401 Y-22.458 R0.317 F400.
G1 X10.186 Y-22.303 F762.
X9.956 Y-22.099
X9.851 Y-22.014
X9.732 Y-21.952
X9.604 Y-21.906
X9.473 Y-21.876
X9.339 Y-21.86
X9.204 Y-21.857
X9.063 Y-21.865
X8.919 Y-21.886
X8.761 Y-21.921
X8.596 Y-21.973
X8.427 Y-22.04
X8.246 Y-22.13
X8.065 Y-22.24
X7.885 Y-22.369
X7.702 Y-22.524
X7.52 Y-22.705
X7.348 Y-22.907
X7.188 Y-23.128
X7.039 Y-23.372
X6.907 Y-23.635
X6.797 Y-23.908
X6.708 Y-24.19
X6.643 Y-24.473
X6.602 Y-24.751
X6.587 Y-24.998
X6.591 Y-25.24
X6.609 Y-25.435
X6.645 Y-25.637
X6.708 Y-25.857
X6.815 Y-26.058
X6.978 Y-26.216
X7.182 Y-26.318
X7.407 Y-26.352
X8.415
G3 X8.536 Y-26.324 R0.318 F400.
X8.703 Y-26.143 R0.318 F762.
G1 X10.035 Y-22.435
G3 X10.027 Y-22.2 R0.317
X9.956 Y-22.099 R0.317 F400.
G1 X9.399 Y-21.597 F762.
X9.298 Y-21.508
X9.181 Y-21.441
X9.056 Y-21.39
X8.926 Y-21.352
X8.793 Y-21.327
X8.659 Y-21.314
X8.51 Y-21.312
X8.356 Y-21.322
X8.184 Y-21.347
X8.007 Y-21.387
X7.82 Y-21.447
X7.618 Y-21.528
X7.419 Y-21.629
X7.214 Y-21.753
X7.001 Y-21.907
X6.791 Y-22.087
X6.59 Y-22.288
X6.395 Y-22.518
X6.21 Y-22.776
X6.04 Y-23.058
X5.89 Y-23.36
X5.765 Y-23.672
X5.666 Y-23.991
X5.595 Y-24.306
X5.55 Y-24.619
X5.533 Y-24.915
X5.537 Y-25.156
X5.562 Y-25.401
X5.597 Y-25.595
X5.675 Y-25.86
X5.783 Y-26.059
X5.946 Y-26.217
X6.149 Y-26.318
X6.373 Y-26.352
X7.407
G3 X7.527 Y-26.324 R0.318 F400.
X7.688 Y-26.158 R0.317 F762.
G1 X9.463 Y-21.94
G3 X9.466 Y-21.701 R0.317
X9.399 Y-21.597 R0.317 F400.
G1 X9.257 Y-21.458 F762.
X9.078 Y-21.212
X9.061 Y-21.181
X8.99 Y-21.066
X8.893 Y-20.972
X8.784 Y-20.893
X8.666 Y-20.827
X8.542 Y-20.775
X8.413 Y-20.734
X8.281 Y-20.704
X8.131 Y-20.683
X7.971 Y-20.673
X7.798 Y-20.676
X7.606 Y-20.695
X7.411 Y-20.73
X7.199 Y-20.787
X6.973 Y-20.867
X6.75 Y-20.967
X6.515 Y-21.095
X6.271 Y-21.255
X6.029 Y-21.443
X5.796 Y-21.657
X5.565 Y-21.905
X5.344 Y-22.186
X5.137 Y-22.495
X4.953 Y-22.828
X4.793 Y-23.179
X4.662 Y-23.541
X4.563 Y-23.901
X4.496 Y-24.258
X4.459 Y-24.602
X4.451 Y-24.922
X4.465 Y-25.182
X4.5 Y-25.437
X4.543 Y-25.633
X4.624 Y-25.884
X4.735 Y-26.074
X4.897 Y-26.224
X5.096 Y-26.32
X5.314 Y-26.352
X6.373
G3 X6.494 Y-26.324 R0.318 F400.
X6.645 Y-26.18 R0.317 F762.
G1 X9.06 Y-21.469
G3 X9.094 Y-21.301 R0.318
X9.061 Y-21.181 R0.317 F400.
G1 X8.776 Y-20.628 F762.
X8.71 Y-20.51
X8.627 Y-20.403
X8.53 Y-20.309
X8.423 Y-20.227
X8.308 Y-20.156
X8.187 Y-20.097
X8.055 Y-20.046
X7.91 Y-20.002
X7.752 Y-19.968
X7.572 Y-19.944
X7.386 Y-19.935
X7.18 Y-19.941
X6.956 Y-19.966
X6.727 Y-20.01
X6.478 Y-20.079
X6.215 Y-20.176
X5.954 Y-20.297
X5.682 Y-20.449
X5.401 Y-20.638
X5.117 Y-20.864
X4.845 Y-21.12
X4.584 Y-21.408
X4.333 Y-21.733
X4.099 Y-22.092
X3.891 Y-22.476
X3.713 Y-22.879
X3.568 Y-23.295
X3.459 Y-23.712
X3.388 Y-24.117
X3.351 Y-24.501
X3.346 Y-24.855
X3.365 Y-25.142
X3.406 Y-25.414
X3.455 Y-25.629
X3.545 Y-25.892
X3.656 Y-26.079
X3.818 Y-26.227
X4.015 Y-26.32
X4.231 Y-26.352
X5.314
G3 X5.434 Y-26.324 R0.318 F400.
X5.574 Y-26.199 R0.318 F762.
G1 X8.759 Y-20.924
G3 X8.805 Y-20.748 R0.317
X8.776 Y-20.628 R0.317 F400.
G1 X8.505 Y-20.074 F762.
X8.476 Y-19.998
X8.42 Y-19.874
X8.349 Y-19.759
X8.264 Y-19.655
X8.166 Y-19.562
X8.06 Y-19.479
X7.946 Y-19.406
X7.825 Y-19.341
X7.681 Y-19.279
X7.526 Y-19.226
X7.352 Y-19.183
X7.155 Y-19.15
X6.95 Y-19.132
X6.72 Y-19.13
X6.473 Y-19.149
X6.219 Y-19.189
X5.939 Y-19.256
X5.641 Y-19.353
X5.345 Y-19.477
X5.035 Y-19.637
X4.713 Y-19.837
X4.387 Y-20.078
X4.069 Y-20.355
X3.766 Y-20.666
X3.471 Y-21.021
X3.194 Y-21.415
X2.943 Y-21.842
X2.722 Y-22.296
X2.54 Y-22.765
X2.397 Y-23.24
X2.296 Y-23.711
X2.238 Y-24.156
X2.218 Y-24.561
X2.229 Y-24.934
X2.261 Y-25.223
X2.314 Y-25.497
X2.371 Y-25.703
X2.453 Y-25.922
X2.567 Y-26.098
X2.726 Y-26.236
X2.918 Y-26.323
X3.126 Y-26.352
X4.231
G3 X4.351 Y-26.324 R0.318 F400.
X4.484 Y-26.211 R0.318 F762.
G1 X8.44 Y-20.279
G3 X8.493 Y-20.12 R0.318
X8.476 Y-19.998 R0.317 F400.
G1 X8.451 Y-19.935 F762.
X8.388 Y-19.658
X8.357 Y-19.444
X8.332 Y-19.311
X8.285 Y-19.184
X8.221 Y-19.066
X8.143 Y-18.955
X8.055 Y-18.854
X7.956 Y-18.761
X7.847 Y-18.674
X7.724 Y-18.591
X7.578 Y-18.509
X7.422 Y-18.438
X7.241 Y-18.371
X7.041 Y-18.316
X6.827 Y-18.275
X6.582 Y-18.248
X6.324 Y-18.24
X6.05 Y-18.254
X5.748 Y-18.294
X5.426 Y-18.364
X5.103 Y-18.461
X4.755 Y-18.597
X4.39 Y-18.774
X4.018 Y-18.994
X3.653 Y-19.25
X3.295 Y-19.549
X2.938 Y-19.897
X2.593 Y-20.294
X2.267 Y-20.735
X1.971 Y-21.213
X1.709 Y-21.721
X1.489 Y-22.249
X1.315 Y-22.784
X1.189 Y-23.313
X1.109 Y-23.826
X1.074 Y-24.298
X1.077 Y-24.715
X1.11 Y-25.09
X1.157 Y-25.37
X1.221 Y-25.623
X1.288 Y-25.82
X1.326 Y-25.906
X1.438 Y-26.088
X1.599 Y-26.231
X1.793 Y-26.321
X2.005 Y-26.352
X3.126
G3 X3.246 Y-26.324 R0.318 F400.
X3.368 Y-26.226 R0.318 F762.
G1 X8.296 Y-19.667
G3 X8.346 Y-19.567 R0.317
X8.357 Y-19.444 R0.317 F400.
G1 X8.275 Y-18.828 F762.
X8.27 Y-18.751
X8.255 Y-18.617
X8.221 Y-18.487
X8.169 Y-18.362
X8.103 Y-18.244
X8.026 Y-18.134
X7.939 Y-18.031
X7.841 Y-17.933
X7.721 Y-17.83
X7.587 Y-17.733
X7.432 Y-17.639
X7.253 Y-17.55
X7.061 Y-17.472
X6.839 Y-17.402
X6.595 Y-17.347
X6.334 Y-17.309
X6.042 Y-17.29
X5.724 Y-17.296
X5.399 Y-17.327
X5.042 Y-17.392
X4.656 Y-17.493
X4.256 Y-17.634
X3.86 Y-17.811
X3.449 Y-18.035
X3.027 Y-18.311
X2.602 Y-18.64
X2.182 Y-19.024
X1.777 Y-19.458
X1.399 Y-19.936
X1.059 Y-20.443
X0.761 Y-20.974
X0.505 Y-21.528
X0.291 Y-22.099
X0.121 Y-22.684
X-0.001 Y-23.273
X-0.069 Y-23.818
X-0.091 Y-24.312
X-0.074 Y-24.767
X-0.032 Y-25.131
X0.028 Y-25.432
X0.096 Y-25.67
X0.197 Y-25.926
X0.311 Y-26.101
X0.47 Y-26.237
X0.661 Y-26.323
X0.868 Y-26.352
X2.005
G3 X2.126 Y-26.324 R0.318 F400.
X2.24 Y-26.236 R0.318 F762.
G1 X8.198 Y-18.96
G3 X8.249 Y-18.873 R0.317
X8.27 Y-18.751 R0.318 F400.
G1 X8.272 Y-18.551 F762.
X8.313 Y-18.274
X8.327 Y-18.198
X8.344 Y-18.064
X8.338 Y-17.929
X8.312 Y-17.796
X8.271 Y-17.668
X8.216 Y-17.544
X8.15 Y-17.426
X8.073 Y-17.312
X7.979 Y-17.195
X7.866 Y-17.074
X7.738 Y-16.958
X7.583 Y-16.838
X7.412 Y-16.728
X7.216 Y-16.622
X6.989 Y-16.522
X6.748 Y-16.438
X6.477 Y-16.368
X6.17 Y-16.314
X5.849 Y-16.284
X5.5 Y-16.279
X5.114 Y-16.305
X4.701 Y-16.367
X4.279 Y-16.465
X3.845 Y-16.603
X3.385 Y-16.791
X2.906 Y-17.034
X2.416 Y-17.334
X1.925 Y-17.692
X1.463 Y-18.09
X1.032 Y-18.522
X0.637 Y-18.985
X0.275 Y-19.477
X-0.051 Y-19.992
X-0.341 Y-20.528
X-0.595 Y-21.082
X-0.813 Y-21.652
X-0.991 Y-22.235
X-1.129 Y-22.829
X-1.221 Y-23.431
X-1.262 Y-23.993
X-1.258 Y-24.506
X-1.218 Y-24.95
X-1.162 Y-25.278
X-1.088 Y-25.569
X-1.015 Y-25.783
X-0.962 Y-25.907
X-0.849 Y-26.089
X-0.688 Y-26.231
X-0.494 Y-26.322
X-0.282 Y-26.352
X0.868
G3 X0.988 Y-26.324 R0.318 F400.
X1.092 Y-26.248 R0.318 F762.
G1 X8.252 Y-18.343
G3 X8.278 Y-18.311 R0.317
X8.327 Y-18.198 R0.317 F400.
G1 X8.459 Y-17.505 F762.
X8.496 Y-17.238
X8.492 Y-17.103
X8.472 Y-16.969
X8.438 Y-16.839
X8.392 Y-16.712
X8.336 Y-16.589
X8.195 Y-16.359
X8.025 Y-16.15
X7.831 Y-15.962
X7.618 Y-15.796
X7.391 Y-15.65
X7.152 Y-15.525
X6.903 Y-15.419
X6.518 Y-15.295
X6.122 Y-15.211
X5.72 Y-15.162
X5.316 Y-15.148
X4.911 Y-15.165
X4.509 Y-15.211
X4.111 Y-15.285
X3.718 Y-15.385
X3.333 Y-15.509
X2.831 Y-15.708
X2.345 Y-15.944
X1.877 Y-16.213
X1.427 Y-16.512
X0.998 Y-16.839
X0.59 Y-17.193
X0.205 Y-17.571
X-0.158 Y-17.971
X-0.498 Y-18.39
X-0.813 Y-18.828
X-1.104 Y-19.283
X-1.371 Y-19.753
X-1.612 Y-20.236
X-1.828 Y-20.731
X-2.016 Y-21.237
X-2.177 Y-21.752
X-2.309 Y-22.276
X-2.411 Y-22.806
X-2.479 Y-23.342
X-2.513 Y-23.881
X-2.512 Y-24.286
X-2.488 Y-24.69
X-2.435 Y-25.091
X-2.349 Y-25.487
X-2.269 Y-25.745
X-2.202 Y-25.911
X-2.089 Y-26.091
X-1.929 Y-26.232
X-1.736 Y-26.322
X-1.525 Y-26.352
X-0.282
X-0.245 Y-26.344 Z-0.527 F400.
X-0.211 Y-26.336 Z-0.509
X-0.184 Y-26.33 Z-0.482
X-0.167 Y-26.325 Z-0.447
X-0.161 Y-26.324 Z-0.409
G0 Z5.
X7.331 Y-10.399
Z-0.216
G1 Z-0.533 F400.
G3 X7.303 Y-10.52 R0.317
G1 X7.297 Y-11.212 F762.
X7.287 Y-11.415
X7.256 Y-11.565
X7.232 Y-11.698
X7.223 Y-11.833
X7.227 Y-11.968
X7.26 Y-12.192
X7.321 Y-12.419
X7.332 Y-12.571
X7.311 Y-12.722
X7.26 Y-12.866
X7.181 Y-12.996
X7.076 Y-13.107
X6.577 Y-13.456
X5.989 Y-13.62
X4.794 Y-13.859
X4.198 Y-13.989
X3.609 Y-14.146
X3.029 Y-14.336
X2.462 Y-14.56
X1.911 Y-14.821
X1.378 Y-15.117
X0.865 Y-15.446
X0.373 Y-15.807
X-0.095 Y-16.197
X-0.538 Y-16.616
X-0.957 Y-17.059
X-1.349 Y-17.526
X-1.714 Y-18.015
X-2.051 Y-18.522
X-2.36 Y-19.048
X-2.641 Y-19.589
X-2.891 Y-20.145
X-3.112 Y-20.714
X-3.3 Y-21.294
X-3.455 Y-21.883
X-3.575 Y-22.481
X-3.659 Y-23.085
X-3.702 Y-23.693
X-3.701 Y-24.289
X-3.659 Y-24.803
X-3.595 Y-25.196
X-3.517 Y-25.513
X-3.44 Y-25.742
X-3.372 Y-25.902
X-3.259 Y-26.086
X-3.098 Y-26.23
X-2.903 Y-26.321
X-2.69 Y-26.352
X-1.525
X-1.487 Y-26.344 Z-0.527 F400.
X-1.454 Y-26.336 Z-0.509
X-1.427 Y-26.33 Z-0.482
X-1.41 Y-26.325 Z-0.447
X-1.404 Y-26.324 Z-0.409
G0 Z5.
X7.409 Y-11.893
Z0.102
G1 Z-0.216 F400.
X7.408 Y-11.885 Z-0.286
X7.406 Y-11.861 Z-0.353
X7.403 Y-11.824 Z-0.414
X7.398 Y-11.774 Z-0.464
X7.393 Y-11.714 Z-0.502
X7.387 Y-11.647 Z-0.525
X7.381 Y-11.576 Z-0.533
G3 X7.256 Y-11.565 R0.063
G1 X7.194 Y-11.766 F762.
X7.134 Y-11.905
X7.06 Y-12.043
X6.958 Y-12.181
X6.832 Y-12.32
X6.722 Y-12.426
X6.469 Y-12.597
X6.307 Y-12.673
X6.116 Y-12.735
X5.891 Y-12.776
X5.753 Y-12.788
X5.198 Y-12.789
X4.589 Y-12.819
X4.03 Y-12.88
X3.431 Y-12.995
X2.843 Y-13.155
X2.267 Y-13.356
X1.706 Y-13.594
X1.16 Y-13.866
X0.632 Y-14.17
X0.121 Y-14.504
X-0.37 Y-14.865
X-0.84 Y-15.253
X-1.289 Y-15.665
X-1.716 Y-16.101
X-2.118 Y-16.559
X-2.497 Y-17.037
X-2.85 Y-17.534
X-3.178 Y-18.048
X-3.48 Y-18.577
X-3.757 Y-19.121
X-4.006 Y-19.677
X-4.227 Y-20.245
X-4.421 Y-20.824
X-4.584 Y-21.411
X-4.716 Y-22.006
X-4.814 Y-22.608
X-4.876 Y-23.215
X-4.901 Y-23.824
X-4.883 Y-24.417
X-4.83 Y-24.901
X-4.758 Y-25.274
X-4.672 Y-25.582
X-4.592 Y-25.802
X-4.537 Y-25.921
X-4.423 Y-26.098
X-4.264 Y-26.235
X-4.072 Y-26.323
X-3.864 Y-26.352
X-2.69
G3 X-2.569 Y-26.324 R0.318 F400.
X-2.43 Y-26.201 R0.318 F762.
G1 X5.458 Y-13.272
G3 X5.319 Y-12.817 R0.318
X5.198 Y-12.789 R0.318 F400.
G1 X1.873 F762.
X1.605 Y-12.802
X1.333 Y-12.838
X1.034 Y-12.902
X0.672 Y-13.011
X0.256 Y-13.173
X-0.21 Y-13.398
X-0.735 Y-13.708
X-1.235 Y-14.057
X-1.71 Y-14.439
X-2.163 Y-14.847
X-2.593 Y-15.28
X-3. Y-15.734
X-3.384 Y-16.207
X-3.746 Y-16.698
X-4.084 Y-17.205
X-4.399 Y-17.728
X-4.688 Y-18.264
X-4.954 Y-18.813
X-5.194 Y-19.373
X-5.409 Y-19.944
X-5.597 Y-20.524
X-5.758 Y-21.112
X-5.89 Y-21.707
X-5.992 Y-22.308
X-6.063 Y-22.914
X-6.098 Y-23.523
X-6.095 Y-24.132
X-6.05 Y-24.678
X-5.977 Y-25.128
X-5.895 Y-25.461
X-5.809 Y-25.716
X-5.705 Y-25.956
X-5.589 Y-26.119
X-5.432 Y-26.246
X-5.248 Y-26.325
X-5.049 Y-26.352
X-3.864
G3 X-3.743 Y-26.324 R0.318 F400.
X-3.585 Y-26.164 R0.318 F762.
G1 X2.153 Y-13.235
G3 X1.994 Y-12.817 R0.318
X1.873 Y-12.789 R0.318 F400.
G1 X-0.205 F762.
X-0.466 Y-12.802
X-0.672 Y-12.829
X-0.897 Y-12.877
X-1.173 Y-12.96
X-1.465 Y-13.073
X-1.82 Y-13.246
X-2.216 Y-13.479
X-2.665 Y-13.794
X-3.134 Y-14.184
X-3.574 Y-14.606
X-3.987 Y-15.055
X-4.375 Y-15.525
X-4.74 Y-16.013
X-5.083 Y-16.518
X-5.402 Y-17.037
X-5.698 Y-17.57
X-5.972 Y-18.115
X-6.223 Y-18.67
X-6.449 Y-19.237
X-6.651 Y-19.812
X-6.828 Y-20.395
X-6.978 Y-20.986
X-7.103 Y-21.583
X-7.199 Y-22.185
X-7.266 Y-22.791
X-7.301 Y-23.4
X-7.299 Y-24.01
X-7.255 Y-24.593
X-7.179 Y-25.08
X-7.099 Y-25.412
X-7.007 Y-25.696
X-6.895 Y-25.951
X-6.779 Y-26.117
X-6.622 Y-26.244
X-6.437 Y-26.325
X-6.237 Y-26.352
X-5.049
G3 X-4.929 Y-26.324 R0.318 F400.
X-4.763 Y-26.147 R0.318 F762.
G1 X0.081 Y-13.218
G3 X-0.084 Y-12.817 R0.318
X-0.205 Y-12.789 R0.318 F400.
G1 X-2.006 F762.
X-2.234 Y-12.8
X-2.412 Y-12.824
X-2.623 Y-12.869
X-2.839 Y-12.934
X-3.102 Y-13.036
X-3.386 Y-13.174
X-3.725 Y-13.373
X-4.086 Y-13.627
X-4.508 Y-13.977
X-4.944 Y-14.403
X-5.348 Y-14.859
X-5.725 Y-15.339
X-6.076 Y-15.837
X-6.403 Y-16.352
X-6.707 Y-16.88
X-6.99 Y-17.42
X-7.25 Y-17.972
X-7.487 Y-18.534
X-7.701 Y-19.105
X-7.891 Y-19.684
X-8.058 Y-20.27
X-8.201 Y-20.863
X-8.318 Y-21.461
X-8.41 Y-22.064
X-8.473 Y-22.671
X-8.507 Y-23.279
Y-23.889
X-8.467 Y-24.49
X-8.39 Y-25.009
X-8.308 Y-25.364
X-8.213 Y-25.663
X-8.09 Y-25.946
X-7.974 Y-26.113
X-7.817 Y-26.243
X-7.631 Y-26.325
X-7.429 Y-26.352
X-6.237
G3 X-6.116 Y-26.324 R0.318 F400.
X-5.946 Y-26.134 R0.318 F762.
G1 X-1.715 Y-13.205
G3 X-1.885 Y-12.817 R0.318
X-2.006 Y-12.789 R0.318 F400.
G1 X-3.668 F762.
X-3.854 Y-12.798
X-4.023 Y-12.82
X-4.199 Y-12.858
X-4.409 Y-12.921
X-4.644 Y-13.012
X-4.897 Y-13.135
X-5.193 Y-13.309
X-5.517 Y-13.537
X-5.879 Y-13.838
X-6.293 Y-14.242
X-6.694 Y-14.701
X-7.063 Y-15.187
X-7.403 Y-15.692
X-7.719 Y-16.214
X-8.011 Y-16.749
X-8.313 Y-17.369
X-8.363 Y-17.528
X-8.376 Y-17.694
X-8.352 Y-17.858
X-8.319 Y-17.997
X-8.302 Y-18.135
X-8.297 Y-18.412
X-8.347 Y-19.381
X-8.379 Y-19.665
X-8.474 Y-19.935
X-8.656 Y-20.369
X-8.964 Y-21.043
X-9.049 Y-21.181
X-9.13 Y-21.329
X-9.256 Y-21.607
X-9.382 Y-21.96
X-9.499 Y-22.39
X-9.589 Y-22.876
X-9.646 Y-23.433
X-9.659 Y-24.012
X-9.628 Y-24.55
X-9.563 Y-25.018
X-9.487 Y-25.36
X-9.397 Y-25.654
X-9.276 Y-25.94
X-9.16 Y-26.11
X-9.002 Y-26.241
X-8.815 Y-26.324
X-8.612 Y-26.352
X-7.429
G3 X-7.309 Y-26.324 R0.318 F400.
X-7.135 Y-25.947 R0.317 F762.
G1 X-8.48 Y-21.27
G3 X-8.961 Y-21.094 R0.317
X-9.049 Y-21.181 R0.317 F400.
G1 X-9.21 Y-21.388 F762.
X-9.85 Y-22.012
X-9.992 Y-22.162
X-10.095 Y-22.29
X-10.193 Y-22.434
X-10.298 Y-22.618
X-10.399 Y-22.833
X-10.491 Y-23.082
X-10.575 Y-23.378
X-10.642 Y-23.713
X-10.684 Y-24.072
X-10.697 Y-24.451
X-10.68 Y-24.834
X-10.637 Y-25.18
X-10.579 Y-25.46
X-10.508 Y-25.7
X-10.416 Y-25.931
X-10.301 Y-26.104
X-10.143 Y-26.238
X-9.953 Y-26.323
X-9.748 Y-26.352
X-8.612
G3 X-8.491 Y-26.324 R0.318 F400.
X-8.316 Y-25.953 R0.318 F762.
G1 X-9.332 Y-22.167
G3 X-9.743 Y-21.949 R0.318
X-9.85 Y-22.012 R0.317 F400.
G1 X-10.18 Y-22.316 F762.
X-10.351 Y-22.428
X-10.595 Y-22.542
X-10.717 Y-22.6
X-10.827 Y-22.679
X-10.929 Y-22.767
X-11.03 Y-22.872
X-11.128 Y-22.993
X-11.228 Y-23.138
X-11.326 Y-23.308
X-11.419 Y-23.503
X-11.504 Y-23.725
X-11.579 Y-23.982
X-11.634 Y-24.25
X-11.669 Y-24.538
X-11.681 Y-24.835
X-11.67 Y-25.124
X-11.642 Y-25.361
X-11.595 Y-25.594
X-11.543 Y-25.777
X-11.507 Y-25.872
X-11.398 Y-26.067
X-11.235 Y-26.221
X-11.034 Y-26.319
X-10.813 Y-26.352
X-9.748
G3 X-9.627 Y-26.324 R0.318 F400.
X-9.449 Y-25.965 R0.318 F762.
G1 X-10.173 Y-22.769
G3 X-10.473 Y-22.522 R0.318
X-10.595 Y-22.542 R0.317 F400.
G1 X-11.469 Y-22.906 F762.
X-11.592 Y-22.961
X-11.708 Y-23.031
X-11.816 Y-23.111
X-11.916 Y-23.202
X-12.019 Y-23.311
X-12.121 Y-23.436
X-12.223 Y-23.587
X-12.317 Y-23.752
X-12.408 Y-23.948
X-12.487 Y-24.158
X-12.55 Y-24.381
X-12.598 Y-24.623
X-12.627 Y-24.872
X-12.635 Y-25.098
X-12.625 Y-25.324
X-12.599 Y-25.526
X-12.564 Y-25.695
X-12.51 Y-25.877
X-12.4 Y-26.07
X-12.238 Y-26.222
X-12.038 Y-26.319
X-11.818 Y-26.352
X-10.813
G3 X-10.693 Y-26.324 R0.318 F400.
X-10.513 Y-25.976 R0.318 F762.
G1 X-11.052 Y-23.146
G3 X-11.346 Y-22.889 R0.317
X-11.469 Y-22.906 R0.318 F400.
G1 X-11.704 Y-22.986 F762.
X-11.842 Y-23.015
X-12.057 Y-23.032
X-12.191 Y-23.049
X-12.322 Y-23.083
X-12.447 Y-23.133
X-12.566 Y-23.196
X-12.678 Y-23.272
X-12.784 Y-23.356
X-12.894 Y-23.461
X-13. Y-23.578
X-13.106 Y-23.717
X-13.208 Y-23.877
X-13.3 Y-24.048
X-13.384 Y-24.239
X-13.455 Y-24.447
X-13.51 Y-24.664
X-13.549 Y-24.891
X-13.567 Y-25.093
X-13.569 Y-25.289
X-13.556 Y-25.483
X-13.531 Y-25.645
X-13.482 Y-25.839
X-13.377 Y-26.046
X-13.213 Y-26.211
X-13.007 Y-26.316
X-12.777 Y-26.352
X-11.818
G3 X-11.698 Y-26.324 R0.318 F400.
X-11.513 Y-26.01 R0.317 F762.
G1 X-11.726 Y-23.324
G3 X-11.935 Y-23.051 R0.318
X-12.057 Y-23.032 R0.317 F400.
G1 X-12.396 Y-23.049 F762.
X-12.888 Y-23.059
X-13.023 Y-23.069
X-13.154 Y-23.101
X-13.281 Y-23.148
X-13.402 Y-23.208
X-13.517 Y-23.278
X-13.629 Y-23.361
X-13.748 Y-23.463
X-13.861 Y-23.578
X-13.975 Y-23.714
X-14.085 Y-23.869
X-14.186 Y-24.037
X-14.275 Y-24.219
X-14.353 Y-24.417
X-14.417 Y-24.625
X-14.464 Y-24.841
X-14.49 Y-25.032
X-14.501 Y-25.228
X-14.496 Y-25.417
X-14.479 Y-25.577
X-14.43 Y-25.807
X-14.356 Y-25.984
X-14.238 Y-26.137
X-14.085 Y-26.254
X-13.907 Y-26.327
X-13.716 Y-26.352
X-12.777
G3 X-12.657 Y-26.324 R0.318 F400.
X-12.471 Y-26.023 R0.317 F762.
G1 X-12.575 Y-23.364
G3 X-12.767 Y-23.085 R0.317
X-12.888 Y-23.059 R0.317 F400.
G1 X-13.228 Y-23.061 F762.
X-13.366 Y-23.051
X-13.547 Y-23.015
X-13.677 Y-22.981
X-13.812 Y-22.99
X-13.944 Y-23.016
X-14.073 Y-23.056
X-14.197 Y-23.109
X-14.317 Y-23.173
X-14.441 Y-23.253
X-14.564 Y-23.347
X-14.687 Y-23.458
X-14.812 Y-23.59
X-14.93 Y-23.737
X-15.039 Y-23.898
X-15.141 Y-24.077
X-15.232 Y-24.272
X-15.308 Y-24.477
X-15.368 Y-24.69
X-15.408 Y-24.894
X-15.432 Y-25.095
X-15.438 Y-25.286
X-15.431 Y-25.453
X-15.408 Y-25.632
X-15.365 Y-25.821
X-15.289 Y-25.995
X-15.17 Y-26.143
X-15.019 Y-26.257
X-14.843 Y-26.328
X-14.655 Y-26.352
X-13.716
G3 X-13.595 Y-26.324 R0.318 F400.
X-13.409 Y-26.044 R0.318 F762.
G1 X-13.335 Y-23.323
G3 X-13.44 Y-23.078 R0.318
X-13.547 Y-23.015 R0.318 F400.
G1 X-14.101 Y-22.827 F762.
X-14.23 Y-22.786
X-14.363 Y-22.768
X-14.498
X-14.632 Y-22.783
X-14.764 Y-22.813
X-14.893 Y-22.854
X-15.023 Y-22.909
X-15.152 Y-22.976
X-15.289 Y-23.062
X-15.428 Y-23.166
X-15.563 Y-23.284
X-15.699 Y-23.424
X-15.83 Y-23.584
X-15.952 Y-23.758
X-16.063 Y-23.948
X-16.162 Y-24.152
X-16.244 Y-24.367
X-16.311 Y-24.591
X-16.359 Y-24.819
X-16.385 Y-25.02
X-16.395 Y-25.229
X-16.389 Y-25.406
X-16.368 Y-25.584
X-16.318 Y-25.812
X-16.243 Y-25.988
X-16.125 Y-26.139
X-15.972 Y-26.255
X-15.795 Y-26.328
X-15.605 Y-26.352
X-14.655
G3 X-14.534 Y-26.324 R0.318 F400.
X-14.352 Y-26.083 R0.317 F762.
G1 X-13.907 Y-23.168
G3 X-13.998 Y-22.895 R0.317
X-14.101 Y-22.827 R0.317 F400.
G1 X-14.789 Y-22.566 F762.
X-14.915 Y-22.517
X-15.048 Y-22.49
X-15.182 Y-22.48
X-15.317 Y-22.486
X-15.451 Y-22.505
X-15.582 Y-22.536
X-15.72 Y-22.58
X-15.859 Y-22.638
X-16.007 Y-22.714
X-16.157 Y-22.808
X-16.306 Y-22.918
X-16.459 Y-23.05
X-16.609 Y-23.204
X-16.751 Y-23.374
X-16.885 Y-23.565
X-17.008 Y-23.773
X-17.117 Y-23.997
X-17.209 Y-24.23
X-17.281 Y-24.472
X-17.334 Y-24.718
X-17.364 Y-24.94
X-17.375 Y-25.164
X-17.37 Y-25.357
X-17.35 Y-25.539
X-17.315 Y-25.718
X-17.29 Y-25.809
X-17.215 Y-25.986
X-17.097 Y-26.138
X-16.944 Y-26.254
X-16.767 Y-26.328
X-16.576 Y-26.352
X-15.605
G3 X-15.485 Y-26.324 R0.318 F400.
X-15.306 Y-26.102 R0.318 F762.
G1 X-14.621 Y-22.917
G3 X-14.692 Y-22.642 R0.318
X-14.789 Y-22.566 R0.318 F400.
G1 X-14.89 Y-22.52 F762.
X-15.047 Y-22.428
X-15.231 Y-22.289
X-15.336 Y-22.204
X-15.457 Y-22.144
X-15.585 Y-22.102
X-15.718 Y-22.077
X-15.852 Y-22.066
X-15.987 Y-22.068
X-16.122 Y-22.082
X-16.265 Y-22.109
X-16.419 Y-22.151
X-16.573 Y-22.207
X-16.741 Y-22.283
X-16.91 Y-22.377
X-17.079 Y-22.49
X-17.253 Y-22.627
X-17.426 Y-22.788
X-17.59 Y-22.967
X-17.747 Y-23.168
X-17.895 Y-23.393
X-18.027 Y-23.634
X-18.142 Y-23.891
X-18.236 Y-24.155
X-18.307 Y-24.423
X-18.356 Y-24.693
X-18.38 Y-24.937
X-18.385 Y-25.178
X-18.373 Y-25.377
X-18.345 Y-25.573
X-18.28 Y-25.832
X-18.175 Y-26.042
X-18.011 Y-26.208
X-17.803 Y-26.316
X-17.572 Y-26.352
X-16.576
G3 X-16.456 Y-26.324 R0.318 F400.
X-16.285 Y-26.133 R0.317 F762.
G1 X-15.149 Y-22.616
G3 X-15.16 Y-22.391 R0.318
X-15.231 Y-22.289 R0.318 F400.
G1 X-15.76 Y-21.816 F762.
X-15.865 Y-21.731
X-15.983 Y-21.665
X-16.109 Y-21.616
X-16.239 Y-21.581
X-16.373 Y-21.559
X-16.507 Y-21.549
X-16.65 Y-21.55
X-16.801 Y-21.564
X-16.969 Y-21.593
X-17.138 Y-21.636
X-17.32 Y-21.698
X-17.511 Y-21.782
X-17.701 Y-21.883
X-17.898 Y-22.01
X-18.1 Y-22.165
X-18.296 Y-22.341
X-18.484 Y-22.54
X-18.667 Y-22.767
X-18.838 Y-23.019
X-18.994 Y-23.293
X-19.128 Y-23.581
X-19.24 Y-23.88
X-19.325 Y-24.181
X-19.384 Y-24.481
X-19.418 Y-24.778
X-19.427 Y-25.026
X-19.416 Y-25.278
X-19.389 Y-25.487
X-19.352 Y-25.665
X-19.287 Y-25.877
X-19.178 Y-26.07
X-19.015 Y-26.222
X-18.816 Y-26.319
X-18.596 Y-26.352
X-17.572
G3 X-17.452 Y-26.324 R0.318 F400.
X-17.289 Y-26.154 R0.318 F762.
G1 X-15.686 Y-22.163
G3 X-15.689 Y-21.917 R0.317
X-15.76 Y-21.816 R0.318 F400.
G1 X-16.144 Y-21.458 F762.
X-16.202 Y-21.382
X-16.289 Y-21.279
X-16.392 Y-21.192
X-16.507 Y-21.121
X-16.63 Y-21.064
X-16.758 Y-21.021
X-16.889 Y-20.989
X-17.028 Y-20.969
X-17.176 Y-20.959
X-17.337 Y-20.961
X-17.516 Y-20.978
X-17.698 Y-21.01
X-17.897 Y-21.061
X-18.106 Y-21.134
X-18.315 Y-21.226
X-18.538 Y-21.346
X-18.767 Y-21.496
X-18.99 Y-21.667
X-19.212 Y-21.868
X-19.432 Y-22.102
X-19.643 Y-22.366
X-19.838 Y-22.656
X-20.014 Y-22.968
X-20.166 Y-23.297
X-20.291 Y-23.636
X-20.386 Y-23.979
X-20.452 Y-24.316
X-20.488 Y-24.641
X-20.498 Y-24.953
X-20.485 Y-25.199
X-20.453 Y-25.446
X-20.412 Y-25.64
X-20.335 Y-25.88
X-20.225 Y-26.072
X-20.063 Y-26.223
X-19.864 Y-26.319
X-19.645 Y-26.352
X-18.596
G3 X-18.475 Y-26.324 R0.318 F400.
X-18.321 Y-26.173 R0.318 F762.
G1 X-16.175 Y-21.702
G3 X-16.152 Y-21.495 R0.318
X-16.202 Y-21.382 R0.318 F400.
G1 X-16.276 Y-21.285 F762.
X-16.415 Y-21.043
X-16.485 Y-20.904
X-16.551 Y-20.787
X-16.635 Y-20.681
X-16.734 Y-20.589
X-16.843 Y-20.51
X-16.96 Y-20.442
X-17.083 Y-20.387
X-17.213 Y-20.341
X-17.353 Y-20.304
X-17.513 Y-20.275
X-17.68 Y-20.259
X-17.866 Y-20.256
X-18.068 Y-20.269
X-18.276 Y-20.299
X-18.504 Y-20.351
X-18.744 Y-20.427
X-18.984 Y-20.524
X-19.239 Y-20.652
X-19.505 Y-20.813
X-19.767 Y-21.003
X-20.023 Y-21.222
X-20.279 Y-21.478
X-20.526 Y-21.769
X-20.758 Y-22.092
X-20.969 Y-22.442
X-21.154 Y-22.813
X-21.309 Y-23.197
X-21.431 Y-23.59
X-21.518 Y-23.974
X-21.571 Y-24.351
X-21.593 Y-24.709
X-21.587 Y-25.025
X-21.561 Y-25.289
X-21.517 Y-25.529
X-21.466 Y-25.719
X-21.417 Y-25.859
X-21.309 Y-26.059
X-21.146 Y-26.217
X-20.943 Y-26.318
X-20.718 Y-26.352
X-19.645
G3 X-19.524 Y-26.324 R0.318 F400.
X-19.381 Y-26.194 R0.318 F762.
G1 X-16.498 Y-21.196
G3 X-16.456 Y-21.025 R0.317
X-16.485 Y-20.904 R0.318 F400.
G1 X-16.83 Y-20.218 F762.
X-16.896 Y-20.1
X-16.979 Y-19.993
X-17.074 Y-19.898
X-17.18 Y-19.813
X-17.293 Y-19.74
X-17.412 Y-19.677
X-17.55 Y-19.618
X-17.696 Y-19.568
X-17.865 Y-19.526
X-18.047 Y-19.496
X-18.243 Y-19.479
X-18.464 Y-19.478
X-18.692 Y-19.496
X-18.938 Y-19.535
X-19.207 Y-19.6
X-19.48 Y-19.69
X-19.761 Y-19.808
X-20.058 Y-19.962
X-20.365 Y-20.154
X-20.666 Y-20.377
X-20.961 Y-20.636
X-21.254 Y-20.937
X-21.535 Y-21.277
X-21.798 Y-21.653
X-22.036 Y-22.058
X-22.242 Y-22.485
X-22.412 Y-22.926
X-22.546 Y-23.374
X-22.639 Y-23.815
X-22.694 Y-24.237
X-22.713 Y-24.633
X-22.702 Y-24.976
X-22.669 Y-25.268
X-22.62 Y-25.519
X-22.564 Y-25.717
X-22.508 Y-25.868
X-22.399 Y-26.065
X-22.237 Y-26.219
X-22.035 Y-26.318
X-21.813 Y-26.352
X-20.718
G3 X-20.598 Y-26.324 R0.318 F400.
X-20.461 Y-26.205 R0.318 F762.
G1 X-16.85 Y-20.52
G3 X-16.801 Y-20.338 R0.318
X-16.83 Y-20.218 R0.318 F400.
G1 X-16.896 Y-20.074 F762.
X-16.968 Y-19.871
X-17. Y-19.721
X-17.029 Y-19.589
X-17.079 Y-19.464
X-17.148 Y-19.347
X-17.23 Y-19.24
X-17.324 Y-19.143
X-17.426 Y-19.055
X-17.536 Y-18.977
X-17.666 Y-18.899
X-17.807 Y-18.829
X-17.968 Y-18.765
X-18.151 Y-18.709
X-18.344 Y-18.666
X-18.566 Y-18.635
X-18.802 Y-18.621
X-19.052 Y-18.627
X-19.331 Y-18.656
X-19.625 Y-18.71
X-19.926 Y-18.792
X-20.25 Y-18.908
X-20.591 Y-19.062
X-20.935 Y-19.252
X-21.274 Y-19.476
X-21.62 Y-19.747
X-21.965 Y-20.066
X-22.3 Y-20.43
X-22.617 Y-20.835
X-22.909 Y-21.276
X-23.168 Y-21.746
X-23.389 Y-22.237
X-23.569 Y-22.74
X-23.704 Y-23.243
X-23.794 Y-23.733
X-23.813 Y-23.957
Y-24.643
X-23.793 Y-25.039
X-23.755 Y-25.328
X-23.704 Y-25.565
X-23.645 Y-25.762
X-23.599 Y-25.881
X-23.489 Y-26.072
X-23.327 Y-26.223
X-23.127 Y-26.319
X-22.909 Y-26.352
G3 X-22.788 Y-26.324 R0.318 F400.
X-22.627 Y-25.913 R0.318 F762.
G1 X-23.202 Y-24.532
G3 X-23.784 Y-24.522 R0.317
X-23.813 Y-24.643 R0.317 F400.
G1 X-23.81 Y-26.062 F762.
X-23.778 Y-26.166
X-23.703 Y-26.262
X-23.618 Y-26.321
X-23.514 Y-26.351
X-21.813 Y-26.352
G3 X-21.693 Y-26.324 R0.318 F400.
X-21.567 Y-26.221 R0.318 F762.
G1 X-17.057 Y-19.948
G3 X-17.008 Y-19.844 R0.318
X-17. Y-19.721 R0.317 F400.
G1 X-17.107 Y-18.982 F762.
X-17.132 Y-18.85
X-17.181 Y-18.724
X-17.245 Y-18.605
X-17.322 Y-18.494
X-17.409 Y-18.391
X-17.506 Y-18.294
X-17.619 Y-18.199
X-17.747 Y-18.108
X-17.899 Y-18.017
X-18.062 Y-17.936
X-18.252 Y-17.861
X-18.462 Y-17.796
X-18.688 Y-17.746
X-18.945 Y-17.71
X-19.22 Y-17.694
X-19.51 Y-17.701
X-19.832 Y-17.734
X-20.179 Y-17.799
X-20.528 Y-17.893
X-20.895 Y-18.024
X-21.282 Y-18.199
X-21.683 Y-18.421
X-22.089 Y-18.69
X-22.48 Y-18.997
X-22.869 Y-19.356
X-23.248 Y-19.768
X-23.608 Y-20.228
X-23.69 Y-20.351
X-23.757 Y-20.478
X-23.799 Y-20.616
X-23.813 Y-20.759
Y-23.957
G3 X-23.784 Y-24.077 R0.317 F400.
X-23.295 Y-24.192 R0.317 F762.
G1 X-17.223 Y-19.262
G3 X-17.118 Y-19.106 R0.318
X-17.107 Y-18.982 R0.318 F400.
G1 X-17.134 Y-18.689 F762.
X-17.115 Y-18.44
X-17.106 Y-18.306
X-17.122 Y-18.171
X-17.156 Y-18.041
X-17.206 Y-17.915
X-17.269 Y-17.796
X-17.343 Y-17.683
X-17.426 Y-17.577
X-17.53 Y-17.464
X-17.648 Y-17.355
X-17.787 Y-17.246
X-17.949 Y-17.138
X-18.126 Y-17.041
X-18.332 Y-16.947
X-18.56 Y-16.866
X-18.808 Y-16.799
X-19.093 Y-16.746
X-19.398 Y-16.714
X-19.718 Y-16.707
X-20.072 Y-16.727
X-20.458 Y-16.781
X-20.855 Y-16.869
X-21.266 Y-16.995
X-21.704 Y-17.169
X-22.156 Y-17.393
X-22.617 Y-17.669
X-23.08 Y-18.
X-23.526 Y-18.375
X-23.593 Y-18.442
X-23.712 Y-18.596
X-23.787 Y-18.775
X-23.813 Y-18.968
Y-20.759
G3 X-23.784 Y-20.88 R0.317 F400.
X-23.38 Y-21.044 R0.317 F762.
G1 X-17.314 Y-18.689
G3 X-17.157 Y-18.557 R0.318
X-17.115 Y-18.44 R0.318 F400.
G1 X-16.995 Y-17.782 F762.
X-16.977 Y-17.648
X-16.98 Y-17.514
X-17. Y-17.38
X-17.036 Y-17.25
X-17.084 Y-17.124
X-17.144 Y-17.003
X-17.217 Y-16.881
X-17.309 Y-16.751
X-17.415 Y-16.625
X-17.546 Y-16.493
X-17.694 Y-16.365
X-17.866 Y-16.24
X-18.069 Y-16.116
X-18.286 Y-16.005
X-18.535 Y-15.904
X-18.82 Y-15.813
X-19.12 Y-15.743
X-19.453 Y-15.693
X-19.823 Y-15.668
X-20.225 Y-15.673
X-20.634 Y-15.711
X-21.075 Y-15.788
X-21.548 Y-15.911
X-22.048 Y-16.085
X-22.566 Y-16.313
X-23.08 Y-16.59
X-23.523 Y-16.882
X-23.679 Y-17.045
X-23.778 Y-17.247
X-23.813 Y-17.469
Y-18.968
G3 X-23.784 Y-19.089 R0.317 F400.
X-23.433 Y-19.268 R0.317 F762.
G1 X-17.243 Y-18.023
G3 X-17.046 Y-17.895 R0.317
X-16.995 Y-17.782 R0.317 F400.
G1 X-16.867 Y-17.166 F762.
X-16.846 Y-17.109
X-16.808 Y-16.979
X-16.794 Y-16.845
X-16.797 Y-16.71
X-16.816 Y-16.577
X-16.849 Y-16.446
X-16.893 Y-16.318
X-16.951 Y-16.188
X-17.027 Y-16.047
X-17.118 Y-15.908
X-17.233 Y-15.759
X-17.365 Y-15.613
X-17.523 Y-15.465
X-17.711 Y-15.315
X-17.916 Y-15.177
X-18.156 Y-15.043
X-18.433 Y-14.915
X-18.727 Y-14.807
X-19.062 Y-14.714
X-19.437 Y-14.641
X-19.843 Y-14.596
X-20.263 Y-14.584
X-20.726 Y-14.607
X-21.23 Y-14.673
X-21.768 Y-14.789
X-22.327 Y-14.956
X-22.872 Y-15.169
X-23.247 Y-15.351
X-23.448 Y-15.469
X-23.599 Y-15.587
X-23.715 Y-15.74
X-23.788 Y-15.917
X-23.813 Y-16.107
Y-17.469
G3 X-23.784 Y-17.59 R0.317 F400.
X-23.472 Y-17.775 R0.318 F762.
G1 X-17.119 Y-17.309
G3 X-16.913 Y-17.213 R0.318
X-16.846 Y-17.109 R0.318 F400.
G1 X-16.752 Y-16.889 F762.
X-16.588 Y-16.612
X-16.522 Y-16.495
X-16.48 Y-16.366
X-16.457 Y-16.233
X-16.449 Y-16.098
X-16.455 Y-15.964
X-16.474 Y-15.83
X-16.505 Y-15.696
X-16.551 Y-15.549
X-16.613 Y-15.395
X-16.692 Y-15.238
X-16.795 Y-15.068
X-16.914 Y-14.903
X-17.063 Y-14.729
X-17.24 Y-14.552
X-17.436 Y-14.385
X-17.67 Y-14.217
X-17.943 Y-14.052
X-18.234 Y-13.906
X-18.57 Y-13.771
X-18.947 Y-13.653
X-19.363 Y-13.559
X-19.795 Y-13.498
X-20.276 Y-13.468
X-20.805 Y-13.478
X-21.375 Y-13.535
X-21.97 Y-13.643
X-22.527 Y-13.791
X-22.972 Y-13.948
X-23.293 Y-14.092
X-23.427 Y-14.165
X-23.586 Y-14.282
X-23.709 Y-14.437
X-23.786 Y-14.619
X-23.813 Y-14.815
Y-16.107
G3 X-23.784 Y-16.228 R0.317 F400.
X-23.511 Y-16.413 R0.317 F762.
G1 X-16.866 Y-16.751
G3 X-16.676 Y-16.699 R0.317
X-16.588 Y-16.612 R0.317 F400.
G1 X-16.19 Y-15.982 F762.
X-16.123 Y-15.865
X-16.075 Y-15.738
X-16.044 Y-15.607
X-16.027 Y-15.473
X-16.023 Y-15.338
X-16.031 Y-15.199
X-16.051 Y-15.055
X-16.086 Y-14.897
X-16.139 Y-14.728
X-16.207 Y-14.556
X-16.3 Y-14.368
X-16.412 Y-14.181
X-16.552 Y-13.985
X-16.725 Y-13.781
X-16.918 Y-13.587
X-17.148 Y-13.389
X-17.422 Y-13.19
X-17.723 Y-13.006
X-18.061 Y-12.835
X-18.446 Y-12.678
X-18.879 Y-12.54
X-19.348 Y-12.432
X-19.844 Y-12.359
X-20.397 Y-12.322
X-20.999 Y-12.331
X-21.606 Y-12.388
X-22.201 Y-12.492
X-22.718 Y-12.625
X-23.074 Y-12.749
X-23.327 Y-12.859
X-23.423 Y-12.911
X-23.584 Y-13.028
X-23.708 Y-13.183
X-23.786 Y-13.366
X-23.813 Y-13.563
Y-14.815
G3 X-23.784 Y-14.936 R0.317 F400.
X-23.54 Y-15.118 R0.317 F762.
G1 X-16.497 Y-16.118
G3 X-16.278 Y-16.069 R0.317
X-16.19 Y-15.982 R0.317 F400.
G1 X-16.052 Y-15.781 F762.
X-15.942 Y-15.643
X-15.84 Y-15.545
X-15.742 Y-15.451
X-15.665 Y-15.341
X-15.604 Y-15.22
X-15.558 Y-15.093
X-15.526 Y-14.962
X-15.507 Y-14.828
X-15.499 Y-14.693
X-15.502 Y-14.539
X-15.518 Y-14.377
X-15.55 Y-14.202
X-15.6 Y-14.011
X-15.668 Y-13.82
X-15.762 Y-13.609
X-15.881 Y-13.393
X-16.025 Y-13.174
X-16.206 Y-12.942
X-16.418 Y-12.711
X-16.659 Y-12.487
X-16.947 Y-12.259
X-17.286 Y-12.034
X-17.651 Y-11.831
X-18.062 Y-11.644
X-18.525 Y-11.477
X-19.043 Y-11.336
X-19.615 Y-11.228
X-20.213 Y-11.165
X-20.823 Y-11.15
X-21.432 Y-11.181
X-22.037 Y-11.258
X-22.556 Y-11.365
X-22.928 Y-11.473
X-23.22 Y-11.583
X-23.442 Y-11.689
X-23.595 Y-11.807
X-23.713 Y-11.96
X-23.787 Y-12.139
X-23.813 Y-12.331
Y-13.563
G3 X-23.784 Y-13.684 R0.317 F400.
X-23.568 Y-13.861 R0.317 F762.
G1 X-16.111 Y-15.606
G3 X-15.95 Y-15.602 R0.318
X-15.84 Y-15.545 R0.318 F400.
G1 X-15.583 Y-15.345 F762.
X-15.33 Y-15.159
X-15.225 Y-15.074
X-15.135 Y-14.973
X-15.059 Y-14.862
X-14.997 Y-14.742
X-14.947 Y-14.616
X-14.908 Y-14.487
X-14.879 Y-14.345
X-14.86 Y-14.192
X-14.853 Y-14.026
X-14.86 Y-13.84
X-14.883 Y-13.65
X-14.926 Y-13.438
X-14.989 Y-13.215
X-15.076 Y-12.986
X-15.192 Y-12.738
X-15.337 Y-12.484
X-15.511 Y-12.23
X-15.73 Y-11.96
X-15.991 Y-11.686
X-16.279 Y-11.428
X-16.616 Y-11.173
X-17.008 Y-10.922
X-17.458 Y-10.683
X-17.95 Y-10.47
X-18.48 Y-10.289
X-19.071 Y-10.14
X-19.672 Y-10.039
X-20.279 Y-9.983
X-20.889 Y-9.969
X-21.498 Y-9.997
X-22.096 Y-10.068
X-22.614 Y-10.171
X-22.952 Y-10.268
X-23.233 Y-10.373
X-23.386 Y-10.445
X-23.561 Y-10.559
X-23.697 Y-10.718
X-23.783 Y-10.908
X-23.813 Y-11.115
Y-12.331
G3 X-23.784 Y-12.451 R0.317 F400.
X-23.593 Y-12.622 R0.317 F762.
G1 X-15.606 Y-15.199
G3 X-15.444 Y-15.207 R0.317
X-15.33 Y-15.159 R0.317 F400.
G1 X-14.853 Y-14.812 F762.
X-14.713 Y-14.725
X-14.599 Y-14.652
X-14.503 Y-14.557
X-14.42 Y-14.45
X-14.35 Y-14.335
X-14.29 Y-14.214
X-14.24 Y-14.083
X-14.198 Y-13.942
X-14.165 Y-13.783
X-14.142 Y-13.606
X-14.134 Y-13.419
X-14.141 Y-13.206
X-14.166 Y-12.988
X-14.213 Y-12.749
X-14.286 Y-12.489
X-14.383 Y-12.229
X-14.515 Y-11.946
X-14.684 Y-11.647
X-14.883 Y-11.355
X-15.123 Y-11.056
X-15.416 Y-10.746
X-15.765 Y-10.432
X-16.149 Y-10.138
X-16.584 Y-9.857
X-17.079 Y-9.592
X-17.637 Y-9.348
X-18.214 Y-9.15
X-18.803 Y-8.995
X-19.403 Y-8.882
X-20.008 Y-8.81
X-20.617 Y-8.777
X-21.226 Y-8.785
X-21.834 Y-8.832
X-22.37 Y-8.913
X-22.777 Y-9.009
X-23.098 Y-9.112
X-23.323 Y-9.204
X-23.408 Y-9.248
X-23.575 Y-9.364
X-23.703 Y-9.521
X-23.785 Y-9.707
X-23.813 Y-9.908
Y-11.115
G3 X-23.784 Y-11.236 R0.317 F400.
X-23.61 Y-11.4 R0.317 F762.
G1 X-14.974 Y-14.739
G3 X-14.832 Y-14.76 R0.317
X-14.713 Y-14.725 R0.318 F400.
G1 X-14.613 Y-14.668 F762.
X-14.475 Y-14.612
X-14.271 Y-14.55
X-14.143 Y-14.508
X-14.022 Y-14.448
X-13.911 Y-14.37
X-13.812 Y-14.279
X-13.723 Y-14.177
X-13.644 Y-14.068
X-13.574 Y-13.948
X-13.51 Y-13.818
X-13.452 Y-13.669
X-13.401 Y-13.5
X-13.362 Y-13.319
X-13.334 Y-13.112
X-13.323 Y-12.896
X-13.33 Y-12.658
X-13.359 Y-12.392
X-13.41 Y-12.123
X-13.491 Y-11.831
X-13.606 Y-11.516
X-13.752 Y-11.197
X-13.936 Y-10.869
X-14.17 Y-10.519
X-14.456 Y-10.159
X-14.783 Y-9.809
X-15.154 Y-9.471
X-15.591 Y-9.133
X-16.094 Y-8.804
X-16.63 Y-8.513
X-17.186 Y-8.263
X-17.758 Y-8.053
X-18.343 Y-7.882
X-18.939 Y-7.751
X-19.541 Y-7.657
X-20.148 Y-7.6
X-20.758 Y-7.579
X-21.367 Y-7.594
X-21.974 Y-7.649
X-22.492 Y-7.736
X-22.857 Y-7.827
X-23.155 Y-7.928
X-23.419 Y-8.047
X-23.581 Y-8.164
X-23.706 Y-8.319
X-23.785 Y-8.503
X-23.813 Y-8.701
Y-9.908
G3 X-23.784 Y-10.028 R0.317 F400.
X-23.631 Y-10.183 R0.318 F762.
G1 X-14.479 Y-14.527
G3 X-14.395 Y-14.554 R0.318
X-14.271 Y-14.55 R0.318 F400.
G1 X-13.567 Y-14.363 F762.
X-13.438 Y-14.322
X-13.315 Y-14.268
X-13.2 Y-14.197
X-13.094 Y-14.113
X-12.997 Y-14.019
X-12.909 Y-13.917
X-12.825 Y-13.802
X-12.744 Y-13.67
X-12.666 Y-13.517
X-12.598 Y-13.351
X-12.537 Y-13.158
X-12.489 Y-12.952
X-12.455 Y-12.723
X-12.438 Y-12.464
X-12.441 Y-12.198
X-12.469 Y-11.905
X-12.525 Y-11.582
X-12.61 Y-11.254
X-12.731 Y-10.906
X-12.897 Y-10.53
X-13.11 Y-10.135
X-13.361 Y-9.748
X-13.661 Y-9.359
X-14.023 Y-8.959
X-14.452 Y-8.556
X-14.928 Y-8.175
X-15.433 Y-7.833
X-15.961 Y-7.528
X-16.509 Y-7.26
X-17.073 Y-7.03
X-17.651 Y-6.836
X-18.24 Y-6.677
X-18.837 Y-6.552
X-19.439 Y-6.461
X-20.046 Y-6.402
X-20.655 Y-6.377
X-21.265 Y-6.385
X-21.873 Y-6.431
X-22.421 Y-6.516
X-22.808 Y-6.608
X-23.117 Y-6.709
X-23.41 Y-6.838
X-23.576 Y-6.954
X-23.704 Y-7.111
X-23.785 Y-7.296
X-23.813 Y-7.497
Y-8.701
G3 X-23.784 Y-8.822 R0.317 F400.
X-23.647 Y-8.969 R0.318 F762.
G1 X-13.788 Y-14.332
G3 X-13.691 Y-14.365 R0.318
X-13.567 Y-14.363 R0.318 F400.
G1 X-13.089 Y-14.253 F762.
X-12.909 Y-14.245
X-12.774 Y-14.24
X-12.644 Y-14.202
X-12.521 Y-14.147
X-12.405 Y-14.078
X-12.296 Y-13.998
X-12.195 Y-13.908
X-12.096 Y-13.804
X-11.996 Y-13.681
X-11.901 Y-13.543
X-11.807 Y-13.379
X-11.724 Y-13.203
X-11.647 Y-12.998
X-11.581 Y-12.77
X-11.532 Y-12.526
X-11.498 Y-12.247
X-11.487 Y-11.947
X-11.5 Y-11.633
X-11.542 Y-11.282
X-11.621 Y-10.9
X-11.732 Y-10.516
X-11.887 Y-10.108
X-12.091 Y-9.678
X-12.35 Y-9.228
X-12.667 Y-8.769
X-13.028 Y-8.327
X-13.45 Y-7.887
X-13.905 Y-7.481
X-14.388 Y-7.11
X-14.896 Y-6.771
X-15.424 Y-6.467
X-15.97 Y-6.195
X-16.53 Y-5.956
X-17.104 Y-5.749
X-17.688 Y-5.574
X-18.281 Y-5.432
X-18.881 Y-5.321
X-19.485 Y-5.24
X-20.093 Y-5.189
X-20.702 Y-5.169
X-21.311 Y-5.182
X-21.919 Y-5.233
X-22.459 Y-5.32
X-22.829 Y-5.41
X-23.134 Y-5.511
X-23.414 Y-5.635
X-23.578 Y-5.751
X-23.705 Y-5.908
X-23.785 Y-6.092
X-23.813 Y-6.292
Y-7.497
G3 X-23.784 Y-7.617 R0.317 F400.
X-23.66 Y-7.757 R0.318 F762.
G1 X-13.058 Y-14.199
G3 X-13.029 Y-14.214 R0.317
X-12.909 Y-14.245 R0.317 F400.
G1 X-12.652 Y-14.258 F762.
X-12.32 Y-14.298
X-12.186 Y-14.307
X-12.051 Y-14.293
X-11.92 Y-14.261
X-11.794 Y-14.214
X-11.673 Y-14.154
X-11.558 Y-14.083
X-11.443 Y-13.999
X-11.327 Y-13.899
X-11.207 Y-13.777
X-11.094 Y-13.642
X-10.979 Y-13.479
X-10.871 Y-13.297
X-10.771 Y-13.092
X-10.677 Y-12.855
X-10.6 Y-12.602
X-10.539 Y-12.32
X-10.496 Y-11.998
X-10.477 Y-11.658
X-10.487 Y-11.297
X-10.53 Y-10.9
X-10.612 Y-10.467
X-10.734 Y-10.023
X-10.9 Y-9.564
X-11.124 Y-9.074
X-11.405 Y-8.569
X-11.744 Y-8.062
X-12.122 Y-7.583
X-12.534 Y-7.134
X-12.976 Y-6.714
X-13.446 Y-6.326
X-13.94 Y-5.968
X-14.454 Y-5.64
X-14.986 Y-5.342
X-15.533 Y-5.074
X-16.094 Y-4.834
X-16.666 Y-4.624
X-17.248 Y-4.443
X-17.839 Y-4.291
X-18.436 Y-4.167
X-19.038 Y-4.071
X-19.644 Y-4.005
X-20.253 Y-3.967
X-20.862 Y-3.959
X-21.471 Y-3.985
X-22.078 Y-4.048
X-22.573 Y-4.138
X-22.917 Y-4.23
X-23.196 Y-4.329
X-23.428 Y-4.434
X-23.587 Y-4.552
X-23.709 Y-4.707
X-23.786 Y-4.888
X-23.813 Y-5.084
Y-6.292
G3 X-23.784 Y-6.412 R0.317 F400.
X-23.675 Y-6.542 R0.317 F762.
G1 X-12.452 Y-14.246
G3 X-12.437 Y-14.255 R0.318
X-12.32 Y-14.298 R0.317 F400.
G1 X-11.565 Y-14.391 F762.
X-11.431 Y-14.41
X-11.297 Y-14.402
X-11.164 Y-14.378
X-11.035 Y-14.339
X-10.909 Y-14.289
X-10.785 Y-14.225
X-10.659 Y-14.147
X-10.528 Y-14.051
X-10.393 Y-13.933
X-10.262 Y-13.8
X-10.126 Y-13.637
X-9.998 Y-13.457
X-9.874 Y-13.247
X-9.754 Y-13.003
X-9.652 Y-12.744
X-9.563 Y-12.449
X-9.49 Y-12.112
X-9.442 Y-11.757
X-9.422 Y-11.371
X-9.433 Y-10.942
X-9.483 Y-10.479
X-9.575 Y-9.995
X-9.711 Y-9.5
X-9.905 Y-8.969
X-10.158 Y-8.414
X-10.455 Y-7.881
X-10.79 Y-7.372
X-11.16 Y-6.888
X-11.562 Y-6.429
X-11.992 Y-5.997
X-12.448 Y-5.592
X-12.928 Y-5.216
X-13.427 Y-4.866
X-13.945 Y-4.543
X-14.478 Y-4.247
X-15.025 Y-3.978
X-15.584 Y-3.735
X-16.154 Y-3.519
X-16.733 Y-3.329
X-17.321 Y-3.165
X-17.915 Y-3.029
X-18.515 Y-2.919
X-19.119 Y-2.835
X-19.726 Y-2.779
X-20.335 Y-2.75
X-20.945
X-21.553 Y-2.782
X-22.159 Y-2.852
X-22.643 Y-2.947
X-22.97 Y-3.039
X-23.236 Y-3.137
X-23.384 Y-3.206
X-23.56 Y-3.32
X-23.696 Y-3.479
X-23.783 Y-3.67
X-23.813 Y-3.878
Y-5.084
G3 X-23.784 Y-5.205 R0.317 F400.
X-23.686 Y-5.327 R0.318 F762.
G1 X-11.676 Y-14.336
X-11.672 Y-14.339 F400.
G3 X-11.565 Y-14.391 R0.318
G1 X-11.427 Y-14.424 F762.
X-11.288 Y-14.468
X-11.097 Y-14.554
X-10.974 Y-14.609
X-10.846 Y-14.651
X-10.712 Y-14.673
X-10.577 Y-14.678
X-10.443 Y-14.667
X-10.31 Y-14.644
X-10.18 Y-14.608
X-10.053 Y-14.562
X-9.811 Y-14.443
X-9.586 Y-14.293
X-9.38 Y-14.119
X-9.193 Y-13.924
X-9.025 Y-13.713
X-8.875 Y-13.489
X-8.683 Y-13.132
X-8.53 Y-12.758
X-8.413 Y-12.37
X-8.33 Y-11.974
X-8.278 Y-11.572
X-8.256 Y-11.168
X-8.263 Y-10.763
X-8.295 Y-10.359
X-8.376 Y-9.826
X-8.465 Y-9.43
X-8.615 Y-8.912
X-8.801 Y-8.405
X-9.02 Y-7.911
X-9.269 Y-7.432
X-9.546 Y-6.969
X-9.849 Y-6.522
X-10.176 Y-6.092
X-10.525 Y-5.68
X-10.895 Y-5.287
X-11.284 Y-4.913
X-11.795 Y-4.471
X-12.33 Y-4.06
X-12.887 Y-3.679
X-13.463 Y-3.328
X-14.057 Y-3.006
X-14.666 Y-2.715
X-15.288 Y-2.453
X-15.921 Y-2.221
X-16.565 Y-2.019
X-17.218 Y-1.847
X-17.878 Y-1.704
X-18.543 Y-1.592
X-19.213 Y-1.511
X-19.886 Y-1.46
X-20.561 Y-1.443
X-21.236 Y-1.463
X-21.774 Y-1.509
X-22.308 Y-1.588
X-22.703 Y-1.675
X-23.091 Y-1.792
X-23.39 Y-1.916
X-23.564 Y-2.031
X-23.698 Y-2.189
X-23.783 Y-2.379
X-23.813 Y-2.584
Y-3.878
X-23.804 Y-3.915 Z-0.527 F400.
X-23.796 Y-3.949 Z-0.509
X-23.79 Y-3.975 Z-0.482
X-23.785 Y-3.993 Z-0.447
X-23.784 Y-3.998 Z-0.409
G0 Z5.
X-3.548 Y-12.817
Z-0.216
G1 Z-0.533 F400.
G3 X-3.668 Y-12.789 R0.318
G1 X-5.746 Y-12.788 F762.
X-5.885 Y-12.777
X-6.118 Y-12.735
X-6.301 Y-12.676
X-6.47 Y-12.597
X-6.716 Y-12.431
X-6.855 Y-12.299
X-6.993 Y-12.134
X-7.06 Y-12.043
X-7.134 Y-11.905
X-7.194 Y-11.766
X-7.242 Y-11.628
X-7.286 Y-11.42
X-7.303 Y-10.935
Y-10.243
X-7.331 Y-9.684
X-7.392 Y-9.212
X-7.504 Y-8.688
X-7.676 Y-8.115
X-7.897 Y-7.547
X-8.159 Y-6.996
X-8.457 Y-6.464
X-8.787 Y-5.951
X-9.146 Y-5.458
X-9.532 Y-4.986
X-9.942 Y-4.536
X-10.375 Y-4.106
X-10.829 Y-3.699
X-11.302 Y-3.314
X-11.792 Y-2.952
X-12.298 Y-2.611
X-12.818 Y-2.293
X-13.352 Y-1.998
X-13.897 Y-1.725
X-14.453 Y-1.475
X-15.018 Y-1.247
X-15.592 Y-1.041
X-16.174 Y-0.858
X-16.762 Y-0.698
X-17.356 Y-0.56
X-17.955 Y-0.445
X-18.558 Y-0.354
X-19.164 Y-0.285
X-19.772 Y-0.241
X-20.381 Y-0.223
X-20.991 Y-0.233
X-21.599 Y-0.274
X-22.204 Y-0.353
X-22.675 Y-0.451
X-23.015 Y-0.551
X-23.256 Y-0.644
X-23.392 Y-0.709
X-23.564 Y-0.824
X-23.699 Y-0.982
X-23.783 Y-1.171
