(HEATSINK_BOTTOM)
(T1  D=3.175 CR=0. - ZMIN=-5.2 - FLAT END MILL)
G90 G94 G91.1 G40 G49 G17
G21

(2D POCKET1)
M5
M9
T1
S10000 M3
G54
M8
G0 X-12.618 Y-18.72
G43 Z10. H1
Z5.
G1 Z2.5 F400.
G3 X-12.879 Y-18.748 Z2.427 R0.131
X-12.618 Y-18.72 Z2.355 R0.131
X-12.879 Y-18.748 Z2.282 R0.131
X-12.618 Y-18.72 Z2.209 R0.131
X-12.879 Y-18.748 Z2.136 R0.131
X-12.618 Y-18.72 Z2.064 R0.131
X-12.879 Y-18.748 Z1.991 R0.131
X-12.618 Y-18.72 Z1.918 R0.131
X-12.879 Y-18.748 Z1.846 R0.131
X-12.618 Y-18.72 Z1.773 R0.131
X-12.879 Y-18.748 Z1.7 R0.131
X-12.618 Y-18.72 Z1.628 R0.131
X-12.879 Y-18.748 Z1.555 R0.131
X-12.618 Y-18.72 Z1.482 R0.131
X-12.879 Y-18.748 Z1.409 R0.131
X-12.618 Y-18.72 Z1.337 R0.131
X-12.879 Y-18.748 Z1.264 R0.131
X-12.618 Y-18.72 Z1.191 R0.131
X-12.879 Y-18.748 Z1.119 R0.131
X-12.618 Y-18.72 Z1.046 R0.131
X-12.879 Y-18.748 Z0.973 R0.131
X-12.618 Y-18.72 Z0.9 R0.131
X-12.879 Y-18.748 Z0.828 R0.131
X-12.618 Y-18.72 Z0.755 R0.131
X-12.879 Y-18.748 Z0.682 R0.131
X-12.618 Y-18.72 Z0.61 R0.131
X-12.879 Y-18.748 Z0.537 R0.131
X-12.618 Y-18.72 Z0.464 R0.131
X-12.879 Y-18.748 Z0.392 R0.131
X-12.618 Y-18.72 Z0.319 R0.131
X-12.879 Y-18.748 Z0.246 R0.131
X-12.618 Y-18.72 Z0.173 R0.131
X-12.879 Y-18.748 Z0.101 R0.131
X-12.618 Y-18.72 Z0.028 R0.131
X-12.879 Y-18.748 Z-0.045 R0.131
X-12.618 Y-18.72 Z-0.117 R0.131
X-12.879 Y-18.748 Z-0.19 R0.131
X-12.618 Y-18.72 Z-0.263 R0.131
X-12.879 Y-18.748 Z-0.336 R0.131
X-12.618 Y-18.72 Z-0.408 R0.131
X-12.879 Y-18.748 Z-0.481 R0.131
X-12.828 Y-18.839 Z-0.5 R0.131
X-12.572 Y-18.499 R0.213
X-12.828 Y-18.839 R0.213
X-12.572 Y-18.499 Z-0.618 R0.212
X-12.827 Y-18.839 Z-0.735 R0.212
X-12.572 Y-18.499 Z-0.853 R0.212
X-12.827 Y-18.839 Z-0.971 R0.212
X-12.672 Y-18.88 Z-1. R0.212
X-12.728 Y-18.458 R0.212
X-12.672 Y-18.88 R0.212
X-12.728 Y-18.458 Z-1.118 R0.212
X-12.672 Y-18.88 Z-1.235 R0.212
X-12.728 Y-18.458 Z-1.353 R0.212
X-12.672 Y-18.88 Z-1.471 R0.212
X-12.532 Y-18.799 Z-1.5 R0.212
X-12.868 Y-18.539 R0.212
X-12.532 Y-18.799 R0.212
X-12.868 Y-18.539 Z-1.618 R0.213
X-12.532 Y-18.799 Z-1.735 R0.213
X-12.868 Y-18.539 Z-1.853 R0.213
X-12.532 Y-18.799 Z-1.971 R0.213
X-12.489 Y-18.644 Z-2. R0.213
X-12.911 Y-18.694 R0.213
X-12.489 Y-18.644 R0.213
X-12.911 Y-18.694 Z-2.118 R0.213
X-12.489 Y-18.644 Z-2.235 R0.213
X-12.911 Y-18.694 Z-2.353 R0.213
X-12.489 Y-18.644 Z-2.471 R0.213
X-12.567 Y-18.503 Z-2.5 R0.213
X-12.833 Y-18.835 R0.213
X-12.567 Y-18.503 R0.213
X-12.833 Y-18.835 Z-2.618 R0.212
X-12.567 Y-18.503 Z-2.735 R0.212
X-12.833 Y-18.835 Z-2.853 R0.212
X-12.567 Y-18.503 Z-2.971 R0.212
X-12.722 Y-18.458 Z-3. R0.212
X-12.678 Y-18.88 R0.212
X-12.722 Y-18.458 R0.212
X-12.678 Y-18.88 Z-3.118 R0.213
X-12.722 Y-18.458 Z-3.235 R0.213
X-12.678 Y-18.88 Z-3.353 R0.213
X-12.722 Y-18.458 Z-3.471 R0.213
X-12.864 Y-18.534 Z-3.5 R0.213
X-12.536 Y-18.804 R0.213
X-12.864 Y-18.534 R0.213
X-12.536 Y-18.804 Z-3.618 R0.212
X-12.864 Y-18.534 Z-3.735 R0.212
X-12.536 Y-18.804 Z-3.853 R0.212
X-12.864 Y-18.534 Z-3.971 R0.212
X-12.912 Y-18.688 Z-4. R0.212
X-12.488 Y-18.65 R0.212
X-12.912 Y-18.688 R0.212
X-12.488 Y-18.65 Z-4.118 R0.212
X-12.912 Y-18.688 Z-4.235 R0.212
X-12.488 Y-18.65 Z-4.353 R0.212
X-12.912 Y-18.688 Z-4.471 R0.212
X-12.838 Y-18.831 Z-4.5 R0.212
X-12.562 Y-18.507 R0.212
X-12.838 Y-18.831 R0.212
X-12.562 Y-18.507 Z-4.618 R0.212
X-12.838 Y-18.831 Z-4.735 R0.212
X-12.562 Y-18.507 Z-4.853 R0.212
X-12.838 Y-18.831 Z-4.971 R0.212
X-12.684 Y-18.881 Z-5. R0.212
X-12.716 Y-18.457 R0.212
X-12.684 Y-18.881 R0.212
X-12.716 Y-18.457 Z-5.118 R0.212
X-12.863 Y-18.806 Z-5.2 R0.212
X-12.537 Y-18.532 R0.212
X-12.863 Y-18.806 R0.212
G1 X-12.7 Y-18.669 Z-5.179
G0 Z5.
X12.628 Y-18.733
G1 Z2.5 F400.
G3 X12.675 Y-18.475 Z2.427 R0.131
X12.628 Y-18.733 Z2.355 R0.131
X12.675 Y-18.475 Z2.282 R0.131
X12.628 Y-18.733 Z2.209 R0.131
X12.675 Y-18.475 Z2.136 R0.131
X12.628 Y-18.733 Z2.064 R0.131
X12.675 Y-18.475 Z1.991 R0.131
X12.628 Y-18.733 Z1.918 R0.131
X12.675 Y-18.475 Z1.846 R0.131
X12.628 Y-18.733 Z1.773 R0.131
X12.675 Y-18.475 Z1.7 R0.131
X12.628 Y-18.733 Z1.628 R0.131
X12.675 Y-18.475 Z1.555 R0.131
X12.628 Y-18.733 Z1.482 R0.131
X12.675 Y-18.475 Z1.409 R0.131
X12.628 Y-18.733 Z1.337 R0.131
X12.675 Y-18.475 Z1.264 R0.131
X12.628 Y-18.733 Z1.191 R0.131
X12.675 Y-18.475 Z1.119 R0.131
X12.628 Y-18.733 Z1.046 R0.131
X12.675 Y-18.475 Z0.973 R0.131
X12.628 Y-18.733 Z0.9 R0.131
X12.675 Y-18.475 Z0.828 R0.131
X12.628 Y-18.733 Z0.755 R0.131
X12.675 Y-18.475 Z0.682 R0.131
X12.628 Y-18.733 Z0.61 R0.131
X12.675 Y-18.475 Z0.537 R0.131
X12.628 Y-18.733 Z0.464 R0.131
X12.675 Y-18.475 Z0.392 R0.131
X12.628 Y-18.733 Z0.319 R0.131
X12.675 Y-18.475 Z0.246 R0.131
X12.628 Y-18.733 Z0.173 R0.131
X12.675 Y-18.475 Z0.101 R0.131
X12.628 Y-18.733 Z0.028 R0.131
X12.675 Y-18.475 Z-0.045 R0.131
X12.628 Y-18.733 Z-0.117 R0.131
X12.675 Y-18.475 Z-0.19 R0.131
X12.628 Y-18.733 Z-0.263 R0.131
X12.675 Y-18.475 Z-0.336 R0.131
X12.628 Y-18.733 Z-0.408 R0.131
X12.675 Y-18.475 Z-0.481 R0.131
X12.573 Y-18.499 Z-0.5 R0.131
X12.827 Y-18.839 R0.212
X12.573 Y-18.499 R0.212
X12.827 Y-18.839 Z-0.618 R0.213
X12.573 Y-18.499 Z-0.735 R0.213
X12.827 Y-18.839 Z-0.853 R0.213
X12.573 Y-18.499 Z-0.971 R0.213
X12.49 Y-18.637 Z-1. R0.213
X12.91 Y-18.701 R0.213
X12.49 Y-18.637 R0.213
X12.91 Y-18.701 Z-1.118 R0.212
X12.49 Y-18.637 Z-1.235 R0.212
X12.91 Y-18.701 Z-1.353 R0.212
X12.49 Y-18.637 Z-1.471 R0.212
X12.528 Y-18.794 Z-1.5 R0.212
X12.872 Y-18.544 R0.212
X12.528 Y-18.794 R0.212
X12.872 Y-18.544 Z-1.618 R0.213
X12.528 Y-18.794 Z-1.735 R0.213
X12.872 Y-18.544 Z-1.853 R0.213
X12.528 Y-18.794 Z-1.971 R0.213
X12.665 Y-18.879 Z-2. R0.213
X12.735 Y-18.459 R0.213
X12.665 Y-18.879 R0.213
X12.735 Y-18.459 Z-2.118 R0.212
X12.665 Y-18.879 Z-2.235 R0.212
X12.735 Y-18.459 Z-2.353 R0.212
X12.665 Y-18.879 Z-2.471 R0.212
X12.822 Y-18.843 Z-2.5 R0.212
X12.578 Y-18.495 R0.212
X12.822 Y-18.843 R0.212
X12.578 Y-18.495 Z-2.618 R0.212
X12.822 Y-18.843 Z-2.735 R0.212
X12.578 Y-18.495 Z-2.853 R0.212
X12.822 Y-18.843 Z-2.971 R0.212
X12.909 Y-18.707 Z-3. R0.212
X12.491 Y-18.631 R0.212
X12.909 Y-18.707 R0.212
X12.491 Y-18.631 Z-3.118 R0.213
X12.909 Y-18.707 Z-3.235 R0.213
X12.491 Y-18.631 Z-3.353 R0.213
X12.909 Y-18.707 Z-3.471 R0.213
X12.876 Y-18.549 Z-3.5 R0.213
X12.524 Y-18.789 R0.213
X12.876 Y-18.549 R0.213
X12.524 Y-18.789 Z-3.618 R0.213
X12.876 Y-18.549 Z-3.735 R0.213
X12.524 Y-18.789 Z-3.853 R0.213
X12.876 Y-18.549 Z-3.971 R0.213
X12.741 Y-18.461 Z-4. R0.213
X12.659 Y-18.877 R0.213
X12.741 Y-18.461 R0.213
X12.583 Y-18.492 Z-4.029 R0.213
X12.573 Y-18.499 Z-4.031 R0.212
X12.827 Y-18.839 Z-4.149 R0.213
X12.583 Y-18.492 Z-4.265 R0.213
X12.573 Y-18.499 Z-4.267 R0.212
X12.827 Y-18.839 Z-4.385 R0.213
X12.583 Y-18.492 Z-4.5 R0.213
X12.817 Y-18.846 R0.213
X12.583 Y-18.492 R0.213
X12.573 Y-18.499 Z-4.502 R0.212
X12.827 Y-18.839 Z-4.62 R0.213
X12.583 Y-18.492 Z-4.735 R0.213
X12.573 Y-18.499 Z-4.738 R0.212
X12.827 Y-18.839 Z-4.855 R0.213
X12.583 Y-18.492 Z-4.971 R0.213
X12.573 Y-18.499 Z-4.973 R0.212
X12.492 Y-18.625 Z-5. R0.212
X12.908 Y-18.713 R0.212
X12.492 Y-18.625 R0.212
X12.908 Y-18.713 Z-5.118 R0.212
X12.614 Y-18.475 Z-5.2 R0.212
X12.786 Y-18.863 R0.212
X12.614 Y-18.475 R0.212
G1 X12.7 Y-18.669 Z-5.179
G0 Z5.
X12.692 Y13.685
G1 Z2.5 F400.
G3 X12.87 Y13.493 Z2.427 R0.131
X12.692 Y13.685 Z2.355 R0.131
X12.87 Y13.493 Z2.282 R0.131
X12.692 Y13.685 Z2.209 R0.131
X12.87 Y13.493 Z2.136 R0.131
X12.692 Y13.685 Z2.064 R0.131
X12.87 Y13.493 Z1.991 R0.131
X12.692 Y13.685 Z1.918 R0.131
X12.87 Y13.493 Z1.846 R0.131
X12.692 Y13.685 Z1.773 R0.131
X12.87 Y13.493 Z1.7 R0.131
X12.692 Y13.685 Z1.628 R0.131
X12.87 Y13.493 Z1.555 R0.131
X12.692 Y13.685 Z1.482 R0.131
X12.87 Y13.493 Z1.409 R0.131
X12.692 Y13.685 Z1.337 R0.131
X12.87 Y13.493 Z1.264 R0.131
X12.692 Y13.685 Z1.191 R0.131
X12.87 Y13.493 Z1.119 R0.131
X12.692 Y13.685 Z1.046 R0.131
X12.87 Y13.493 Z0.973 R0.131
X12.692 Y13.685 Z0.9 R0.131
X12.87 Y13.493 Z0.828 R0.131
X12.692 Y13.685 Z0.755 R0.131
X12.87 Y13.493 Z0.682 R0.131
X12.692 Y13.685 Z0.61 R0.131
X12.87 Y13.493 Z0.537 R0.131
X12.692 Y13.685 Z0.464 R0.131
X12.87 Y13.493 Z0.392 R0.131
X12.692 Y13.685 Z0.319 R0.131
X12.87 Y13.493 Z0.246 R0.131
X12.692 Y13.685 Z0.173 R0.131
X12.87 Y13.493 Z0.101 R0.131
X12.692 Y13.685 Z0.028 R0.131
X12.87 Y13.493 Z-0.045 R0.131
X12.692 Y13.685 Z-0.117 R0.131
X12.87 Y13.493 Z-0.19 R0.131
X12.692 Y13.685 Z-0.263 R0.131
X12.87 Y13.493 Z-0.336 R0.131
X12.692 Y13.685 Z-0.408 R0.131
X12.87 Y13.493 Z-0.481 R0.131
X12.913 Y13.589 Z-0.5 R0.131
X12.487 R0.213
X12.913 R0.213
X12.487 Z-0.618 R0.213
X12.913 Z-0.735 R0.213
X12.487 Z-0.853 R0.213
X12.913 Z-0.971 R0.213
X12.851 Y13.738 Z-1. R0.213
X12.549 Y13.44 R0.213
X12.851 Y13.738 R0.213
X12.549 Y13.44 Z-1.118 R0.213
X12.851 Y13.738 Z-1.235 R0.213
X12.549 Y13.44 Z-1.353 R0.213
X12.851 Y13.738 Z-1.471 R0.213
X12.703 Y13.801 Z-1.5 R0.213
X12.697 Y13.377 R0.213
X12.703 Y13.801 R0.213
X12.697 Y13.377 Z-1.618 R0.213
X12.703 Y13.801 Z-1.735 R0.213
X12.697 Y13.377 Z-1.853 R0.213
X12.703 Y13.801 Z-1.971 R0.213
X12.553 Y13.743 Z-2. R0.213
X12.847 Y13.435 R0.213
X12.553 Y13.743 R0.213
X12.847 Y13.435 Z-2.118 R0.212
X12.553 Y13.743 Z-2.235 R0.212
X12.847 Y13.435 Z-2.353 R0.212
X12.553 Y13.743 Z-2.471 R0.212
X12.488 Y13.595 Z-2.5 R0.212
X12.912 Y13.583 R0.212
X12.488 Y13.595 R0.212
X12.912 Y13.583 Z-2.618 R0.212
X12.488 Y13.595 Z-2.735 R0.212
X12.912 Y13.583 Z-2.853 R0.212
X12.488 Y13.595 Z-2.971 R0.212
X12.544 Y13.445 Z-3. R0.212
X12.856 Y13.733 R0.212
X12.544 Y13.445 R0.212
X12.856 Y13.733 Z-3.118 R0.212
X12.544 Y13.445 Z-3.235 R0.212
X12.856 Y13.733 Z-3.353 R0.212
X12.544 Y13.445 Z-3.471 R0.212
X12.69 Y13.377 Z-3.5 R0.212
X12.71 Y13.801 R0.212
X12.69 Y13.377 R0.212
X12.71 Y13.801 Z-3.618 R0.212
X12.69 Y13.377 Z-3.735 R0.212
X12.71 Y13.801 Z-3.853 R0.212
X12.69 Y13.377 Z-3.971 R0.212
X12.842 Y13.431 Z-4. R0.212
X12.558 Y13.747 R0.212
X12.842 Y13.431 R0.212
X12.912 Y13.576 Z-4.029 R0.212
X12.913 Y13.589 Z-4.031 R0.213
X12.487 Z-4.149 R0.212
X12.912 Y13.576 Z-4.265 R0.212
X12.913 Y13.589 Z-4.267 R0.213
X12.487 Z-4.385 R0.212
X12.912 Y13.576 Z-4.5 R0.212
X12.488 Y13.602 R0.212
X12.912 Y13.576 R0.212
X12.913 Y13.589 Z-4.502 R0.213
X12.487 Z-4.62 R0.212
X12.912 Y13.576 Z-4.735 R0.212
X12.913 Y13.589 Z-4.738 R0.213
X12.487 Z-4.855 R0.212
X12.912 Y13.576 Z-4.971 R0.212
X12.913 Y13.589 Z-4.973 R0.213
X12.86 Y13.729 Z-5. R0.212
X12.54 Y13.449 R0.212
X12.86 Y13.729 R0.212
X12.54 Y13.449 Z-5.118 R0.213
X12.907 Y13.541 Z-5.2 R0.213
X12.493 Y13.637 R0.213
X12.907 Y13.541 R0.213
G1 X12.7 Y13.589 Z-5.179
G0 Z5.
X-12.708 Y13.685
G1 Z2.5 F400.
G3 X-12.53 Y13.493 Z2.427 R0.131
X-12.708 Y13.685 Z2.355 R0.131
X-12.53 Y13.493 Z2.282 R0.131
X-12.708 Y13.685 Z2.209 R0.131
X-12.53 Y13.493 Z2.136 R0.131
X-12.708 Y13.685 Z2.064 R0.131
X-12.53 Y13.493 Z1.991 R0.131
X-12.708 Y13.685 Z1.918 R0.131
X-12.53 Y13.493 Z1.846 R0.131
X-12.708 Y13.685 Z1.773 R0.131
X-12.53 Y13.493 Z1.7 R0.131
X-12.708 Y13.685 Z1.628 R0.131
X-12.53 Y13.493 Z1.555 R0.131
X-12.708 Y13.685 Z1.482 R0.131
X-12.53 Y13.493 Z1.409 R0.131
X-12.708 Y13.685 Z1.337 R0.131
X-12.53 Y13.493 Z1.264 R0.131
X-12.708 Y13.685 Z1.191 R0.131
X-12.53 Y13.493 Z1.119 R0.131
X-12.708 Y13.685 Z1.046 R0.131
X-12.53 Y13.493 Z0.973 R0.131
X-12.708 Y13.685 Z0.9 R0.131
X-12.53 Y13.493 Z0.828 R0.131
X-12.708 Y13.685 Z0.755 R0.131
X-12.53 Y13.493 Z0.682 R0.131
X-12.708 Y13.685 Z0.61 R0.131
X-12.53 Y13.493 Z0.537 R0.131
X-12.708 Y13.685 Z0.464 R0.131
X-12.53 Y13.493 Z0.392 R0.131
X-12.708 Y13.685 Z0.319 R0.131
X-12.53 Y13.493 Z0.246 R0.131
X-12.708 Y13.685 Z0.173 R0.131
X-12.53 Y13.493 Z0.101 R0.131
X-12.708 Y13.685 Z0.028 R0.131
X-12.53 Y13.493 Z-0.045 R0.131
X-12.708 Y13.685 Z-0.117 R0.131
X-12.53 Y13.493 Z-0.19 R0.131
X-12.708 Y13.685 Z-0.263 R0.131
X-12.53 Y13.493 Z-0.336 R0.131
X-12.708 Y13.685 Z-0.408 R0.131
X-12.53 Y13.493 Z-0.481 R0.131
X-12.488 Y13.589 Z-0.5 R0.131
X-12.912 R0.212
X-12.488 R0.212
X-12.912 Z-0.618 R0.212
X-12.488 Z-0.735 R0.212
X-12.912 Z-0.853 R0.212
X-12.488 Z-0.971 R0.212
X-12.549 Y13.738 Z-1. R0.212
X-12.851 Y13.44 R0.212
X-12.549 Y13.738 R0.212
X-12.851 Y13.44 Z-1.118 R0.213
X-12.549 Y13.738 Z-1.235 R0.213
X-12.851 Y13.44 Z-1.353 R0.213
X-12.549 Y13.738 Z-1.471 R0.213
X-12.697 Y13.801 Z-1.5 R0.213
X-12.703 Y13.377 R0.213
X-12.697 Y13.801 R0.213
X-12.703 Y13.377 Z-1.618 R0.213
X-12.697 Y13.801 Z-1.735 R0.213
X-12.703 Y13.377 Z-1.853 R0.213
X-12.697 Y13.801 Z-1.971 R0.213
X-12.847 Y13.743 Z-2. R0.213
X-12.553 Y13.435 R0.213
X-12.847 Y13.743 R0.213
X-12.553 Y13.435 Z-2.118 R0.212
X-12.847 Y13.743 Z-2.235 R0.212
X-12.553 Y13.435 Z-2.353 R0.212
X-12.847 Y13.743 Z-2.471 R0.212
X-12.912 Y13.595 Z-2.5 R0.212
X-12.488 Y13.583 R0.212
X-12.912 Y13.595 R0.212
X-12.488 Y13.583 Z-2.618 R0.213
X-12.912 Y13.595 Z-2.735 R0.213
X-12.488 Y13.583 Z-2.853 R0.213
X-12.912 Y13.595 Z-2.971 R0.213
X-12.856 Y13.445 Z-3. R0.213
X-12.544 Y13.733 R0.213
X-12.856 Y13.445 R0.213
X-12.544 Y13.733 Z-3.118 R0.212
X-12.856 Y13.445 Z-3.235 R0.212
X-12.544 Y13.733 Z-3.353 R0.212
X-12.856 Y13.445 Z-3.471 R0.212
X-12.71 Y13.377 Z-3.5 R0.212
X-12.69 Y13.801 R0.212
X-12.71 Y13.377 R0.212
X-12.69 Y13.801 Z-3.618 R0.212
X-12.71 Y13.377 Z-3.735 R0.212
X-12.69 Y13.801 Z-3.853 R0.212
X-12.71 Y13.377 Z-3.971 R0.212
X-12.558 Y13.431 Z-4. R0.212
X-12.842 Y13.747 R0.212
X-12.558 Y13.431 R0.212
X-12.842 Y13.747 Z-4.118 R0.212
X-12.558 Y13.431 Z-4.235 R0.212
X-12.842 Y13.747 Z-4.353 R0.212
X-12.558 Y13.431 Z-4.471 R0.212
X-12.488 Y13.576 Z-4.5 R0.212
X-12.912 Y13.602 R0.212
X-12.488 Y13.576 R0.212
X-12.912 Y13.602 Z-4.618 R0.212
X-12.488 Y13.576 Z-4.735 R0.212
X-12.912 Y13.602 Z-4.853 R0.212
X-12.488 Y13.576 Z-4.971 R0.212
X-12.54 Y13.729 Z-5. R0.212
X-12.86 Y13.449 R0.212
X-12.54 Y13.729 R0.212
X-12.86 Y13.449 Z-5.118 R0.213
X-12.493 Y13.541 Z-5.2 R0.213
X-12.907 Y13.637 R0.213
X-12.493 Y13.541 R0.213
G1 X-12.7 Y13.589 Z-5.179
G0 Z10.

(POCKET1)
M8
G0 X0.922 Y-1.987
Z10.
Z1.5
G1 Z0.839 F400.
G3 X0.92 Y-1.968 Z0.729 R0.508
X0.91 Y-1.912 Z0.632 R0.508
X0.883 Y-1.83 Z0.561 R0.508
X0.832 Y-1.738 Z0.525 R0.508
X0. Y-2.321 Z0.275 R0.508
X0.832 Y-1.738 Z0.025 R0.508
X0. Y-2.321 Z-0.225 R0.508
X0.832 Y-1.738 Z-0.475 R0.508
X0.722 Y-1.623 Z-0.5 R0.508
G1 X0.602 Y-1.533
G3 X-0.567 Y-1.55 R0.951
G2 X-0.836 Y-1.763 R32.462
X-1.108 Y-1.972 R14.513
G3 Y-3.108 R0.71
G2 X-0.836 Y-3.317 R14.508
X-0.568 Y-3.53 R32.501
G3 X0.602 Y-3.547 R0.951
G1 X1.195 Y-3.1
G3 X1.196 Y-1.98 R0.701
G1 X0.722 Y-1.623
G2 X0.348 Y-0.067 R1.258
G3 X-0.947 Y0.875 R0.813
G2 X-2.43 Y-0.393 R16.177
X-4.411 Y-1.626 R12.949
X-4.933 Y-1.868 R9.166
G3 X-5.455 Y-2.111 R10.68
Y-2.969 R0.479
G2 X-3.593 Y-3.939 R57.713
X-1.844 Y-5.102 R11.895
X-1.27 Y-5.62 R6.583
G1 X-0.66 Y-6.239
G3 X0.617 Y-6.257 R0.909
G2 X2.874 Y-4.41 R18.55
X5.404 Y-2.958 R16.958
G3 Y-2.125 R0.459
G2 X2.883 Y-0.677 R16.765
X0.632 Y1.163 R18.811
G3 X-0.675 Y1.144 R0.932
G2 X-0.947 Y0.875 R16.177
X-2.524 Y0.611 R1.412
G3 X-4.118 Y0.495 R1.643
G2 X-7.946 Y-1.268 R14.198
X-13.443 Y-1.927 R17.029
G3 X-13.995 Y-2.455 R0.528
G1 Y-2.623
G3 X-13.444 Y-3.151 R0.528
G2 X-7.947 Y-3.814 R17.206
X-3.032 Y-6.364 R14.166
X-1.732 Y-7.622 R9.624
X-0.562 Y-9.002 R227.967
G3 X0.559 Y-8.98 R0.721
G2 X6.26 Y-4.455 R15.321
X13.425 Y-3.178 R14.452
G3 X13.995 Y-2.651 R0.528
G1 Y-2.429
G3 X13.425 Y-1.902 R0.528
G2 X6.26 Y-0.625 R14.452
X0.559 Y3.9 R15.321
G3 X-0.563 Y3.922 R0.722
G2 X-1.733 Y2.543 R317.579
X-3.032 Y1.284 R9.571
X-4.118 Y0.495 R14.198
X-6.115 Y0.552 R1.746
G3 X-8.09 Y0.846 R2.124
G2 X-15.254 Y0.416 R12.913
G3 X-16.1 Y-0.263 R0.695
G1 Y-4.789
G3 X-15.229 Y-5.49 R0.717
G2 X-6.386 Y-6.668 R13.102
X-0.424 Y-13.305 R12.69
G3 X0.379 Y-13.322 R0.435
G2 X4.902 Y-7.689 R14.029
X11.671 Y-5.167 R13.202
X13.455 Y-5.217 R8.303
X15.22 Y-5.486 R58.752
G3 X16.1 Y-4.741 R0.755
G1 Y-0.339
G3 X15.22 Y0.406 R0.755
G2 X10.945 Y0.231 R17.103
X6.82 Y1.367 R11.696
X2.946 Y4.272 R12.752
X0.333 Y8.348 R14.628
G3 X-0.379 Y8.336 R0.385
G2 X-8.09 Y0.846 R12.913
G3 X-8.175 Y0.798 Z-0.484 R0.318
X-8.236 Y0.735 Z-0.439 R0.318
X-8.271 Y0.673 Z-0.369 R0.317
X-8.285 Y0.631 Z-0.281 R0.317
X-8.289 Y0.616 Z-0.183 R0.318
G0 Z5.
X0.267 Y17.931
Z0.839
G3 X0.285 Y17.938 Z0.729 R0.508 F400.
X0.336 Y17.963 Z0.632 R0.508
X0.407 Y18.011 Z0.561 R0.508
X0.482 Y18.085 Z0.525 R0.508
X-0.304 Y18.729 Z0.275 R0.508
X0.482 Y18.085 Z0.025 R0.508
X-0.304 Y18.729 Z-0.225 R0.508
X-0.167 Y17.968 Z-0.363 R0.508
X0.563 Y18.222 Z-0.5 R0.508
G2 X0.588 Y18.282 R1.226
G3 X0.622 Y18.363 R1.646
X0.129 Y19.083 R0.528
G1 X-0.175
G3 X-0.668 Y18.365 R0.528
G1 X-0.428 Y17.741
G2 X-0.387 Y17.634 R9.599
G3 X0.367 Y17.651 R0.399
G2 X0.458 Y17.927 R19.483
X0.554 Y18.201 R10.511
X0.563 Y18.222 R1.226
X1.594 Y18.905 R1.074
G3 X2.682 Y19.495 R1.233
G2 X2.729 Y19.571 R13.169
G3 X2.268 Y20.399 R0.542
G1 X-2.217
G3 X-2.686 Y19.584 R0.543
G2 X-0.947 Y12.689 R12.892
X-3.614 Y6.098 R10.304
X-8.123 Y2.829 R13.567
X-13.604 Y1.839 R11.622
X-15.409 Y2.184 R7.347
X-17.14 Y2.801 R32.745
G3 X-17.86 Y2.308 R0.528
G1 Y-7.235
G3 X-17.005 Y-7.83 R0.634
G2 X-13.164 Y-6.953 R15.184
X-9.248 Y-7.38 R9.766
X-4.001 Y-10.742 R12.205
X-1.173 Y-16.295 R11.611
X-1.035 Y-17.902 R7.101
G1 X-1.079 Y-19.483
G3 X-0.189 Y-20.399 R0.891
G1 X0.24
G3 X1.064 Y-19.494 R0.827
G2 X5.714 Y-9.114 R11.527
X17.017 Y-7.841 R11.416
G3 X17.86 Y-7.288 R0.603
G1 Y2.208
G3 X17.017 Y2.761 R0.603
G2 X6.046 Y3.795 R11.424
X0.892 Y13.535 R11.777
X1.388 Y16.681 R10.219
X2.682 Y19.495 R13.169
X4.255 Y20.202 R1.528
G3 X5.918 Y20.661 R1.995
G2 X6.398 Y21.028 R4.596
G3 X7.238 Y21.622 R17.02
X7.003 Y22.325 R0.391
G1 X-7.012
G3 X-7.215 Y21.644 R0.371
G2 X-3.454 Y10.279 R9.616
X-13.483 Y3.742 R10.01
X-15.968 Y4.308 R7.967
X-18.201 Y5.537 R10.784
X-18.686 Y5.92 R6.691
G3 X-19.159 Y6.316 R18.139
X-19.786 Y6.017 R0.385
G1 Y-10.908
G3 X-19.021 Y-11.284 R0.475
X-17.971 Y-10.458 R69.274
G2 X-16.835 Y-9.754 R5.52
X-6.235 Y-11.173 R9.957
X-3.388 Y-21.482 R9.453
G3 X-2.786 Y-22.325 R0.636
G1 X2.729
G3 X3.376 Y-21.476 R0.671
G2 X2.912 Y-18.358 R13.043
X3.433 Y-15.248 R8.248
X10.186 Y-9.142 R9.906
X19.039 Y-11.271 R9.607
G3 X19.786 Y-10.937 R0.448
G1 Y5.854
G3 X19.037 Y6.191 R0.45
G2 X8.386 Y4.715 R9.696
X2.83 Y13.92 R9.845
X3.628 Y17.399 R9.402
X5.61 Y20.366 R10.41
X5.918 Y20.661 R4.596
X6.015 Y20.7 R0.159
G1 X18.684 Y21.266
G2 X18.791 Y21.231 R0.159
X19.012 Y21.044 R6.112
G3 X19.76 Y21.38 R0.45
G1 Y21.782
G3 X19.242 Y22.3 R0.518
G1 X18.485
G3 X18.273 Y21.613 R0.376
G2 X18.651 Y21.34 R9.144
X18.791 Y21.231 R6.112
X19.198 Y19.842 R1.27
G3 X19.426 Y18.413 R1.57
G2 X19.759 Y17.929 R8.39
X20.621 Y16.111 R8.355
X20.943 Y14.126 R6.269
X19.439 Y8.942 R9.693
X15.143 Y5.673 R7.749
X5.66 Y9.151 R8.386
X6.608 Y19.207 R8.163
X19.426 Y18.413 R8.39
X19.443 Y17.18 R1.055
G3 X19.277 Y15.957 R1.345
G2 X18.579 Y9.795 R7.068
X12.191 Y6.611 R6.924
X9.672 Y19.896 R7.009
X17.955 Y18.223 R6.92
X19.277 Y15.957 R7.068
X18.238 Y12.964 R2.534
G3 X15.809 Y10.93 R11.741
G1 X15.369 Y10.447
G2 X15.295 Y10.376 R0.744
G1 X15.197 Y10.294
G2 X15.072 Y10.21 R0.744
G1 X14.827 Y10.079
G2 X14.807 Y10.069 R0.744
G1 X14.051 Y9.693
G2 X13.936 Y9.648 R0.744
G1 X13.774 Y9.599
G2 X13.628 Y9.57 R0.744
G1 X12.548 Y9.468
G2 X12.419 Y9.467 R0.744
G1 X12.257 Y9.48
G2 X12.113 Y9.506 R0.744
G1 X11.066 Y9.803
G2 X10.944 Y9.85 R0.744
G1 X10.799 Y9.92
G2 X10.677 Y9.995 R0.744
G1 X9.813 Y10.645
G2 X9.722 Y10.726 R0.744
G1 X9.617 Y10.836
G2 X9.525 Y10.955 R0.744
G1 X9.093 Y11.645
X9.088 Y11.653
X8.933 Y11.907
G2 X8.872 Y12.034 R0.744
G1 X8.812 Y12.196
G2 X8.777 Y12.321 R0.744
G1 X8.579 Y13.399
G2 X8.567 Y13.56 R0.744
G1 X8.573 Y13.721
G2 X8.585 Y13.832 R0.744
G1 X8.777 Y14.857
G2 X8.81 Y14.977 R0.744
G1 X8.869 Y15.139
G2 X8.936 Y15.274 R0.744
G1 X9.523 Y16.221
G2 X9.617 Y16.341 R0.744
G1 X9.721 Y16.451
G2 X9.812 Y16.532 R0.744
G1 X10.673 Y17.181
G2 X10.792 Y17.254 R0.744
G1 X10.937 Y17.326
G2 X11.063 Y17.374 R0.744
G1 X12.113 Y17.672
G2 X12.257 Y17.698 R0.744
G1 X12.419 Y17.711
G2 X12.548 Y17.71 R0.744
G1 X13.628 Y17.608
G2 X13.774 Y17.579 R0.744
G1 X13.936 Y17.53
G2 X14.052 Y17.484 R0.744
G1 X15.006 Y17.008
G2 X15.102 Y16.951 R0.744
G1 X15.2 Y16.881
G2 X15.303 Y16.794 R0.744
G1 X15.44 Y16.654
G2 X15.459 Y16.634 R0.744
G1 X16.086 Y15.943
G2 X16.165 Y15.84 R0.744
G1 X16.247 Y15.71
G2 X16.311 Y15.582 R0.744
G1 X16.709 Y14.558
G2 X16.747 Y14.422 R0.744
G1 X16.777 Y14.26
G2 X16.789 Y14.127 R0.744
G1 X16.788 Y13.048
G2 X16.776 Y12.913 R0.744
G1 X16.746 Y12.751
G2 X16.708 Y12.617 R0.744
G1 X16.31 Y11.593
G2 X16.244 Y11.463 R0.744
G1 X16.162 Y11.334
G2 X16.084 Y11.233 R0.744
G1 X15.809 Y10.93
G3 X15.755 Y10.849 Z-0.484 R0.318
X15.73 Y10.764 Z-0.439 R0.318
X15.727 Y10.694 Z-0.369 R0.318
X15.734 Y10.649 Z-0.281 R0.318
X15.737 Y10.634 Z-0.183 R0.318
G0 Z5.
X-19.616 Y22.062
Z0.839
G3 X-19.631 Y22.049 Z0.729 R0.508 F400.
X-19.669 Y22.008 Z0.632 R0.508
X-19.719 Y21.937 Z0.561 R0.508
X-19.761 Y21.84 Z0.525 R0.508
X-18.795 Y21.526 Z0.275 R0.508
X-19.761 Y21.84 Z0.025 R0.508
X-18.795 Y21.526 Z-0.225 R0.508
X-19.199 Y22.185 Z-0.363 R0.508
X-19.786 Y21.683 Z-0.5 R0.508
G1 Y21.35
G3 X-19.02 Y20.971 R0.477
G1 X-18.161 Y21.624
G3 X-18.397 Y22.325 R0.39
G1 X-19.268
G3 X-19.786 Y21.807 R0.518
G1 Y21.683
G2 X-20.594 Y20.472 R1.312
G3 X-21.401 Y19.261 R1.312
G1 X-21.4 Y-23.245
G3 X-20.705 Y-23.94 R0.695
G1 X-19.898
G3 X-19.449 Y-23.133 R0.528
G2 X-20.174 Y-21.92 R41.537
X-20.658 Y-20.593 R4.14
X-20.576 Y-16.523 R10.295
X-18.65 Y-12.937 R7.536
X-4.61 Y-16.989 R8.26
X-4.461 Y-18.776 R7.744
X-4.703 Y-20.552 R8.726
X-5.196 Y-21.916 R6.7
X-5.927 Y-23.169 R9.994
G3 X-5.52 Y-23.94 R0.493
G1 X5.504
G3 X5.952 Y-23.132 R0.528
G2 X5.235 Y-21.948 R46.757
X4.755 Y-20.651 R3.971
X4.54 Y-18.145 R13.385
X4.999 Y-15.673 R7.229
X11.871 Y-10.405 R8.169
X19.653 Y-14.202 R8.292
X20.9 Y-18.712 R7.975
X19.473 Y-23.167 R8.404
G3 X19.884 Y-23.94 R0.496
G1 X20.706
G3 X21.401 Y-23.245 R0.695
G1 X21.4 Y22.996
G3 X20.456 Y23.94 R0.944
G1 X-20.457
G3 X-21.401 Y22.996 R0.944
G1 Y19.261
G2 X-22.256 Y17.979 R1.389
G3 X-23.111 Y16.697 R1.389
G1 X-23.11 Y-24.706
G3 X-22.166 Y-25.65 R0.944
G1 X22.167
G3 X23.111 Y-24.706 R0.944
G1 X23.11 Y24.706
G3 X22.166 Y25.65 R0.944
G1 X-22.167
G3 X-23.111 Y24.706 R0.944
G1 Y16.697
G2 X-24.255 Y14.98 R1.86
G3 X-25.4 Y13.263 R1.86
G1 X-25.399 Y-27.921
X-25.396 Y-27.936
X-25.38 Y-27.939
X25.38
X25.396 Y-27.936
X25.4 Y-27.894
X25.399 Y27.921
X25.396 Y27.936
X25.38 Y27.939
X-25.38
X-25.396 Y27.936
X-25.4 Y27.894
Y13.263
G3 X-25.131 Y13.148 R0.159
G1 X-17.863 Y20.151
G2 X-15.418 Y21.501 R7.372
X-10.334 Y21.506 R8.26
X-6.583 Y19.128 R8.862
X-4.587 Y15.16 R7.862
X-6.511 Y8.148 R8.402
X-13.219 Y5.343 R8.198
X-17.776 Y7.011 R8.558
X-20.542 Y10.998 R7.576
X-20.757 Y14.799 R8.572
X-19.415 Y18.361 R9.933
X-17.863 Y20.151 R7.372
X-16.646 Y20.245 R1.054
G3 X-15.429 Y20.151 R1.369
G2 X-14.98 Y20.312 R6.11
X-10.723 Y20.301 R6.999
X-7.054 Y17.484 R6.879
X-5.746 Y13.048 R8.176
X-7.913 Y8.514 R5.828
X-12.566 Y6.617 R8.732
X-13.138 Y6.607 R3.609
X-16.982 Y7.998 R7.298
X-19.324 Y11.348 R6.314
X-19.502 Y14.626 R7.312
X-18.337 Y17.696 R8.676
X-15.429 Y20.151 R6.11
X-12.266 Y19.244 R2.671
G3 X-10.082 Y16.782 R16.886
G2 X-10.036 Y16.737 R0.744
G1 X-9.296 Y15.92
G2 X-9.201 Y15.789 R0.744
G1 X-9.119 Y15.645
G2 X-9.071 Y15.545 R0.744
G1 X-8.691 Y14.556
G2 X-8.653 Y14.422 R0.744
G1 X-8.623 Y14.26
G2 X-8.611 Y14.127 R0.744
G1 X-8.612 Y13.048
G2 X-8.624 Y12.913 R0.744
G1 X-8.654 Y12.751
G2 X-8.692 Y12.617 R0.744
G1 X-9.09 Y11.593
G2 X-9.149 Y11.474 R0.744
G1 X-9.215 Y11.366
G2 X-9.299 Y11.255 R0.744
G1 X-10.037 Y10.441
G2 X-10.122 Y10.36 R0.744
G1 X-10.231 Y10.274
G2 X-10.361 Y10.19 R0.744
G1 X-11.333 Y9.701
G2 X-11.44 Y9.657 R0.744
G1 X-11.602 Y9.605
G2 X-11.759 Y9.572 R0.744
G1 X-12.839 Y9.469
G2 X-12.957 Y9.467 R0.744
G1 X-13.119 Y9.477
G2 X-13.275 Y9.504 R0.744
G1 X-14.345 Y9.807
G2 X-14.455 Y9.848 R0.744
G1 X-14.553 Y9.893
G2 X-14.674 Y9.964 R0.744
G1 X-14.91 Y10.132
G2 X-14.927 Y10.145 R0.744
G1 X-15.614 Y10.668
G2 X-15.723 Y10.77 R0.744
G1 X-15.824 Y10.886
G2 X-15.896 Y10.983 R0.744
G1 X-16.405 Y11.802
G2 X-16.426 Y11.839 R0.744
G1 X-16.509 Y11.992
G2 X-16.571 Y12.142 R0.744
G1 X-16.617 Y12.303
G2 X-16.634 Y12.376 R0.744
G1 X-16.821 Y13.4
G2 X-16.833 Y13.56 R0.744
G1 X-16.827 Y13.721
G2 X-16.815 Y13.832 R0.744
G1 X-16.623 Y14.857
G2 X-16.59 Y14.977 R0.744
G1 X-16.531 Y15.139
G2 X-16.466 Y15.272 R0.744
G1 X-15.899 Y16.191
G2 X-15.827 Y16.288 R0.744
G1 X-15.725 Y16.405
G2 X-15.614 Y16.509 R0.744
G1 X-14.754 Y17.163
G2 X-14.674 Y17.216 R0.744
G1 X-14.566 Y17.278
G2 X-14.441 Y17.335 R0.744
G1 X-14.29 Y17.388
G2 X-14.245 Y17.402 R0.744
G1 X-13.273 Y17.675
G2 X-13.119 Y17.701 R0.744
G1 X-12.957 Y17.711
G2 X-12.839 Y17.709 R0.744
G1 X-11.759 Y17.606
G2 X-11.602 Y17.573 R0.744
G1 X-11.44 Y17.521
G2 X-11.333 Y17.477 R0.744
G1 X-10.361 Y16.988
G2 X-10.231 Y16.904 R0.744
G1 X-10.122 Y16.818
G2 X-10.082 Y16.782 R0.744
G3 X-10.001 Y16.728 Z-0.484 R0.317
X-9.916 Y16.702 Z-0.439 R0.317
X-9.846 Y16.698 Z-0.369 R0.317
X-9.802 Y16.704 Z-0.281 R0.317
X-9.787 Y16.708 Z-0.183 R0.317
G0 Z5.
X-12.181 Y-8.661
Z1.5
G1 Z-0.183 F400.
X-12.182 Y-8.669 Z-0.253
X-12.184 Y-8.692 Z-0.32
X-12.187 Y-8.73 Z-0.38
X-12.191 Y-8.78 Z-0.431
X-12.196 Y-8.84 Z-0.469
X-12.201 Y-8.907 Z-0.492
X-12.207 Y-8.978 Z-0.5
X-12.437 Y-11.787
G3 X-12.146 Y-12.129 R0.318
G2 X-10.883 Y-12.358 R6.573
X-6.286 Y-17.328 R6.508
X-6.191 Y-18.29 R4.794
G1 X-6.193 Y-19.258
G2 X-7.67 Y-23.001 R5.522
X-11.144 Y-25.032 R6.962
X-17.419 Y-14.122 R6.56
X-12.146 Y-12.129 R6.573
X-10.223 Y-13.939 R2.117
G3 X-9.25 Y-16.395 R5.664
G2 X-9.231 Y-16.423 R0.744
G1 X-9.162 Y-16.531
G2 X-9.097 Y-16.66 R0.744
G1 X-8.696 Y-17.684
G2 X-8.66 Y-17.808 R0.744
G1 X-8.627 Y-17.97
G2 X-8.612 Y-18.119 R0.744
G1 X-8.616 Y-19.251
G2 X-8.637 Y-19.425 R0.744
G1 X-8.676 Y-19.587
G2 X-8.705 Y-19.68 R0.744
G1 X-9.078 Y-20.639
G2 X-9.124 Y-20.737 R0.744
G1 X-9.193 Y-20.857
G2 X-9.284 Y-20.985 R0.744
G1 X-9.669 Y-21.416
G2 X-9.68 Y-21.428 R0.744
G1 X-10.082 Y-21.859
G2 X-10.196 Y-21.959 R0.744
G1 X-10.294 Y-22.028
G2 X-10.395 Y-22.088 R0.744
G1 X-11.392 Y-22.582
G2 X-11.548 Y-22.638 R0.744
G1 X-11.71 Y-22.677
G2 X-11.818 Y-22.695 R0.744
G1 X-12.899 Y-22.79
G2 X-13.066 Y-22.786 R0.744
G1 X-13.228 Y-22.764
G2 X-13.332 Y-22.742 R0.744
G1 X-14.358 Y-22.446
G2 X-14.48 Y-22.399 R0.744
G1 X-14.588 Y-22.347
G2 X-14.708 Y-22.273 R0.744
G1 X-15.601 Y-21.601
G2 X-15.71 Y-21.5 R0.744
G1 X-15.821 Y-21.375
G2 X-15.897 Y-21.273 R0.744
G1 X-16.405 Y-20.456
G2 X-16.429 Y-20.413 R0.744
G1 X-16.518 Y-20.246
G2 X-16.58 Y-20.089 R0.744
G1 X-16.624 Y-19.928
G2 X-16.637 Y-19.867 R0.744
G1 X-16.823 Y-18.842
G2 X-16.833 Y-18.67 R0.744
G1 X-16.825 Y-18.508
G2 X-16.813 Y-18.41 R0.744
G1 X-16.619 Y-17.386
G2 X-16.583 Y-17.258 R0.744
G1 X-16.525 Y-17.106
G2 X-16.462 Y-16.98 R0.744
G1 X-15.874 Y-16.034
G2 X-15.778 Y-15.911 R0.744
G1 X-15.673 Y-15.802
G2 X-15.584 Y-15.722 R0.744
G1 X-14.701 Y-15.061
G2 X-14.567 Y-14.981 R0.744
G1 X-14.441 Y-14.923
G2 X-14.331 Y-14.882 R0.744
G1 X-13.288 Y-14.586
G2 X-13.155 Y-14.562 R0.744
G1 X-13.01 Y-14.548
G2 X-12.871 R0.744
G1 X-11.76 Y-14.652
G2 X-11.602 Y-14.685 R0.744
G1 X-11.44 Y-14.737
G2 X-11.333 Y-14.781 R0.744
G1 X-10.361 Y-15.27
G2 X-10.231 Y-15.354 R0.744
G1 X-10.122 Y-15.44
G2 X-10.037 Y-15.521 R0.744
G1 X-9.308 Y-16.322
G2 X-9.25 Y-16.395 R0.744
G3 X-9.148 Y-16.46 R0.159
G1 X6.006 Y-19.178
G3 X6.193 Y-19.013 R0.159
G2 X9.956 Y-12.72 R6.565
X18.212 Y-15.121 R6.535
X18.341 Y-22.016 R6.611
X12.226 Y-25.205 R6.489
X6.193 Y-19.013 R6.565
X7.624 Y-16.877 R2.142
G3 X9.893 Y-15.665 R8.377
G1 X10.68 Y-15.072
G2 X10.814 Y-14.992 R0.744
G1 X10.976 Y-14.917
G2 X11.088 Y-14.876 R0.744
G1 X12.114 Y-14.586
G2 X12.257 Y-14.56 R0.744
G1 X12.419 Y-14.547
G2 X12.548 Y-14.548 R0.744
G1 X13.628 Y-14.65
G2 X13.774 Y-14.679 R0.744
G1 X13.936 Y-14.728
G2 X14.054 Y-14.775 R0.744
G1 X15.026 Y-15.262
G2 X15.145 Y-15.337 R0.744
G1 X15.253 Y-15.42
G2 X15.35 Y-15.509 R0.744
G1 X16.092 Y-16.322
G2 X16.169 Y-16.423 R0.744
G1 X16.238 Y-16.531
G2 X16.303 Y-16.66 R0.744
G1 X16.704 Y-17.684
G2 X16.74 Y-17.808 R0.744
G1 X16.773 Y-17.97
G2 X16.788 Y-18.119 R0.744
G1 X16.784 Y-19.251
G2 X16.763 Y-19.425 R0.744
G1 X16.724 Y-19.587
G2 X16.694 Y-19.681 R0.744
G1 X16.317 Y-20.651
G2 X16.257 Y-20.772 R0.744
G1 X16.171 Y-20.911
G2 X16.087 Y-21.021 R0.744
G1 X15.36 Y-21.821
G2 X15.271 Y-21.904 R0.744
G1 X15.16 Y-21.991
G2 X15.032 Y-22.072 R0.744
G1 X14.03 Y-22.573
G2 X13.902 Y-22.623 R0.744
G1 X13.763 Y-22.663
G2 X13.628 Y-22.688 R0.744
G1 X12.548 Y-22.79
G2 X12.419 Y-22.791 R0.744
G1 X12.257 Y-22.778
G2 X12.113 Y-22.752 R0.744
G1 X11.065 Y-22.455
G2 X10.939 Y-22.407 R0.744
G1 X10.79 Y-22.333
G2 X10.672 Y-22.26 R0.744
G1 X9.823 Y-21.621
G2 X9.737 Y-21.545 R0.744
G1 X9.622 Y-21.427
G2 X9.525 Y-21.303 R0.744
G1 X9.093 Y-20.613
G2 X9.086 Y-20.602 R0.744
G1 X8.924 Y-20.334
G2 X8.859 Y-20.195 R0.744
G1 X8.803 Y-20.034
G2 X8.773 Y-19.921 R0.744
G1 X8.578 Y-18.843
G2 X8.567 Y-18.67 R0.744
G1 X8.575 Y-18.508
G2 X8.587 Y-18.41 R0.744
G1 X8.781 Y-17.386
G2 X8.815 Y-17.263 R0.744
G1 X8.868 Y-17.122
G2 X8.932 Y-16.99 R0.744
G1 X9.523 Y-16.038
G2 X9.619 Y-15.914 R0.744
G1 X9.729 Y-15.8
G2 X9.818 Y-15.721 R0.744
G1 X9.893 Y-15.665
G3 X9.961 Y-15.595 Z-0.484 R0.318
X10.001 Y-15.516 Z-0.439 R0.317
X10.017 Y-15.448 Z-0.369 R0.317
X10.019 Y-15.403 Z-0.281 R0.317
Y-15.387 Z-0.183 R0.317
G0 Z5.
X-0.064 Y-1.861
Z0.339
G3 X-0.067 Y-1.872 Z0.253 R0.508 F400.
X-0.077 Y-1.905 Z0.174 R0.508
X-0.087 Y-1.958 Z0.107 R0.508
X-0.092 Y-2.028 Z0.057 R0.508
X-0.083 Y-2.126 Z0.025 R0.508
X0.915 Y-1.933 Z-0.225 R0.508
X-0.083 Y-2.126 Z-0.475 R0.508
X0.915 Y-1.933 Z-0.725 R0.508
X0.722 Y-1.623 Z-0.783 R0.508
G1 X0.602 Y-1.533
G3 X-0.567 Y-1.55 R0.951
G2 X-0.836 Y-1.763 R32.462
X-1.108 Y-1.972 R14.513
G3 Y-3.108 R0.71
G2 X-0.836 Y-3.317 R14.508
X-0.568 Y-3.53 R32.501
G3 X0.602 Y-3.547 R0.951
G1 X1.195 Y-3.1
G3 X1.196 Y-1.98 R0.701
G1 X0.722 Y-1.623
G2 X0.348 Y-0.067 R1.258
G3 X-0.947 Y0.875 R0.813
G2 X-2.43 Y-0.393 R16.177
X-4.411 Y-1.626 R12.949
X-4.933 Y-1.868 R9.166
G3 X-5.455 Y-2.111 R10.68
Y-2.969 R0.479
G2 X-3.593 Y-3.939 R57.713
X-1.844 Y-5.102 R11.895
X-1.27 Y-5.62 R6.583
G1 X-0.66 Y-6.239
G3 X0.617 Y-6.257 R0.909
G2 X2.874 Y-4.41 R18.55
X5.404 Y-2.958 R16.958
G3 Y-2.125 R0.459
G2 X2.883 Y-0.677 R16.765
X0.632 Y1.163 R18.811
G3 X-0.675 Y1.144 R0.932
G2 X-0.947 Y0.875 R16.177
X-2.524 Y0.611 R1.412
G3 X-4.118 Y0.495 R1.643
G2 X-7.946 Y-1.268 R14.198
X-13.443 Y-1.927 R17.029
G3 X-13.995 Y-2.455 R0.528
G1 Y-2.623
G3 X-13.444 Y-3.151 R0.528
G2 X-7.947 Y-3.814 R17.206
X-3.032 Y-6.364 R14.166
X-1.732 Y-7.622 R9.624
X-0.562 Y-9.002 R227.967
G3 X0.559 Y-8.98 R0.721
G2 X6.26 Y-4.455 R15.321
X13.425 Y-3.178 R14.452
G3 X13.995 Y-2.651 R0.528
G1 Y-2.429
G3 X13.425 Y-1.902 R0.528
G2 X6.26 Y-0.625 R14.452
X0.559 Y3.9 R15.321
G3 X-0.563 Y3.922 R0.722
G2 X-1.733 Y2.543 R317.579
X-3.032 Y1.284 R9.571
X-4.118 Y0.495 R14.198
X-6.115 Y0.552 R1.746
G3 X-8.09 Y0.846 R2.124
G2 X-15.254 Y0.416 R12.913
G3 X-16.1 Y-0.263 R0.695
G1 Y-4.789
G3 X-15.229 Y-5.49 R0.717
G2 X-6.386 Y-6.668 R13.102
X-0.424 Y-13.305 R12.69
G3 X0.379 Y-13.322 R0.435
G2 X4.902 Y-7.689 R14.029
X11.671 Y-5.167 R13.202
X13.455 Y-5.217 R8.303
X15.22 Y-5.486 R58.752
G3 X16.1 Y-4.741 R0.755
G1 Y-0.339
G3 X15.22 Y0.406 R0.755
G2 X10.945 Y0.231 R17.103
X6.82 Y1.367 R11.696
X2.946 Y4.272 R12.752
X0.333 Y8.348 R14.628
G3 X-0.379 Y8.336 R0.385
G2 X-8.09 Y0.846 R12.913
G3 X-8.175 Y0.798 Z-0.768 R0.318
X-8.236 Y0.735 Z-0.723 R0.318
X-8.271 Y0.673 Z-0.653 R0.317
X-8.285 Y0.631 Z-0.564 R0.317
X-8.289 Y0.616 Z-0.466 R0.318
G0 Z5.
X0.121 Y18.914
Z0.339
G3 X0.109 Z0.253 R0.508 F400.
X0.075 Y18.915 Z0.174 R0.508
X0.021 Y18.91 Z0.107 R0.508
X-0.047 Y18.896 Z0.057 R0.508
X-0.139 Y18.861 Z0.025 R0.508
X0.317 Y17.953 Z-0.225 R0.508
X-0.139 Y18.861 Z-0.475 R0.508
X0.317 Y17.953 Z-0.725 R0.508
X0.563 Y18.222 Z-0.783 R0.508
G2 X0.588 Y18.282 R1.226
G3 X0.622 Y18.363 R1.646
X0.129 Y19.083 R0.528
G1 X-0.175
G3 X-0.668 Y18.365 R0.528
G1 X-0.428 Y17.741
G2 X-0.387 Y17.634 R9.599
G3 X0.367 Y17.651 R0.399
G2 X0.458 Y17.927 R19.483
X0.554 Y18.201 R10.511
X0.563 Y18.222 R1.226
X1.594 Y18.905 R1.074
G3 X2.682 Y19.495 R1.233
G2 X2.729 Y19.571 R13.169
G3 X2.268 Y20.399 R0.542
G1 X-2.217
G3 X-2.686 Y19.584 R0.543
G2 X-0.947 Y12.689 R12.892
X-3.614 Y6.098 R10.304
X-8.123 Y2.829 R13.567
X-13.604 Y1.839 R11.622
X-15.409 Y2.184 R7.347
X-17.14 Y2.801 R32.745
G3 X-17.86 Y2.308 R0.528
G1 Y-7.235
G3 X-17.005 Y-7.83 R0.634
G2 X-13.164 Y-6.953 R15.184
X-9.248 Y-7.38 R9.766
X-4.001 Y-10.742 R12.205
X-1.173 Y-16.295 R11.611
X-1.035 Y-17.902 R7.101
G1 X-1.079 Y-19.483
G3 X-0.189 Y-20.399 R0.891
G1 X0.24
G3 X1.064 Y-19.494 R0.827
G2 X5.714 Y-9.114 R11.527
X17.017 Y-7.841 R11.416
G3 X17.86 Y-7.288 R0.603
G1 Y2.208
G3 X17.017 Y2.761 R0.603
G2 X6.046 Y3.795 R11.424
X0.892 Y13.535 R11.777
X1.388 Y16.681 R10.219
X2.682 Y19.495 R13.169
X4.255 Y20.202 R1.528
G3 X5.918 Y20.661 R1.995
G2 X6.398 Y21.028 R4.596
G3 X7.238 Y21.622 R17.02
X7.003 Y22.325 R0.391
G1 X-7.012
G3 X-7.215 Y21.644 R0.371
G2 X-3.454 Y10.279 R9.616
X-13.483 Y3.742 R10.01
X-15.968 Y4.308 R7.967
X-18.201 Y5.537 R10.784
X-18.686 Y5.92 R6.691
G3 X-19.159 Y6.316 R18.139
X-19.786 Y6.017 R0.385
G1 Y-10.908
G3 X-19.021 Y-11.284 R0.475
X-17.971 Y-10.458 R69.274
G2 X-16.835 Y-9.754 R5.52
X-6.235 Y-11.173 R9.957
X-3.388 Y-21.482 R9.453
G3 X-2.786 Y-22.325 R0.636
G1 X2.729
G3 X3.376 Y-21.476 R0.671
G2 X2.912 Y-18.358 R13.043
X3.433 Y-15.248 R8.248
X10.186 Y-9.142 R9.906
X19.039 Y-11.271 R9.607
G3 X19.786 Y-10.937 R0.448
G1 Y5.854
G3 X19.037 Y6.191 R0.45
G2 X8.386 Y4.715 R9.696
X2.83 Y13.92 R9.845
X3.628 Y17.399 R9.402
X5.61 Y20.366 R10.41
X5.918 Y20.661 R4.596
X6.015 Y20.7 R0.159
G1 X18.684 Y21.266
G2 X18.791 Y21.231 R0.159
X19.012 Y21.044 R6.112
G3 X19.76 Y21.38 R0.45
G1 Y21.782
G3 X19.242 Y22.3 R0.518
G1 X18.485
G3 X18.273 Y21.613 R0.376
G2 X18.651 Y21.34 R9.144
X18.791 Y21.231 R6.112
X19.198 Y19.842 R1.27
G3 X19.426 Y18.413 R1.57
G2 X19.759 Y17.929 R8.39
X20.621 Y16.111 R8.355
X20.943 Y14.126 R6.269
X19.439 Y8.942 R9.693
X15.143 Y5.673 R7.749
X5.66 Y9.151 R8.386
X6.608 Y19.207 R8.163
X19.426 Y18.413 R8.39
X19.443 Y17.18 R1.055
G3 X19.277 Y15.957 R1.345
G2 X18.579 Y9.795 R7.068
X12.191 Y6.611 R6.924
X9.672 Y19.896 R7.009
X17.955 Y18.223 R6.92
X19.277 Y15.957 R7.068
X18.238 Y12.964 R2.534
G3 X15.809 Y10.93 R11.741
G1 X15.369 Y10.447
G2 X15.295 Y10.376 R0.744
G1 X15.197 Y10.294
G2 X15.072 Y10.21 R0.744
G1 X14.827 Y10.079
G2 X14.807 Y10.069 R0.744
G1 X14.051 Y9.693
G2 X13.936 Y9.648 R0.744
G1 X13.774 Y9.599
G2 X13.628 Y9.57 R0.744
G1 X12.548 Y9.468
G2 X12.419 Y9.467 R0.744
G1 X12.257 Y9.48
G2 X12.113 Y9.506 R0.744
G1 X11.066 Y9.803
G2 X10.944 Y9.85 R0.744
G1 X10.799 Y9.92
G2 X10.677 Y9.995 R0.744
G1 X9.813 Y10.645
G2 X9.722 Y10.726 R0.744
G1 X9.617 Y10.836
G2 X9.525 Y10.955 R0.744
G1 X9.093 Y11.645
X9.088 Y11.653
X8.933 Y11.907
G2 X8.872 Y12.034 R0.744
G1 X8.812 Y12.196
G2 X8.777 Y12.321 R0.744
G1 X8.579 Y13.399
G2 X8.567 Y13.56 R0.744
G1 X8.573 Y13.721
G2 X8.585 Y13.832 R0.744
G1 X8.777 Y14.857
G2 X8.81 Y14.977 R0.744
G1 X8.869 Y15.139
G2 X8.936 Y15.274 R0.744
G1 X9.523 Y16.221
G2 X9.617 Y16.341 R0.744
G1 X9.721 Y16.451
G2 X9.812 Y16.532 R0.744
G1 X10.673 Y17.181
G2 X10.792 Y17.254 R0.744
G1 X10.937 Y17.326
G2 X11.063 Y17.374 R0.744
G1 X12.113 Y17.672
G2 X12.257 Y17.698 R0.744
G1 X12.419 Y17.711
G2 X12.548 Y17.71 R0.744
G1 X13.628 Y17.608
G2 X13.774 Y17.579 R0.744
G1 X13.936 Y17.53
G2 X14.052 Y17.484 R0.744
G1 X15.006 Y17.008
G2 X15.102 Y16.951 R0.744
G1 X15.2 Y16.881
G2 X15.303 Y16.794 R0.744
G1 X15.44 Y16.654
G2 X15.459 Y16.634 R0.744
G1 X16.086 Y15.943
G2 X16.165 Y15.84 R0.744
G1 X16.247 Y15.71
G2 X16.311 Y15.582 R0.744
G1 X16.709 Y14.558
G2 X16.747 Y14.422 R0.744
G1 X16.777 Y14.26
G2 X16.789 Y14.127 R0.744
G1 X16.788 Y13.048
G2 X16.776 Y12.913 R0.744
G1 X16.746 Y12.751
G2 X16.708 Y12.617 R0.744
G1 X16.31 Y11.593
G2 X16.244 Y11.463 R0.744
G1 X16.162 Y11.334
G2 X16.084 Y11.233 R0.744
G1 X15.809 Y10.93
G3 X15.755 Y10.849 Z-0.768 R0.318
X15.73 Y10.764 Z-0.723 R0.318
X15.727 Y10.694 Z-0.653 R0.318
X15.734 Y10.649 Z-0.564 R0.318
X15.737 Y10.634 Z-0.466 R0.318
G0 Z5.
X-19.124 Y21.199
Z0.339
G3 X-19.113 Y21.203 Z0.253 R0.508 F400.
X-19.081 Y21.215 Z0.174 R0.508
X-19.032 Y21.239 Z0.107 R0.508
X-18.973 Y21.277 Z0.057 R0.508
X-18.901 Y21.343 Z0.025 R0.508
X-19.656 Y22.024 Z-0.225 R0.508
X-18.901 Y21.343 Z-0.475 R0.508
X-19.656 Y22.024 Z-0.725 R0.508
X-19.786 Y21.683 Z-0.783 R0.508
G1 Y21.35
G3 X-19.02 Y20.971 R0.477
G1 X-18.161 Y21.624
G3 X-18.397 Y22.325 R0.39
G1 X-19.268
G3 X-19.786 Y21.807 R0.518
G1 Y21.683
G2 X-20.594 Y20.472 R1.312
G3 X-21.401 Y19.261 R1.312
G1 X-21.4 Y-23.245
G3 X-20.705 Y-23.94 R0.695
G1 X-19.898
G3 X-19.449 Y-23.133 R0.528
G2 X-20.174 Y-21.92 R41.537
X-20.658 Y-20.593 R4.14
X-20.576 Y-16.523 R10.295
X-18.65 Y-12.937 R7.536
X-4.61 Y-16.989 R8.26
X-4.461 Y-18.776 R7.744
X-4.703 Y-20.552 R8.726
X-5.196 Y-21.916 R6.7
X-5.927 Y-23.169 R9.994
G3 X-5.52 Y-23.94 R0.493
G1 X5.504
G3 X5.952 Y-23.132 R0.528
G2 X5.235 Y-21.948 R46.757
X4.755 Y-20.651 R3.971
X4.54 Y-18.145 R13.385
X4.999 Y-15.673 R7.229
X11.871 Y-10.405 R8.169
X19.653 Y-14.202 R8.292
X20.9 Y-18.712 R7.975
X19.473 Y-23.167 R8.404
G3 X19.884 Y-23.94 R0.496
G1 X20.706
G3 X21.401 Y-23.245 R0.695
G1 X21.4 Y22.996
G3 X20.456 Y23.94 R0.944
G1 X-20.457
G3 X-21.401 Y22.996 R0.944
G1 Y19.261
G2 X-22.256 Y17.979 R1.389
G3 X-23.111 Y16.697 R1.389
G1 X-23.11 Y-24.706
G3 X-22.166 Y-25.65 R0.944
G1 X22.167
G3 X23.111 Y-24.706 R0.944
G1 X23.11 Y24.706
G3 X22.166 Y25.65 R0.944
G1 X-22.167
G3 X-23.111 Y24.706 R0.944
G1 Y16.697
G2 X-24.255 Y14.98 R1.86
G3 X-25.4 Y13.263 R1.86
G1 X-25.399 Y-27.921
X-25.396 Y-27.936
X-25.38 Y-27.939
X25.38
X25.396 Y-27.936
X25.4 Y-27.894
X25.399 Y27.921
X25.396 Y27.936
X25.38 Y27.939
X-25.38
X-25.396 Y27.936
X-25.4 Y27.894
Y13.263
G3 X-25.131 Y13.148 R0.159
G1 X-17.863 Y20.151
G2 X-15.418 Y21.501 R7.372
X-10.334 Y21.506 R8.26
X-6.583 Y19.128 R8.862
X-4.587 Y15.16 R7.862
X-6.511 Y8.148 R8.402
X-13.219 Y5.343 R8.198
X-17.776 Y7.011 R8.558
X-20.542 Y10.998 R7.576
X-20.757 Y14.799 R8.572
X-19.415 Y18.361 R9.933
X-17.863 Y20.151 R7.372
X-16.646 Y20.245 R1.054
G3 X-15.429 Y20.151 R1.369
G2 X-14.98 Y20.312 R6.11
X-10.723 Y20.301 R6.999
X-7.054 Y17.484 R6.879
X-5.746 Y13.048 R8.176
X-7.913 Y8.514 R5.828
X-12.566 Y6.617 R8.732
X-13.138 Y6.607 R3.609
X-16.982 Y7.998 R7.298
X-19.324 Y11.348 R6.314
X-19.502 Y14.626 R7.312
X-18.337 Y17.696 R8.676
X-15.429 Y20.151 R6.11
X-12.266 Y19.244 R2.671
G3 X-10.082 Y16.782 R16.886
G2 X-10.036 Y16.737 R0.744
G1 X-9.296 Y15.92
G2 X-9.201 Y15.789 R0.744
G1 X-9.119 Y15.645
G2 X-9.071 Y15.545 R0.744
G1 X-8.691 Y14.556
G2 X-8.653 Y14.422 R0.744
G1 X-8.623 Y14.26
G2 X-8.611 Y14.127 R0.744
G1 X-8.612 Y13.048
G2 X-8.624 Y12.913 R0.744
G1 X-8.654 Y12.751
G2 X-8.692 Y12.617 R0.744
G1 X-9.09 Y11.593
G2 X-9.149 Y11.474 R0.744
G1 X-9.215 Y11.366
G2 X-9.299 Y11.255 R0.744
G1 X-10.037 Y10.441
G2 X-10.122 Y10.36 R0.744
G1 X-10.231 Y10.274
G2 X-10.361 Y10.19 R0.744
G1 X-11.333 Y9.701
G2 X-11.44 Y9.657 R0.744
G1 X-11.602 Y9.605
G2 X-11.759 Y9.572 R0.744
G1 X-12.839 Y9.469
G2 X-12.957 Y9.467 R0.744
G1 X-13.119 Y9.477
G2 X-13.275 Y9.504 R0.744
G1 X-14.345 Y9.807
G2 X-14.455 Y9.848 R0.744
G1 X-14.553 Y9.893
G2 X-14.674 Y9.964 R0.744
G1 X-14.91 Y10.132
G2 X-14.927 Y10.145 R0.744
G1 X-15.614 Y10.668
G2 X-15.723 Y10.77 R0.744
G1 X-15.824 Y10.886
G2 X-15.896 Y10.983 R0.744
G1 X-16.405 Y11.802
G2 X-16.426 Y11.839 R0.744
G1 X-16.509 Y11.992
G2 X-16.571 Y12.142 R0.744
G1 X-16.617 Y12.303
G2 X-16.634 Y12.376 R0.744
G1 X-16.821 Y13.4
G2 X-16.833 Y13.56 R0.744
G1 X-16.827 Y13.721
G2 X-16.815 Y13.832 R0.744
G1 X-16.623 Y14.857
G2 X-16.59 Y14.977 R0.744
G1 X-16.531 Y15.139
G2 X-16.466 Y15.272 R0.744
G1 X-15.899 Y16.191
G2 X-15.827 Y16.288 R0.744
G1 X-15.725 Y16.405
G2 X-15.614 Y16.509 R0.744
G1 X-14.754 Y17.163
G2 X-14.674 Y17.216 R0.744
G1 X-14.566 Y17.278
G2 X-14.441 Y17.335 R0.744
G1 X-14.29 Y17.388
G2 X-14.245 Y17.402 R0.744
G1 X-13.273 Y17.675
G2 X-13.119 Y17.701 R0.744
G1 X-12.957 Y17.711
G2 X-12.839 Y17.709 R0.744
G1 X-11.759 Y17.606
G2 X-11.602 Y17.573 R0.744
G1 X-11.44 Y17.521
G2 X-11.333 Y17.477 R0.744
G1 X-10.361 Y16.988
G2 X-10.231 Y16.904 R0.744
G1 X-10.122 Y16.818
G2 X-10.082 Y16.782 R0.744
G3 X-10.001 Y16.728 Z-0.768 R0.317
X-9.916 Y16.702 Z-0.723 R0.317
X-9.846 Y16.698 Z-0.653 R0.317
X-9.802 Y16.704 Z-0.564 R0.317
X-9.787 Y16.708 Z-0.466 R0.317
G0 Z5.
X-12.181 Y-8.661
Z1.
G1 Z-0.466 F400.
X-12.182 Y-8.669 Z-0.537
X-12.184 Y-8.692 Z-0.604
X-12.187 Y-8.73 Z-0.664
X-12.191 Y-8.78 Z-0.714
X-12.196 Y-8.84 Z-0.752
X-12.201 Y-8.907 Z-0.775
X-12.207 Y-8.978 Z-0.783
X-12.437 Y-11.787
G3 X-12.146 Y-12.129 R0.318
G2 X-10.883 Y-12.358 R6.573
X-6.286 Y-17.328 R6.508
X-6.191 Y-18.29 R4.794
G1 X-6.193 Y-19.258
G2 X-7.67 Y-23.001 R5.522
X-11.144 Y-25.032 R6.962
X-17.419 Y-14.122 R6.56
X-12.146 Y-12.129 R6.573
X-10.223 Y-13.939 R2.117
G3 X-9.25 Y-16.395 R5.664
G2 X-9.231 Y-16.423 R0.744
G1 X-9.162 Y-16.531
G2 X-9.097 Y-16.66 R0.744
G1 X-8.696 Y-17.684
G2 X-8.66 Y-17.808 R0.744
G1 X-8.627 Y-17.97
G2 X-8.612 Y-18.119 R0.744
G1 X-8.616 Y-19.251
G2 X-8.637 Y-19.425 R0.744
G1 X-8.676 Y-19.587
G2 X-8.705 Y-19.68 R0.744
G1 X-9.078 Y-20.639
G2 X-9.124 Y-20.737 R0.744
G1 X-9.193 Y-20.857
G2 X-9.284 Y-20.985 R0.744
G1 X-9.669 Y-21.416
G2 X-9.68 Y-21.428 R0.744
G1 X-10.082 Y-21.859
G2 X-10.196 Y-21.959 R0.744
G1 X-10.294 Y-22.028
G2 X-10.395 Y-22.088 R0.744
G1 X-11.392 Y-22.582
G2 X-11.548 Y-22.638 R0.744
G1 X-11.71 Y-22.677
G2 X-11.818 Y-22.695 R0.744
G1 X-12.899 Y-22.79
G2 X-13.066 Y-22.786 R0.744
G1 X-13.228 Y-22.764
G2 X-13.332 Y-22.742 R0.744
G1 X-14.358 Y-22.446
G2 X-14.48 Y-22.399 R0.744
G1 X-14.588 Y-22.347
G2 X-14.708 Y-22.273 R0.744
G1 X-15.601 Y-21.601
G2 X-15.71 Y-21.5 R0.744
G1 X-15.821 Y-21.375
G2 X-15.897 Y-21.273 R0.744
G1 X-16.405 Y-20.456
G2 X-16.429 Y-20.413 R0.744
G1 X-16.518 Y-20.246
G2 X-16.58 Y-20.089 R0.744
G1 X-16.624 Y-19.928
G2 X-16.637 Y-19.867 R0.744
G1 X-16.823 Y-18.842
G2 X-16.833 Y-18.67 R0.744
G1 X-16.825 Y-18.508
G2 X-16.813 Y-18.41 R0.744
G1 X-16.619 Y-17.386
G2 X-16.583 Y-17.258 R0.744
G1 X-16.525 Y-17.106
G2 X-16.462 Y-16.98 R0.744
G1 X-15.874 Y-16.034
G2 X-15.778 Y-15.911 R0.744
G1 X-15.673 Y-15.802
G2 X-15.584 Y-15.722 R0.744
G1 X-14.701 Y-15.061
G2 X-14.567 Y-14.981 R0.744
G1 X-14.441 Y-14.923
G2 X-14.331 Y-14.882 R0.744
G1 X-13.288 Y-14.586
G2 X-13.155 Y-14.562 R0.744
G1 X-13.01 Y-14.548
G2 X-12.871 R0.744
G1 X-11.76 Y-14.652
G2 X-11.602 Y-14.685 R0.744
G1 X-11.44 Y-14.737
G2 X-11.333 Y-14.781 R0.744
G1 X-10.361 Y-15.27
G2 X-10.231 Y-15.354 R0.744
G1 X-10.122 Y-15.44
G2 X-10.037 Y-15.521 R0.744
G1 X-9.308 Y-16.322
G2 X-9.25 Y-16.395 R0.744
G3 X-9.148 Y-16.46 R0.159
G1 X6.006 Y-19.178
G3 X6.193 Y-19.013 R0.159
G2 X9.956 Y-12.72 R6.565
X18.212 Y-15.121 R6.535
X18.341 Y-22.016 R6.611
X12.226 Y-25.205 R6.489
X6.193 Y-19.013 R6.565
X7.624 Y-16.877 R2.142
G3 X9.893 Y-15.665 R8.377
G1 X10.68 Y-15.072
G2 X10.814 Y-14.992 R0.744
G1 X10.976 Y-14.917
G2 X11.088 Y-14.876 R0.744
G1 X12.114 Y-14.586
G2 X12.257 Y-14.56 R0.744
G1 X12.419 Y-14.547
G2 X12.548 Y-14.548 R0.744
G1 X13.628 Y-14.65
G2 X13.774 Y-14.679 R0.744
G1 X13.936 Y-14.728
G2 X14.054 Y-14.775 R0.744
G1 X15.026 Y-15.262
G2 X15.145 Y-15.337 R0.744
G1 X15.253 Y-15.42
G2 X15.35 Y-15.509 R0.744
G1 X16.092 Y-16.322
G2 X16.169 Y-16.423 R0.744
G1 X16.238 Y-16.531
G2 X16.303 Y-16.66 R0.744
G1 X16.704 Y-17.684
G2 X16.74 Y-17.808 R0.744
G1 X16.773 Y-17.97
G2 X16.788 Y-18.119 R0.744
G1 X16.784 Y-19.251
G2 X16.763 Y-19.425 R0.744
G1 X16.724 Y-19.587
G2 X16.694 Y-19.681 R0.744
G1 X16.317 Y-20.651
G2 X16.257 Y-20.772 R0.744
G1 X16.171 Y-20.911
G2 X16.087 Y-21.021 R0.744
G1 X15.36 Y-21.821
G2 X15.271 Y-21.904 R0.744
G1 X15.16 Y-21.991
G2 X15.032 Y-22.072 R0.744
G1 X14.03 Y-22.573
G2 X13.902 Y-22.623 R0.744
G1 X13.763 Y-22.663
G2 X13.628 Y-22.688 R0.744
G1 X12.548 Y-22.79
G2 X12.419 Y-22.791 R0.744
G1 X12.257 Y-22.778
G2 X12.113 Y-22.752 R0.744
G1 X11.065 Y-22.455
G2 X10.939 Y-22.407 R0.744
G1 X10.79 Y-22.333
G2 X10.672 Y-22.26 R0.744
G1 X9.823 Y-21.621
G2 X9.737 Y-21.545 R0.744
G1 X9.622 Y-21.427
G2 X9.525 Y-21.303 R0.744
G1 X9.093 Y-20.613
G2 X9.086 Y-20.602 R0.744
G1 X8.924 Y-20.334
G2 X8.859 Y-20.195 R0.744
G1 X8.803 Y-20.034
G2 X8.773 Y-19.921 R0.744
G1 X8.578 Y-18.843
G2 X8.567 Y-18.67 R0.744
G1 X8.575 Y-18.508
G2 X8.587 Y-18.41 R0.744
G1 X8.781 Y-17.386
G2 X8.815 Y-17.263 R0.744
G1 X8.868 Y-17.122
G2 X8.932 Y-16.99 R0.744
G1 X9.523 Y-16.038
G2 X9.619 Y-15.914 R0.744
G1 X9.729 Y-15.8
G2 X9.818 Y-15.721 R0.744
G1 X9.893 Y-15.665
G3 X9.961 Y-15.595 Z-0.768 R0.318
X10.001 Y-15.516 Z-0.723 R0.317
X10.017 Y-15.448 Z-0.653 R0.317
X10.019 Y-15.403 Z-0.564 R0.317
Y-15.387 Z-0.466 R0.317
G0 Z5.
X-0.064 Y-1.861
Z0.055
G3 X-0.067 Y-1.872 Z-0.03 R0.508 F400.
X-0.077 Y-1.905 Z-0.109 R0.508
X-0.087 Y-1.958 Z-0.176 R0.508
X-0.092 Y-2.028 Z-0.226 R0.508
X-0.083 Y-2.126 Z-0.258 R0.508
X0.915 Y-1.933 Z-0.508 R0.508
X-0.083 Y-2.126 Z-0.758 R0.508
X0.915 Y-1.933 Z-1.008 R0.508
X0.722 Y-1.623 Z-1.067 R0.508
G1 X0.602 Y-1.533
G3 X-0.567 Y-1.55 R0.951
G2 X-0.836 Y-1.763 R32.462
X-1.108 Y-1.972 R14.513
G3 Y-3.108 R0.71
G2 X-0.836 Y-3.317 R14.508
X-0.568 Y-3.53 R32.501
G3 X0.602 Y-3.547 R0.951
G1 X1.195 Y-3.1
G3 X1.196 Y-1.98 R0.701
G1 X0.722 Y-1.623
G2 X0.348 Y-0.067 R1.258
G3 X-0.947 Y0.875 R0.813
G2 X-2.43 Y-0.393 R16.177
X-4.411 Y-1.626 R12.949
X-4.933 Y-1.868 R9.166
G3 X-5.455 Y-2.111 R10.68
Y-2.969 R0.479
G2 X-3.593 Y-3.939 R57.713
X-1.844 Y-5.102 R11.895
X-1.27 Y-5.62 R6.583
G1 X-0.66 Y-6.239
G3 X0.617 Y-6.257 R0.909
G2 X2.874 Y-4.41 R18.55
X5.404 Y-2.958 R16.958
G3 Y-2.125 R0.459
G2 X2.883 Y-0.677 R16.765
X0.632 Y1.163 R18.811
G3 X-0.675 Y1.144 R0.932
G2 X-0.947 Y0.875 R16.177
X-2.524 Y0.611 R1.412
G3 X-4.118 Y0.495 R1.643
G2 X-7.946 Y-1.268 R14.198
X-13.443 Y-1.927 R17.029
G3 X-13.995 Y-2.455 R0.528
G1 Y-2.623
G3 X-13.444 Y-3.151 R0.528
G2 X-7.947 Y-3.814 R17.206
X-3.032 Y-6.364 R14.166
X-1.732 Y-7.622 R9.624
X-0.562 Y-9.002 R227.967
G3 X0.559 Y-8.98 R0.721
G2 X6.26 Y-4.455 R15.321
X13.425 Y-3.178 R14.452
G3 X13.995 Y-2.651 R0.528
G1 Y-2.429
G3 X13.425 Y-1.902 R0.528
G2 X6.26 Y-0.625 R14.452
X0.559 Y3.9 R15.321
G3 X-0.563 Y3.922 R0.722
G2 X-1.733 Y2.543 R317.579
X-3.032 Y1.284 R9.571
X-4.118 Y0.495 R14.198
X-6.115 Y0.552 R1.746
G3 X-8.09 Y0.846 R2.124
G2 X-15.254 Y0.416 R12.913
G3 X-16.1 Y-0.263 R0.695
G1 Y-4.789
G3 X-15.229 Y-5.49 R0.717
G2 X-6.386 Y-6.668 R13.102
X-0.424 Y-13.305 R12.69
G3 X0.379 Y-13.322 R0.435
G2 X4.902 Y-7.689 R14.029
X11.671 Y-5.167 R13.202
X13.455 Y-5.217 R8.303
X15.22 Y-5.486 R58.752
G3 X16.1 Y-4.741 R0.755
G1 Y-0.339
G3 X15.22 Y0.406 R0.755
G2 X10.945 Y0.231 R17.103
X6.82 Y1.367 R11.696
X2.946 Y4.272 R12.752
X0.333 Y8.348 R14.628
G3 X-0.379 Y8.336 R0.385
G2 X-8.09 Y0.846 R12.913
G3 X-8.175 Y0.798 Z-1.051 R0.318
X-8.236 Y0.735 Z-1.006 R0.318
X-8.271 Y0.673 Z-0.936 R0.317
X-8.285 Y0.631 Z-0.847 R0.317
X-8.289 Y0.616 Z-0.749 R0.318
G0 Z5.
X0.121 Y18.914
Z0.055
G3 X0.109 Z-0.03 R0.508 F400.
X0.075 Y18.915 Z-0.109 R0.508
X0.021 Y18.91 Z-0.176 R0.508
X-0.047 Y18.896 Z-0.226 R0.508
X-0.139 Y18.861 Z-0.258 R0.508
X0.317 Y17.953 Z-0.508 R0.508
X-0.139 Y18.861 Z-0.758 R0.508
X0.317 Y17.953 Z-1.008 R0.508
X0.563 Y18.222 Z-1.067 R0.508
G2 X0.588 Y18.282 R1.226
G3 X0.622 Y18.363 R1.646
X0.129 Y19.083 R0.528
G1 X-0.175
G3 X-0.668 Y18.365 R0.528
G1 X-0.428 Y17.741
G2 X-0.387 Y17.634 R9.599
G3 X0.367 Y17.651 R0.399
G2 X0.458 Y17.927 R19.483
X0.554 Y18.201 R10.511
X0.563 Y18.222 R1.226
X1.594 Y18.905 R1.074
G3 X2.682 Y19.495 R1.233
G2 X2.729 Y19.571 R13.169
G3 X2.268 Y20.399 R0.542
G1 X-2.217
G3 X-2.686 Y19.584 R0.543
G2 X-0.947 Y12.689 R12.892
X-3.614 Y6.098 R10.304
X-8.123 Y2.829 R13.567
X-13.604 Y1.839 R11.622
X-15.409 Y2.184 R7.347
X-17.14 Y2.801 R32.745
G3 X-17.86 Y2.308 R0.528
G1 Y-7.235
G3 X-17.005 Y-7.83 R0.634
G2 X-13.164 Y-6.953 R15.184
X-9.248 Y-7.38 R9.766
X-4.001 Y-10.742 R12.205
X-1.173 Y-16.295 R11.611
X-1.035 Y-17.902 R7.101
G1 X-1.079 Y-19.483
G3 X-0.189 Y-20.399 R0.891
G1 X0.24
G3 X1.064 Y-19.494 R0.827
G2 X5.714 Y-9.114 R11.527
X17.017 Y-7.841 R11.416
G3 X17.86 Y-7.288 R0.603
G1 Y2.208
G3 X17.017 Y2.761 R0.603
G2 X6.046 Y3.795 R11.424
X0.892 Y13.535 R11.777
X1.388 Y16.681 R10.219
X2.682 Y19.495 R13.169
X4.255 Y20.202 R1.528
G3 X5.918 Y20.661 R1.995
G2 X6.398 Y21.028 R4.596
G3 X7.238 Y21.622 R17.02
X7.003 Y22.325 R0.391
G1 X-7.012
G3 X-7.215 Y21.644 R0.371
G2 X-3.454 Y10.279 R9.616
X-13.483 Y3.742 R10.01
X-15.968 Y4.308 R7.967
X-18.201 Y5.537 R10.784
X-18.686 Y5.92 R6.691
G3 X-19.159 Y6.316 R18.139
X-19.786 Y6.017 R0.385
G1 Y-10.908
G3 X-19.021 Y-11.284 R0.475
X-17.971 Y-10.458 R69.274
G2 X-16.835 Y-9.754 R5.52
X-6.235 Y-11.173 R9.957
X-3.388 Y-21.482 R9.453
G3 X-2.786 Y-22.325 R0.636
G1 X2.729
G3 X3.376 Y-21.476 R0.671
G2 X2.912 Y-18.358 R13.043
X3.433 Y-15.248 R8.248
X10.186 Y-9.142 R9.906
X19.039 Y-11.271 R9.607
G3 X19.786 Y-10.937 R0.448
G1 Y5.854
G3 X19.037 Y6.191 R0.45
G2 X8.386 Y4.715 R9.696
X2.83 Y13.92 R9.845
X3.628 Y17.399 R9.402
X5.61 Y20.366 R10.41
X5.918 Y20.661 R4.596
X6.015 Y20.7 R0.159
G1 X18.684 Y21.266
G2 X18.791 Y21.231 R0.159
X19.012 Y21.044 R6.112
G3 X19.76 Y21.38 R0.45
G1 Y21.782
G3 X19.242 Y22.3 R0.518
G1 X18.485
G3 X18.273 Y21.613 R0.376
G2 X18.651 Y21.34 R9.144
X18.791 Y21.231 R6.112
X19.198 Y19.842 R1.27
G3 X19.426 Y18.413 R1.57
G2 X19.759 Y17.929 R8.39
X20.621 Y16.111 R8.355
X20.943 Y14.126 R6.269
X19.439 Y8.942 R9.693
X15.143 Y5.673 R7.749
X5.66 Y9.151 R8.386
X6.608 Y19.207 R8.163
X19.426 Y18.413 R8.39
X19.443 Y17.18 R1.055
G3 X19.277 Y15.957 R1.345
G2 X18.579 Y9.795 R7.068
X12.191 Y6.611 R6.924
X9.672 Y19.896 R7.009
X17.955 Y18.223 R6.92
X19.277 Y15.957 R7.068
X18.238 Y12.964 R2.534
G3 X15.809 Y10.93 R11.741
G1 X15.369 Y10.447
G2 X15.295 Y10.376 R0.744
G1 X15.197 Y10.294
G2 X15.072 Y10.21 R0.744
G1 X14.827 Y10.079
G2 X14.807 Y10.069 R0.744
G1 X14.051 Y9.693
G2 X13.936 Y9.648 R0.744
G1 X13.774 Y9.599
G2 X13.628 Y9.57 R0.744
G1 X12.548 Y9.468
G2 X12.419 Y9.467 R0.744
G1 X12.257 Y9.48
G2 X12.113 Y9.506 R0.744
G1 X11.066 Y9.803
G2 X10.944 Y9.85 R0.744
G1 X10.799 Y9.92
G2 X10.677 Y9.995 R0.744
G1 X9.813 Y10.645
G2 X9.722 Y10.726 R0.744
G1 X9.617 Y10.836
G2 X9.525 Y10.955 R0.744
G1 X9.093 Y11.645
X9.088 Y11.653
X8.933 Y11.907
G2 X8.872 Y12.034 R0.744
G1 X8.812 Y12.196
G2 X8.777 Y12.321 R0.744
G1 X8.579 Y13.399
G2 X8.567 Y13.56 R0.744
G1 X8.573 Y13.721
G2 X8.585 Y13.832 R0.744
G1 X8.777 Y14.857
G2 X8.81 Y14.977 R0.744
G1 X8.869 Y15.139
G2 X8.936 Y15.274 R0.744
G1 X9.523 Y16.221
G2 X9.617 Y16.341 R0.744
G1 X9.721 Y16.451
G2 X9.812 Y16.532 R0.744
G1 X10.673 Y17.181
G2 X10.792 Y17.254 R0.744
G1 X10.937 Y17.326
G2 X11.063 Y17.374 R0.744
G1 X12.113 Y17.672
G2 X12.257 Y17.698 R0.744
G1 X12.419 Y17.711
G2 X12.548 Y17.71 R0.744
G1 X13.628 Y17.608
G2 X13.774 Y17.579 R0.744
G1 X13.936 Y17.53
G2 X14.052 Y17.484 R0.744
G1 X15.006 Y17.008
G2 X15.102 Y16.951 R0.744
G1 X15.2 Y16.881
G2 X15.303 Y16.794 R0.744
G1 X15.44 Y16.654
G2 X15.459 Y16.634 R0.744
G1 X16.086 Y15.943
G2 X16.165 Y15.84 R0.744
G1 X16.247 Y15.71
G2 X16.311 Y15.582 R0.744
G1 X16.709 Y14.558
G2 X16.747 Y14.422 R0.744
G1 X16.777 Y14.26
G2 X16.789 Y14.127 R0.744
G1 X16.788 Y13.048
G2 X16.776 Y12.913 R0.744
G1 X16.746 Y12.751
G2 X16.708 Y12.617 R0.744
G1 X16.31 Y11.593
G2 X16.244 Y11.463 R0.744
G1 X16.162 Y11.334
G2 X16.084 Y11.233 R0.744
G1 X15.809 Y10.93
G3 X15.755 Y10.849 Z-1.051 R0.318
X15.73 Y10.764 Z-1.006 R0.318
X15.727 Y10.694 Z-0.936 R0.318
X15.734 Y10.649 Z-0.847 R0.318
X15.737 Y10.634 Z-0.749 R0.318
G0 Z5.
X-19.124 Y21.199
Z0.055
G3 X-19.113 Y21.203 Z-0.03 R0.508 F400.
X-19.081 Y21.215 Z-0.109 R0.508
X-19.032 Y21.239 Z-0.176 R0.508
X-18.973 Y21.277 Z-0.226 R0.508
X-18.901 Y21.343 Z-0.258 R0.508
X-19.656 Y22.024 Z-0.508 R0.508
X-18.901 Y21.343 Z-0.758 R0.508
X-19.656 Y22.024 Z-1.008 R0.508
X-19.786 Y21.683 Z-1.067 R0.508
G1 Y21.35
G3 X-19.02 Y20.971 R0.477
G1 X-18.161 Y21.624
G3 X-18.397 Y22.325 R0.39
G1 X-19.268
G3 X-19.786 Y21.807 R0.518
G1 Y21.683
G2 X-20.594 Y20.472 R1.312
G3 X-21.401 Y19.261 R1.312
G1 X-21.4 Y-23.245
G3 X-20.705 Y-23.94 R0.695
G1 X-19.898
G3 X-19.449 Y-23.133 R0.528
G2 X-20.174 Y-21.92 R41.537
X-20.658 Y-20.593 R4.14
X-20.576 Y-16.523 R10.295
X-18.65 Y-12.937 R7.536
X-4.61 Y-16.989 R8.26
X-4.461 Y-18.776 R7.744
X-4.703 Y-20.552 R8.726
X-5.196 Y-21.916 R6.7
X-5.927 Y-23.169 R9.994
G3 X-5.52 Y-23.94 R0.493
G1 X5.504
G3 X5.952 Y-23.132 R0.528
G2 X5.235 Y-21.948 R46.757
X4.755 Y-20.651 R3.971
X4.54 Y-18.145 R13.385
X4.999 Y-15.673 R7.229
X11.871 Y-10.405 R8.169
X19.653 Y-14.202 R8.292
X20.9 Y-18.712 R7.975
X19.473 Y-23.167 R8.404
G3 X19.884 Y-23.94 R0.496
G1 X20.706
G3 X21.401 Y-23.245 R0.695
G1 X21.4 Y22.996
G3 X20.456 Y23.94 R0.944
G1 X-20.457
G3 X-21.401 Y22.996 R0.944
G1 Y19.261
G2 X-22.256 Y17.979 R1.389
G3 X-23.111 Y16.697 R1.389
G1 X-23.11 Y-24.706
G3 X-22.166 Y-25.65 R0.944
G1 X22.167
G3 X23.111 Y-24.706 R0.944
G1 X23.11 Y24.706
G3 X22.166 Y25.65 R0.944
G1 X-22.167
G3 X-23.111 Y24.706 R0.944
G1 Y16.697
G2 X-24.255 Y14.98 R1.86
G3 X-25.4 Y13.263 R1.86
G1 X-25.399 Y-27.921
X-25.396 Y-27.936
X-25.38 Y-27.939
X25.38
X25.396 Y-27.936
X25.4 Y-27.894
X25.399 Y27.921
X25.396 Y27.936
X25.38 Y27.939
X-25.38
X-25.396 Y27.936
X-25.4 Y27.894
Y13.263
G3 X-25.131 Y13.148 R0.159
G1 X-17.863 Y20.151
G2 X-15.418 Y21.501 R7.372
X-10.334 Y21.506 R8.26
X-6.583 Y19.128 R8.862
X-4.587 Y15.16 R7.862
X-6.511 Y8.148 R8.402
X-13.219 Y5.343 R8.198
X-17.776 Y7.011 R8.558
X-20.542 Y10.998 R7.576
X-20.757 Y14.799 R8.572
X-19.415 Y18.361 R9.933
X-17.863 Y20.151 R7.372
X-16.646 Y20.245 R1.054
G3 X-15.429 Y20.151 R1.369
G2 X-14.98 Y20.312 R6.11
X-10.723 Y20.301 R6.999
X-7.054 Y17.484 R6.879
X-5.746 Y13.048 R8.176
X-7.913 Y8.514 R5.828
X-12.566 Y6.617 R8.732
X-13.138 Y6.607 R3.609
X-16.982 Y7.998 R7.298
X-19.324 Y11.348 R6.314
X-19.502 Y14.626 R7.312
X-18.337 Y17.696 R8.676
X-15.429 Y20.151 R6.11
X-12.266 Y19.244 R2.671
G3 X-10.082 Y16.782 R16.886
G2 X-10.036 Y16.737 R0.744
G1 X-9.296 Y15.92
G2 X-9.201 Y15.789 R0.744
G1 X-9.119 Y15.645
G2 X-9.071 Y15.545 R0.744
G1 X-8.691 Y14.556
G2 X-8.653 Y14.422 R0.744
G1 X-8.623 Y14.26
G2 X-8.611 Y14.127 R0.744
G1 X-8.612 Y13.048
G2 X-8.624 Y12.913 R0.744
G1 X-8.654 Y12.751
G2 X-8.692 Y12.617 R0.744
G1 X-9.09 Y11.593
G2 X-9.149 Y11.474 R0.744
G1 X-9.215 Y11.366
G2 X-9.299 Y11.255 R0.744
G1 X-10.037 Y10.441
G2 X-10.122 Y10.36 R0.744
G1 X-10.231 Y10.274
G2 X-10.361 Y10.19 R0.744
G1 X-11.333 Y9.701
G2 X-11.44 Y9.657 R0.744
G1 X-11.602 Y9.605
G2 X-11.759 Y9.572 R0.744
G1 X-12.839 Y9.469
G2 X-12.957 Y9.467 R0.744
G1 X-13.119 Y9.477
G2 X-13.275 Y9.504 R0.744
G1 X-14.345 Y9.807
G2 X-14.455 Y9.848 R0.744
G1 X-14.553 Y9.893
G2 X-14.674 Y9.964 R0.744
G1 X-14.91 Y10.132
G2 X-14.927 Y10.145 R0.744
G1 X-15.614 Y10.668
G2 X-15.723 Y10.77 R0.744
G1 X-15.824 Y10.886
G2 X-15.896 Y10.983 R0.744
G1 X-16.405 Y11.802
G2 X-16.426 Y11.839 R0.744
G1 X-16.509 Y11.992
G2 X-16.571 Y12.142 R0.744
G1 X-16.617 Y12.303
G2 X-16.634 Y12.376 R0.744
G1 X-16.821 Y13.4
G2 X-16.833 Y13.56 R0.744
G1 X-16.827 Y13.721
G2 X-16.815 Y13.832 R0.744
G1 X-16.623 Y14.857
G2 X-16.59 Y14.977 R0.744
G1 X-16.531 Y15.139
G2 X-16.466 Y15.272 R0.744
G1 X-15.899 Y16.191
G2 X-15.827 Y16.288 R0.744
G1 X-15.725 Y16.405
G2 X-15.614 Y16.509 R0.744
G1 X-14.754 Y17.163
G2 X-14.674 Y17.216 R0.744
G1 X-14.566 Y17.278
G2 X-14.441 Y17.335 R0.744
G1 X-14.29 Y17.388
G2 X-14.245 Y17.402 R0.744
G1 X-13.273 Y17.675
G2 X-13.119 Y17.701 R0.744
G1 X-12.957 Y17.711
G2 X-12.839 Y17.709 R0.744
G1 X-11.759 Y17.606
G2 X-11.602 Y17.573 R0.744
G1 X-11.44 Y17.521
G2 X-11.333 Y17.477 R0.744
G1 X-10.361 Y16.988
G2 X-10.231 Y16.904 R0.744
G1 X-10.122 Y16.818
G2 X-10.082 Y16.782 R0.744
G3 X-10.001 Y16.728 Z-1.051 R0.317
X-9.916 Y16.702 Z-1.006 R0.317
X-9.846 Y16.698 Z-0.936 R0.317
X-9.802 Y16.704 Z-0.847 R0.317
X-9.787 Y16.708 Z-0.749 R0.317
G0 Z5.
X-12.181 Y-8.661
Z0.717
G1 Z-0.749 F400.
X-12.182 Y-8.669 Z-0.82
X-12.184 Y-8.692 Z-0.887
X-12.187 Y-8.73 Z-0.947
X-12.191 Y-8.78 Z-0.998
X-12.196 Y-8.84 Z-1.035
X-12.201 Y-8.907 Z-1.059
X-12.207 Y-8.978 Z-1.067
X-12.437 Y-11.787
G3 X-12.146 Y-12.129 R0.318
G2 X-10.883 Y-12.358 R6.573
X-6.286 Y-17.328 R6.508
X-6.191 Y-18.29 R4.794
G1 X-6.193 Y-19.258
G2 X-7.67 Y-23.001 R5.522
X-11.144 Y-25.032 R6.962
X-17.419 Y-14.122 R6.56
X-12.146 Y-12.129 R6.573
X-10.223 Y-13.939 R2.117
G3 X-9.25 Y-16.395 R5.664
G2 X-9.231 Y-16.423 R0.744
G1 X-9.162 Y-16.531
G2 X-9.097 Y-16.66 R0.744
G1 X-8.696 Y-17.684
G2 X-8.66 Y-17.808 R0.744
G1 X-8.627 Y-17.97
G2 X-8.612 Y-18.119 R0.744
G1 X-8.616 Y-19.251
G2 X-8.637 Y-19.425 R0.744
G1 X-8.676 Y-19.587
G2 X-8.705 Y-19.68 R0.744
G1 X-9.078 Y-20.639
G2 X-9.124 Y-20.737 R0.744
G1 X-9.193 Y-20.857
G2 X-9.284 Y-20.985 R0.744
G1 X-9.669 Y-21.416
G2 X-9.68 Y-21.428 R0.744
G1 X-10.082 Y-21.859
G2 X-10.196 Y-21.959 R0.744
G1 X-10.294 Y-22.028
G2 X-10.395 Y-22.088 R0.744
G1 X-11.392 Y-22.582
G2 X-11.548 Y-22.638 R0.744
G1 X-11.71 Y-22.677
G2 X-11.818 Y-22.695 R0.744
G1 X-12.899 Y-22.79
G2 X-13.066 Y-22.786 R0.744
G1 X-13.228 Y-22.764
G2 X-13.332 Y-22.742 R0.744
G1 X-14.358 Y-22.446
G2 X-14.48 Y-22.399 R0.744
G1 X-14.588 Y-22.347
G2 X-14.708 Y-22.273 R0.744
G1 X-15.601 Y-21.601
G2 X-15.71 Y-21.5 R0.744
G1 X-15.821 Y-21.375
G2 X-15.897 Y-21.273 R0.744
G1 X-16.405 Y-20.456
G2 X-16.429 Y-20.413 R0.744
G1 X-16.518 Y-20.246
G2 X-16.58 Y-20.089 R0.744
G1 X-16.624 Y-19.928
G2 X-16.637 Y-19.867 R0.744
G1 X-16.823 Y-18.842
G2 X-16.833 Y-18.67 R0.744
G1 X-16.825 Y-18.508
G2 X-16.813 Y-18.41 R0.744
G1 X-16.619 Y-17.386
G2 X-16.583 Y-17.258 R0.744
G1 X-16.525 Y-17.106
G2 X-16.462 Y-16.98 R0.744
G1 X-15.874 Y-16.034
G2 X-15.778 Y-15.911 R0.744
G1 X-15.673 Y-15.802
G2 X-15.584 Y-15.722 R0.744
G1 X-14.701 Y-15.061
G2 X-14.567 Y-14.981 R0.744
G1 X-14.441 Y-14.923
G2 X-14.331 Y-14.882 R0.744
G1 X-13.288 Y-14.586
G2 X-13.155 Y-14.562 R0.744
G1 X-13.01 Y-14.548
G2 X-12.871 R0.744
G1 X-11.76 Y-14.652
G2 X-11.602 Y-14.685 R0.744
G1 X-11.44 Y-14.737
G2 X-11.333 Y-14.781 R0.744
G1 X-10.361 Y-15.27
G2 X-10.231 Y-15.354 R0.744
G1 X-10.122 Y-15.44
G2 X-10.037 Y-15.521 R0.744
G1 X-9.308 Y-16.322
G2 X-9.25 Y-16.395 R0.744
G3 X-9.148 Y-16.46 R0.159
G1 X6.006 Y-19.178
G3 X6.193 Y-19.013 R0.159
G2 X9.956 Y-12.72 R6.565
X18.212 Y-15.121 R6.535
X18.341 Y-22.016 R6.611
X12.226 Y-25.205 R6.489
X6.193 Y-19.013 R6.565
X7.624 Y-16.877 R2.142
G3 X9.893 Y-15.665 R8.377
G1 X10.68 Y-15.072
G2 X10.814 Y-14.992 R0.744
G1 X10.976 Y-14.917
G2 X11.088 Y-14.876 R0.744
G1 X12.114 Y-14.586
G2 X12.257 Y-14.56 R0.744
G1 X12.419 Y-14.547
G2 X12.548 Y-14.548 R0.744
G1 X13.628 Y-14.65
G2 X13.774 Y-14.679 R0.744
G1 X13.936 Y-14.728
G2 X14.054 Y-14.775 R0.744
G1 X15.026 Y-15.262
G2 X15.145 Y-15.337 R0.744
G1 X15.253 Y-15.42
G2 X15.35 Y-15.509 R0.744
G1 X16.092 Y-16.322
G2 X16.169 Y-16.423 R0.744
G1 X16.238 Y-16.531
G2 X16.303 Y-16.66 R0.744
G1 X16.704 Y-17.684
G2 X16.74 Y-17.808 R0.744
G1 X16.773 Y-17.97
G2 X16.788 Y-18.119 R0.744
G1 X16.784 Y-19.251
G2 X16.763 Y-19.425 R0.744
G1 X16.724 Y-19.587
G2 X16.694 Y-19.681 R0.744
G1 X16.317 Y-20.651
G2 X16.257 Y-20.772 R0.744
G1 X16.171 Y-20.911
G2 X16.087 Y-21.021 R0.744
G1 X15.36 Y-21.821
G2 X15.271 Y-21.904 R0.744
G1 X15.16 Y-21.991
G2 X15.032 Y-22.072 R0.744
G1 X14.03 Y-22.573
G2 X13.902 Y-22.623 R0.744
G1 X13.763 Y-22.663
G2 X13.628 Y-22.688 R0.744
G1 X12.548 Y-22.79
G2 X12.419 Y-22.791 R0.744
G1 X12.257 Y-22.778
G2 X12.113 Y-22.752 R0.744
G1 X11.065 Y-22.455
G2 X10.939 Y-22.407 R0.744
G1 X10.79 Y-22.333
G2 X10.672 Y-22.26 R0.744
G1 X9.823 Y-21.621
G2 X9.737 Y-21.545 R0.744
G1 X9.622 Y-21.427
G2 X9.525 Y-21.303 R0.744
G1 X9.093 Y-20.613
G2 X9.086 Y-20.602 R0.744
G1 X8.924 Y-20.334
G2 X8.859 Y-20.195 R0.744
G1 X8.803 Y-20.034
G2 X8.773 Y-19.921 R0.744
G1 X8.578 Y-18.843
G2 X8.567 Y-18.67 R0.744
G1 X8.575 Y-18.508
G2 X8.587 Y-18.41 R0.744
G1 X8.781 Y-17.386
G2 X8.815 Y-17.263 R0.744
G1 X8.868 Y-17.122
G2 X8.932 Y-16.99 R0.744
G1 X9.523 Y-16.038
G2 X9.619 Y-15.914 R0.744
G1 X9.729 Y-15.8
G2 X9.818 Y-15.721 R0.744
G1 X9.893 Y-15.665
G3 X10.058 Y-15.449 Z-1.073 R0.508
G1 X13.983 Y-5.746 Z-1.303
G2 X14.962 Y-5.936 Z-1.333 R0.508
G1 Y-5.947
G3 X15.919 Y-7.219 R1.324
G2 X16.355 Y-7.352 R14.038
X16.785 Y-7.505 R8.315
G3 X17.637 Y-6.921 R0.626
G1 Y1.841
G3 X16.785 Y2.425 R0.626
G2 X16.34 Y2.267 R8.479
X15.888 Y2.13 R13.328
G3 X14.964 Y0.905 R1.273
G1 X14.962 Y-5.936
G2 X13.818 Y-7.173 R1.241
G3 X13.463 Y-8.821 R0.879
X13.883 Y-8.949 R1.084
G2 X18.929 Y-11.063 R9.171
G3 X19.7 Y-10.702 R0.47
G1 Y5.621
G3 X18.926 Y5.983 R0.471
G2 X16.565 Y4.544 R9.405
X13.885 Y3.869 R9.072
G3 X12.901 Y2.789 R1.085
G1 X12.9 Y-7.869
G3 X13.463 Y-8.821 R1.084
X13.561 Y-8.815 Z-1.318 R0.317
X13.644 Y-8.784 Z-1.273 R0.317
X13.701 Y-8.744 Z-1.203 R0.317
X13.733 Y-8.712 Z-1.114 R0.317
X13.743 Y-8.7 Z-1.016 R0.318
G0 Z5.
X-1.499 Y-20.55
Z1.5
G1 Z-0.228 F400.
G3 X-1.49 Y-20.564 Z-0.328 R0.508
X-1.464 Y-20.602 Z-0.418 R0.508
X-1.428 Y-20.646 Z-0.477 R0.508
X-1.376 Y-20.693 Z-0.519 R0.508
X-1.311 Y-20.738 Z-0.542 R0.508
X-0.804 Y-19.857 Z-0.792 R0.508
X-1.311 Y-20.738 Z-1.042 R0.508
X-0.804 Y-19.857 Z-1.292 R0.508
X-1.057 Y-19.789 Z-1.333 R0.508
G1 X-1.174
G3 X-1.564 Y-20.138 R0.393
G2 X-1.596 Y-20.387 R7.846
G3 X-1.208 Y-20.837 R0.393
G1 X1.251
G3 X1.637 Y-20.374 R0.393
G1 X1.59 Y-20.113
G3 X1.204 Y-19.79 R0.393
G1 X-1.057 Y-19.789
G2 X-1.701 Y-19.303 R0.669
G3 X-2.502 Y-19.216 R0.435
X-2.617 Y-19.626 R0.985
G2 X-2.7 Y-20.348 R6.306
X-2.85 Y-21.059 R9.639
G3 X-2.171 Y-21.93 R0.7
G1 X2.141
G3 X2.871 Y-21.048 R0.743
G1 X2.731 Y-20.311
G2 X2.619 Y-19.627 R13.487
G3 X1.553 Y-18.697 R1.077
G1 X-1.634 Y-18.696
G3 X-2.502 Y-19.216 R0.985
G2 X-3.93 Y-20.428 R2.548
G3 X-5.287 Y-21.718 R2.233
G2 X-5.8 Y-22.788 R8.517
X-5.972 Y-23.049 R2.414
G1 X-6.146 Y-23.279
G3 X-5.76 Y-24.054 R0.484
G1 X5.707
G3 X6.156 Y-23.243 R0.53
G2 X5.385 Y-21.999 R168.397
X4.862 Y-20.631 R3.968
X4.691 Y-19.065 R11.172
X4.807 Y-17.494 R7.02
G3 X4.044 Y-16.573 R0.777
G1 X-4.008 Y-16.571
G3 X-4.775 Y-17.456 R0.775
G2 X-4.844 Y-20.207 R8.228
X-5.287 Y-21.718 R8.517
G3 X-5.308 Y-21.813 Z-1.318 R0.317
X-5.301 Y-21.901 Z-1.273 R0.317
X-5.278 Y-21.968 Z-1.203 R0.317
X-5.256 Y-22.007 Z-1.114 R0.317
X-5.247 Y-22.02 Z-1.016 R0.317
G0 Z5.
X-16.578 Y1.537
Z1.5
G1 Z-0.228 F400.
G3 X-16.573 Y1.522 Z-0.328 R0.508
X-16.559 Y1.477 Z-0.418 R0.508
X-16.535 Y1.426 Z-0.477 R0.508
X-16.499 Y1.366 Z-0.519 R0.508
X-16.448 Y1.306 Z-0.542 R0.508
X-15.72 Y2.015 Z-0.792 R0.508
X-16.448 Y1.306 Z-1.042 R0.508
X-15.72 Y2.015 Z-1.292 R0.508
X-15.946 Y2.149 Z-1.333 R0.508
G1 X-16.471 Y2.298
G2 X-16.896 Y2.43 R8.548
G3 X-17.595 Y1.93 R0.528
G1 Y-6.823
G3 X-16.73 Y-7.455 R0.663
G2 X-16.331 Y-7.336 R10.821
G3 X-15.93 Y-7.223 R78.755
X-15.004 Y-5.998 R1.273
G1 X-15.003 Y0.919
G3 X-15.93 Y2.144 R1.273
G1 X-15.946 Y2.149
G2 X-17.179 Y3.668 R1.699
G3 X-18.146 Y5.369 R2.255
G2 X-18.262 Y5.451 R8.656
X-18.655 Y5.763 R4.955
G3 X-19.042 Y6.082 R7.012
X-19.673 Y5.769 R0.393
G1 Y-10.635
G3 X-18.876 Y-11.033 R0.498
X-17.914 Y-10.293 R48.165
G2 X-16.879 Y-9.658 R5.188
X-15.403 Y-9.151 R7.619
X-13.866 Y-8.879 R14.52
G3 X-12.926 Y-7.817 R1.07
G1 X-12.925 Y2.741
G3 X-13.859 Y3.797 R1.064
G2 X-16.165 Y4.348 R10.561
X-18.146 Y5.369 R8.656
X-18.214 Y5.494 R0.159
G1 X-18.715 Y20.945
G2 X-18.654 Y21.074 R0.159
X-18.433 Y21.246 R17.769
X-17.638 Y21.801 R11.572
G3 X-17.836 Y22.48 R0.368
G1 X-19.246
G3 X-19.941 Y21.785 R0.695
G1 Y20.984
G3 X-19.188 Y20.637 R0.457
G2 X-18.654 Y21.074 R17.769
G3 X-18.587 Y21.145 Z-1.318 R0.318
X-18.546 Y21.223 Z-1.273 R0.318
X-18.531 Y21.292 Z-1.203 R0.318
X-18.529 Y21.337 Z-1.114 R0.318
X-18.53 Y21.352 Z-1.016 R0.317
G0 Z5.
X-0.463 Y18.12
Z1.5
G1 Z-0.228 F400.
G3 X-0.455 Y18.106 Z-0.328 R0.508
X-0.429 Y18.067 Z-0.418 R0.508
X-0.392 Y18.024 Z-0.477 R0.508
X-0.341 Y17.976 Z-0.519 R0.508
X-0.276 Y17.932 Z-0.542 R0.508
X0.231 Y18.813 Z-0.792 R0.508
X-0.276 Y17.932 Z-1.042 R0.508
X0.231 Y18.813 Z-1.292 R0.508
X-0.022 Y18.88 Z-1.333 R0.508
G1 X-0.077
G3 X-0.443 Y18.347 R0.393
G1 X-0.42 Y18.285
G3 X0.377 Y18.29 R0.426
G1 X0.399 Y18.349
G3 X0.032 Y18.88 R0.393
G1 X-0.022
G2 X-1.296 Y19.729 R1.379
G3 X-2.569 Y20.578 R1.372
X-3.01 Y19.772 R0.525
G2 X-1.448 Y15.93 R11.548
G3 X-0.268 Y14.969 R1.205
G1 X0.29 Y14.968
G3 X1.496 Y15.97 R1.227
G2 X1.931 Y17.623 R11.867
X2.663 Y19.168 R7.572
X2.857 Y19.459 R5.587
G3 X3.05 Y19.75 R5.587
X2.589 Y20.578 R0.542
G1 X-2.567
X-2.569
G2 X-3.998 Y21.529 R1.543
G3 X-5.428 Y22.48 R1.55
G1 X-7.655
G3 X-7.818 Y21.818 R0.351
G2 X-4.396 Y18.565 R8.614
X-3.153 Y14.011 R8.958
G3 X-2.209 Y13.067 R0.944
G1 X2.16 Y13.066
G3 X3.12 Y13.982 R0.961
G2 X3.847 Y17.36 R10.468
X5.71 Y20.271 R9.074
X6.69 Y21.096 R5.872
X7.76 Y21.8 R68.848
G3 X7.56 Y22.48 R0.369
G1 X-5.428
G3 X-5.525 Y22.465 Z-1.318 R0.318
X-5.604 Y22.427 Z-1.273 R0.317
X-5.658 Y22.382 Z-1.203 R0.317
X-5.687 Y22.347 Z-1.114 R0.318
X-5.695 Y22.334 Z-1.016 R0.318
G0 Z5.
X19.493 Y21.41
Z1.5
G1 Z-0.228 F400.
G3 X19.495 Y21.426 Z-0.328 R0.508
X19.499 Y21.472 Z-0.418 R0.508
X19.498 Y21.529 Z-0.477 R0.508
X19.489 Y21.599 Z-0.519 R0.508
X19.466 Y21.674 Z-0.542 R0.508
X18.517 Y21.312 Z-0.792 R0.508
X19.466 Y21.674 Z-1.042 R0.508
X18.517 Y21.312 Z-1.292 R0.508
X18.67 Y21.099 Z-1.333 R0.508
G2 X19.196 Y20.622 R6.673
G3 X19.939 Y20.926 R0.434
G1 Y21.784
G3 X19.244 Y22.479 R0.695
G1 X17.754
G3 X17.589 Y21.818 R0.351
G2 X18.67 Y21.099 R6.673
X19.047 Y19.795 R1.192
G3 X19.259 Y18.455 R1.463
G2 X15.093 Y5.838 R8.118
X13.545 Y5.576 R6.2
X11.975 Y5.606 R13.055
G3 X11.086 Y4.786 R0.823
G1 X11.084 Y-9.866
G3 X11.972 Y-10.686 R0.822
G2 X17.527 Y-12.196 R8.511
X20.681 Y-17.011 R7.75
X20.634 Y-20.295 R7.743
X19.256 Y-23.277 R8.069
G3 X19.647 Y-24.054 R0.487
G1 X20.552
G3 X21.515 Y-23.091 R0.963
G1 X21.514 Y23.091
G3 X20.551 Y24.054 R0.963
G1 X-20.552
G3 X-21.515 Y23.091 R0.963
G1 X-21.514 Y-23.091
G3 X-20.551 Y-24.054 R0.963
G1 X-19.692
G3 X-19.243 Y-23.248 R0.528
G2 X-20.024 Y-21.973 R113.696
X-20.551 Y-20.574 R4.132
X-20.471 Y-16.555 R10.175
X-18.57 Y-13.014 R7.435
X-16.186 Y-11.359 R7.383
X-13.376 Y-10.638 R9.229
X-12.699 Y-10.651 R3.053
G3 X-12.026 Y-10.726 R19.087
X-11.084 Y-9.867 R0.862
G1 X-11.083 Y4.788
G3 X-12.025 Y5.645 R0.86
G2 X-13.191 Y5.562 R23.465
X-14.353 Y5.697 R3.653
X-16.726 Y6.591 R15.036
X-18.748 Y8.123 R6.273
X-20.65 Y14.959 R8.199
X-16.568 Y20.764 R8.391
X-13.085 Y21.804 R7.929
X-9.525 Y21.068 R7.001
X-6.115 Y18.285 R10.171
X-4.672 Y14.126 R6.711
X-4.692 Y13.252 R19.249
X-4.775 Y12.383 R8.848
G3 X-4.006 Y11.493 R0.778
G1 X4.042 Y11.491
G3 X4.81 Y12.413 R0.781
G2 X7.44 Y19.786 R7.819
X15.104 Y21.377 R8.173
X19.259 Y18.455 R8.118
X19.278 Y16.615 R1.563
G3 X18.893 Y14.817 R2.319
G2 X14.563 Y7.585 R6.275
X11.128 Y7.505 R6.404
X8.162 Y9.238 R6.208
X14.563 Y19.593 R6.291
X18.893 Y14.817 R6.275
X17.902 Y12.724 R1.94
G3 X16.108 Y11.26 R5.941
G2 X16.084 Y11.233 R0.744
G1 X15.369 Y10.447
G2 X15.295 Y10.376 R0.744
G1 X15.197 Y10.294
G2 X15.072 Y10.21 R0.744
G1 X14.827 Y10.079
G2 X14.807 Y10.069 R0.744
G1 X14.051 Y9.693
G2 X13.936 Y9.648 R0.744
G1 X13.774 Y9.599
G2 X13.628 Y9.57 R0.744
G1 X12.548 Y9.468
G2 X12.419 Y9.467 R0.744
G1 X12.257 Y9.48
G2 X12.113 Y9.506 R0.744
G1 X11.066 Y9.803
G2 X10.944 Y9.85 R0.744
G1 X10.799 Y9.92
G2 X10.677 Y9.995 R0.744
G1 X9.813 Y10.645
G2 X9.722 Y10.726 R0.744
G1 X9.617 Y10.836
G2 X9.525 Y10.955 R0.744
G1 X9.093 Y11.645
X9.088 Y11.653
X8.933 Y11.907
G2 X8.872 Y12.034 R0.744
G1 X8.812 Y12.196
G2 X8.777 Y12.321 R0.744
G1 X8.579 Y13.399
G2 X8.567 Y13.56 R0.744
G1 X8.573 Y13.721
G2 X8.585 Y13.832 R0.744
G1 X8.777 Y14.857
G2 X8.81 Y14.977 R0.744
G1 X8.869 Y15.139
G2 X8.936 Y15.274 R0.744
G1 X9.523 Y16.221
G2 X9.617 Y16.341 R0.744
G1 X9.721 Y16.451
G2 X9.812 Y16.532 R0.744
G1 X10.673 Y17.181
G2 X10.792 Y17.254 R0.744
G1 X10.937 Y17.326
G2 X11.063 Y17.374 R0.744
G1 X12.113 Y17.672
G2 X12.257 Y17.698 R0.744
G1 X12.419 Y17.711
G2 X12.548 Y17.71 R0.744
G1 X13.628 Y17.608
G2 X13.774 Y17.579 R0.744
G1 X13.936 Y17.53
G2 X14.052 Y17.484 R0.744
G1 X15.006 Y17.008
G2 X15.102 Y16.951 R0.744
G1 X15.2 Y16.881
G2 X15.303 Y16.794 R0.744
G1 X15.44 Y16.654
G2 X15.459 Y16.634 R0.744
G1 X16.086 Y15.943
G2 X16.165 Y15.84 R0.744
G1 X16.247 Y15.71
G2 X16.311 Y15.582 R0.744
G1 X16.709 Y14.558
G2 X16.747 Y14.422 R0.744
G1 X16.777 Y14.26
G2 X16.789 Y14.127 R0.744
G1 X16.788 Y13.048
G2 X16.776 Y12.913 R0.744
G1 X16.746 Y12.751
G2 X16.708 Y12.617 R0.744
G1 X16.31 Y11.593
G2 X16.244 Y11.463 R0.744
G1 X16.162 Y11.334
G2 X16.108 Y11.26 R0.744
G3 X16.058 Y11.176 Z-1.318 R0.317
X16.037 Y11.09 Z-1.273 R0.317
X16.038 Y11.02 Z-1.203 R0.318
X16.046 Y10.976 Z-1.114 R0.318
X16.051 Y10.961 Z-1.016 R0.318
G0 Z5.
X19.657 Y10.644
Z0.433
G1 Z-1.016 F400.
G18 G2 X19.974 Z-1.333 R0.317
G1 X22.792
G17 G3 X23.11 Y10.961 R0.317
G1 Y18.117
Y24.706
G3 X22.166 Y25.65 R0.944
G1 X-22.167
G3 X-23.111 Y24.706 R0.944
G1 X-23.11 Y-24.706
G3 X-22.166 Y-25.65 R0.944
G1 X22.167
G3 X23.111 Y-24.706 R0.944
G1 X23.11 Y-5.937
Y10.961
G2 X24.254 Y12.678 R1.86
G3 X25.399 Y14.395 R1.86
G1 Y27.921
X25.396 Y27.936
X25.38 Y27.939
X-25.38
X-25.396 Y27.936
X-25.4 Y27.894
X-25.399 Y-27.921
X-25.396 Y-27.936
X-25.38 Y-27.939
X25.38
X25.396 Y-27.936
X25.4 Y-27.894
X25.399 Y14.395
G3 X25.384 Y14.491 Z-1.318 R0.317
X25.346 Y14.571 Z-1.273 R0.317
X25.301 Y14.625 Z-1.203 R0.318
X25.266 Y14.653 Z-1.114 R0.318
X25.253 Y14.662 Z-1.016 R0.318
G0 Z5.
X12.073 Y9.264
Z0.433
G1 Z-1.016 F400.
X12.066 Y9.261 Z-1.087
X12.044 Y9.251 Z-1.154
X12.01 Y9.236 Z-1.214
X11.964 Y9.216 Z-1.264
X11.908 Y9.192 Z-1.302
X11.847 Y9.165 Z-1.325
X11.782 Y9.137 Z-1.333
X9.219 Y8.02
G3 X9.055 Y7.602 R0.318
G2 X9.358 Y6.146 R3.642
G1 X9.355 Y-11.27
G2 X8.281 Y-13.809 R3.539
X5.725 Y-14.845 R3.669
G1 X-5.781 Y-14.842
G2 X-8.619 Y-13.396 R3.51
X-9.155 Y-12.391 R4.238
X-9.355 Y-11.269 R3.229
G1 X-9.354 Y6.201
G2 X-8.278 Y8.735 R3.521
X-5.725 Y9.765 R3.676
G1 X5.781 Y9.762
G2 X8.318 Y8.695 R3.553
X9.055 Y7.602 R3.642
X8.34 Y5.458 R1.688
G3 X7.202 Y3.506 R2.245
G1 X7.199 Y-11.269
G2 X7.184 Y-11.419 R0.744
G1 X7.151 Y-11.58
G2 X7.104 Y-11.729 R0.744
G1 X7.045 Y-11.864
G2 X6.967 Y-12.001 R0.744
G1 X6.869 Y-12.136
G2 X6.767 Y-12.251 R0.744
G1 X6.662 Y-12.346
G2 X6.556 Y-12.427 R0.744
G1 X6.451 Y-12.492
G2 X6.316 Y-12.559 R0.744
G1 X6.149 Y-12.621
G2 X5.983 Y-12.662 R0.744
G1 X5.819 Y-12.683
G2 X5.726 Y-12.689 R0.744
G1 X-5.78 Y-12.686
G2 X-5.928 Y-12.671 R0.744
G1 X-6.093 Y-12.637
G2 X-6.259 Y-12.583 R0.744
G1 X-6.423 Y-12.507
G2 X-6.557 Y-12.426 R0.744
G1 X-6.661 Y-12.347
G2 X-6.739 Y-12.28 R0.744
G1 X-6.791 Y-12.227
G2 X-6.869 Y-12.136 R0.744
G1 X-6.967 Y-12.001
G2 X-7.045 Y-11.864 R0.744
G1 X-7.104 Y-11.729
G2 X-7.151 Y-11.58 R0.744
G1 X-7.184 Y-11.419
G2 X-7.199 Y-11.269 R0.744
G1 X-7.198 Y6.201
G2 X-7.182 Y6.354 R0.744
G1 X-7.152 Y6.499
G2 X-7.107 Y6.641 R0.744
G1 X-7.047 Y6.779
G2 X-6.969 Y6.917 R0.744
G1 X-6.87 Y7.055
G2 X-6.763 Y7.174 R0.744
G1 X-6.651 Y7.275
G2 X-6.526 Y7.366 R0.744
G1 X-6.389 Y7.445
G2 X-6.251 Y7.507 R0.744
G1 X-6.114 Y7.553
G2 X-5.968 Y7.585 R0.744
G1 X-5.814 Y7.604
G2 X-5.726 Y7.609 R0.744
G1 X5.78 Y7.606
G2 X5.918 Y7.593 R0.744
G1 X6.063 Y7.566
G2 X6.205 Y7.524 R0.744
G1 X6.342 Y7.468
G2 X6.48 Y7.394 R0.744
G1 X6.617 Y7.301
G2 X6.739 Y7.198 R0.744
G1 X6.844 Y7.087
G2 X6.939 Y6.963 R0.744
G1 X7.023 Y6.825
G2 X7.089 Y6.687 R0.744
G1 X7.138 Y6.549
G2 X7.173 Y6.403 R0.744
G1 X7.195 Y6.25
G2 X7.202 Y6.147 R0.744
G1 Y3.506
G3 X7.217 Y3.41 Z-1.318 R0.318
X7.255 Y3.33 Z-1.273 R0.318
X7.3 Y3.276 Z-1.203 R0.317
X7.335 Y3.248 Z-1.114 R0.318
X7.348 Y3.239 Z-1.016 R0.318
G0 Z5.
X-4.026 Y9.324
Z0.433
G1 Z-1.016 F400.
X-4.034 Y9.328 Z-1.087
X-4.055 Y9.338 Z-1.154
X-4.088 Y9.355 Z-1.214
X-4.133 Y9.378 Z-1.264
X-4.187 Y9.405 Z-1.302
X-4.247 Y9.435 Z-1.325
X-4.31 Y9.467 Z-1.333
X-6.827 Y10.735
G3 X-7.254 Y10.594 R0.317
G2 X-8.88 Y8.587 R6.068
X-16.46 Y8.456 R6.199
X-18.618 Y15.724 R6.334
X-16.33 Y18.811 R6.837
X-12.633 Y19.86 R5.288
X-8.434 Y18.188 R8.082
X-6.451 Y14.126 R5.149
X-7.035 Y11.08 R8.242
X-7.254 Y10.594 R6.068
X-9.289 Y9.685 R1.764
G3 X-11.518 Y9.632 R3.926
G1 X-11.602 Y9.605
G2 X-11.759 Y9.572 R0.744
G1 X-12.839 Y9.469
G2 X-12.957 Y9.467 R0.744
G1 X-13.119 Y9.477
G2 X-13.275 Y9.504 R0.744
G1 X-14.345 Y9.807
G2 X-14.455 Y9.848 R0.744
G1 X-14.553 Y9.893
G2 X-14.674 Y9.964 R0.744
G1 X-14.91 Y10.132
G2 X-14.927 Y10.145 R0.744
G1 X-15.614 Y10.668
G2 X-15.723 Y10.77 R0.744
G1 X-15.824 Y10.886
G2 X-15.896 Y10.983 R0.744
G1 X-16.405 Y11.802
G2 X-16.426 Y11.839 R0.744
G1 X-16.509 Y11.992
G2 X-16.571 Y12.142 R0.744
G1 X-16.617 Y12.303
G2 X-16.634 Y12.376 R0.744
G1 X-16.821 Y13.4
G2 X-16.833 Y13.56 R0.744
G1 X-16.827 Y13.721
G2 X-16.815 Y13.832 R0.744
G1 X-16.623 Y14.857
G2 X-16.59 Y14.977 R0.744
G1 X-16.531 Y15.139
G2 X-16.466 Y15.272 R0.744
G1 X-15.899 Y16.191
G2 X-15.827 Y16.288 R0.744
G1 X-15.725 Y16.405
G2 X-15.614 Y16.509 R0.744
G1 X-14.754 Y17.163
G2 X-14.674 Y17.216 R0.744
G1 X-14.566 Y17.278
G2 X-14.441 Y17.335 R0.744
G1 X-14.29 Y17.388
G2 X-14.245 Y17.402 R0.744
G1 X-13.273 Y17.675
G2 X-13.119 Y17.701 R0.744
G1 X-12.957 Y17.711
G2 X-12.839 Y17.709 R0.744
G1 X-11.759 Y17.606
G2 X-11.602 Y17.573 R0.744
G1 X-11.44 Y17.521
G2 X-11.333 Y17.477 R0.744
G1 X-10.361 Y16.988
G2 X-10.231 Y16.904 R0.744
G1 X-10.122 Y16.818
G2 X-10.036 Y16.737 R0.744
G1 X-9.296 Y15.92
G2 X-9.201 Y15.789 R0.744
G1 X-9.119 Y15.645
G2 X-9.071 Y15.545 R0.744
G1 X-8.691 Y14.556
G2 X-8.653 Y14.422 R0.744
G1 X-8.623 Y14.26
G2 X-8.611 Y14.127 R0.744
G1 X-8.612 Y13.048
G2 X-8.624 Y12.913 R0.744
G1 X-8.654 Y12.751
G2 X-8.692 Y12.617 R0.744
G1 X-9.09 Y11.593
G2 X-9.149 Y11.474 R0.744
G1 X-9.215 Y11.366
G2 X-9.299 Y11.255 R0.744
G1 X-10.037 Y10.441
G2 X-10.122 Y10.36 R0.744
G1 X-10.231 Y10.274
G2 X-10.361 Y10.19 R0.744
G1 X-11.333 Y9.701
G2 X-11.44 Y9.657 R0.744
G1 X-11.518 Y9.632
G3 X-11.606 Y9.588 Z-1.318 R0.317
X-11.67 Y9.527 Z-1.273 R0.318
X-11.707 Y9.468 Z-1.203 R0.318
X-11.723 Y9.426 Z-1.114 R0.318
X-11.728 Y9.411 Z-1.016 R0.318
G0 Z5.
X-12.683 Y-8.921
Z0.433
G1 Z-1.016 F400.
X-12.684 Y-8.929 Z-1.087
Y-8.952 Z-1.154
X-12.686 Y-8.99 Z-1.214
X-12.688 Y-9.04 Z-1.264
X-12.69 Y-9.1 Z-1.302
X-12.692 Y-9.168 Z-1.325
X-12.694 Y-9.238 Z-1.333
X-12.792 Y-12.055
G3 X-12.486 Y-12.383 R0.317
G2 X-7.633 Y-14.948 R6.292
X-8.1 Y-22.901 R6.244
X-10.483 Y-24.556 R6.843
X-13.36 Y-24.926 R5.538
X-18.834 Y-19.689 R6.461
X-15.349 Y-12.962 R6.186
X-12.486 Y-12.383 R6.292
X-10.722 Y-13.867 R1.868
G3 X-9.674 Y-15.92 R4.388
G1 X-9.308 Y-16.322
G2 X-9.231 Y-16.423 R0.744
G1 X-9.162 Y-16.531
G2 X-9.097 Y-16.66 R0.744
G1 X-8.696 Y-17.684
G2 X-8.66 Y-17.808 R0.744
G1 X-8.627 Y-17.97
G2 X-8.612 Y-18.119 R0.744
G1 X-8.616 Y-19.251
G2 X-8.637 Y-19.425 R0.744
G1 X-8.676 Y-19.587
G2 X-8.705 Y-19.68 R0.744
G1 X-9.078 Y-20.639
G2 X-9.124 Y-20.737 R0.744
G1 X-9.193 Y-20.857
G2 X-9.284 Y-20.985 R0.744
G1 X-9.669 Y-21.416
G2 X-9.68 Y-21.428 R0.744
G1 X-10.082 Y-21.859
G2 X-10.196 Y-21.959 R0.744
G1 X-10.294 Y-22.028
G2 X-10.395 Y-22.088 R0.744
G1 X-11.392 Y-22.582
G2 X-11.548 Y-22.638 R0.744
G1 X-11.71 Y-22.677
G2 X-11.818 Y-22.695 R0.744
G1 X-12.899 Y-22.79
G2 X-13.066 Y-22.786 R0.744
G1 X-13.228 Y-22.764
G2 X-13.332 Y-22.742 R0.744
G1 X-14.358 Y-22.446
G2 X-14.48 Y-22.399 R0.744
G1 X-14.588 Y-22.347
G2 X-14.708 Y-22.273 R0.744
G1 X-15.601 Y-21.601
G2 X-15.71 Y-21.5 R0.744
G1 X-15.821 Y-21.375
G2 X-15.897 Y-21.273 R0.744
G1 X-16.405 Y-20.456
G2 X-16.429 Y-20.413 R0.744
G1 X-16.518 Y-20.246
G2 X-16.58 Y-20.089 R0.744
G1 X-16.624 Y-19.928
G2 X-16.637 Y-19.867 R0.744
G1 X-16.823 Y-18.842
G2 X-16.833 Y-18.67 R0.744
G1 X-16.825 Y-18.508
G2 X-16.813 Y-18.41 R0.744
G1 X-16.619 Y-17.386
G2 X-16.583 Y-17.258 R0.744
G1 X-16.525 Y-17.106
G2 X-16.462 Y-16.98 R0.744
G1 X-15.874 Y-16.034
G2 X-15.778 Y-15.911 R0.744
G1 X-15.673 Y-15.802
G2 X-15.584 Y-15.722 R0.744
G1 X-14.701 Y-15.061
G2 X-14.567 Y-14.981 R0.744
G1 X-14.441 Y-14.923
G2 X-14.331 Y-14.882 R0.744
G1 X-13.288 Y-14.586
G2 X-13.155 Y-14.562 R0.744
G1 X-13.01 Y-14.548
G2 X-12.871 R0.744
G1 X-11.76 Y-14.652
G2 X-11.602 Y-14.685 R0.744
G1 X-11.44 Y-14.737
G2 X-11.333 Y-14.781 R0.744
G1 X-10.361 Y-15.27
G2 X-10.231 Y-15.354 R0.744
G1 X-10.122 Y-15.44
G2 X-10.037 Y-15.521 R0.744
G1 X-9.674 Y-15.92
G3 X-9.598 Y-15.981 Z-1.318 R0.318
X-9.516 Y-16.014 Z-1.273 R0.318
X-9.447 Y-16.024 Z-1.203 R0.317
X-9.402 Y-16.022 Z-1.114 R0.317
X-9.386 Y-16.019 Z-1.016 R0.317
G0 Z5.
X3.098 Y-17.943
Z0.433
G1 Z-1.016 F400.
X3.106 Y-17.944 Z-1.087
X3.129 Y-17.947 Z-1.154
X3.167 Y-17.952 Z-1.214
X3.217 Y-17.958 Z-1.264
X3.277 Y-17.966 Z-1.302
X3.343 Y-17.974 Z-1.325
X3.413 Y-17.983 Z-1.333
X6.209 Y-18.342
G3 X6.564 Y-18.068 R0.317
G2 X7.69 Y-14.9 R7.926
X12.749 Y-12.4 R5.34
X16.957 Y-14.061 R8.122
X18.945 Y-18.125 R5.119
X17.684 Y-22.468 R8.184
X13.83 Y-24.836 R5.123
X10.735 Y-24.537 R8.227
X8.074 Y-22.93 R6.121
X6.5 Y-18.981 R5.57
X6.564 Y-18.068 R7.926
X8.002 Y-16.511 R1.829
G3 X9.931 Y-15.636 R4.88
G1 X10.68 Y-15.072
G2 X10.814 Y-14.992 R0.744
G1 X10.976 Y-14.917
G2 X11.088 Y-14.876 R0.744
G1 X12.114 Y-14.586
G2 X12.257 Y-14.56 R0.744
G1 X12.419 Y-14.547
G2 X12.548 Y-14.548 R0.744
G1 X13.628 Y-14.65
G2 X13.774 Y-14.679 R0.744
G1 X13.936 Y-14.728
G2 X14.054 Y-14.775 R0.744
G1 X15.026 Y-15.262
G2 X15.145 Y-15.337 R0.744
G1 X15.253 Y-15.42
G2 X15.35 Y-15.509 R0.744
G1 X16.092 Y-16.322
G2 X16.169 Y-16.423 R0.744
G1 X16.238 Y-16.531
G2 X16.303 Y-16.66 R0.744
G1 X16.704 Y-17.684
G2 X16.74 Y-17.808 R0.744
G1 X16.773 Y-17.97
G2 X16.788 Y-18.119 R0.744
G1 X16.784 Y-19.251
G2 X16.763 Y-19.425 R0.744
G1 X16.724 Y-19.587
G2 X16.694 Y-19.681 R0.744
G1 X16.317 Y-20.651
G2 X16.257 Y-20.772 R0.744
G1 X16.171 Y-20.911
G2 X16.087 Y-21.021 R0.744
G1 X15.36 Y-21.821
G2 X15.271 Y-21.904 R0.744
G1 X15.16 Y-21.991
G2 X15.032 Y-22.072 R0.744
G1 X14.03 Y-22.573
G2 X13.902 Y-22.623 R0.744
G1 X13.763 Y-22.663
G2 X13.628 Y-22.688 R0.744
G1 X12.548 Y-22.79
G2 X12.419 Y-22.791 R0.744
G1 X12.257 Y-22.778
G2 X12.113 Y-22.752 R0.744
G1 X11.065 Y-22.455
G2 X10.939 Y-22.407 R0.744
G1 X10.79 Y-22.333
G2 X10.672 Y-22.26 R0.744
G1 X9.823 Y-21.621
G2 X9.737 Y-21.545 R0.744
G1 X9.622 Y-21.427
G2 X9.525 Y-21.303 R0.744
G1 X9.093 Y-20.613
G2 X9.086 Y-20.602 R0.744
G1 X8.924 Y-20.334
G2 X8.859 Y-20.195 R0.744
G1 X8.803 Y-20.034
G2 X8.773 Y-19.921 R0.744
G1 X8.578 Y-18.843
G2 X8.567 Y-18.67 R0.744
G1 X8.575 Y-18.508
G2 X8.587 Y-18.41 R0.744
G1 X8.781 Y-17.386
G2 X8.815 Y-17.263 R0.744
G1 X8.868 Y-17.122
G2 X8.932 Y-16.99 R0.744
G1 X9.523 Y-16.038
G2 X9.619 Y-15.914 R0.744
G1 X9.729 Y-15.8
G2 X9.818 Y-15.721 R0.744
G1 X9.931 Y-15.636
G3 X10.097 Y-15.419 Z-1.339 R0.508
G1 X13.983 Y-5.747 Z-1.569
G2 X14.962 Y-5.936 Z-1.6 R0.508
G1 Y-5.947
G3 X15.919 Y-7.219 R1.324
G2 X16.355 Y-7.352 R14.038
X16.785 Y-7.505 R8.315
G3 X17.637 Y-6.921 R0.626
G1 Y1.841
G3 X16.785 Y2.425 R0.626
G2 X16.34 Y2.267 R8.479
X15.888 Y2.13 R13.328
G3 X14.964 Y0.905 R1.273
G1 X14.962 Y-5.936
G2 X13.818 Y-7.173 R1.241
G3 X13.463 Y-8.821 R0.879
X13.883 Y-8.949 R1.084
G2 X18.929 Y-11.063 R9.171
G3 X19.7 Y-10.702 R0.47
G1 Y5.621
G3 X18.926 Y5.983 R0.471
G2 X16.565 Y4.544 R9.405
X13.885 Y3.869 R9.072
G3 X12.901 Y2.789 R1.085
G1 X12.9 Y-7.869
G3 X13.463 Y-8.821 R1.084
X13.561 Y-8.815 Z-1.584 R0.317
X13.644 Y-8.784 Z-1.539 R0.317
X13.701 Y-8.744 Z-1.469 R0.317
X13.733 Y-8.712 Z-1.381 R0.317
X13.743 Y-8.7 Z-1.283 R0.318
G0 Z5.
X-1.499 Y-20.55
Z1.5
G1 Z-0.495 F400.
G3 X-1.49 Y-20.564 Z-0.595 R0.508
X-1.464 Y-20.602 Z-0.684 R0.508
X-1.428 Y-20.646 Z-0.743 R0.508
X-1.376 Y-20.693 Z-0.785 R0.508
X-1.311 Y-20.738 Z-0.808 R0.508
X-0.804 Y-19.857 Z-1.058 R0.508
X-1.311 Y-20.738 Z-1.308 R0.508
X-0.804 Y-19.857 Z-1.558 R0.508
X-1.057 Y-19.789 Z-1.6 R0.508
G1 X-1.174
G3 X-1.564 Y-20.138 R0.393
G2 X-1.596 Y-20.387 R7.846
G3 X-1.208 Y-20.837 R0.393
G1 X1.251
G3 X1.637 Y-20.374 R0.393
G1 X1.59 Y-20.113
G3 X1.204 Y-19.79 R0.393
G1 X-1.057 Y-19.789
G2 X-1.701 Y-19.303 R0.669
G3 X-2.502 Y-19.216 R0.435
X-2.617 Y-19.626 R0.985
G2 X-2.7 Y-20.348 R6.306
X-2.85 Y-21.059 R9.639
G3 X-2.171 Y-21.93 R0.7
G1 X2.141
G3 X2.871 Y-21.048 R0.743
G1 X2.731 Y-20.311
G2 X2.619 Y-19.627 R13.487
G3 X1.553 Y-18.697 R1.077
G1 X-1.634 Y-18.696
G3 X-2.502 Y-19.216 R0.985
G2 X-3.93 Y-20.428 R2.548
G3 X-5.287 Y-21.718 R2.233
G2 X-5.8 Y-22.788 R8.517
X-5.972 Y-23.049 R2.414
G1 X-6.146 Y-23.279
G3 X-5.76 Y-24.054 R0.484
G1 X5.707
G3 X6.156 Y-23.243 R0.53
G2 X5.385 Y-21.999 R168.397
X4.862 Y-20.631 R3.968
X4.691 Y-19.065 R11.172
X4.807 Y-17.494 R7.02
G3 X4.044 Y-16.573 R0.777
G1 X-4.008 Y-16.571
G3 X-4.775 Y-17.456 R0.775
G2 X-4.844 Y-20.207 R8.228
X-5.287 Y-21.718 R8.517
G3 X-5.308 Y-21.813 Z-1.584 R0.317
X-5.301 Y-21.901 Z-1.539 R0.317
X-5.278 Y-21.968 Z-1.469 R0.317
X-5.256 Y-22.007 Z-1.381 R0.317
X-5.247 Y-22.02 Z-1.283 R0.317
G0 Z5.
X-16.578 Y1.537
Z1.5
G1 Z-0.495 F400.
G3 X-16.573 Y1.522 Z-0.595 R0.508
X-16.559 Y1.477 Z-0.684 R0.508
X-16.535 Y1.426 Z-0.743 R0.508
X-16.499 Y1.366 Z-0.785 R0.508
X-16.448 Y1.306 Z-0.808 R0.508
X-15.72 Y2.015 Z-1.058 R0.508
X-16.448 Y1.306 Z-1.308 R0.508
X-15.72 Y2.015 Z-1.558 R0.508
X-15.946 Y2.149 Z-1.6 R0.508
G1 X-16.471 Y2.298
G2 X-16.896 Y2.43 R8.548
G3 X-17.595 Y1.93 R0.528
G1 Y-6.823
G3 X-16.73 Y-7.455 R0.663
G2 X-16.331 Y-7.336 R10.821
G3 X-15.93 Y-7.223 R78.755
X-15.004 Y-5.998 R1.273
G1 X-15.003 Y0.919
G3 X-15.93 Y2.144 R1.273
G1 X-15.946 Y2.149
G2 X-17.179 Y3.668 R1.699
G3 X-18.146 Y5.369 R2.255
G2 X-18.262 Y5.451 R8.656
X-18.655 Y5.763 R4.955
G3 X-19.042 Y6.082 R7.012
X-19.673 Y5.769 R0.393
G1 Y-10.635
G3 X-18.876 Y-11.033 R0.498
X-17.914 Y-10.293 R48.165
G2 X-16.879 Y-9.658 R5.188
X-15.403 Y-9.151 R7.619
X-13.866 Y-8.879 R14.52
G3 X-12.926 Y-7.817 R1.07
G1 X-12.925 Y2.741
G3 X-13.859 Y3.797 R1.064
G2 X-16.165 Y4.348 R10.561
X-18.146 Y5.369 R8.656
X-18.214 Y5.494 R0.159
G1 X-18.715 Y20.945
G2 X-18.654 Y21.074 R0.159
X-18.433 Y21.246 R17.769
X-17.638 Y21.801 R11.572
G3 X-17.836 Y22.48 R0.368
G1 X-19.246
G3 X-19.941 Y21.785 R0.695
G1 Y20.984
G3 X-19.188 Y20.637 R0.457
G2 X-18.654 Y21.074 R17.769
G3 X-18.587 Y21.145 Z-1.584 R0.318
X-18.546 Y21.223 Z-1.539 R0.318
X-18.531 Y21.292 Z-1.469 R0.318
X-18.529 Y21.337 Z-1.381 R0.318
X-18.53 Y21.352 Z-1.283 R0.317
G0 Z5.
X-0.463 Y18.12
Z1.5
G1 Z-0.495 F400.
G3 X-0.455 Y18.106 Z-0.595 R0.508
X-0.429 Y18.067 Z-0.684 R0.508
X-0.392 Y18.024 Z-0.743 R0.508
X-0.341 Y17.976 Z-0.785 R0.508
X-0.276 Y17.932 Z-0.808 R0.508
X0.231 Y18.813 Z-1.058 R0.508
X-0.276 Y17.932 Z-1.308 R0.508
X0.231 Y18.813 Z-1.558 R0.508
X-0.022 Y18.88 Z-1.6 R0.508
G1 X-0.077
G3 X-0.443 Y18.347 R0.393
G1 X-0.42 Y18.285
G3 X0.377 Y18.29 R0.426
G1 X0.399 Y18.349
G3 X0.032 Y18.88 R0.393
G1 X-0.022
G2 X-1.296 Y19.729 R1.379
G3 X-2.569 Y20.578 R1.372
X-3.01 Y19.772 R0.525
G2 X-1.448 Y15.93 R11.548
G3 X-0.268 Y14.969 R1.205
G1 X0.29 Y14.968
G3 X1.496 Y15.97 R1.227
G2 X1.931 Y17.623 R11.867
X2.663 Y19.168 R7.572
X2.857 Y19.459 R5.587
G3 X3.05 Y19.75 R5.587
X2.589 Y20.578 R0.542
G1 X-2.567
X-2.569
G2 X-3.998 Y21.529 R1.543
G3 X-5.428 Y22.48 R1.55
G1 X-7.655
G3 X-7.818 Y21.818 R0.351
G2 X-4.396 Y18.565 R8.614
X-3.153 Y14.011 R8.958
G3 X-2.209 Y13.067 R0.944
G1 X2.16 Y13.066
G3 X3.12 Y13.982 R0.961
G2 X3.847 Y17.36 R10.468
X5.71 Y20.271 R9.074
X6.69 Y21.096 R5.872
X7.76 Y21.8 R68.848
G3 X7.56 Y22.48 R0.369
G1 X-5.428
G3 X-5.525 Y22.465 Z-1.584 R0.318
X-5.604 Y22.427 Z-1.539 R0.317
X-5.658 Y22.382 Z-1.469 R0.317
X-5.687 Y22.347 Z-1.381 R0.318
X-5.695 Y22.334 Z-1.283 R0.318
G0 Z5.
X19.493 Y21.41
Z1.5
G1 Z-0.495 F400.
G3 X19.495 Y21.426 Z-0.595 R0.508
X19.499 Y21.472 Z-0.684 R0.508
X19.498 Y21.529 Z-0.743 R0.508
X19.489 Y21.599 Z-0.785 R0.508
X19.466 Y21.674 Z-0.808 R0.508
X18.517 Y21.312 Z-1.058 R0.508
X19.466 Y21.674 Z-1.308 R0.508
X18.517 Y21.312 Z-1.558 R0.508
X18.67 Y21.099 Z-1.6 R0.508
G2 X19.196 Y20.622 R6.673
G3 X19.939 Y20.926 R0.434
G1 Y21.784
G3 X19.244 Y22.479 R0.695
G1 X17.754
G3 X17.589 Y21.818 R0.351
G2 X18.67 Y21.099 R6.673
X19.047 Y19.795 R1.192
G3 X19.259 Y18.455 R1.463
G2 X15.093 Y5.838 R8.118
X13.545 Y5.576 R6.2
X11.975 Y5.606 R13.055
G3 X11.086 Y4.786 R0.823
G1 X11.084 Y-9.866
G3 X11.972 Y-10.686 R0.822
G2 X17.527 Y-12.196 R8.511
X20.681 Y-17.011 R7.75
X20.634 Y-20.295 R7.743
X19.256 Y-23.277 R8.069
G3 X19.647 Y-24.054 R0.487
G1 X20.552
G3 X21.515 Y-23.091 R0.963
G1 X21.514 Y23.091
G3 X20.551 Y24.054 R0.963
G1 X-20.552
G3 X-21.515 Y23.091 R0.963
G1 X-21.514 Y-23.091
G3 X-20.551 Y-24.054 R0.963
G1 X-19.692
G3 X-19.243 Y-23.248 R0.528
G2 X-20.024 Y-21.973 R113.696
X-20.551 Y-20.574 R4.132
X-20.471 Y-16.555 R10.175
X-18.57 Y-13.014 R7.435
X-16.186 Y-11.359 R7.383
X-13.376 Y-10.638 R9.229
X-12.699 Y-10.651 R3.053
G3 X-12.026 Y-10.726 R19.087
X-11.084 Y-9.867 R0.862
G1 X-11.083 Y4.788
G3 X-12.025 Y5.645 R0.86
G2 X-13.191 Y5.562 R23.465
X-14.353 Y5.697 R3.653
X-16.726 Y6.591 R15.036
X-18.748 Y8.123 R6.273
X-20.65 Y14.959 R8.199
X-16.568 Y20.764 R8.391
X-13.085 Y21.804 R7.929
X-9.525 Y21.068 R7.001
X-6.115 Y18.285 R10.171
X-4.672 Y14.126 R6.711
X-4.692 Y13.252 R19.249
X-4.775 Y12.383 R8.848
G3 X-4.006 Y11.493 R0.778
G1 X4.042 Y11.491
G3 X4.81 Y12.413 R0.781
G2 X7.44 Y19.786 R7.819
X15.104 Y21.377 R8.173
X19.259 Y18.455 R8.118
X19.278 Y16.615 R1.563
G3 X18.893 Y14.817 R2.319
G2 X14.563 Y7.585 R6.275
X11.128 Y7.505 R6.404
X8.162 Y9.238 R6.208
X14.563 Y19.593 R6.291
X18.893 Y14.817 R6.275
X17.902 Y12.724 R1.94
G3 X16.108 Y11.26 R5.941
G2 X16.084 Y11.233 R0.744
G1 X15.369 Y10.447
G2 X15.295 Y10.376 R0.744
G1 X15.197 Y10.294
G2 X15.072 Y10.21 R0.744
G1 X14.827 Y10.079
G2 X14.807 Y10.069 R0.744
G1 X14.051 Y9.693
G2 X13.936 Y9.648 R0.744
G1 X13.774 Y9.599
G2 X13.628 Y9.57 R0.744
G1 X12.548 Y9.468
G2 X12.419 Y9.467 R0.744
G1 X12.257 Y9.48
G2 X12.113 Y9.506 R0.744
G1 X11.066 Y9.803
G2 X10.944 Y9.85 R0.744
G1 X10.799 Y9.92
G2 X10.677 Y9.995 R0.744
G1 X9.813 Y10.645
G2 X9.722 Y10.726 R0.744
G1 X9.617 Y10.836
G2 X9.525 Y10.955 R0.744
G1 X9.093 Y11.645
X9.088 Y11.653
X8.933 Y11.907
G2 X8.872 Y12.034 R0.744
G1 X8.812 Y12.196
G2 X8.777 Y12.321 R0.744
G1 X8.579 Y13.399
G2 X8.567 Y13.56 R0.744
G1 X8.573 Y13.721
G2 X8.585 Y13.832 R0.744
G1 X8.777 Y14.857
G2 X8.81 Y14.977 R0.744
G1 X8.869 Y15.139
G2 X8.936 Y15.274 R0.744
G1 X9.523 Y16.221
G2 X9.617 Y16.341 R0.744
G1 X9.721 Y16.451
G2 X9.812 Y16.532 R0.744
G1 X10.673 Y17.181
G2 X10.792 Y17.254 R0.744
G1 X10.937 Y17.326
G2 X11.063 Y17.374 R0.744
G1 X12.113 Y17.672
G2 X12.257 Y17.698 R0.744
G1 X12.419 Y17.711
G2 X12.548 Y17.71 R0.744
G1 X13.628 Y17.608
G2 X13.774 Y17.579 R0.744
G1 X13.936 Y17.53
G2 X14.052 Y17.484 R0.744
G1 X15.006 Y17.008
G2 X15.102 Y16.951 R0.744
G1 X15.2 Y16.881
G2 X15.303 Y16.794 R0.744
G1 X15.44 Y16.654
G2 X15.459 Y16.634 R0.744
G1 X16.086 Y15.943
G2 X16.165 Y15.84 R0.744
G1 X16.247 Y15.71
G2 X16.311 Y15.582 R0.744
G1 X16.709 Y14.558
G2 X16.747 Y14.422 R0.744
G1 X16.777 Y14.26
G2 X16.789 Y14.127 R0.744
G1 X16.788 Y13.048
G2 X16.776 Y12.913 R0.744
G1 X16.746 Y12.751
G2 X16.708 Y12.617 R0.744
G1 X16.31 Y11.593
G2 X16.244 Y11.463 R0.744
G1 X16.162 Y11.334
G2 X16.108 Y11.26 R0.744
G3 X16.058 Y11.176 Z-1.584 R0.317
X16.037 Y11.09 Z-1.539 R0.317
X16.038 Y11.02 Z-1.469 R0.318
X16.046 Y10.976 Z-1.381 R0.318
X16.051 Y10.961 Z-1.283 R0.318
G0 Z5.
X19.657 Y10.644
Z0.167
G1 Z-1.283 F400.
G18 G2 X19.974 Z-1.6 R0.317
G1 X22.792
G17 G3 X23.11 Y10.961 R0.317
G1 Y18.117
Y24.706
G3 X22.166 Y25.65 R0.944
G1 X-22.167
G3 X-23.111 Y24.706 R0.944
G1 X-23.11 Y-24.706
G3 X-22.166 Y-25.65 R0.944
G1 X22.167
G3 X23.111 Y-24.706 R0.944
G1 X23.11 Y-5.937
Y10.961
G2 X24.254 Y12.678 R1.86
G3 X25.399 Y14.395 R1.86
G1 Y27.921
X25.396 Y27.936
X25.38 Y27.939
X-25.38
X-25.396 Y27.936
X-25.4 Y27.894
X-25.399 Y-27.921
X-25.396 Y-27.936
X-25.38 Y-27.939
X25.38
X25.396 Y-27.936
X25.4 Y-27.894
X25.399 Y14.395
G3 X25.384 Y14.491 Z-1.584 R0.317
X25.346 Y14.571 Z-1.539 R0.317
X25.301 Y14.625 Z-1.469 R0.318
X25.266 Y14.653 Z-1.381 R0.318
X25.253 Y14.662 Z-1.283 R0.318
G0 Z5.
X12.073 Y9.264
Z0.167
G1 Z-1.283 F400.
X12.066 Y9.261 Z-1.353
X12.044 Y9.251 Z-1.42
X12.01 Y9.236 Z-1.48
X11.964 Y9.216 Z-1.531
X11.908 Y9.192 Z-1.569
X11.847 Y9.165 Z-1.592
X11.782 Y9.137 Z-1.6
X9.219 Y8.02
G3 X9.055 Y7.602 R0.318
G2 X9.358 Y6.146 R3.642
G1 X9.355 Y-11.27
G2 X8.281 Y-13.809 R3.539
X5.725 Y-14.845 R3.669
G1 X-5.781 Y-14.842
G2 X-8.619 Y-13.396 R3.51
X-9.155 Y-12.391 R4.238
X-9.355 Y-11.269 R3.229
G1 X-9.354 Y6.201
G2 X-8.278 Y8.735 R3.521
X-5.725 Y9.765 R3.676
G1 X5.781 Y9.762
G2 X8.318 Y8.695 R3.553
X9.055 Y7.602 R3.642
X8.34 Y5.458 R1.688
G3 X7.202 Y3.506 R2.245
G1 X7.199 Y-11.269
G2 X7.184 Y-11.419 R0.744
G1 X7.151 Y-11.58
G2 X7.104 Y-11.729 R0.744
G1 X7.045 Y-11.864
G2 X6.967 Y-12.001 R0.744
G1 X6.869 Y-12.136
G2 X6.767 Y-12.251 R0.744
G1 X6.662 Y-12.346
G2 X6.556 Y-12.427 R0.744
G1 X6.451 Y-12.492
G2 X6.316 Y-12.559 R0.744
G1 X6.149 Y-12.621
G2 X5.983 Y-12.662 R0.744
G1 X5.819 Y-12.683
G2 X5.726 Y-12.689 R0.744
G1 X-5.78 Y-12.686
G2 X-5.928 Y-12.671 R0.744
G1 X-6.093 Y-12.637
G2 X-6.259 Y-12.583 R0.744
G1 X-6.423 Y-12.507
G2 X-6.557 Y-12.426 R0.744
G1 X-6.661 Y-12.347
G2 X-6.739 Y-12.28 R0.744
G1 X-6.791 Y-12.227
G2 X-6.869 Y-12.136 R0.744
G1 X-6.967 Y-12.001
G2 X-7.045 Y-11.864 R0.744
G1 X-7.104 Y-11.729
G2 X-7.151 Y-11.58 R0.744
G1 X-7.184 Y-11.419
G2 X-7.199 Y-11.269 R0.744
G1 X-7.198 Y6.201
G2 X-7.182 Y6.354 R0.744
G1 X-7.152 Y6.499
G2 X-7.107 Y6.641 R0.744
G1 X-7.047 Y6.779
G2 X-6.969 Y6.917 R0.744
G1 X-6.87 Y7.055
G2 X-6.763 Y7.174 R0.744
G1 X-6.651 Y7.275
G2 X-6.526 Y7.366 R0.744
G1 X-6.389 Y7.445
G2 X-6.251 Y7.507 R0.744
G1 X-6.114 Y7.553
G2 X-5.968 Y7.585 R0.744
G1 X-5.814 Y7.604
G2 X-5.726 Y7.609 R0.744
G1 X5.78 Y7.606
G2 X5.918 Y7.593 R0.744
G1 X6.063 Y7.566
G2 X6.205 Y7.524 R0.744
G1 X6.342 Y7.468
G2 X6.48 Y7.394 R0.744
G1 X6.617 Y7.301
G2 X6.739 Y7.198 R0.744
G1 X6.844 Y7.087
G2 X6.939 Y6.963 R0.744
G1 X7.023 Y6.825
G2 X7.089 Y6.687 R0.744
G1 X7.138 Y6.549
G2 X7.173 Y6.403 R0.744
G1 X7.195 Y6.25
G2 X7.202 Y6.147 R0.744
G1 Y3.506
G3 X7.217 Y3.41 Z-1.584 R0.318
X7.255 Y3.33 Z-1.539 R0.318
X7.3 Y3.276 Z-1.469 R0.317
X7.335 Y3.248 Z-1.381 R0.318
X7.348 Y3.239 Z-1.283 R0.318
G0 Z5.
X-4.026 Y9.324
Z0.167
G1 Z-1.283 F400.
X-4.034 Y9.328 Z-1.353
X-4.055 Y9.338 Z-1.42
X-4.088 Y9.355 Z-1.48
X-4.133 Y9.378 Z-1.531
X-4.187 Y9.405 Z-1.569
X-4.247 Y9.435 Z-1.592
X-4.31 Y9.467 Z-1.6
X-6.827 Y10.735
G3 X-7.254 Y10.594 R0.317
G2 X-8.88 Y8.587 R6.068
X-16.46 Y8.456 R6.199
X-18.618 Y15.724 R6.334
X-16.33 Y18.811 R6.837
X-12.633 Y19.86 R5.288
X-8.434 Y18.188 R8.082
X-6.451 Y14.126 R5.149
X-7.035 Y11.08 R8.242
X-7.254 Y10.594 R6.068
X-9.289 Y9.685 R1.764
G3 X-11.518 Y9.632 R3.926
G1 X-11.602 Y9.605
G2 X-11.759 Y9.572 R0.744
G1 X-12.839 Y9.469
G2 X-12.957 Y9.467 R0.744
G1 X-13.119 Y9.477
G2 X-13.275 Y9.504 R0.744
G1 X-14.345 Y9.807
G2 X-14.455 Y9.848 R0.744
G1 X-14.553 Y9.893
G2 X-14.674 Y9.964 R0.744
G1 X-14.91 Y10.132
G2 X-14.927 Y10.145 R0.744
G1 X-15.614 Y10.668
G2 X-15.723 Y10.77 R0.744
G1 X-15.824 Y10.886
G2 X-15.896 Y10.983 R0.744
G1 X-16.405 Y11.802
G2 X-16.426 Y11.839 R0.744
G1 X-16.509 Y11.992
G2 X-16.571 Y12.142 R0.744
G1 X-16.617 Y12.303
G2 X-16.634 Y12.376 R0.744
G1 X-16.821 Y13.4
G2 X-16.833 Y13.56 R0.744
G1 X-16.827 Y13.721
G2 X-16.815 Y13.832 R0.744
G1 X-16.623 Y14.857
G2 X-16.59 Y14.977 R0.744
G1 X-16.531 Y15.139
G2 X-16.466 Y15.272 R0.744
G1 X-15.899 Y16.191
G2 X-15.827 Y16.288 R0.744
G1 X-15.725 Y16.405
G2 X-15.614 Y16.509 R0.744
G1 X-14.754 Y17.163
G2 X-14.674 Y17.216 R0.744
G1 X-14.566 Y17.278
G2 X-14.441 Y17.335 R0.744
G1 X-14.29 Y17.388
G2 X-14.245 Y17.402 R0.744
G1 X-13.273 Y17.675
G2 X-13.119 Y17.701 R0.744
G1 X-12.957 Y17.711
G2 X-12.839 Y17.709 R0.744
G1 X-11.759 Y17.606
G2 X-11.602 Y17.573 R0.744
G1 X-11.44 Y17.521
G2 X-11.333 Y17.477 R0.744
G1 X-10.361 Y16.988
G2 X-10.231 Y16.904 R0.744
G1 X-10.122 Y16.818
G2 X-10.036 Y16.737 R0.744
G1 X-9.296 Y15.92
G2 X-9.201 Y15.789 R0.744
G1 X-9.119 Y15.645
G2 X-9.071 Y15.545 R0.744
G1 X-8.691 Y14.556
G2 X-8.653 Y14.422 R0.744
G1 X-8.623 Y14.26
G2 X-8.611 Y14.127 R0.744
G1 X-8.612 Y13.048
G2 X-8.624 Y12.913 R0.744
G1 X-8.654 Y12.751
G2 X-8.692 Y12.617 R0.744
G1 X-9.09 Y11.593
G2 X-9.149 Y11.474 R0.744
G1 X-9.215 Y11.366
G2 X-9.299 Y11.255 R0.744
G1 X-10.037 Y10.441
G2 X-10.122 Y10.36 R0.744
G1 X-10.231 Y10.274
G2 X-10.361 Y10.19 R0.744
G1 X-11.333 Y9.701
G2 X-11.44 Y9.657 R0.744
G1 X-11.518 Y9.632
G3 X-11.606 Y9.588 Z-1.584 R0.317
X-11.67 Y9.527 Z-1.539 R0.318
X-11.707 Y9.468 Z-1.469 R0.318
X-11.723 Y9.426 Z-1.381 R0.318
X-11.728 Y9.411 Z-1.283 R0.318
G0 Z5.
X-12.683 Y-8.921
Z0.167
G1 Z-1.283 F400.
X-12.684 Y-8.929 Z-1.353
Y-8.952 Z-1.42
X-12.686 Y-8.99 Z-1.48
X-12.688 Y-9.04 Z-1.531
X-12.69 Y-9.1 Z-1.569
X-12.692 Y-9.168 Z-1.592
X-12.694 Y-9.238 Z-1.6
X-12.792 Y-12.055
G3 X-12.486 Y-12.383 R0.317
G2 X-7.633 Y-14.948 R6.292
X-8.1 Y-22.901 R6.244
X-10.483 Y-24.556 R6.843
X-13.36 Y-24.926 R5.538
X-18.834 Y-19.689 R6.461
X-15.349 Y-12.962 R6.186
X-12.486 Y-12.383 R6.292
X-10.722 Y-13.867 R1.868
G3 X-9.674 Y-15.92 R4.388
G1 X-9.308 Y-16.322
G2 X-9.231 Y-16.423 R0.744
G1 X-9.162 Y-16.531
G2 X-9.097 Y-16.66 R0.744
G1 X-8.696 Y-17.684
G2 X-8.66 Y-17.808 R0.744
G1 X-8.627 Y-17.97
G2 X-8.612 Y-18.119 R0.744
G1 X-8.616 Y-19.251
G2 X-8.637 Y-19.425 R0.744
G1 X-8.676 Y-19.587
G2 X-8.705 Y-19.68 R0.744
G1 X-9.078 Y-20.639
G2 X-9.124 Y-20.737 R0.744
G1 X-9.193 Y-20.857
G2 X-9.284 Y-20.985 R0.744
G1 X-9.669 Y-21.416
G2 X-9.68 Y-21.428 R0.744
G1 X-10.082 Y-21.859
G2 X-10.196 Y-21.959 R0.744
G1 X-10.294 Y-22.028
G2 X-10.395 Y-22.088 R0.744
G1 X-11.392 Y-22.582
G2 X-11.548 Y-22.638 R0.744
G1 X-11.71 Y-22.677
G2 X-11.818 Y-22.695 R0.744
G1 X-12.899 Y-22.79
G2 X-13.066 Y-22.786 R0.744
G1 X-13.228 Y-22.764
G2 X-13.332 Y-22.742 R0.744
G1 X-14.358 Y-22.446
G2 X-14.48 Y-22.399 R0.744
G1 X-14.588 Y-22.347
G2 X-14.708 Y-22.273 R0.744
G1 X-15.601 Y-21.601
G2 X-15.71 Y-21.5 R0.744
G1 X-15.821 Y-21.375
G2 X-15.897 Y-21.273 R0.744
G1 X-16.405 Y-20.456
G2 X-16.429 Y-20.413 R0.744
G1 X-16.518 Y-20.246
G2 X-16.58 Y-20.089 R0.744
G1 X-16.624 Y-19.928
G2 X-16.637 Y-19.867 R0.744
G1 X-16.823 Y-18.842
G2 X-16.833 Y-18.67 R0.744
G1 X-16.825 Y-18.508
G2 X-16.813 Y-18.41 R0.744
G1 X-16.619 Y-17.386
G2 X-16.583 Y-17.258 R0.744
G1 X-16.525 Y-17.106
G2 X-16.462 Y-16.98 R0.744
G1 X-15.874 Y-16.034
G2 X-15.778 Y-15.911 R0.744
G1 X-15.673 Y-15.802
G2 X-15.584 Y-15.722 R0.744
G1 X-14.701 Y-15.061
G2 X-14.567 Y-14.981 R0.744
G1 X-14.441 Y-14.923
G2 X-14.331 Y-14.882 R0.744
G1 X-13.288 Y-14.586
G2 X-13.155 Y-14.562 R0.744
G1 X-13.01 Y-14.548
G2 X-12.871 R0.744
G1 X-11.76 Y-14.652
G2 X-11.602 Y-14.685 R0.744
G1 X-11.44 Y-14.737
G2 X-11.333 Y-14.781 R0.744
G1 X-10.361 Y-15.27
G2 X-10.231 Y-15.354 R0.744
G1 X-10.122 Y-15.44
G2 X-10.037 Y-15.521 R0.744
G1 X-9.674 Y-15.92
G3 X-9.598 Y-15.981 Z-1.584 R0.318
X-9.516 Y-16.014 Z-1.539 R0.318
X-9.447 Y-16.024 Z-1.469 R0.317
X-9.402 Y-16.022 Z-1.381 R0.317
X-9.386 Y-16.019 Z-1.283 R0.317
G0 Z5.
X3.098 Y-17.943
Z0.167
G1 Z-1.283 F400.
X3.106 Y-17.944 Z-1.353
X3.129 Y-17.947 Z-1.42
X3.167 Y-17.952 Z-1.48
X3.217 Y-17.958 Z-1.531
X3.277 Y-17.966 Z-1.569
X3.343 Y-17.974 Z-1.592
X3.413 Y-17.983 Z-1.6
X6.209 Y-18.342
G3 X6.564 Y-18.068 R0.317
G2 X7.69 Y-14.9 R7.926
X12.749 Y-12.4 R5.34
X16.957 Y-14.061 R8.122
X18.945 Y-18.125 R5.119
X17.684 Y-22.468 R8.184
X13.83 Y-24.836 R5.123
X10.735 Y-24.537 R8.227
X8.074 Y-22.93 R6.121
X6.5 Y-18.981 R5.57
X6.564 Y-18.068 R7.926
X8.002 Y-16.511 R1.829
G3 X9.931 Y-15.636 R4.88
G1 X10.68 Y-15.072
G2 X10.814 Y-14.992 R0.744
G1 X10.976 Y-14.917
G2 X11.088 Y-14.876 R0.744
G1 X12.114 Y-14.586
G2 X12.257 Y-14.56 R0.744
G1 X12.419 Y-14.547
G2 X12.548 Y-14.548 R0.744
G1 X13.628 Y-14.65
G2 X13.774 Y-14.679 R0.744
G1 X13.936 Y-14.728
G2 X14.054 Y-14.775 R0.744
G1 X15.026 Y-15.262
G2 X15.145 Y-15.337 R0.744
G1 X15.253 Y-15.42
G2 X15.35 Y-15.509 R0.744
G1 X16.092 Y-16.322
G2 X16.169 Y-16.423 R0.744
G1 X16.238 Y-16.531
G2 X16.303 Y-16.66 R0.744
G1 X16.704 Y-17.684
G2 X16.74 Y-17.808 R0.744
G1 X16.773 Y-17.97
G2 X16.788 Y-18.119 R0.744
G1 X16.784 Y-19.251
G2 X16.763 Y-19.425 R0.744
G1 X16.724 Y-19.587
G2 X16.694 Y-19.681 R0.744
G1 X16.317 Y-20.651
G2 X16.257 Y-20.772 R0.744
G1 X16.171 Y-20.911
G2 X16.087 Y-21.021 R0.744
G1 X15.36 Y-21.821
G2 X15.271 Y-21.904 R0.744
G1 X15.16 Y-21.991
G2 X15.032 Y-22.072 R0.744
G1 X14.03 Y-22.573
G2 X13.902 Y-22.623 R0.744
G1 X13.763 Y-22.663
G2 X13.628 Y-22.688 R0.744
G1 X12.548 Y-22.79
G2 X12.419 Y-22.791 R0.744
G1 X12.257 Y-22.778
G2 X12.113 Y-22.752 R0.744
G1 X11.065 Y-22.455
G2 X10.939 Y-22.407 R0.744
G1 X10.79 Y-22.333
G2 X10.672 Y-22.26 R0.744
G1 X9.823 Y-21.621
G2 X9.737 Y-21.545 R0.744
G1 X9.622 Y-21.427
G2 X9.525 Y-21.303 R0.744
G1 X9.093 Y-20.613
G2 X9.086 Y-20.602 R0.744
G1 X8.924 Y-20.334
G2 X8.859 Y-20.195 R0.744
G1 X8.803 Y-20.034
G2 X8.773 Y-19.921 R0.744
G1 X8.578 Y-18.843
G2 X8.567 Y-18.67 R0.744
G1 X8.575 Y-18.508
G2 X8.587 Y-18.41 R0.744
G1 X8.781 Y-17.386
G2 X8.815 Y-17.263 R0.744
G1 X8.868 Y-17.122
G2 X8.932 Y-16.99 R0.744
G1 X9.523 Y-16.038
G2 X9.619 Y-15.914 R0.744
G1 X9.729 Y-15.8
G2 X9.818 Y-15.721 R0.744
G1 X9.931 Y-15.636
G3 X9.999 Y-15.566 Z-1.584 R0.317
X10.04 Y-15.487 Z-1.539 R0.317
X10.056 Y-15.419 Z-1.469 R0.317
X10.058 Y-15.374 Z-1.381 R0.317
X10.057 Y-15.359 Z-1.283 R0.318
G0 Z10.

(2D CONTOUR1)
M8
G0 X26.987 Y17.014
Z10.
Z5.
G1 Z2.5 F400.
Y0. Z-0.5
Y-27.94
G2 X25.4 Y-29.528 R1.587
G1 X-25.4
G2 X-26.987 Y-27.94 R1.587
G1 Y27.94
G2 X-25.4 Y29.528 R1.587
G1 X25.4
G2 X26.987 Y27.94 R1.587
G1 Y0.
Y-8.793 Z-1.
Y-27.94
G2 X25.4 Y-29.528 R1.587
G1 X-25.4
G2 X-26.987 Y-27.94 R1.587
G1 Y27.94
G2 X-25.4 Y29.528 R1.587
G1 X25.4
G2 X26.987 Y27.94 R1.587
G1 Y0.
Y-8.793
Y-17.585 Z-1.5
Y-27.94
G2 X25.4 Y-29.528 R1.587
G1 X-25.4
G2 X-26.987 Y-27.94 R1.587
G1 Y27.94
G2 X-25.4 Y29.528 R1.587
G1 X25.4
G2 X26.987 Y27.94 R1.587
G1 Y-8.793
Y-17.585
Y-26.378 Z-2.
Y-27.94
G2 X25.4 Y-29.528 R1.587
G1 X-25.4
G2 X-26.987 Y-27.94 R1.587
G1 Y27.94
G2 X-25.4 Y29.528 R1.587
G1 X25.4
G2 X26.987 Y27.94 R1.587
G1 Y-17.585
Y-26.378
Y-27.94 Z-2.089
G2 X25.4 Y-29.528 Z-2.231 R1.587
G1 X20.663 Z-2.5
X-25.4
G2 X-26.987 Y-27.94 R1.587
G1 Y27.94
G2 X-25.4 Y29.528 R1.587
G1 X25.4
G2 X26.987 Y27.94 R1.587
G1 Y-26.378
Y-27.94
G2 X25.4 Y-29.528 R1.587
G1 X20.663
X11.87 Z-3.
X-25.4
G2 X-26.987 Y-27.94 R1.587
G1 Y27.94
G2 X-25.4 Y29.528 R1.587
G1 X25.4
G2 X26.987 Y27.94 R1.587
G1 Y-27.94
G2 X25.4 Y-29.528 R1.587
G1 X11.87
X3.077 Z-3.5
X-25.4
G2 X-26.987 Y-27.94 R1.587
G1 Y27.94
G2 X-25.4 Y29.528 R1.587
G1 X25.4
G2 X26.987 Y27.94 R1.587
G1 Y-27.94
G2 X25.4 Y-29.528 R1.587
G1 X11.87
X3.077
X-5.715 Z-4.
X-25.4
G2 X-26.987 Y-27.94 R1.587
G1 Y27.94
G2 X-25.4 Y29.528 R1.587
G1 X25.4
G2 X26.987 Y27.94 R1.587
G1 Y-27.94
G2 X25.4 Y-29.528 R1.587
G1 X3.077
X-5.715
X-14.508 Z-4.5
X-25.4
G2 X-26.987 Y-27.94 R1.587
G1 Y27.94
G2 X-25.4 Y29.528 R1.587
G1 X25.4
G2 X26.987 Y27.94 R1.587
G1 Y-27.94
G2 X25.4 Y-29.528 R1.587
G1 X-5.715
X-14.508
X-23.301 Z-5.
X-25.4
G2 X-26.987 Y-27.94 R1.587
G1 Y27.94
G2 X-25.4 Y29.528 R1.587
G1 X25.4
G2 X26.987 Y27.94 R1.587
G1 Y-27.94
G2 X25.4 Y-29.528 R1.587
G1 X-14.508
X-23.301
X-25.4 Z-5.119
G2 X-26.637 Y-28.935 Z-5.2 R1.587
X-26.987 Y-27.94 R1.587
G1 Y27.94
G2 X-25.4 Y29.528 R1.587
G1 X25.4
G2 X26.987 Y27.94 R1.587
G1 Y-27.94
G2 X25.4 Y-29.528 R1.587
G1 X-23.301
X-25.4
G2 X-26.637 Y-28.935 R1.587
G0 Z10.

M9
M30
