(HEATSINK_UPEVAL-HMC8205BF10)
(T1  D=3.175 CR=0. - ZMIN=-4.932 - FLAT END MILL)
G90 G94 G91.1 G40 G49 G17
G21

(2D POCKET2)
M5
M9
T1
S10000 M3
G54
M8
G0 X11.668 Y2.199
G43 Z10. H1
Z5.
G1 Z2.5 F400.
G3 X11.7 Y1.683 Z2.357 R0.258
X11.668 Y2.199 Z2.214 R0.258
X11.7 Y1.683 Z2.071 R0.258
X11.668 Y2.199 Z1.928 R0.258
X11.7 Y1.683 Z1.785 R0.258
X11.668 Y2.199 Z1.642 R0.258
X11.7 Y1.683 Z1.499 R0.258
X11.668 Y2.199 Z1.356 R0.258
X11.7 Y1.683 Z1.213 R0.258
X11.668 Y2.199 Z1.07 R0.258
X11.7 Y1.683 Z0.927 R0.258
X11.668 Y2.199 Z0.784 R0.258
X11.7 Y1.683 Z0.641 R0.258
X11.668 Y2.199 Z0.498 R0.258
X11.7 Y1.683 Z0.355 R0.258
X11.668 Y2.199 Z0.212 R0.258
X11.7 Y1.683 Z0.069 R0.258
X11.668 Y2.199 Z-0.074 R0.258
X11.7 Y1.683 Z-0.217 R0.258
X11.668 Y2.199 Z-0.36 R0.258
X11.684 Y1.683 Z-0.5 R0.258
X12.097 Y2.095 R0.413
G1 Y10.097
G3 X11.271 R0.413
G1 Y2.095
G3 X11.684 Y1.683 R0.413
X12.097 Y2.095 Z-0.614 R0.413
G1 Y4.283 Z-1.
Y10.097
G3 X11.271 R0.413
G1 Y2.095
G3 X12.097 R0.413
G1 Y4.283
Y7.119 Z-1.5
Y10.097
G3 X11.271 R0.413
G1 Y2.095
G3 X12.097 R0.413
G1 Y7.119
Y9.954 Z-2.
Y10.097
G3 X11.271 R0.413
G1 Y2.095
G3 X12.097 R0.413
G1 Y7.119
Y9.954
Y10.097 Z-2.025
G3 X11.271 Z-2.254 R0.413
G1 Y8.699 Z-2.5
Y2.095
G3 X12.097 R0.413
G1 Y9.954
Y10.097
G3 X11.271 R0.413
G1 Y8.699
Y5.863 Z-3.
Y2.095
G3 X12.097 R0.413
G1 Y10.097
G3 X11.271 R0.413
G1 Y5.863
Y3.028 Z-3.5
Y2.095
G3 X12.097 R0.413
G1 Y10.097
G3 X11.271 R0.413
G1 Y5.863
Y3.028
Y2.095 Z-3.664
G3 X12.097 Z-3.893 R0.413
G1 Y2.703 Z-4.
Y10.097
G3 X11.271 R0.413
G1 Y3.028
Y2.095
G3 X12.097 R0.413
G1 Y2.703
Y5.539 Z-4.5
Y10.097
G3 X11.271 R0.413
G1 Y2.095
G3 X12.097 R0.413
G1 Y5.539
Y7.988 Z-4.932
Y10.097
G3 X11.271 R0.413
G1 Y2.095
G3 X12.097 R0.413
G1 Y5.539
Y7.988
X11.684 Z-4.891
G0 Z5.
X12.716 Y16.026
G1 Z2.5 F400.
G3 X12.684 Y16.541 Z2.357 R0.258
X12.716 Y16.026 Z2.214 R0.258
X12.684 Y16.541 Z2.071 R0.258
X12.716 Y16.026 Z1.928 R0.258
X12.684 Y16.541 Z1.785 R0.258
X12.716 Y16.026 Z1.642 R0.258
X12.684 Y16.541 Z1.499 R0.258
X12.716 Y16.026 Z1.356 R0.258
X12.684 Y16.541 Z1.213 R0.258
X12.716 Y16.026 Z1.07 R0.258
X12.684 Y16.541 Z0.927 R0.258
X12.716 Y16.026 Z0.784 R0.258
X12.684 Y16.541 Z0.641 R0.258
X12.716 Y16.026 Z0.498 R0.258
X12.684 Y16.541 Z0.355 R0.258
X12.716 Y16.026 Z0.212 R0.258
X12.684 Y16.541 Z0.069 R0.258
X12.716 Y16.026 Z-0.074 R0.258
X12.684 Y16.541 Z-0.217 R0.258
X12.716 Y16.026 Z-0.36 R0.258
X12.7 Y16.542 Z-0.5 R0.258
Y15.716 R0.413
Y16.542 R0.413
Y15.716 Z-0.729 R0.413
Y16.542 Z-0.957 R0.413
X12.47 Y16.472 Z-1. R0.413
X12.93 Y15.786 R0.413
X12.47 Y16.472 R0.413
X12.93 Y15.786 Z-1.229 R0.413
X12.47 Y16.472 Z-1.457 R0.413
X12.318 Y16.285 Z-1.5 R0.413
X13.082 Y15.973 R0.413
X12.318 Y16.285 R0.413
X13.082 Y15.973 Z-1.729 R0.412
X12.318 Y16.285 Z-1.957 R0.412
X12.296 Y16.046 Z-2. R0.412
X13.104 Y16.212 R0.412
X12.296 Y16.046 R0.412
X13.104 Y16.212 Z-2.229 R0.412
X12.296 Y16.046 Z-2.457 R0.412
X12.411 Y15.835 Z-2.5 R0.412
X12.989 Y16.423 R0.412
X12.411 Y15.835 R0.412
X12.989 Y16.423 Z-2.729 R0.412
X12.411 Y15.835 Z-2.957 R0.412
X12.624 Y15.724 Z-3. R0.412
X12.776 Y16.534 R0.412
X12.624 Y15.724 R0.412
X12.776 Y16.534 Z-3.229 R0.412
X12.624 Y15.724 Z-3.457 R0.412
X12.863 Y15.75 Z-3.5 R0.412
X12.537 Y16.508 R0.412
X12.863 Y15.75 R0.412
X12.537 Y16.508 Z-3.729 R0.412
X12.863 Y15.75 Z-3.957 R0.412
X13.046 Y15.905 Z-4. R0.412
X12.354 Y16.353 R0.412
X13.046 Y15.905 R0.412
X12.354 Y16.353 Z-4.229 R0.413
X13.046 Y15.905 Z-4.457 R0.413
X13.112 Y16.136 Z-4.5 R0.413
X12.288 Y16.122 R0.413
X13.112 Y16.136 R0.413
X12.288 Y16.122 Z-4.729 R0.413
X13.09 Y15.995 Z-4.932 R0.413
X12.31 Y16.263 R0.413
X13.09 Y15.995 R0.413
G1 X12.7 Y16.129 Z-4.891
G0 Z5.
X-12.627 Y16.203
G1 Z2.5 F400.
G3 X-13.02 Y15.869 Z2.357 R0.258
X-12.627 Y16.203 Z2.214 R0.258
X-13.02 Y15.869 Z2.071 R0.258
X-12.627 Y16.203 Z1.928 R0.258
X-13.02 Y15.869 Z1.785 R0.258
X-12.627 Y16.203 Z1.642 R0.258
X-13.02 Y15.869 Z1.499 R0.258
X-12.627 Y16.203 Z1.356 R0.258
X-13.02 Y15.869 Z1.213 R0.258
X-12.627 Y16.203 Z1.07 R0.258
X-13.02 Y15.869 Z0.927 R0.258
X-12.627 Y16.203 Z0.784 R0.258
X-13.02 Y15.869 Z0.641 R0.258
X-12.627 Y16.203 Z0.498 R0.258
X-13.02 Y15.869 Z0.355 R0.258
X-12.627 Y16.203 Z0.212 R0.258
X-13.02 Y15.869 Z0.069 R0.258
X-12.627 Y16.203 Z-0.074 R0.258
X-13.02 Y15.869 Z-0.217 R0.258
X-12.627 Y16.203 Z-0.36 R0.258
X-13.03 Y15.882 Z-0.5 R0.258
X-12.37 Y16.376 R0.412
X-13.03 Y15.882 R0.412
X-12.37 Y16.376 Z-0.729 R0.412
X-13.03 Y15.882 Z-0.957 R0.412
X-12.836 Y15.74 Z-1. R0.412
X-12.564 Y16.518 R0.412
X-12.836 Y15.74 R0.412
X-12.564 Y16.518 Z-1.229 R0.412
X-12.836 Y15.74 Z-1.457 R0.412
X-12.596 Y15.73 Z-1.5 R0.412
X-12.804 Y16.528 R0.412
X-12.596 Y15.73 R0.412
X-12.804 Y16.528 Z-1.729 R0.412
X-12.596 Y15.73 Z-1.957 R0.412
X-12.391 Y15.856 Z-2. R0.412
X-13.009 Y16.402 R0.412
X-12.391 Y15.856 R0.412
X-13.009 Y16.402 Z-2.229 R0.413
X-12.391 Y15.856 Z-2.457 R0.413
X-12.291 Y16.074 Z-2.5 R0.413
X-13.109 Y16.184 R0.413
X-12.291 Y16.074 R0.413
X-13.109 Y16.184 Z-2.729 R0.413
X-12.291 Y16.074 Z-2.957 R0.413
X-12.33 Y16.311 Z-3. R0.413
X-13.07 Y15.947 R0.413
X-12.33 Y16.311 R0.413
X-13.07 Y15.947 Z-3.229 R0.412
X-12.33 Y16.311 Z-3.457 R0.412
X-12.494 Y16.486 Z-3.5 R0.412
X-12.906 Y15.771 R0.412
X-12.494 Y16.486 R0.412
X-12.906 Y15.771 Z-3.729 R0.413
X-12.494 Y16.487 Z-3.957 R0.413
X-12.7 Y16.542 Z-3.995 R0.413
X-12.728 Y16.541 Z-4. R0.413
X-12.672 Y15.717 R0.413
X-12.728 Y16.541 R0.413
X-12.672 Y15.717 Z-4.229 R0.413
X-12.7 Y16.542 Z-4.452 R0.413
X-12.728 Y16.541 Z-4.457 R0.413
X-12.953 Y16.455 Z-4.5 R0.412
X-12.447 Y15.803 R0.412
X-12.953 Y16.455 R0.412
X-12.447 Y15.803 Z-4.729 R0.413
X-12.827 Y16.521 Z-4.932 R0.413
X-12.573 Y15.737 R0.413
X-12.827 Y16.521 R0.413
G1 X-12.7 Y16.129 Z-4.891
G0 Z5.
X-12.792 Y-16.079
G1 Z2.5 F400.
G3 X-12.361 Y-16.364 Z2.357 R0.258
X-12.792 Y-16.079 Z2.214 R0.258
X-12.361 Y-16.364 Z2.071 R0.258
X-12.792 Y-16.079 Z1.928 R0.258
X-12.361 Y-16.364 Z1.785 R0.258
X-12.792 Y-16.079 Z1.642 R0.258
X-12.361 Y-16.364 Z1.499 R0.258
X-12.792 Y-16.079 Z1.356 R0.258
X-12.361 Y-16.364 Z1.213 R0.258
X-12.792 Y-16.079 Z1.07 R0.258
X-12.361 Y-16.364 Z0.927 R0.258
X-12.792 Y-16.079 Z0.784 R0.258
X-12.361 Y-16.364 Z0.641 R0.258
X-12.792 Y-16.079 Z0.498 R0.258
X-12.361 Y-16.364 Z0.355 R0.258
X-12.792 Y-16.079 Z0.212 R0.258
X-12.361 Y-16.364 Z0.069 R0.258
X-12.792 Y-16.079 Z-0.074 R0.258
X-12.361 Y-16.364 Z-0.217 R0.258
X-12.792 Y-16.079 Z-0.36 R0.258
X-12.37 Y-16.376 Z-0.5 R0.258
X-13.03 Y-15.882 R0.412
X-12.37 Y-16.376 R0.412
X-13.03 Y-15.882 Z-0.729 R0.413
X-12.37 Y-16.376 Z-0.957 R0.413
X-12.288 Y-16.151 Z-1. R0.413
X-13.112 Y-16.107 R0.413
X-12.288 Y-16.151 R0.413
X-13.112 Y-16.107 Z-1.229 R0.412
X-12.288 Y-16.151 Z-1.457 R0.412
X-12.346 Y-15.917 Z-1.5 R0.412
X-13.054 Y-16.341 R0.412
X-12.346 Y-15.917 R0.412
X-13.054 Y-16.341 Z-1.729 R0.412
X-12.346 Y-15.917 Z-1.957 R0.412
X-12.524 Y-15.756 Z-2. R0.412
X-12.876 Y-16.502 R0.412
X-12.524 Y-15.756 R0.412
X-12.876 Y-16.502 Z-2.229 R0.412
X-12.524 Y-15.756 Z-2.457 R0.412
X-12.762 Y-15.721 Z-2.5 R0.412
X-12.638 Y-16.537 R0.412
X-12.762 Y-15.721 R0.412
X-12.638 Y-16.537 Z-2.729 R0.412
X-12.762 Y-15.721 Z-2.957 R0.412
X-12.979 Y-15.825 Z-3. R0.412
X-12.421 Y-16.433 R0.412
X-12.979 Y-15.825 R0.412
X-12.421 Y-16.433 Z-3.229 R0.412
X-12.979 Y-15.825 Z-3.457 R0.412
X-13.101 Y-16.032 Z-3.5 R0.412
X-12.299 Y-16.226 R0.412
X-13.101 Y-16.032 R0.412
X-12.299 Y-16.226 Z-3.729 R0.413
X-13.101 Y-16.032 Z-3.957 R0.413
X-13.087 Y-16.271 Z-4. R0.413
X-12.313 Y-15.987 R0.413
X-13.087 Y-16.271 R0.413
X-12.313 Y-15.987 Z-4.229 R0.413
X-13.087 Y-16.271 Z-4.457 R0.413
X-12.942 Y-16.463 Z-4.5 R0.413
X-12.458 Y-15.795 R0.413
X-12.942 Y-16.463 R0.413
X-12.458 Y-15.795 Z-4.729 R0.413
X-13.041 Y-16.361 Z-4.932 R0.413
X-12.359 Y-15.897 R0.413
X-13.041 Y-16.361 R0.413
G1 X-12.7 Y-16.129 Z-4.891
G0 Z5.
X12.608 Y-16.079
G1 Z2.5 F400.
G3 X13.039 Y-16.364 Z2.357 R0.258
X12.608 Y-16.079 Z2.214 R0.258
X13.039 Y-16.364 Z2.071 R0.258
X12.608 Y-16.079 Z1.928 R0.258
X13.039 Y-16.364 Z1.785 R0.258
X12.608 Y-16.079 Z1.642 R0.258
X13.039 Y-16.364 Z1.499 R0.258
X12.608 Y-16.079 Z1.356 R0.258
X13.039 Y-16.364 Z1.213 R0.258
X12.608 Y-16.079 Z1.07 R0.258
X13.039 Y-16.364 Z0.927 R0.258
X12.608 Y-16.079 Z0.784 R0.258
X13.039 Y-16.364 Z0.641 R0.258
X12.608 Y-16.079 Z0.498 R0.258
X13.039 Y-16.364 Z0.355 R0.258
X12.608 Y-16.079 Z0.212 R0.258
X13.039 Y-16.364 Z0.069 R0.258
X12.608 Y-16.079 Z-0.074 R0.258
X13.039 Y-16.364 Z-0.217 R0.258
X12.608 Y-16.079 Z-0.36 R0.258
X13.03 Y-16.376 Z-0.5 R0.258
X12.37 Y-15.882 R0.412
X13.03 Y-16.376 R0.412
X12.37 Y-15.882 Z-0.729 R0.413
X13.03 Y-16.376 Z-0.957 R0.413
X13.112 Y-16.151 Z-1. R0.413
X12.288 Y-16.107 R0.413
X13.112 Y-16.151 R0.413
X12.288 Y-16.107 Z-1.229 R0.412
X13.112 Y-16.151 Z-1.457 R0.412
X13.054 Y-15.917 Z-1.5 R0.412
X12.346 Y-16.341 R0.412
X13.054 Y-15.917 R0.412
X12.346 Y-16.341 Z-1.729 R0.412
X13.054 Y-15.917 Z-1.957 R0.412
X12.876 Y-15.756 Z-2. R0.412
X12.524 Y-16.502 R0.412
X12.876 Y-15.756 R0.412
X12.524 Y-16.502 Z-2.229 R0.412
X12.876 Y-15.756 Z-2.457 R0.412
X12.638 Y-15.721 Z-2.5 R0.412
X12.762 Y-16.537 R0.412
X12.638 Y-15.721 R0.412
X12.762 Y-16.537 Z-2.729 R0.412
X12.638 Y-15.721 Z-2.957 R0.412
X12.421 Y-15.825 Z-3. R0.412
X12.979 Y-16.433 R0.412
X12.421 Y-15.825 R0.412
X12.979 Y-16.433 Z-3.229 R0.412
X12.421 Y-15.825 Z-3.457 R0.412
X12.299 Y-16.032 Z-3.5 R0.412
X13.101 Y-16.226 R0.412
X12.299 Y-16.032 R0.412
X13.101 Y-16.226 Z-3.729 R0.412
X12.299 Y-16.032 Z-3.957 R0.412
X12.313 Y-16.271 Z-4. R0.412
X13.087 Y-15.987 R0.412
X12.313 Y-16.271 R0.412
X13.087 Y-15.987 Z-4.229 R0.413
X12.313 Y-16.271 Z-4.457 R0.413
X12.458 Y-16.463 Z-4.5 R0.413
X12.942 Y-15.795 R0.413
X12.458 Y-16.463 R0.413
X12.942 Y-15.795 Z-4.729 R0.412
X12.359 Y-16.361 Z-4.932 R0.412
X13.041 Y-15.897 R0.412
X12.359 Y-16.361 R0.412
G1 X12.7 Y-16.129 Z-4.891
G0 Z10.

(POCKET1)
M8
G0 X-10.053 Y-0.508
Z10.
Z1.5
G1 Z0.842 F200.
G3 X-10.048 Y-0.521 Z0.747 R1.508 F400.
X-10.033 Y-0.561 Z0.661 R1.508
X-10.007 Y-0.622 Z0.591 R1.508
X-9.97 Y-0.697 Z0.545 R1.508
X-9.924 Y-0.779 Z0.525 R1.508
X-7.342 Y0.779 Z0.275 R1.508
X-9.924 Y-0.779 Z0.025 R1.508
X-7.342 Y0.779 Z-0.225 R1.508
X-10.141 Y0. Z-0.432 R1.508
G1 Y-0.144
G3 X-9.35 Y-0.558 R0.504
G1 X-9.245 Y-0.486
G2 X-9.176 Y-0.438 R5.94
G3 Y0.438 R0.528
G2 X-9.245 Y0.486 R5.94
G1 X-9.35 Y0.558
G3 X-10.141 Y0.144 R0.504
G1 Y0.
X-11.676 Y-14.492
Y-14.587
G3 X-11.158 Y-15.105 R0.518
G1 X-10.574
G3 X-10.294 Y-14.382 R0.416
G2 X-10.657 Y-14.029 R7.945
X-10.992 Y-13.651 R6.05
G3 X-11.675 Y-13.894 R0.385
G1 X-11.676 Y-14.492
G3 X-11.66 Y-14.589 Z-0.416 R0.317
X-11.622 Y-14.668 Z-0.371 R0.317
X-11.577 Y-14.722 Z-0.301 R0.317
X-11.542 Y-14.75 Z-0.212 R0.317
X-11.53 Y-14.759 Z-0.114 R0.317
G0 Z5.
X11.57 Y-15.017
Z0.842
G3 X11.584 Y-15.012 Z0.747 R1.508 F400.
X11.623 Y-14.997 Z0.661 R1.508
X11.684 Y-14.971 Z0.591 R1.508
X11.76 Y-14.934 Z0.545 R1.508
X11.842 Y-14.888 Z0.525 R1.508
X10.283 Y-12.306 Z0.275 R1.508
X11.842 Y-14.888 Z0.025 R1.508
X10.283 Y-12.306 Z-0.225 R1.508
X11.063 Y-15.105 Z-0.432 R1.508
G1 X11.158
G3 X11.675 Y-14.587 R0.518
G1 Y-13.951
G3 X10.963 Y-13.691 R0.403
G2 X10.64 Y-14.048 R6.409
X10.294 Y-14.382 R8.577
G3 X10.575 Y-15.105 R0.416
G1 X11.063
G3 X11.221 Y-14.951 R0.159
G1 X11.675 Y0.
Y1.146
G3 X10.962 Y1.407 R0.404
G2 X10.083 Y0.533 R7.233
G3 Y-0.533 R0.695
G2 X10.962 Y-1.407 R7.245
G3 X11.675 Y-1.146 R0.404
G1 Y0.
G3 X11.391 Y0.098 R0.159
G1 X9.512 Y-2.319
G2 X9.261 Y-2.124 R0.159
X9.501 Y-2.111 R0.159
X10.682 Y-3.869 R5.956
X11.174 Y-6.457 R5.899
G3 X11.125 Y-9.091 R69.342
G2 X5.525 Y-14.704 R5.61
G1 X-5.525
G2 X-8.498 Y-13.816 R5.419
X-10.562 Y-11.499 R5.979
X-11.166 Y-8.773 R5.707
G3 X-11.124 Y-5.982 R100.861
G2 X-5.525 Y-0.396 R5.593
G1 X5.525
G2 X8.621 Y-1.365 R5.433
X9.501 Y-2.111 R5.956
X9.672 Y-3.279 R1.01
G3 X9.62 Y-4.459 R1.403
G2 X9.991 Y-6.705 R5.066
G3 X9.916 Y-9.092 R37.683
G2 X5.525 Y-13.496 R4.402
G1 X-5.525
G2 X-6.192 Y-13.434 R3.659
X-8.459 Y-12.336 R4.759
X-9.766 Y-10.184 R4.178
X-10.064 Y-7.658 R10.456
X-9.816 Y-5.126 R13.62
X-8.537 Y-2.837 R4.191
X-6.192 Y-1.666 R4.744
X-4.492 Y-1.557 R7.147
G3 X-2.79 Y-1.605 R30.629
G1 X5.525
G2 X7.96 Y-2.376 R4.228
X9.575 Y-4.354 R4.751
X9.62 Y-4.459 R5.066
X8.846 Y-7.447 R2.571
G3 X6.857 Y-9.808 R7.863
G2 X6.81 Y-9.883 R0.794
G1 X6.709 Y-10.028
G2 X6.611 Y-10.141 R0.794
G1 X6.524 Y-10.226
G2 X6.424 Y-10.308 R0.794
G1 X6.312 Y-10.386
G2 X6.173 Y-10.463 R0.794
G1 X6.006 Y-10.535
G2 X5.837 Y-10.586 R0.794
G1 X5.67 Y-10.617
G2 X5.525 Y-10.63 R0.794
G1 X-5.525
G2 X-5.67 Y-10.617 R0.794
G1 X-5.837 Y-10.586
G2 X-6.006 Y-10.535 R0.794
G1 X-6.173 Y-10.463
G2 X-6.312 Y-10.386 R0.794
G1 X-6.424 Y-10.308
G2 X-6.507 Y-10.242 R0.794
G1 X-6.562 Y-10.191
G2 X-6.643 Y-10.106 R0.794
G1 X-6.743 Y-9.983
G2 X-6.837 Y-9.838 R0.794
G1 X-6.921 Y-9.671
G2 X-6.982 Y-9.504 R0.794
G1 X-7.023 Y-9.337
G2 X-7.046 Y-9.155 R0.794
G1 X-7.052 Y-8.212
Y-8.205
X-7.05 Y-5.987
G2 X-7.035 Y-5.837 R0.794
G1 X-7.003 Y-5.671
G2 X-6.951 Y-5.504 R0.794
G1 X-6.878 Y-5.337
G2 X-6.8 Y-5.199 R0.794
G1 X-6.722 Y-5.088
G2 X-6.632 Y-4.982 R0.794
G1 X-6.531 Y-4.881
G2 X-6.424 Y-4.792 R0.794
G1 X-6.312 Y-4.715
G2 X-6.173 Y-4.637 R0.794
G1 X-6.006 Y-4.566
G2 X-5.837 Y-4.514 R0.794
G1 X-5.67 Y-4.483
G2 X-5.525 Y-4.47 R0.794
G1 X5.525
G2 X5.67 Y-4.483 R0.794
G1 X5.837 Y-4.514
G2 X6.006 Y-4.566 R0.794
G1 X6.173 Y-4.637
G2 X6.312 Y-4.715 R0.794
G1 X6.424 Y-4.792
G2 X6.531 Y-4.881 R0.794
G1 X6.632 Y-4.982
G2 X6.722 Y-5.088 R0.794
G1 X6.8 Y-5.199
G2 X6.878 Y-5.337 R0.794
G1 X6.951 Y-5.504
G2 X7.003 Y-5.671 R0.794
G1 X7.035 Y-5.837
G2 X7.05 Y-5.988 R0.794
G1 X7.051 Y-9.093
G2 X7.04 Y-9.226 R0.794
G1 X7.012 Y-9.392
G2 X6.964 Y-9.56 R0.794
G1 X6.896 Y-9.726
G2 X6.857 Y-9.808 R0.794
G3 X6.823 Y-9.9 Z-0.416 R0.317
X6.819 Y-9.988 Z-0.371 R0.317
X6.832 Y-10.057 Z-0.301 R0.318
X6.849 Y-10.099 Z-0.212 R0.318
X6.856 Y-10.113 Z-0.114 R0.317
G0 Z5.
X11.04 Y13.762
Z0.842
G3 X11.053 Y13.755 Z0.747 R1.508 F400.
X11.091 Y13.738 Z0.661 R1.508
X11.152 Y13.712 Z0.591 R1.508
X11.231 Y13.684 Z0.545 R1.508
X11.321 Y13.657 Z0.525 R1.508
X12.085 Y16.575 Z0.275 R1.508
X11.321 Y13.657 Z0.025 R1.508
X12.085 Y16.575 Z-0.225 R1.508
X10.623 Y14.064 Z-0.432 R1.508
G2 X10.961 Y13.693 R7.876
G3 X11.675 Y13.956 R0.406
G1 Y14.587
G3 X11.158 Y15.105 R0.518
G1 X10.575
G3 X10.294 Y14.382 R0.416
G2 X10.623 Y14.064 R7.876
G3 X10.701 Y14.005 Z-0.416 R0.318
X10.784 Y13.975 Z-0.371 R0.318
X10.854 Y13.968 Z-0.301 R0.318
X10.898 Y13.972 Z-0.212 R0.318
X10.914 Y13.975 Z-0.114 R0.318
G0 Z5.
X-11.57 Y15.015
Z0.842
G3 X-11.584 Y15.01 Z0.747 R1.508 F400.
X-11.623 Y14.995 Z0.661 R1.508
X-11.684 Y14.969 Z0.591 R1.508
X-11.759 Y14.932 Z0.545 R1.508
X-11.841 Y14.886 Z0.525 R1.508
X-10.283 Y12.304 Z0.275 R1.508
X-11.841 Y14.886 Z0.025 R1.508
X-10.283 Y12.304 Z-0.225 R1.508
X-11.062 Y15.103 Z-0.432 R1.508
G1 X-11.155
G3 X-11.673 Y14.585 R0.518
G1 Y13.958
G3 X-10.96 Y13.698 R0.404
G2 X-10.641 Y14.05 R6.403
X-10.3 Y14.38 R8.632
G3 X-10.581 Y15.103 R0.416
G1 X-11.062
G2 X-12.021 Y15.887 R0.979
G3 X-13.254 Y16.004 R0.647
X-13.348 Y15.53 R1.248
G1 X-13.347 Y8.252
G3 X-13.018 Y7.541 R0.932
G2 X-11.723 Y5.935 R5.51
X-11.223 Y3.934 R4.251
G1 Y-3.933
G2 X-11.723 Y-5.934 R4.251
X-13.018 Y-7.54 R5.51
G3 X-13.347 Y-8.251 R0.932
G1 X-13.348 Y-15.53
G3 X-12.1 Y-16.778 R1.248
G1 X12.1
G3 X13.348 Y-15.53 R1.248
G1 Y15.53
G3 X12.1 Y16.778 R1.248
G1 X-12.1
G3 X-13.254 Y16.004 R1.248
G2 X-14.083 Y15.246 R1.316
G3 X-14.75 Y14.342 R0.946
G1 X-14.749 Y8.355
G3 X-13.88 Y6.434 R2.561
G2 X-13.003 Y5.315 R3.891
X-12.664 Y3.934 R2.982
G1 X-12.662 Y-3.933
G2 X-13.018 Y-5.349 R2.994
X-13.938 Y-6.482 R3.873
G3 X-14.749 Y-8.223 R2.275
G1 X-14.75 Y-15.891
G3 X-12.888 Y-18.129 R2.275
G1 X-12.819 Y-18.142
G3 X-12.405 Y-18.18 R2.275
G1 X12.46
G3 X14.699 Y-16.309 R2.275
G1 X14.714 Y-16.225
G3 X14.75 Y-15.821 R2.275
G1 Y15.892
G3 X12.888 Y18.129 R2.275
G1 X12.819 Y18.142
G3 X12.405 Y18.18 R2.275
G1 X-12.46
G3 X-14.699 Y16.309 R2.275
G1 X-14.714 Y16.226
G3 X-14.75 Y15.821 R2.275
G1 Y14.342
G2 X-16.018 Y12.44 R2.061
G3 X-17.286 Y10.537 R2.061
G1 X-17.285 Y6.247
X-17.271 Y6.099
X-17.244 Y5.951
X-17.201 Y5.803
X-17.142 Y5.656
X-17.062 Y5.504
X-16.988 Y5.392
X-16.92 Y5.303
X-16.844 Y5.218
X-16.688 Y5.077
X-16.572 Y4.993
X-16.39 Y4.89
X-16.245 Y4.828
X-16.092 Y4.78
X-15.963 Y4.752
G2 X-15.641 Y4.598 R0.794
G1 X-15.588 Y4.556
G2 X-15.288 Y3.934 R0.794
G1 Y-3.933
G2 X-15.595 Y-4.56 R0.794
G1 X-15.649 Y-4.602
G2 X-15.939 Y-4.744 R0.794
G1 X-16.172 Y-4.803
X-16.315 Y-4.856
X-16.511 Y-4.955
X-16.627 Y-5.031
X-16.772 Y-5.148
X-16.836 Y-5.209
X-16.92 Y-5.303
X-16.988 Y-5.392
X-17.062 Y-5.504
X-17.142 Y-5.656
X-17.201 Y-5.803
X-17.244 Y-5.951
X-17.271 Y-6.099
X-17.285 Y-6.247
X-17.287 Y-16.166
X-17.256 Y-16.653
X-17.233 Y-16.788
X-16.954 Y-17.739
X-16.885 Y-17.968
X-16.8 Y-18.183
X-16.718 Y-18.335
X-16.68 Y-18.392
X-15.892 Y-19.412
X-15.76 Y-19.546
X-15.668 Y-19.621
X-15.425 Y-19.782
X-14.564 Y-20.307
X-14.47 Y-20.356
X-14.375 Y-20.399
X-14.19 Y-20.461
X-13.91 Y-20.52
X-13.039 Y-20.681
X-12.865 Y-20.707
X-12.702 Y-20.716
X12.702
X13.198 Y-20.688
X13.354 Y-20.664
X13.414 Y-20.65
X14.526 Y-20.319
X14.739 Y-20.236
X14.892 Y-20.155
X14.947 Y-20.12
X15.972 Y-19.331
X16.108 Y-19.199
X16.195 Y-19.094
X16.231 Y-19.045
X16.867 Y-18.012
X16.924 Y-17.905
X16.964 Y-17.817
X17.026 Y-17.639
X17.086 Y-17.367
X17.276 Y-16.313
X17.287 Y-16.162
Y16.166
X17.256 Y16.653
X17.233 Y16.788
X16.954 Y17.739
X16.885 Y17.968
X16.8 Y18.183
X16.718 Y18.335
X16.68 Y18.392
X15.892 Y19.412
X15.76 Y19.546
X15.668 Y19.621
X15.425 Y19.782
X14.564 Y20.307
X14.47 Y20.356
X14.375 Y20.399
X14.19 Y20.461
X13.91 Y20.52
X13.039 Y20.681
X12.865 Y20.707
X12.702 Y20.716
X-12.702
X-13.198 Y20.688
X-13.354 Y20.664
X-13.414 Y20.65
X-14.526 Y20.319
X-14.739 Y20.236
X-14.892 Y20.155
X-14.947 Y20.12
X-15.972 Y19.331
X-16.108 Y19.199
X-16.195 Y19.094
X-16.231 Y19.045
X-16.867 Y18.012
X-16.924 Y17.905
X-16.964 Y17.817
X-17.026 Y17.639
X-17.086 Y17.367
X-17.276 Y16.313
X-17.287 Y16.162
X-17.286 Y10.537
G3 X-17.143 Y10.379 R0.159
G1 X-11.227 Y9.775
G3 X-11.054 Y9.906 R0.159
G2 X-9.554 Y12.952 R5.938
X-6.579 Y14.589 R5.399
X-3.5 Y14.79 R13.09
X-0.496 Y14.084 R8.73
G3 X0.496 R1.248
G2 X3.414 Y14.793 R8.868
X6.411 Y14.62 R11.978
X9.435 Y13.073 R5.94
X11.026 Y10.072 R5.399
X11.246 Y7.483 R15.671
X11. Y4.897 R13.477
X7.253 Y0.796 R5.321
X1.702 Y0.587 R11.518
X0.986 Y0.802 R4.35
X0.303 Y1.104 R9.805
G3 X-0.316 Y1.099 R0.695
G2 X-3.313 Y0.288 R7.637
X-6.411 Y0.48 R12.812
X-9.494 Y2.118 R5.808
X-11.063 Y5.237 R5.705
X-11.248 Y7.572 R15.377
X-11.054 Y9.906 R13.76
X-9.814 Y11.101 R1.449
G3 X-8.268 Y11.861 R2.687
G2 X-5.525 Y12.997 R3.903
X-3.086 Y12.987 R289.276
X-0.747 Y12.293 R4.418
G3 X0.747 R1.389
G2 X3.362 Y13.127 R5.356
X6.101 Y12.944 R11.821
X8.22 Y11.876 R4.241
X9.345 Y9.788 R3.7
X9.541 Y7.504 R13.979
X9.327 Y5.221 R11.781
X6.309 Y2.217 R3.79
X2.051 Y2.259 R10.919
X1.374 Y2.474 R3.509
X0.747 Y2.807 R4.426
G3 X-0.722 Y2.822 R1.384
G2 X-1.712 Y2.351 R5.233
X-2.793 Y2.166 R3.24
G3 X-5.536 Y2.142 R141.679
G2 X-8.102 Y3.11 R3.705
X-9.39 Y5.962 R3.954
X-9.418 Y9.092 R186.19
X-8.268 Y11.861 R3.903
X-5.575 Y11.755 R1.839
G3 X-3.126 Y10.629 R3.229
G1 X-2.678
G2 X-2.516 Y10.612 R0.794
G1 X-2.349 Y10.577
G2 X-2.197 Y10.529 R0.794
G1 X-2.061 Y10.47
G2 X-1.932 Y10.399 R0.794
G1 X-1.811 Y10.318
G2 X-1.689 Y10.216 R0.794
G1 X-1.568 Y10.094
G2 X-1.472 Y9.975 R0.794
G1 X-1.397 Y9.862
G2 X-1.324 Y9.723 R0.794
G1 X-1.256 Y9.556
G2 X-1.209 Y9.389 R0.794
G1 X-1.181 Y9.225
G2 X-1.17 Y9.093 R0.794
G1 X-1.172 Y5.988
G2 X-1.185 Y5.846 R0.794
G1 X-1.212 Y5.695
G2 X-1.248 Y5.565 R0.794
G1 X-1.289 Y5.454
G2 X-1.343 Y5.337 R0.794
G1 X-1.411 Y5.215
G2 X-1.487 Y5.104 R0.794
G1 X-1.569 Y5.003
G2 X-1.669 Y4.902 R0.794
G1 X-1.786 Y4.801
G2 X-1.922 Y4.708 R0.794
G1 X-2.076 Y4.624
G2 X-2.237 Y4.558 R0.794
G1 X-2.405 Y4.51
G2 X-2.57 Y4.481 R0.794
G1 X-2.737 Y4.47
G2 X-2.791 Y4.468 R0.794
G1 X-5.526 Y4.47
G2 X-5.67 Y4.483 R0.794
G1 X-5.837 Y4.514
G2 X-6.006 Y4.566 R0.794
G1 X-6.173 Y4.637
G2 X-6.312 Y4.715 R0.794
G1 X-6.424 Y4.792
G2 X-6.507 Y4.858 R0.794
G1 X-6.562 Y4.909
G2 X-6.636 Y4.986 R0.794
G1 X-6.724 Y5.091
G2 X-6.8 Y5.199 R0.794
G1 X-6.865 Y5.31
G2 X-6.929 Y5.449 R0.794
G1 X-6.988 Y5.615
G2 X-7.023 Y5.755 R0.794
G1 X-7.04 Y5.866
G2 X-7.05 Y5.988 R0.794
G1 X-7.051 Y9.093
G2 X-7.04 Y9.226 R0.794
G1 X-7.012 Y9.392
G2 X-6.964 Y9.56 R0.794
G1 X-6.896 Y9.726
G2 X-6.81 Y9.883 R0.794
G1 X-6.709 Y10.028
G2 X-6.611 Y10.141 R0.794
G1 X-6.524 Y10.226
G2 X-6.424 Y10.308 R0.794
G1 X-6.312 Y10.386
G2 X-6.173 Y10.463 R0.794
G1 X-6.006 Y10.535
G2 X-5.837 Y10.586 R0.794
G1 X-5.67 Y10.617
G2 X-5.525 Y10.63 R0.794
G1 X-3.126 Y10.629
G3 X-3.081 Y10.653 R0.053
G1 X-3.013 Y10.76
G2 X-2.966 Y10.784 R0.053
G1 X1.882 Y10.654
G2 X1.92 Y10.638 R0.056
G1 X2.056 Y10.506
G3 X2.118 Y10.494 R0.056
G1 X2.197 Y10.529
G2 X2.349 Y10.577 R0.794
G1 X2.516 Y10.612
G2 X2.678 Y10.629 R0.794
G1 X5.525 Y10.63
G2 X5.67 Y10.617 R0.794
G1 X5.837 Y10.586
G2 X6.006 Y10.535 R0.794
G1 X6.173 Y10.463
G2 X6.312 Y10.386 R0.794
G1 X6.424 Y10.308
G2 X6.539 Y10.211 R0.794
G1 X6.655 Y10.092
G2 X6.749 Y9.975 R0.794
G1 X6.823 Y9.864
G2 X6.896 Y9.726 R0.794
G1 X6.964 Y9.56
G2 X7.012 Y9.392 R0.794
G1 X7.04 Y9.226
G2 X7.051 Y9.093 R0.794
G1 X7.05 Y5.988
G2 X7.035 Y5.837 R0.794
G1 X7.003 Y5.671
G2 X6.951 Y5.504 R0.794
G1 X6.878 Y5.337
G2 X6.8 Y5.199 R0.794
G1 X6.722 Y5.088
G2 X6.632 Y4.982 R0.794
G1 X6.531 Y4.881
G2 X6.424 Y4.792 R0.794
G1 X6.312 Y4.715
G2 X6.173 Y4.637 R0.794
G1 X6.006 Y4.566
G2 X5.837 Y4.514 R0.794
G1 X5.67 Y4.483
G2 X5.525 Y4.47 R0.794
G1 X2.678 Y4.472
G2 X2.516 Y4.488 R0.794
G1 X2.349 Y4.523
G2 X2.199 Y4.571 R0.794
G1 X2.066 Y4.628
G2 X1.942 Y4.694 R0.794
G1 X1.827 Y4.77
G2 X1.711 Y4.864 R0.794
G1 X1.596 Y4.976
G2 X1.496 Y5.093 R0.794
G1 X1.412 Y5.215
G2 X1.342 Y5.337 R0.794
G1 X1.287 Y5.459
G2 X1.239 Y5.595 R0.794
G1 X1.201 Y5.745
G2 X1.178 Y5.924 R0.794
G1 X1.169 Y6.418
G2 Y6.432 R0.794
G1 X1.17 Y9.094
G2 X1.181 Y9.225 R0.794
G1 X1.209 Y9.389
G2 X1.256 Y9.556 R0.794
G1 X1.324 Y9.723
G2 X1.397 Y9.862 R0.794
G1 X1.472 Y9.975
G2 X1.568 Y10.094 R0.794
G1 X1.689 Y10.216
G2 X1.811 Y10.318 R0.794
G1 X1.932 Y10.399
G2 X2.061 Y10.47 R0.794
G1 X2.118 Y10.494
G3 X2.263 Y10.952 R0.318
G1 X-0.072 Y14.768 Z-0.932
G3 X-0.614 Y14.437 R0.318
X-0.463 Y14.308 R0.318
G2 X-0.369 Y14.27 R11.866
G3 X0.346 Y14.262 R0.951
G2 X1.382 Y14.586 R7.488
X2.459 Y14.711 R4.701
X3. Y14.693 R8.663
G3 X3.541 Y14.676 R8.663
X4.39 Y15.576 R0.85
G2 X4.383 Y15.751 R4.838
G3 X3.441 Y16.672 R0.942
G1 X-3.439
G3 X-4.386 Y15.738 R0.947
G2 X-4.391 Y15.565 R4.838
G3 X-3.544 Y14.674 R0.849
X-2.436 Y14.684 R64.633
G2 X-1.332 Y14.59 R5.465
X-0.842 Y14.455 R3.055
X-0.463 Y14.308 R11.866
G3 X-0.367 Y14.287 Z-0.916 R0.317
X-0.279 Y14.293 Z-0.871 R0.317
X-0.213 Y14.316 Z-0.801 R0.317
X-0.173 Y14.337 Z-0.712 R0.317
X-0.161 Y14.346 Z-0.614 R0.317
G0 Z5.
X-9.95 Y-0.742
Z0.41
G3 X-9.936 Y-0.741 Z0.315 R1.508 F400.
X-9.894 Y-0.736 Z0.229 R1.508
X-9.829 Y-0.727 Z0.159 R1.508
X-9.746 Y-0.71 Z0.113 R1.508
X-9.655 Y-0.686 Z0.093 R1.508
X-10.512 Y2.206 Z-0.157 R1.508
X-9.655 Y-0.686 Z-0.407 R1.508
X-10.512 Y2.206 Z-0.657 R1.508
X-11.445 Y0.11 Z-0.794 R1.508
X-9.23 Y-0.483 Z-0.932 R1.508
G2 X-9.165 Y-0.439 R6.827
G3 Y0.439 R0.528
G2 X-9.241 Y0.491 R5.933
G1 X-9.318 Y0.545
G3 X-10.148 Y0.11 R0.528
G1 Y-0.159
G3 X-9.357 Y-0.572 R0.503
G1 X-9.258 Y-0.503
G2 X-9.23 Y-0.483 R6.827
G3 X-9.159 Y-0.416 Z-0.916 R0.318
X-9.115 Y-0.339 Z-0.871 R0.318
X-9.096 Y-0.272 Z-0.801 R0.317
X-9.092 Y-0.227 Z-0.712 R0.318
X-9.093 Y-0.211 Z-0.614 R0.318
G0 Z5.
X-4.293 Y-15.011
Z0.41
G3 X-4.299 Y-15.024 Z0.315 R1.508 F400.
X-4.315 Y-15.063 Z0.229 R1.508
X-4.339 Y-15.125 Z0.159 R1.508
X-4.364 Y-15.205 Z0.113 R1.508
X-4.388 Y-15.296 Z0.093 R1.508
X-1.444 Y-15.956 Z-0.157 R1.508
X-4.388 Y-15.296 Z-0.407 R1.508
X-1.444 Y-15.956 Z-0.657 R1.508
X-4.388 Y-15.296 Z-0.907 R1.508
X-4.418 Y-15.767 Z-0.932 R1.508
G1 X-4.413 Y-15.811
G3 X-3.466 Y-16.674 R0.951
G1 X3.466
G3 X4.413 Y-15.811 R0.951
G1 X4.432 Y-15.615
G3 X3.574 Y-14.673 R0.862
G1 X-3.574
G3 X-4.432 Y-15.615 R0.862
G1 X-4.418 Y-15.767
G3 X-4.394 Y-15.861 Z-0.916 R0.318
X-4.348 Y-15.937 Z-0.871 R0.318
X-4.298 Y-15.986 Z-0.801 R0.318
X-4.261 Y-16.012 Z-0.712 R0.318
X-4.247 Y-16.019 Z-0.614 R0.318
G0 Z5.
X10.889 Y1.023
Z0.41
G3 X10.874 Y1.02 Z0.315 R1.508 F400.
X10.833 Y1.01 Z0.229 R1.508
X10.77 Y0.993 Z0.159 R1.508
X10.69 Y0.967 Z0.113 R1.508
X10.603 Y0.932 Z0.093 R1.508
X11.799 Y-1.837 Z-0.157 R1.508
X10.603 Y0.932 Z-0.407 R1.508
X11.799 Y-1.837 Z-0.657 R1.508
X10.603 Y0.932 Z-0.907 R1.508
X10.204 Y0.679 Z-0.932 R1.508
G2 X10.052 Y0.55 R7.104
G3 Y-0.55 R0.716
G2 X10.983 Y-1.483 R7.191
G3 X11.708 Y-1.222 R0.409
G1 Y1.222
G3 X10.983 Y1.483 R0.409
G2 X10.204 Y0.679 R7.104
X8.623 Y0.541 R1.338
G3 X7.051 Y0.754 R1.977
G2 X6.565 Y0.638 R5.595
X1.354 Y0.63 R13.97
X0.811 Y0.786 R3.006
X0.288 Y1.002 R16.508
G3 X-0.272 Y1.004 R0.71
G2 X-3.303 Y0.297 R8.986
X-6.408 Y0.497 R13.096
X-9.448 Y2.147 R5.597
X-10.975 Y5.25 R5.813
X-11.012 Y6.276 R4.31
G3 X-10.969 Y7.301 R12.231
X-11.801 Y8. R0.71
G2 X-12.36 Y7.936 R4.713
G3 X-12.663 Y7.178 R0.45
G2 X-11.649 Y5.691 R5.621
X-11.258 Y3.934 R4.145
G1 X-11.256 Y-3.933
G2 X-11.661 Y-5.724 R4.159
X-12.712 Y-7.229 R5.6
G3 X-12.398 Y-7.972 R0.438
G2 X-12.071 Y-7.974 R20.537
X-11.743 Y-7.99 R4.236
G3 X-10.97 Y-7.285 R0.71
G2 X-10.954 Y-5.482 R118.369
X-10.57 Y-3.72 R4.579
X-9.362 Y-1.998 R5.323
X-7.606 Y-0.84 R5.966
X-5.052 Y-0.366 R5.897
G3 X-2.456 Y-0.415 R67.732
G1 X5.525
G2 X8.597 Y-1.392 R5.32
X10.634 Y-3.89 R6.017
X10.968 Y-5.486 R3.982
G1 X10.969 Y-7.147
G3 X11.86 Y-7.981 R0.836
G2 X12.133 Y-7.972 R4.385
X12.405 R43.479
G3 X13.368 Y-7.013 R0.959
G1 Y6.98
G3 X12.453 Y7.932 R0.953
G2 X12.126 Y7.955 R5.487
X11.801 Y8. R4.514
G3 X10.969 Y7.301 R0.71
X10.98 Y5.578 R125.391
G2 X10.638 Y3.888 R4.075
X7.051 Y0.754 R5.595
X5.266 Y1.501 R1.548
G3 X3.596 Y2.479 R1.875
X3.098 Y2.472 R153.784
G2 X0.749 Y3.08 R4.568
G3 X-0.773 Y3.069 R1.508
G2 X-1.581 Y2.705 R3.961
X-2.458 Y2.567 R2.851
X-5.7 Y2.578 R606.101
X-8.508 Y4.2 R3.277
X-9.094 Y6.611 R4.325
G3 X-9.03 Y9.092 R46.841
G2 X-5.525 Y12.609 R3.515
G3 X-3.098 Y12.628 R153.868
G2 X-0.749 Y12.02 R4.569
G3 X0.773 Y12.031 R1.509
G2 X1.581 Y12.396 R3.962
X2.458 Y12.533 R2.851
X5.663 Y12.501 R174.092
X8.473 Y10.957 R3.449
X9.117 Y8.513 R3.931
G3 X9.028 Y5.987 R36.576
G2 X5.525 Y2.491 R3.497
G3 X3.596 Y2.479 R153.784
G2 X1.547 Y3.666 R2.314
X0.879 Y5.939 R5.356
X0.877 Y5.988 R0.794
G1 X0.876 Y9.093
G2 X0.887 Y9.226 R0.794
G1 X0.915 Y9.392
G2 X0.963 Y9.56 R0.794
G1 X1.031 Y9.726
G2 X1.104 Y9.864 R0.794
G1 X1.178 Y9.975
G2 X1.277 Y10.097 R0.794
G1 X1.404 Y10.225
G2 X1.546 Y10.338 R0.794
G1 X1.7 Y10.434
G2 X1.862 Y10.512 R0.794
G1 X2.029 Y10.57
G2 X2.197 Y10.608 R0.794
G1 X2.365 Y10.627
G2 X2.456 Y10.632 R0.794
G1 X5.526 Y10.63
G2 X5.67 Y10.617 R0.794
G1 X5.837 Y10.586
G2 X6.006 Y10.535 R0.794
G1 X6.173 Y10.463
G2 X6.312 Y10.386 R0.794
G1 X6.424 Y10.308
G2 X6.539 Y10.211 R0.794
G1 X6.655 Y10.092
G2 X6.749 Y9.975 R0.794
G1 X6.823 Y9.864
G2 X6.896 Y9.726 R0.794
G1 X6.964 Y9.56
G2 X7.012 Y9.392 R0.794
G1 X7.04 Y9.226
G2 X7.051 Y9.093 R0.794
G1 X7.05 Y5.988
G2 X7.035 Y5.837 R0.794
G1 X7.003 Y5.671
G2 X6.951 Y5.504 R0.794
G1 X6.878 Y5.337
G2 X6.8 Y5.199 R0.794
G1 X6.722 Y5.088
G2 X6.632 Y4.982 R0.794
G1 X6.531 Y4.881
G2 X6.424 Y4.792 R0.794
G1 X6.312 Y4.715
G2 X6.173 Y4.637 R0.794
G1 X6.006 Y4.566
G2 X5.837 Y4.514 R0.794
G1 X5.67 Y4.483
G2 X5.525 Y4.47 R0.794
G1 X2.4
G2 X2.253 Y4.484 R0.794
G1 X2.086 Y4.515
G2 X1.917 Y4.567 R0.794
G1 X1.749 Y4.64
G2 X1.599 Y4.726 R0.794
G1 X1.465 Y4.822
G2 X1.337 Y4.939 R0.794
G1 X1.217 Y5.074
G2 X1.127 Y5.199 R0.794
G1 X1.062 Y5.31
G2 X0.998 Y5.449 R0.794
G1 X0.939 Y5.615
G2 X0.904 Y5.755 R0.794
G1 X0.887 Y5.866
G2 X0.879 Y5.939 R0.794
G3 X0.762 Y5.985 R0.07
G1 X0.533 Y5.768
X-0.649 Y4.415
G2 X-0.81 Y4.367 R0.159
G1 X-1.713 Y4.612
G3 X-1.816 Y4.606 R0.159
G2 X-1.862 Y4.588 R0.794
G1 X-2.029 Y4.531
G2 X-2.197 Y4.492 R0.794
G1 X-2.365 Y4.473
G2 X-2.456 Y4.468 R0.794
G1 X-5.526 Y4.47
G2 X-5.67 Y4.483 R0.794
G1 X-5.837 Y4.514
G2 X-6.006 Y4.566 R0.794
G1 X-6.173 Y4.637
G2 X-6.312 Y4.715 R0.794
G1 X-6.424 Y4.792
G2 X-6.507 Y4.858 R0.794
G1 X-6.562 Y4.909
G2 X-6.636 Y4.986 R0.794
G1 X-6.724 Y5.091
G2 X-6.8 Y5.199 R0.794
G1 X-6.865 Y5.31
G2 X-6.929 Y5.449 R0.794
G1 X-6.988 Y5.615
G2 X-7.023 Y5.755 R0.794
G1 X-7.04 Y5.866
G2 X-7.05 Y5.988 R0.794
G1 X-7.051 Y9.093
G2 X-7.04 Y9.226 R0.794
G1 X-7.012 Y9.392
G2 X-6.964 Y9.56 R0.794
G1 X-6.896 Y9.726
G2 X-6.81 Y9.883 R0.794
G1 X-6.709 Y10.028
G2 X-6.611 Y10.141 R0.794
G1 X-6.524 Y10.226
G2 X-6.424 Y10.308 R0.794
G1 X-6.312 Y10.386
G2 X-6.173 Y10.463 R0.794
G1 X-6.006 Y10.535
G2 X-5.837 Y10.586 R0.794
G1 X-5.67 Y10.617
G2 X-5.525 Y10.63 R0.794
G1 X-2.4
G2 X-2.253 Y10.616 R0.794
G1 X-2.086 Y10.585
G2 X-1.917 Y10.533 R0.794
G1 X-1.749 Y10.461
G2 X-1.595 Y10.372 R0.794
G1 X-1.454 Y10.268
G2 X-1.342 Y10.168 R0.794
G1 X-1.257 Y10.077
G2 X-1.178 Y9.975 R0.794
G1 X-1.104 Y9.864
G2 X-1.031 Y9.726 R0.794
G1 X-0.963 Y9.56
G2 X-0.915 Y9.392 R0.794
G1 X-0.887 Y9.226
G2 X-0.876 Y9.093 R0.794
G1 X-0.877 Y5.988
G2 X-0.892 Y5.837 R0.794
G1 X-0.924 Y5.671
G2 X-0.976 Y5.504 R0.794
G1 X-1.049 Y5.337
G2 X-1.127 Y5.199 R0.794
G1 X-1.205 Y5.088
G2 X-1.302 Y4.975 R0.794
G1 X-1.418 Y4.862
G2 X-1.551 Y4.758 R0.794
G1 X-1.702 Y4.665
G2 X-1.816 Y4.606 R0.794
G3 X-1.909 Y4.42 R0.159
G1 X-0.158 Y-2.358
G3 X-0.004 Y-2.477 R0.159
G1 X5.525
G2 X7.482 Y-3.107 R3.358
X8.776 Y-4.704 R3.883
X9.137 Y-6.884 R4.487
G3 X9.044 Y-9.092 R25.938
G2 X5.525 Y-12.623 R3.529
G1 X-5.525
G2 X-8.189 Y-11.364 R3.447
X-8.89 Y-9.857 R3.394
X-9.045 Y-8.203 R8.776
X-8.876 Y-5.444 R23.037
X-7.448 Y-3.077 R3.378
X-4.998 Y-2.396 R3.865
G3 X-2.456 Y-2.477 R39.696
G1 X-0.004
G2 X1.491 Y-3.474 R1.619
G3 X2.985 Y-4.47 R1.619
G1 X5.525
G2 X5.67 Y-4.483 R0.794
G1 X5.837 Y-4.514
G2 X6.006 Y-4.566 R0.794
G1 X6.173 Y-4.637
G2 X6.312 Y-4.715 R0.794
G1 X6.424 Y-4.792
G2 X6.531 Y-4.881 R0.794
G1 X6.632 Y-4.982
G2 X6.722 Y-5.088 R0.794
G1 X6.8 Y-5.199
G2 X6.878 Y-5.337 R0.794
G1 X6.951 Y-5.504
G2 X7.003 Y-5.671 R0.794
G1 X7.035 Y-5.837
G2 X7.05 Y-5.988 R0.794
G1 X7.051 Y-9.093
G2 X7.04 Y-9.226 R0.794
G1 X7.012 Y-9.392
G2 X6.964 Y-9.56 R0.794
G1 X6.896 Y-9.726
G2 X6.81 Y-9.883 R0.794
G1 X6.709 Y-10.028
G2 X6.611 Y-10.141 R0.794
G1 X6.524 Y-10.226
G2 X6.424 Y-10.308 R0.794
G1 X6.312 Y-10.386
G2 X6.173 Y-10.463 R0.794
G1 X6.006 Y-10.535
G2 X5.837 Y-10.586 R0.794
G1 X5.67 Y-10.617
G2 X5.525 Y-10.63 R0.794
G1 X-5.525
G2 X-5.67 Y-10.617 R0.794
G1 X-5.837 Y-10.586
G2 X-6.006 Y-10.535 R0.794
G1 X-6.173 Y-10.463
G2 X-6.312 Y-10.386 R0.794
G1 X-6.424 Y-10.308
G2 X-6.507 Y-10.242 R0.794
G1 X-6.562 Y-10.191
G2 X-6.643 Y-10.106 R0.794
G1 X-6.743 Y-9.983
G2 X-6.837 Y-9.838 R0.794
G1 X-6.921 Y-9.671
G2 X-6.982 Y-9.504 R0.794
G1 X-7.023 Y-9.337
G2 X-7.046 Y-9.155 R0.794
G1 X-7.052 Y-8.212
Y-8.205
X-7.05 Y-5.987
G2 X-7.035 Y-5.837 R0.794
G1 X-7.003 Y-5.671
G2 X-6.951 Y-5.504 R0.794
G1 X-6.878 Y-5.337
G2 X-6.8 Y-5.199 R0.794
G1 X-6.722 Y-5.088
G2 X-6.632 Y-4.982 R0.794
G1 X-6.531 Y-4.881
G2 X-6.424 Y-4.792 R0.794
G1 X-6.312 Y-4.715
G2 X-6.173 Y-4.637 R0.794
G1 X-6.006 Y-4.566
G2 X-5.837 Y-4.514 R0.794
G1 X-5.67 Y-4.483
G2 X-5.525 Y-4.47 R0.794
G1 X2.985
G3 X3.038 Y-4.461 R0.159
G1 X15.335 Y-0.159
G3 X15.441 Y-0.009 R0.159
G1 Y9.689
G3 X14.592 Y10.307 R0.649
G2 X11.257 Y10.082 R6.885
X8.312 Y11.663 R5.392
X6.677 Y14.658 R6.56
X6.887 Y18.063 R5.804
G3 X6.328 Y18.871 R0.597
G1 X-6.321
G3 X-6.889 Y18.064 R0.604
G2 X-10.653 Y10.226 R6.117
X-12.628 Y9.947 R5.253
X-14.591 Y10.307 R7.633
G3 X-15.44 Y9.689 R0.65
G1 Y7.735
G3 X-14.61 Y6.131 R1.966
G2 X-13.719 Y5.184 R3.277
X-13.362 Y3.934 R2.371
G1 X-13.36 Y-3.045
Y-3.933
G2 X-13.739 Y-5.225 R2.389
X-14.687 Y-6.181 R3.24
G3 X-15.44 Y-7.576 R1.669
G1 Y-9.743
G3 X-14.582 Y-10.329 R0.629
G2 X-11.102 Y-10.2 R5.296
X-8.08 Y-11.931 R7.886
X-6.919 Y-13.874 R3.972
X-6.532 Y-16.105 R14.513
X-6.619 Y-17.071 R2.659
X-6.897 Y-18. R28.017
G3 X-6.26 Y-18.871 R0.669
G1 X6.26
G3 X6.897 Y-18. R0.669
G2 X6.526 Y-16.246 R9.022
X6.689 Y-14.462 R4.524
X9.729 Y-10.663 R6.477
X14.583 Y-10.33 R5.685
G3 X15.441 Y-9.745 R0.629
G1 Y-0.009
G2 X16.364 Y1.376 R1.5
G3 X17.287 Y2.76 R1.5
G1 Y16.166
X17.256 Y16.653
X17.233 Y16.788
X17.046 Y17.427
X16.954 Y17.739
X16.885 Y17.968
X16.8 Y18.183
X16.718 Y18.335
X16.68 Y18.392
X15.892 Y19.412
X15.76 Y19.546
X15.668 Y19.621
X15.425 Y19.782
X14.564 Y20.307
X14.47 Y20.356
X14.375 Y20.399
X14.19 Y20.461
X13.91 Y20.52
X13.039 Y20.681
X12.865 Y20.707
X12.702 Y20.716
X-12.702
X-13.198 Y20.688
X-13.354 Y20.664
X-13.414 Y20.65
X-14.526 Y20.319
X-14.739 Y20.236
X-14.892 Y20.155
X-14.947 Y20.12
X-15.972 Y19.331
X-16.108 Y19.199
X-16.195 Y19.094
X-16.231 Y19.045
X-16.867 Y18.012
X-16.924 Y17.905
X-16.964 Y17.817
X-17.026 Y17.639
X-17.086 Y17.367
X-17.276 Y16.313
X-17.287 Y16.162
X-17.285 Y6.247
X-17.271 Y6.099
X-17.244 Y5.951
X-17.201 Y5.803
X-17.142 Y5.656
X-17.062 Y5.504
X-16.988 Y5.392
X-16.92 Y5.303
X-16.844 Y5.218
X-16.688 Y5.077
X-16.572 Y4.993
X-16.39 Y4.89
X-16.245 Y4.828
X-16.092 Y4.78
X-15.963 Y4.752
G2 X-15.641 Y4.598 R0.794
G1 X-15.588 Y4.556
G2 X-15.288 Y3.934 R0.794
G1 Y-3.933
G2 X-15.595 Y-4.56 R0.794
G1 X-15.649 Y-4.602
G2 X-15.939 Y-4.744 R0.794
G1 X-16.172 Y-4.803
X-16.315 Y-4.856
X-16.511 Y-4.955
X-16.627 Y-5.031
X-16.772 Y-5.148
X-16.836 Y-5.209
X-16.92 Y-5.303
X-16.988 Y-5.392
X-17.062 Y-5.504
X-17.142 Y-5.656
X-17.201 Y-5.803
X-17.244 Y-5.951
X-17.271 Y-6.099
X-17.285 Y-6.247
X-17.287 Y-16.166
X-17.256 Y-16.653
X-17.233 Y-16.788
X-16.954 Y-17.739
X-16.885 Y-17.968
X-16.8 Y-18.183
X-16.718 Y-18.335
X-16.68 Y-18.392
X-15.892 Y-19.412
X-15.76 Y-19.546
X-15.668 Y-19.621
X-15.425 Y-19.782
X-14.564 Y-20.307
X-14.47 Y-20.356
X-14.375 Y-20.399
X-14.19 Y-20.461
X-13.91 Y-20.52
X-13.039 Y-20.681
X-12.865 Y-20.707
X-12.702 Y-20.716
X12.702
X13.198 Y-20.688
X13.354 Y-20.664
X13.414 Y-20.65
X14.526 Y-20.319
X14.739 Y-20.236
X14.892 Y-20.155
X14.947 Y-20.12
X15.972 Y-19.331
X16.108 Y-19.199
X16.195 Y-19.094
X16.231 Y-19.045
X16.867 Y-18.012
X16.924 Y-17.905
X16.964 Y-17.817
X17.026 Y-17.639
X17.086 Y-17.367
X17.276 Y-16.313
X17.287 Y-16.162
Y2.76
G3 X17.269 Y2.832 R0.159
G1 X12.682 Y11.765
G3 X12.553 Y11.851 R0.159
G2 X12.464 Y11.862 R0.794
G1 X11.349 Y12.073
G2 X11.191 Y12.121 R0.794
G1 X11.04 Y12.184
G2 X10.928 Y12.241 R0.794
G1 X10.013 Y12.807
G2 X9.92 Y12.875 R0.794
G1 X9.805 Y12.972
G2 X9.689 Y13.092 R0.794
G1 X9.383 Y13.486
G2 X9.373 Y13.5 R0.794
G1 X8.962 Y14.054
G2 X8.881 Y14.188 R0.794
G1 X8.822 Y14.313
G2 X8.776 Y14.436 R0.794
G1 X8.467 Y15.532
G2 X8.441 Y15.67 R0.794
G1 X8.43 Y15.781
G2 X8.427 Y15.881 R0.794
G1 X8.436 Y16.213
G2 X8.439 Y16.263 R0.794
G1 X8.5 Y16.928
G2 X8.519 Y17.043 R0.794
G1 X8.586 Y17.32
G2 X8.644 Y17.483 R0.794
G1 X9.052 Y18.315
G2 X9.059 Y18.328 R0.794
G1 X9.164 Y18.531
G2 X9.227 Y18.634 R0.794
G1 X9.301 Y18.736
G2 X9.39 Y18.84 R0.794
G1 X9.533 Y18.978
G2 X9.553 Y18.997 R0.794
G1 X10.269 Y19.645
G2 X10.389 Y19.735 R0.794
G1 X10.527 Y19.818
G2 X10.653 Y19.88 R0.794
G1 X11.714 Y20.289
G2 X11.876 Y20.332 R0.794
G1 X12.044 Y20.358
G2 X12.169 Y20.368 R0.794
G1 X13.285 Y20.364
G2 X13.454 Y20.345 R0.794
G1 X13.621 Y20.308
G2 X13.737 Y20.273 R0.794
G1 X14.742 Y19.883
G2 X14.858 Y19.826 R0.794
G1 X14.993 Y19.747
G2 X15.124 Y19.65 R0.794
G1 X15.981 Y18.868
G2 X16.092 Y18.744 R0.794
G1 X16.189 Y18.608
G2 X16.256 Y18.497 R0.794
G1 X16.755 Y17.484
G2 X16.815 Y17.318 R0.794
G1 X16.855 Y17.151
G2 X16.873 Y17.04 R0.794
G1 X16.97 Y15.986
G2 X16.972 Y15.864 R0.794
G1 X16.961 Y15.697
G2 X16.932 Y15.53 R0.794
G1 X16.613 Y14.408
G2 X16.546 Y14.244 R0.794
G1 X16.46 Y14.087
G2 X16.397 Y13.991 R0.794
G1 X15.772 Y13.162
G2 X15.708 Y13.087 R0.794
G1 X15.6 Y12.976
G2 X15.507 Y12.895 R0.794
G1 X15.433 Y12.839
G2 X15.371 Y12.797 R0.794
G1 X14.423 Y12.216
G2 X14.252 Y12.138 R0.794
G1 X13.917 Y12.029
G2 X13.819 Y12.004 R0.794
G1 X13.221 Y11.893
G2 X13.155 Y11.883 R0.794
G1 X12.804 Y11.848
G2 X12.692 Y11.845 R0.794
G1 X12.58 Y11.849
G2 X12.553 Y11.851 R0.794
G3 X12.456 Y11.843 Z-0.916 R0.317
X12.373 Y11.811 Z-0.871 R0.318
X12.317 Y11.77 Z-0.801 R0.317
X12.285 Y11.737 Z-0.712 R0.318
X12.276 Y11.725 Z-0.614 R0.318
G0 Z5.
X-5.014 Y15.327
Z1.068
G1 Z-0.614 F400.
X-5.022 Y15.329 Z-0.685
X-5.045 Y15.333 Z-0.752
X-5.082 Y15.34 Z-0.812
X-5.131 Y15.35 Z-0.863
X-5.19 Y15.361 Z-0.9
X-5.256 Y15.373 Z-0.924
X-5.326 Y15.387 Z-0.932
X-8.073 Y15.908
G3 X-8.444 Y15.655 R0.318
G2 X-8.446 Y15.644 R0.794
G1 X-8.48 Y15.477
G2 X-8.495 Y15.417 R0.794
G1 X-8.777 Y14.433
G2 X-8.822 Y14.313 R0.794
G1 X-8.881 Y14.188
G2 X-8.963 Y14.052 R0.794
G1 X-9.559 Y13.253
G2 X-9.579 Y13.228 R0.794
G1 X-9.7 Y13.079
G2 X-9.805 Y12.972 R0.794
G1 X-9.92 Y12.875
G2 X-10.015 Y12.806 R0.794
G1 X-10.813 Y12.316
X-10.969 Y12.22
G2 X-11.127 Y12.146 R0.794
G1 X-11.294 Y12.088
G2 X-11.408 Y12.058 R0.794
G1 X-12.467 Y11.862
G2 X-12.612 Y11.848 R0.794
G1 X-12.788
G2 X-12.884 Y11.854 R0.794
G1 X-13.267 Y11.901
G2 X-13.32 Y11.909 R0.794
G1 X-13.822 Y12.005
G2 X-13.917 Y12.029 R0.794
G1 X-14.252 Y12.138
G2 X-14.424 Y12.217 R0.794
G1 X-15.41 Y12.824
G2 X-15.519 Y12.905 R0.794
G1 X-15.615 Y12.99
G2 X-15.72 Y13.103 R0.794
G1 X-16.356 Y13.935
G2 X-16.391 Y13.986 R0.794
G1 X-16.493 Y14.143
G2 X-16.549 Y14.246 R0.794
G1 X-16.573 Y14.298
G2 X-16.613 Y14.408 R0.794
G1 X-16.932 Y15.53
G2 X-16.961 Y15.697 R0.794
G1 X-16.972 Y15.864
G2 X-16.97 Y15.989 R0.794
G1 X-16.864 Y17.098
G2 X-16.83 Y17.262 R0.794
G1 X-16.777 Y17.429
G2 X-16.73 Y17.546 R0.794
G1 X-16.225 Y18.548
G2 X-16.126 Y18.699 R0.794
G1 X-16.014 Y18.835
G2 X-15.936 Y18.916 R0.794
G1 X-15.122 Y19.652
G2 X-14.993 Y19.747 R0.794
G1 X-14.858 Y19.826
G2 X-14.742 Y19.883 R0.794
G1 X-13.737 Y20.273
G2 X-13.621 Y20.308 R0.794
G1 X-13.454 Y20.345
G2 X-13.285 Y20.364 R0.794
G1 X-12.169 Y20.368
G2 X-12.044 Y20.358 R0.794
G1 X-11.876 Y20.332
G2 X-11.714 Y20.289 R0.794
G1 X-10.653 Y19.88
G2 X-10.527 Y19.818 R0.794
G1 X-10.389 Y19.735
G2 X-10.268 Y19.644 R0.794
G1 X-9.461 Y18.913
G2 X-9.394 Y18.844 R0.794
G1 X-9.303 Y18.739
G2 X-9.242 Y18.659 R0.794
G1 X-9.208 Y18.608
G2 X-9.16 Y18.524 R0.794
G1 X-8.669 Y17.544
G2 X-8.632 Y17.456 R0.794
G1 X-8.592 Y17.345
G2 X-8.563 Y17.241 R0.794
G1 X-8.505 Y16.963
G2 X-8.491 Y16.868 R0.794
G1 X-8.439 Y16.259
G2 X-8.436 Y16.203 R0.794
G1 X-8.43 Y15.815
G2 X-8.444 Y15.655 R0.794
G3 X-8.447 Y15.557 Z-0.916 R0.317
X-8.424 Y15.472 Z-0.871 R0.317
X-8.39 Y15.411 Z-0.801 R0.317
X-8.361 Y15.376 Z-0.712 R0.317
X-8.35 Y15.365 Z-0.614 R0.317
G0 Z5.
X-11.911 Y-8.455
Z1.068
G1 Z-0.614 F400.
X-11.912 Y-8.463 Z-0.685
X-11.916 Y-8.486 Z-0.752
X-11.921 Y-8.524 Z-0.812
X-11.927 Y-8.574 Z-0.863
X-11.936 Y-8.633 Z-0.9
X-11.945 Y-8.7 Z-0.924
X-11.954 Y-8.77 Z-0.932
X-12.331 Y-11.54
G3 X-12.059 Y-11.898 R0.318
G2 X-12.044 Y-11.9 R0.794
G1 X-11.876 Y-11.926
G2 X-11.714 Y-11.969 R0.794
G1 X-10.653 Y-12.378
G2 X-10.54 Y-12.432 R0.794
G1 X-10.429 Y-12.497
G2 X-10.321 Y-12.572 R0.794
G1 X-10.209 Y-12.664
G2 X-10.178 Y-12.691 R0.794
G1 X-9.419 Y-13.388
G2 X-9.321 Y-13.496 R0.794
G1 X-9.238 Y-13.607
G2 X-9.163 Y-13.729 R0.794
G1 X-8.664 Y-14.727
G2 X-8.613 Y-14.855 R0.794
G1 X-8.564 Y-15.021
G2 X-8.534 Y-15.174 R0.794
G1 X-8.43 Y-16.283
G2 X-8.429 Y-16.425 R0.794
G1 X-8.448 Y-16.646
G2 X-8.473 Y-16.786 R0.794
G1 X-8.607 Y-17.285
G2 X-8.617 Y-17.318 R0.794
G1 X-8.791 Y-17.867
G2 X-8.835 Y-17.975 R0.794
G1 X-8.886 Y-18.08
G2 X-8.963 Y-18.206 R0.794
G1 X-9.621 Y-19.087
G2 X-9.687 Y-19.164 R0.794
G1 X-9.805 Y-19.285
G2 X-9.933 Y-19.392 R0.794
G1 X-10.111 Y-19.512
G2 X-10.138 Y-19.529 R0.794
G1 X-10.97 Y-20.039
G2 X-11.127 Y-20.112 R0.794
G1 X-11.294 Y-20.17
G2 X-11.408 Y-20.2 R0.794
G1 X-12.468 Y-20.396
G2 X-12.609 Y-20.41 R0.794
G1 X-12.777
G2 X-12.927 Y-20.397 R0.794
G1 X-14.043 Y-20.187
G2 X-14.204 Y-20.139 R0.794
G1 X-14.371 Y-20.068
G2 X-14.484 Y-20.01 R0.794
G1 X-15.426 Y-19.422
G2 X-15.549 Y-19.328 R0.794
G1 X-15.652 Y-19.231
G2 X-15.743 Y-19.13 R0.794
G1 X-16.419 Y-18.236
G2 X-16.49 Y-18.122 R0.794
G1 X-16.555 Y-17.997
G2 X-16.613 Y-17.851 R0.794
G1 X-16.93 Y-16.742
G2 X-16.958 Y-16.586 R0.794
G1 X-16.971 Y-16.42
G2 X-16.97 Y-16.283 R0.794
G1 X-16.866 Y-15.174
G2 X-16.836 Y-15.021 R0.794
G1 X-16.787 Y-14.855
G2 X-16.736 Y-14.727 R0.794
G1 X-16.237 Y-13.729
G2 X-16.162 Y-13.607 R0.794
G1 X-16.079 Y-13.496
G2 X-15.98 Y-13.388 R0.794
G1 X-15.158 Y-12.635
G2 X-15.069 Y-12.564 R0.794
G1 X-14.958 Y-12.488
G2 X-14.843 Y-12.423 R0.794
G1 X-14.717 Y-12.365
G2 X-14.673 Y-12.346 R0.794
G1 X-13.739 Y-11.981
G2 X-13.603 Y-11.942 R0.794
G1 X-13.435 Y-11.909
G2 X-13.285 Y-11.894 R0.794
G1 X-12.169 Y-11.89
G2 X-12.059 Y-11.898 R0.794
G3 X-11.962 Y-11.896 Z-0.916 R0.318
X-11.878 Y-11.869 Z-0.871 R0.318
X-11.818 Y-11.831 Z-0.801 R0.318
X-11.785 Y-11.801 Z-0.712 R0.318
X-11.775 Y-11.789 Z-0.614 R0.318
G0 Z5.
X5.104 Y-14.878
Z1.068
G1 Z-0.614 F400.
X5.112 Y-14.879 Z-0.685
X5.135 Y-14.883 Z-0.752
X5.172 Y-14.889 Z-0.812
X5.222 Y-14.897 Z-0.863
X5.281 Y-14.907 Z-0.9
X5.347 Y-14.918 Z-0.924
X5.417 Y-14.929 Z-0.932
X8.176 Y-15.382
G3 X8.541 Y-15.12 R0.318
G2 X8.564 Y-15.021 R0.794
G1 X8.613 Y-14.855
G2 X8.664 Y-14.727 R0.794
G1 X9.163 Y-13.729
G2 X9.238 Y-13.607 R0.794
G1 X9.321 Y-13.496
G2 X9.42 Y-13.388 R0.794
G1 X10.235 Y-12.641
G2 X10.317 Y-12.575 R0.794
G1 X10.428 Y-12.497
G2 X10.549 Y-12.427 R0.794
G1 X10.683 Y-12.365
G2 X10.733 Y-12.344 R0.794
G1 X11.715 Y-11.969
G2 X11.876 Y-11.926 R0.794
G1 X12.044 Y-11.9
G2 X12.169 Y-11.89 R0.794
G1 X13.285 Y-11.894
G2 X13.435 Y-11.909 R0.794
G1 X13.603 Y-11.942
G2 X13.74 Y-11.982 R0.794
G1 X14.737 Y-12.373
G2 X14.835 Y-12.419 R0.794
G1 X14.954 Y-12.486
G2 X15.079 Y-12.572 R0.794
G1 X15.246 Y-12.714
G2 X15.271 Y-12.736 R0.794
G1 X15.981 Y-13.389
G2 X16.079 Y-13.496 R0.794
G1 X16.162 Y-13.607
G2 X16.237 Y-13.729 R0.794
G1 X16.736 Y-14.727
G2 X16.787 Y-14.855 R0.794
G1 X16.836 Y-15.021
G2 X16.866 Y-15.174 R0.794
G1 X16.97 Y-16.283
G2 X16.971 Y-16.42 R0.794
G1 X16.958 Y-16.586
G2 X16.93 Y-16.742 R0.794
G1 X16.613 Y-17.851
G2 X16.555 Y-17.997 R0.794
G1 X16.49 Y-18.122
G2 X16.419 Y-18.236 R0.794
G1 X15.743 Y-19.13
G2 X15.652 Y-19.231 R0.794
G1 X15.549 Y-19.328
G2 X15.426 Y-19.422 R0.794
G1 X14.484 Y-20.01
G2 X14.371 Y-20.068 R0.794
G1 X14.204 Y-20.139
G2 X14.043 Y-20.187 R0.794
G1 X12.927 Y-20.397
G2 X12.777 Y-20.41 R0.794
G1 X12.609
G2 X12.465 Y-20.396 R0.794
G1 X11.349 Y-20.185
G2 X11.181 Y-20.133 R0.794
G1 X11.011 Y-20.06
G2 X10.909 Y-20.006 R0.794
G1 X10.015 Y-19.452
G2 X9.92 Y-19.382 R0.794
G1 X9.796 Y-19.277
G2 X9.679 Y-19.154 R0.794
G1 X9.049 Y-18.33
G2 X9.029 Y-18.301 R0.794
G1 X8.947 Y-18.184
G2 X8.886 Y-18.08 R0.794
G1 X8.835 Y-17.975
G2 X8.791 Y-17.867 R0.794
G1 X8.617 Y-17.318
G2 X8.607 Y-17.285 R0.794
G1 X8.473 Y-16.786
G2 X8.448 Y-16.646 R0.794
G1 X8.429 Y-16.425
G2 X8.43 Y-16.283 R0.794
G1 X8.534 Y-15.174
G2 X8.541 Y-15.12 R0.794
G3 X6.939 Y-13.372 Z-1.022 R1.508
G1 X-3.029 Y-14.122 Z-1.353
G3 X-4.418 Y-15.767 Z-1.432 R1.508
G1 X-4.413 Y-15.811
G3 X-3.466 Y-16.674 R0.951
G1 X3.465
G3 X4.413 Y-15.799 R0.951
G2 X4.419 Y-15.729 R4.837
G1 X4.43 Y-15.615
G3 X3.574 Y-14.673 R0.86
G1 X-3.574
G3 X-4.432 Y-15.615 R0.862
G1 X-4.418 Y-15.767
G3 X-4.394 Y-15.861 Z-1.416 R0.318
X-4.348 Y-15.937 Z-1.371 R0.318
X-4.298 Y-15.986 Z-1.301 R0.318
X-4.261 Y-16.012 Z-1.212 R0.318
X-4.247 Y-16.019 Z-1.114 R0.318
G0 Z5.
X-9.951 Y-0.742
Z1.5
G1 Z-0.09 F200.
G3 X-9.936 Y-0.741 Z-0.185 R1.508 F400.
X-9.894 Y-0.736 Z-0.271 R1.508
X-9.829 Y-0.726 Z-0.341 R1.508
X-9.747 Y-0.709 Z-0.387 R1.508
X-9.656 Y-0.686 Z-0.407 R1.508
X-10.514 Y2.206 Z-0.657 R1.508
X-9.656 Y-0.686 Z-0.907 R1.508
X-10.514 Y2.206 Z-1.157 R1.508
X-11.446 Y0.11 Z-1.294 R1.508
X-9.23 Y-0.482 Z-1.432 R1.508
G2 X-9.166 Y-0.439 R6.566
G3 Y0.439 R0.528
G2 X-9.242 Y0.491 R5.934
G1 X-9.317 Y0.543
G3 X-10.147 Y0.109 R0.528
G1 Y-0.157
G3 X-9.357 Y-0.57 R0.503
G1 X-9.253 Y-0.498
G2 X-9.23 Y-0.482 R6.566
G3 X-9.159 Y-0.415 Z-1.416 R0.317
X-9.115 Y-0.338 Z-1.371 R0.317
X-9.097 Y-0.271 Z-1.301 R0.318
X-9.093 Y-0.226 Z-1.212 R0.317
Y-0.21 Z-1.114 R0.317
G0 Z5.
X-1.928 Y14.904
Z1.5
G1 Z-0.09 F200.
G3 X-1.916 Y14.895 Z-0.185 R1.508 F400.
X-1.883 Y14.869 Z-0.271 R1.508
X-1.829 Y14.831 Z-0.341 R1.508
X-1.758 Y14.786 Z-0.387 R1.508
X-1.675 Y14.741 Z-0.407 R1.508
X-0.3 Y17.425 Z-0.657 R1.508
X-1.675 Y14.741 Z-0.907 R1.508
X-0.3 Y17.425 Z-1.157 R1.508
X-2.421 Y16.552 Z-1.294 R1.508
X-1.227 Y14.594 Z-1.432 R1.508
G2 X-0.321 Y14.361 R5.074
G3 X0.321 R0.951
G2 X1.917 Y14.657 R5.071
X3.541 Y14.675 R71.865
G3 X4.39 Y15.575 R0.851
G2 X4.383 Y15.753 R4.839
G3 X3.444 Y16.672 R0.939
G1 X-3.444
G3 X-4.383 Y15.753 R0.939
G2 X-4.39 Y15.571 R4.839
G3 X-3.546 Y14.675 R0.846
G2 X-1.92 Y14.657 R72.971
X-1.227 Y14.594 R5.074
G3 X-1.129 Y14.591 Z-1.416 R0.317
X-1.044 Y14.614 Z-1.371 R0.317
X-0.983 Y14.649 Z-1.301 R0.317
X-0.949 Y14.678 Z-1.212 R0.317
X-0.938 Y14.689 Z-1.114 R0.318
G0 Z5.
X10.891 Y1.02
Z1.5
G1 Z-0.09 F200.
G3 X10.877 Y1.017 Z-0.185 R1.508 F400.
X10.836 Y1.007 Z-0.271 R1.508
X10.772 Y0.99 Z-0.341 R1.508
X10.692 Y0.964 Z-0.387 R1.508
X10.605 Y0.929 Z-0.407 R1.508
X11.802 Y-1.84 Z-0.657 R1.508
X10.605 Y0.929 Z-0.907 R1.508
X11.802 Y-1.84 Z-1.157 R1.508
X12.477 Y0.352 Z-1.294 R1.508
X10.206 Y0.676 Z-1.432 R1.508
G2 X10.053 Y0.545 R7.122
G3 Y-0.545 R0.71
G2 X10.979 Y-1.471 R7.192
G3 X11.704 Y-1.21 R0.41
G1 Y1.21
G3 X10.979 Y1.471 R0.41
G2 X10.206 Y0.676 R7.122
X8.629 Y0.536 R1.337
G3 X7.06 Y0.743 R1.967
G2 X6.439 Y0.6 R5.625
X1.104 Y0.628 R15.314
X0.673 Y0.742 R2.855
X0.256 Y0.895 R13.837
G3 X-0.256 R0.71
G2 X-1.17 Y0.606 R7.748
X-2.121 Y0.489 R3.926
X-5.809 Y0.509 R343.034
X-9.241 Y1.861 R5.174
X-10.337 Y3.269 R5.265
X-10.936 Y4.95 R6.058
X-11.011 Y6.123 R4.494
G3 X-10.972 Y7.298 R17.334
X-11.803 Y7.997 R0.71
G2 X-12.353 Y7.934 R4.715
G3 X-12.656 Y7.175 R0.45
G2 X-11.645 Y5.689 R5.627
X-11.256 Y3.934 R4.146
G1 X-11.253 Y-3.933
G2 X-11.657 Y-5.721 R4.16
X-12.706 Y-7.225 R5.605
G3 X-12.39 Y-7.97 R0.438
G2 X-12.068 Y-7.971 R19.567
X-11.746 Y-7.988 R4.231
G3 X-10.973 Y-7.282 R0.71
G2 X-10.957 Y-5.48 R116.229
X-10.572 Y-3.719 R4.58
X-9.364 Y-1.996 R5.326
X-7.607 Y-0.838 R5.968
X-4.885 Y-0.346 R6.144
G3 X-2.121 Y-0.413 R57.264
G1 X5.525
G2 X8.598 Y-1.39 R5.322
X10.636 Y-3.889 R6.02
X10.971 Y-5.486 R3.985
G1 X10.972 Y-7.144
G3 X11.863 Y-7.979 R0.837
G2 X12.133 Y-7.969 R4.385
X12.403 Y-7.97 R42.982
G3 X13.365 Y-7.01 R0.959
G1 Y6.977
G3 X12.45 Y7.93 R0.954
G2 X12.126 Y7.952 R5.411
X11.803 Y7.997 R4.533
G3 X10.972 Y7.298 R0.71
X10.983 Y5.575 R128.005
G2 X10.641 Y3.887 R4.075
X7.06 Y0.743 R5.625
X5.245 Y1.491 R1.572
G3 X3.538 Y2.46 R1.883
X3.202 Y2.448 R62.771
G2 X0.917 Y2.867 R5.364
G3 X-0.917 R2.356
G2 X-1.505 Y2.666 R4.439
X-2.121 Y2.586 R2.402
G3 X-5.53 Y2.542 R133.355
G2 X-8.508 Y4.2 R3.352
X-9.094 Y6.611 R4.325
G3 X-9.03 Y9.092 R46.841
G2 X-5.525 Y12.609 R3.515
G3 X-3.203 Y12.654 R59.637
G2 X-0.919 Y12.234 R5.303
G3 X0.919 R2.347
G2 X3.203 Y12.654 R5.303
G3 X5.525 Y12.609 R59.637
G2 X9.03 Y9.092 R3.505
X8.932 Y5.645 R61.702
X6.954 Y2.819 R3.276
X6.256 Y2.583 R4.688
X5.525 Y2.491 R2.975
G3 X3.538 Y2.46 R62.771
G2 X1.736 Y3.48 R1.992
X0.776 Y5.315 R38.395
X0.759 Y5.351 R0.794
G1 X0.69 Y5.514
G2 X0.64 Y5.677 R0.794
G1 X0.609 Y5.839
G2 X0.594 Y5.988 R0.794
G1 X0.593 Y9.093
G2 X0.604 Y9.226 R0.794
G1 X0.632 Y9.392
G2 X0.68 Y9.56 R0.794
G1 X0.748 Y9.726
G2 X0.824 Y9.869 R0.794
G1 X0.904 Y9.987
G2 X0.999 Y10.104 R0.794
G1 X1.111 Y10.216
G2 X1.224 Y10.311 R0.794
G1 X1.335 Y10.388
G2 X1.474 Y10.464 R0.794
G1 X1.642 Y10.536
G2 X1.81 Y10.587 R0.794
G1 X1.978 Y10.617
G2 X2.121 Y10.63 R0.794
G1 X5.525
G2 X5.67 Y10.617 R0.794
G1 X5.837 Y10.586
G2 X6.006 Y10.535 R0.794
G1 X6.173 Y10.463
G2 X6.312 Y10.386 R0.794
G1 X6.424 Y10.308
G2 X6.539 Y10.211 R0.794
G1 X6.655 Y10.092
G2 X6.749 Y9.975 R0.794
G1 X6.823 Y9.864
G2 X6.896 Y9.726 R0.794
G1 X6.964 Y9.56
G2 X7.012 Y9.392 R0.794
G1 X7.04 Y9.226
G2 X7.051 Y9.093 R0.794
G1 X7.05 Y5.988
G2 X7.035 Y5.837 R0.794
G1 X7.003 Y5.671
G2 X6.951 Y5.504 R0.794
G1 X6.878 Y5.337
G2 X6.8 Y5.199 R0.794
G1 X6.722 Y5.088
G2 X6.632 Y4.982 R0.794
G1 X6.531 Y4.881
G2 X6.424 Y4.792 R0.794
G1 X6.312 Y4.715
G2 X6.173 Y4.637 R0.794
G1 X6.006 Y4.566
G2 X5.837 Y4.514 R0.794
G1 X5.67 Y4.483
G2 X5.525 Y4.47 R0.794
G1 X2.121
G2 X1.978 Y4.483 R0.794
G1 X1.812 Y4.513
G2 X1.646 Y4.563 R0.794
G1 X1.481 Y4.632
G2 X1.345 Y4.706 R0.794
G1 X1.236 Y4.78
G2 X1.12 Y4.876 R0.794
G1 X1.002 Y4.993
G2 X0.907 Y5.108 R0.794
G1 X0.833 Y5.216
G2 X0.776 Y5.315 R0.794
G3 X0.578 Y5.394 R0.159
G1 X-1.671 Y4.552
G2 X-1.812 Y4.513 R0.794
G1 X-1.978 Y4.483
G2 X-2.121 Y4.47 R0.794
G1 X-5.525
G2 X-5.67 Y4.483 R0.794
G1 X-5.837 Y4.514
G2 X-6.006 Y4.566 R0.794
G1 X-6.173 Y4.637
G2 X-6.312 Y4.715 R0.794
G1 X-6.424 Y4.792
G2 X-6.507 Y4.858 R0.794
G1 X-6.562 Y4.909
G2 X-6.636 Y4.986 R0.794
G1 X-6.724 Y5.091
G2 X-6.8 Y5.199 R0.794
G1 X-6.865 Y5.31
G2 X-6.929 Y5.449 R0.794
G1 X-6.988 Y5.615
G2 X-7.023 Y5.755 R0.794
G1 X-7.04 Y5.866
G2 X-7.05 Y5.988 R0.794
G1 X-7.051 Y9.093
G2 X-7.04 Y9.226 R0.794
G1 X-7.012 Y9.392
G2 X-6.964 Y9.56 R0.794
G1 X-6.896 Y9.726
G2 X-6.81 Y9.883 R0.794
G1 X-6.709 Y10.028
G2 X-6.611 Y10.141 R0.794
G1 X-6.524 Y10.226
G2 X-6.424 Y10.308 R0.794
G1 X-6.312 Y10.386
G2 X-6.173 Y10.463 R0.794
G1 X-6.006 Y10.535
G2 X-5.837 Y10.586 R0.794
G1 X-5.67 Y10.617
G2 X-5.525 Y10.63 R0.794
G1 X-2.121
G2 X-1.978 Y10.617 R0.794
G1 X-1.81 Y10.587
G2 X-1.642 Y10.536 R0.794
G1 X-1.474 Y10.464
G2 X-1.335 Y10.388 R0.794
G1 X-1.224 Y10.311
G2 X-1.107 Y10.213 R0.794
G1 X-0.989 Y10.093
G2 X-0.895 Y9.975 R0.794
G1 X-0.821 Y9.864
G2 X-0.748 Y9.726 R0.794
G1 X-0.68 Y9.56
G2 X-0.632 Y9.392 R0.794
G1 X-0.604 Y9.226
G2 X-0.593 Y9.093 R0.794
G1 X-0.594 Y5.988
G2 X-0.609 Y5.839 R0.794
G1 X-0.64 Y5.677
G2 X-0.69 Y5.514 R0.794
G1 X-0.759 Y5.351
G2 X-0.837 Y5.211 R0.794
G1 X-0.919 Y5.092
G2 X-1.016 Y4.978 R0.794
G1 X-1.125 Y4.871
G2 X-1.236 Y4.78 R0.794
G1 X-1.345 Y4.706
G2 X-1.481 Y4.632 R0.794
G1 X-1.646 Y4.563
G2 X-1.671 Y4.552 R0.794
G3 X-1.769 Y4.367 R0.159
G1 X-0.164 Y-2.355
G3 X-0.009 Y-2.477 R0.159
G1 X5.525
G2 X7.482 Y-3.107 R3.358
X8.776 Y-4.704 R3.883
X9.137 Y-6.884 R4.487
G3 X9.044 Y-9.092 R25.938
G2 X5.525 Y-12.623 R3.529
G1 X-5.525
G2 X-8.189 Y-11.364 R3.447
X-8.89 Y-9.857 R3.394
X-9.045 Y-8.203 R8.776
X-8.876 Y-5.444 R23.037
X-7.448 Y-3.077 R3.378
X-4.83 Y-2.37 R4.035
G3 X-2.121 Y-2.477 R34.341
G1 X-0.009
G2 X1.485 Y-3.474 R1.619
G3 X2.98 Y-4.47 R1.619
G1 X5.525
G2 X5.67 Y-4.483 R0.794
G1 X5.837 Y-4.514
G2 X6.006 Y-4.566 R0.794
G1 X6.173 Y-4.637
G2 X6.312 Y-4.715 R0.794
G1 X6.424 Y-4.792
G2 X6.531 Y-4.881 R0.794
G1 X6.632 Y-4.982
G2 X6.722 Y-5.088 R0.794
G1 X6.8 Y-5.199
G2 X6.878 Y-5.337 R0.794
G1 X6.951 Y-5.504
G2 X7.003 Y-5.671 R0.794
G1 X7.035 Y-5.837
G2 X7.05 Y-5.988 R0.794
G1 X7.051 Y-9.093
G2 X7.04 Y-9.226 R0.794
G1 X7.012 Y-9.392
G2 X6.964 Y-9.56 R0.794
G1 X6.896 Y-9.726
G2 X6.81 Y-9.883 R0.794
G1 X6.709 Y-10.028
G2 X6.611 Y-10.141 R0.794
G1 X6.524 Y-10.226
G2 X6.424 Y-10.308 R0.794
G1 X6.312 Y-10.386
G2 X6.173 Y-10.463 R0.794
G1 X6.006 Y-10.535
G2 X5.837 Y-10.586 R0.794
G1 X5.67 Y-10.617
G2 X5.525 Y-10.63 R0.794
G1 X-5.525
G2 X-5.67 Y-10.617 R0.794
G1 X-5.837 Y-10.586
G2 X-6.006 Y-10.535 R0.794
G1 X-6.173 Y-10.463
G2 X-6.312 Y-10.386 R0.794
G1 X-6.424 Y-10.308
G2 X-6.507 Y-10.242 R0.794
G1 X-6.562 Y-10.191
G2 X-6.643 Y-10.106 R0.794
G1 X-6.743 Y-9.983
G2 X-6.837 Y-9.838 R0.794
G1 X-6.921 Y-9.671
G2 X-6.982 Y-9.504 R0.794
G1 X-7.023 Y-9.337
G2 X-7.046 Y-9.155 R0.794
G1 X-7.052 Y-8.212
Y-8.205
X-7.05 Y-5.987
G2 X-7.035 Y-5.837 R0.794
G1 X-7.003 Y-5.671
G2 X-6.951 Y-5.504 R0.794
G1 X-6.878 Y-5.337
G2 X-6.8 Y-5.199 R0.794
G1 X-6.722 Y-5.088
G2 X-6.632 Y-4.982 R0.794
G1 X-6.531 Y-4.881
G2 X-6.424 Y-4.792 R0.794
G1 X-6.312 Y-4.715
G2 X-6.173 Y-4.637 R0.794
G1 X-6.006 Y-4.566
G2 X-5.837 Y-4.514 R0.794
G1 X-5.67 Y-4.483
G2 X-5.525 Y-4.47 R0.794
G1 X2.98
G3 X3.032 Y-4.461 R0.159
G1 X15.335 Y-0.159
G3 X15.441 Y-0.009 R0.159
G1 Y9.692
G3 X14.608 Y10.309 R0.645
G2 X13.571 Y10.035 R14.487
X12.502 Y9.938 R4.115
X7.64 Y12.581 R6.264
X6.889 Y18.064 R6.002
G3 X6.321 Y18.871 R0.604
G1 X-6.321
G3 X-6.889 Y18.064 R0.604
G2 X-6.694 Y14.673 R6.032
X-8.297 Y11.678 R6.517
X-10.837 Y10.224 R5.025
X-13.758 Y10.065 R8.638
X-14.268 Y10.187 R2.211
G3 X-14.763 Y10.358 R12.781
X-15.44 Y9.865 R0.518
G1 Y7.735
G3 X-14.61 Y6.131 R1.966
G2 X-13.719 Y5.184 R3.277
X-13.362 Y3.934 R2.371
G1 X-13.36 Y-3.12
Y-3.933
G2 X-13.739 Y-5.225 R2.389
X-14.687 Y-6.181 R3.24
G3 X-15.44 Y-7.576 R1.669
G1 Y-9.743
G3 X-14.584 Y-10.322 R0.624
G2 X-11.1 Y-10.188 R5.191
X-8.08 Y-11.931 R8.005
X-6.683 Y-14.39 R4.625
X-6.643 Y-17.218 R7.402
X-6.756 Y-17.613 R2.023
G3 X-6.896 Y-18. R5.724
X-6.26 Y-18.871 R0.667
G1 X6.26
G3 X6.896 Y-18. R0.667
G2 X6.613 Y-16.984 R13.664
X6.541 Y-15.933 R3.224
X6.94 Y-13.793 R12.314
X8.076 Y-11.936 R3.989
X11.097 Y-10.187 R7.972
X14.585 Y-10.323 R5.192
G3 X15.441 Y-9.744 R0.624
G1 Y-0.009
G2 X16.364 Y1.376 R1.5
G3 X17.287 Y2.76 R1.5
G1 Y16.166
X17.256 Y16.653
X17.233 Y16.788
X16.954 Y17.739
X16.885 Y17.968
X16.8 Y18.183
X16.718 Y18.335
X16.68 Y18.392
X15.892 Y19.412
X15.76 Y19.546
X15.668 Y19.621
X15.425 Y19.782
X14.564 Y20.307
X14.47 Y20.356
X14.375 Y20.399
X14.19 Y20.461
X13.91 Y20.52
X13.039 Y20.681
X12.865 Y20.707
X12.702 Y20.716
X-12.702
X-13.198 Y20.688
X-13.354 Y20.664
X-13.414 Y20.65
X-14.526 Y20.319
X-14.739 Y20.236
X-14.892 Y20.155
X-14.947 Y20.12
X-15.972 Y19.331
X-16.108 Y19.199
X-16.195 Y19.094
X-16.231 Y19.045
X-16.867 Y18.012
X-16.924 Y17.905
X-16.964 Y17.817
X-17.026 Y17.639
X-17.086 Y17.367
X-17.276 Y16.313
X-17.287 Y16.162
X-17.285 Y6.247
X-17.271 Y6.099
X-17.244 Y5.951
X-17.201 Y5.803
X-17.142 Y5.656
X-17.062 Y5.504
X-16.988 Y5.392
X-16.92 Y5.303
X-16.844 Y5.218
X-16.688 Y5.077
X-16.572 Y4.993
X-16.39 Y4.89
X-16.245 Y4.828
X-16.092 Y4.78
X-15.963 Y4.752
G2 X-15.641 Y4.598 R0.794
G1 X-15.588 Y4.556
G2 X-15.288 Y3.934 R0.794
G1 Y-3.933
G2 X-15.595 Y-4.56 R0.794
G1 X-15.649 Y-4.602
G2 X-15.939 Y-4.744 R0.794
G1 X-16.172 Y-4.803
X-16.315 Y-4.856
X-16.511 Y-4.955
X-16.627 Y-5.031
X-16.772 Y-5.148
X-16.836 Y-5.209
X-16.92 Y-5.303
X-16.988 Y-5.392
X-17.062 Y-5.504
X-17.142 Y-5.656
X-17.201 Y-5.803
X-17.244 Y-5.951
X-17.271 Y-6.099
X-17.285 Y-6.247
X-17.287 Y-16.166
X-17.256 Y-16.653
X-17.233 Y-16.788
X-16.954 Y-17.739
X-16.885 Y-17.968
X-16.8 Y-18.183
X-16.718 Y-18.335
X-16.68 Y-18.392
X-15.892 Y-19.412
X-15.76 Y-19.546
X-15.668 Y-19.621
X-15.425 Y-19.782
X-14.564 Y-20.307
X-14.47 Y-20.356
X-14.375 Y-20.399
X-14.19 Y-20.461
X-13.91 Y-20.52
X-13.039 Y-20.681
X-12.865 Y-20.707
X-12.702 Y-20.716
X12.702
X13.198 Y-20.688
X13.354 Y-20.664
X13.414 Y-20.65
X14.526 Y-20.319
X14.739 Y-20.236
X14.892 Y-20.155
X14.947 Y-20.12
X15.972 Y-19.331
X16.108 Y-19.199
X16.195 Y-19.094
X16.231 Y-19.045
X16.867 Y-18.012
X16.924 Y-17.905
X16.964 Y-17.817
X17.026 Y-17.639
X17.086 Y-17.367
X17.276 Y-16.313
X17.287 Y-16.162
Y2.76
G3 X17.269 Y2.832 R0.159
G1 X12.682 Y11.765
G3 X12.553 Y11.851 R0.159
G2 X12.464 Y11.862 R0.794
G1 X11.349 Y12.073
G2 X11.191 Y12.121 R0.794
G1 X11.04 Y12.184
G2 X10.928 Y12.241 R0.794
G1 X10.013 Y12.807
G2 X9.92 Y12.875 R0.794
G1 X9.805 Y12.972
G2 X9.689 Y13.092 R0.794
G1 X9.383 Y13.486
G2 X9.373 Y13.5 R0.794
G1 X8.962 Y14.054
G2 X8.881 Y14.188 R0.794
G1 X8.822 Y14.313
G2 X8.776 Y14.436 R0.794
G1 X8.467 Y15.532
G2 X8.441 Y15.67 R0.794
G1 X8.43 Y15.781
G2 X8.427 Y15.885 R0.794
G1 X8.453 Y16.661
G2 X8.47 Y16.798 R0.794
G1 X8.563 Y17.242
G2 X8.592 Y17.345 R0.794
G1 X8.632 Y17.456
G2 X8.669 Y17.544 R0.794
G1 X9.16 Y18.524
G2 X9.227 Y18.634 R0.794
G1 X9.301 Y18.736
G2 X9.39 Y18.84 R0.794
G1 X9.533 Y18.978
G2 X9.553 Y18.997 R0.794
G1 X10.269 Y19.645
G2 X10.389 Y19.735 R0.794
G1 X10.527 Y19.818
G2 X10.653 Y19.88 R0.794
G1 X11.714 Y20.289
G2 X11.876 Y20.332 R0.794
G1 X12.044 Y20.358
G2 X12.169 Y20.368 R0.794
G1 X13.285 Y20.364
G2 X13.454 Y20.345 R0.794
G1 X13.621 Y20.308
G2 X13.737 Y20.273 R0.794
G1 X14.742 Y19.883
G2 X14.858 Y19.826 R0.794
G1 X14.993 Y19.747
G2 X15.124 Y19.65 R0.794
G1 X15.981 Y18.868
G2 X16.092 Y18.744 R0.794
G1 X16.189 Y18.608
G2 X16.256 Y18.497 R0.794
G1 X16.755 Y17.484
G2 X16.815 Y17.318 R0.794
G1 X16.855 Y17.151
G2 X16.873 Y17.04 R0.794
G1 X16.97 Y15.986
G2 X16.972 Y15.864 R0.794
G1 X16.961 Y15.697
G2 X16.932 Y15.53 R0.794
G1 X16.613 Y14.408
G2 X16.546 Y14.244 R0.794
G1 X16.46 Y14.087
G2 X16.397 Y13.991 R0.794
G1 X15.772 Y13.162
G2 X15.708 Y13.087 R0.794
G1 X15.6 Y12.976
G2 X15.507 Y12.895 R0.794
G1 X15.433 Y12.839
G2 X15.371 Y12.797 R0.794
G1 X14.423 Y12.216
G2 X14.27 Y12.144 R0.794
G1 X14.103 Y12.085
G2 X14.065 Y12.073 R0.794
G1 X13.674 Y11.958
G2 X13.538 Y11.93 R0.794
G1 X12.813 Y11.849
G2 X12.692 Y11.845 R0.794
G1 X12.58 Y11.849
G2 X12.553 Y11.851 R0.794
G3 X12.456 Y11.843 Z-1.416 R0.317
X12.373 Y11.811 Z-1.371 R0.318
X12.317 Y11.77 Z-1.301 R0.317
X12.285 Y11.737 Z-1.212 R0.318
X12.276 Y11.725 Z-1.114 R0.318
G0 Z5.
X-5.03 Y15.238
Z0.568
G1 Z-1.114 F400.
X-5.038 Y15.24 Z-1.185
X-5.061 Y15.244 Z-1.252
X-5.098 Y15.251 Z-1.312
X-5.148 Y15.26 Z-1.363
X-5.207 Y15.271 Z-1.4
X-5.273 Y15.283 Z-1.424
X-5.342 Y15.296 Z-1.432
X-8.092 Y15.803
G3 X-8.462 Y15.548 R0.318
G2 X-8.479 Y15.473 R0.794
G1 X-8.777 Y14.433
G2 X-8.822 Y14.313 R0.794
G1 X-8.881 Y14.188
G2 X-8.963 Y14.052 R0.794
G1 X-9.559 Y13.253
G2 X-9.579 Y13.228 R0.794
G1 X-9.7 Y13.079
G2 X-9.805 Y12.972 R0.794
G1 X-9.92 Y12.875
G2 X-10.015 Y12.806 R0.794
G1 X-10.805 Y12.321
X-10.969 Y12.22
G2 X-11.127 Y12.146 R0.794
G1 X-11.294 Y12.088
G2 X-11.408 Y12.058 R0.794
G1 X-12.467 Y11.862
G2 X-12.612 Y11.848 R0.794
G1 X-12.788
G2 X-12.88 Y11.854 R0.794
G1 X-13.542 Y11.931
G2 X-13.678 Y11.959 R0.794
G1 X-14.18 Y12.109
G2 X-14.286 Y12.15 R0.794
G1 X-14.398 Y12.201
G2 X-14.483 Y12.247 R0.794
G1 X-15.413 Y12.826
G2 X-15.519 Y12.905 R0.794
G1 X-15.615 Y12.99
G2 X-15.72 Y13.103 R0.794
G1 X-16.356 Y13.935
G2 X-16.391 Y13.986 R0.794
G1 X-16.493 Y14.143
G2 X-16.549 Y14.246 R0.794
G1 X-16.573 Y14.298
G2 X-16.613 Y14.408 R0.794
G1 X-16.932 Y15.53
G2 X-16.961 Y15.697 R0.794
G1 X-16.972 Y15.864
G2 X-16.97 Y15.989 R0.794
G1 X-16.864 Y17.098
G2 X-16.83 Y17.262 R0.794
G1 X-16.777 Y17.429
G2 X-16.73 Y17.546 R0.794
G1 X-16.225 Y18.548
G2 X-16.126 Y18.699 R0.794
G1 X-16.014 Y18.835
G2 X-15.936 Y18.916 R0.794
G1 X-15.122 Y19.652
G2 X-14.993 Y19.747 R0.794
G1 X-14.858 Y19.826
G2 X-14.742 Y19.883 R0.794
G1 X-13.737 Y20.273
G2 X-13.621 Y20.308 R0.794
G1 X-13.454 Y20.345
G2 X-13.285 Y20.364 R0.794
G1 X-12.169 Y20.368
G2 X-12.044 Y20.358 R0.794
G1 X-11.876 Y20.332
G2 X-11.714 Y20.289 R0.794
G1 X-10.653 Y19.88
G2 X-10.527 Y19.818 R0.794
G1 X-10.389 Y19.735
G2 X-10.268 Y19.644 R0.794
G1 X-9.461 Y18.913
G2 X-9.394 Y18.844 R0.794
G1 X-9.303 Y18.739
G2 X-9.242 Y18.659 R0.794
G1 X-9.208 Y18.608
G2 X-9.16 Y18.524 R0.794
G1 X-8.669 Y17.544
G2 X-8.632 Y17.456 R0.794
G1 X-8.592 Y17.345
G2 X-8.563 Y17.242 R0.794
G1 X-8.47 Y16.798
G2 X-8.453 Y16.661 R0.794
G1 X-8.427 Y15.885
G2 X-8.433 Y15.753 R0.794
G1 X-8.456 Y15.586
G2 X-8.462 Y15.548 R0.794
G3 X-8.465 Y15.45 Z-1.416 R0.318
X-8.441 Y15.365 Z-1.371 R0.318
X-8.407 Y15.304 Z-1.301 R0.317
X-8.378 Y15.27 Z-1.212 R0.318
X-8.367 Y15.259 Z-1.114 R0.318
G0 Z5.
X-11.912 Y-8.455
Z0.568
G1 Z-1.114 F400.
X-11.913 Y-8.463 Z-1.185
X-11.916 Y-8.486 Z-1.252
X-11.921 Y-8.524 Z-1.312
X-11.928 Y-8.574 Z-1.363
X-11.936 Y-8.633 Z-1.4
X-11.945 Y-8.7 Z-1.424
X-11.954 Y-8.77 Z-1.432
X-12.331 Y-11.54
G3 X-12.059 Y-11.898 R0.318
G2 X-12.044 Y-11.9 R0.794
G1 X-11.876 Y-11.926
G2 X-11.714 Y-11.969 R0.794
G1 X-10.653 Y-12.378
G2 X-10.54 Y-12.432 R0.794
G1 X-10.429 Y-12.497
G2 X-10.321 Y-12.572 R0.794
G1 X-10.209 Y-12.664
G2 X-10.178 Y-12.691 R0.794
G1 X-9.419 Y-13.388
G2 X-9.321 Y-13.496 R0.794
G1 X-9.238 Y-13.607
G2 X-9.163 Y-13.729 R0.794
G1 X-8.664 Y-14.727
G2 X-8.613 Y-14.855 R0.794
G1 X-8.564 Y-15.021
G2 X-8.534 Y-15.174 R0.794
G1 X-8.43 Y-16.283
G2 Y-16.431 R0.794
G1 X-8.455 Y-16.708
G2 X-8.465 Y-16.775 R0.794
G1 X-8.485 Y-16.886
G2 X-8.51 Y-16.987 R0.794
G1 X-8.792 Y-17.869
G2 X-8.835 Y-17.975 R0.794
G1 X-8.886 Y-18.08
G2 X-8.963 Y-18.206 R0.794
G1 X-9.621 Y-19.087
G2 X-9.687 Y-19.164 R0.794
G1 X-9.805 Y-19.285
G2 X-9.933 Y-19.392 R0.794
G1 X-10.111 Y-19.512
G2 X-10.138 Y-19.529 R0.794
G1 X-10.97 Y-20.039
G2 X-11.127 Y-20.112 R0.794
G1 X-11.294 Y-20.17
G2 X-11.408 Y-20.2 R0.794
G1 X-12.468 Y-20.396
G2 X-12.609 Y-20.41 R0.794
G1 X-12.777
G2 X-12.927 Y-20.397 R0.794
G1 X-14.043 Y-20.187
G2 X-14.204 Y-20.139 R0.794
G1 X-14.371 Y-20.068
G2 X-14.484 Y-20.01 R0.794
G1 X-15.426 Y-19.422
G2 X-15.549 Y-19.328 R0.794
G1 X-15.652 Y-19.231
G2 X-15.743 Y-19.13 R0.794
G1 X-16.419 Y-18.236
G2 X-16.49 Y-18.122 R0.794
G1 X-16.555 Y-17.997
G2 X-16.613 Y-17.851 R0.794
G1 X-16.93 Y-16.742
G2 X-16.958 Y-16.586 R0.794
G1 X-16.971 Y-16.42
G2 X-16.97 Y-16.283 R0.794
G1 X-16.866 Y-15.174
G2 X-16.836 Y-15.021 R0.794
G1 X-16.787 Y-14.855
G2 X-16.736 Y-14.727 R0.794
G1 X-16.237 Y-13.729
G2 X-16.162 Y-13.607 R0.794
G1 X-16.079 Y-13.496
G2 X-15.98 Y-13.388 R0.794
G1 X-15.158 Y-12.635
G2 X-15.069 Y-12.564 R0.794
G1 X-14.958 Y-12.488
G2 X-14.843 Y-12.423 R0.794
G1 X-14.717 Y-12.365
G2 X-14.68 Y-12.349 R0.794
G1 X-13.801 Y-11.997
G2 X-13.665 Y-11.956 R0.794
G1 X-13.442 Y-11.91
G2 X-13.285 Y-11.894 R0.794
G1 X-12.169 Y-11.89
G2 X-12.059 Y-11.898 R0.794
G3 X-11.962 Y-11.896 Z-1.416 R0.318
X-11.878 Y-11.869 Z-1.371 R0.318
X-11.818 Y-11.831 Z-1.301 R0.318
X-11.785 Y-11.801 Z-1.212 R0.318
X-11.775 Y-11.789 Z-1.114 R0.318
G0 Z5.
X5.104 Y-14.878
Z0.568
G1 Z-1.114 F400.
X5.112 Y-14.879 Z-1.185
X5.135 Y-14.883 Z-1.252
X5.172 Y-14.889 Z-1.312
X5.222 Y-14.897 Z-1.363
X5.281 Y-14.907 Z-1.4
X5.347 Y-14.918 Z-1.424
X5.417 Y-14.929 Z-1.432
X8.176 Y-15.382
G3 X8.541 Y-15.12 R0.318
G2 X8.564 Y-15.021 R0.794
G1 X8.613 Y-14.855
G2 X8.664 Y-14.727 R0.794
G1 X9.163 Y-13.729
G2 X9.238 Y-13.607 R0.794
G1 X9.321 Y-13.496
G2 X9.42 Y-13.388 R0.794
G1 X10.235 Y-12.641
G2 X10.317 Y-12.575 R0.794
G1 X10.428 Y-12.497
G2 X10.549 Y-12.427 R0.794
G1 X10.683 Y-12.365
G2 X10.733 Y-12.344 R0.794
G1 X11.715 Y-11.969
G2 X11.876 Y-11.926 R0.794
G1 X12.044 Y-11.9
G2 X12.169 Y-11.89 R0.794
G1 X13.285 Y-11.894
G2 X13.442 Y-11.91 R0.794
G1 X13.665 Y-11.956
G2 X13.801 Y-11.997 R0.794
G1 X14.743 Y-12.375
G2 X14.835 Y-12.419 R0.794
G1 X14.954 Y-12.486
G2 X15.079 Y-12.572 R0.794
G1 X15.246 Y-12.714
G2 X15.271 Y-12.736 R0.794
G1 X15.981 Y-13.389
G2 X16.079 Y-13.496 R0.794
G1 X16.162 Y-13.607
G2 X16.237 Y-13.729 R0.794
G1 X16.736 Y-14.727
G2 X16.787 Y-14.855 R0.794
G1 X16.836 Y-15.021
G2 X16.866 Y-15.174 R0.794
G1 X16.97 Y-16.283
G2 X16.971 Y-16.42 R0.794
G1 X16.958 Y-16.586
G2 X16.93 Y-16.742 R0.794
G1 X16.613 Y-17.851
G2 X16.555 Y-17.997 R0.794
G1 X16.49 Y-18.122
G2 X16.419 Y-18.236 R0.794
G1 X15.743 Y-19.13
G2 X15.652 Y-19.231 R0.794
G1 X15.549 Y-19.328
G2 X15.426 Y-19.422 R0.794
G1 X14.484 Y-20.01
G2 X14.371 Y-20.068 R0.794
G1 X14.204 Y-20.139
G2 X14.043 Y-20.187 R0.794
G1 X12.927 Y-20.397
G2 X12.777 Y-20.41 R0.794
G1 X12.609
G2 X12.465 Y-20.396 R0.794
G1 X11.349 Y-20.185
G2 X11.181 Y-20.133 R0.794
G1 X11.011 Y-20.06
G2 X10.909 Y-20.006 R0.794
G1 X10.015 Y-19.452
G2 X9.92 Y-19.382 R0.794
G1 X9.796 Y-19.277
G2 X9.679 Y-19.154 R0.794
G1 X9.049 Y-18.33
G2 X9.029 Y-18.301 R0.794
G1 X8.947 Y-18.184
G2 X8.886 Y-18.08 R0.794
G1 X8.835 Y-17.975
G2 X8.792 Y-17.869 R0.794
G1 X8.51 Y-16.987
G2 X8.479 Y-16.852 R0.794
G1 X8.434 Y-16.52
G2 X8.428 Y-16.366 R0.794
G1 X8.441 Y-16.144
G2 X8.444 Y-16.115 R0.794
G1 X8.534 Y-15.172
G2 X8.541 Y-15.12 R0.794
G3 X8.231 Y-14.751 R0.318
G1 X7.499 Y-14.743
X1.491 Y-14.677 Z-1.932
G3 X-1.537 Y-14.679 R30.448
X-1.939 Y-14.765 R1.286
X-2.286 Y-14.987 R1.059
X-2.787 Y-15.472 R53.345
X-3.275 Y-15.97 R18.652
X-2.941 Y-16.745 R0.459
G1 X2.941
G3 X3.274 Y-15.971 R0.459
G1 X2.658 Y-15.32
G3 X2.008 Y-14.761 R4.229
X1.756 Y-14.683 R0.434
G2 X1.491 Y-14.677 R4.427
X0.2 Y-13.692 R1.433
G3 X-1.145 Y-12.78 R1.328
X-2.232 Y-12.925 R7.765
X-2.932 Y-13.219 R1.971
X-3.524 Y-13.694 R4.393
X-4.602 Y-14.732 R288.943
X-5.626 Y-15.823 R15.638
X-6.187 Y-16.729 R3.511
X-6.554 Y-17.73 R10.687
X-5.897 Y-18.624 R0.689
G1 X5.897
G3 X6.554 Y-17.73 R0.689
X5.282 Y-15.502 R5.951
X3.491 Y-13.665 R35.424
X2.609 Y-13.091 R2.852
X1.581 Y-12.861 R3.099
X-0.328 Y-12.773 R316.682
X-1.145 Y-12.78 R7.765
X-1.241 Y-12.795 Z-1.916 R0.317
X-1.321 Y-12.834 Z-1.871 R0.317
X-1.374 Y-12.879 Z-1.801 R0.317
X-1.403 Y-12.913 Z-1.712 R0.318
X-1.412 Y-12.926 Z-1.614 R0.318
G0 Z5.
X-10.103 Y0.741
Z-0.59
G3 X-10.11 Y0.728 Z-0.685 R1.508 F400.
X-10.13 Y0.691 Z-0.771 R1.508
X-10.159 Y0.632 Z-0.841 R1.508
X-10.192 Y0.554 Z-0.887 R1.508
X-10.224 Y0.466 Z-0.907 R1.508
X-7.355 Y-0.466 Z-1.157 R1.508
X-10.224 Y0.466 Z-1.407 R1.508
X-7.355 Y-0.466 Z-1.657 R1.508
X-10.224 Y0.466 Z-1.907 R1.508
X-10.297 Y0. Z-1.932 R1.508
G1 Y-0.298
G3 X-9.524 Y-0.701 R0.492
G2 X-9.346 Y-0.581 R6.334
X-9.165 Y-0.464 R19.879
G3 Y0.464 R0.55
G2 X-9.326 Y0.568 R21.342
X-9.486 Y0.674 R6.906
G3 X-10.297 Y0.248 R0.518
G1 Y0.
G3 X-10.282 Y-0.097 Z-1.916 R0.317
X-10.244 Y-0.176 Z-1.871 R0.318
X-10.199 Y-0.23 Z-1.801 R0.318
X-10.164 Y-0.258 Z-1.712 R0.317
X-10.151 Y-0.267 Z-1.614 R0.317
G0 Z5.
X-1.013 Y14.785
Z-0.59
G3 X-1.003 Y14.775 Z-0.685 R1.508 F400.
X-0.974 Y14.745 Z-0.771 R1.508
X-0.925 Y14.7 Z-0.841 R1.508
X-0.862 Y14.645 Z-0.887 R1.508
X-0.787 Y14.588 Z-0.907 R1.508
X0.955 Y17.051 Z-1.157 R1.508
X-0.787 Y14.588 Z-1.407 R1.508
X0.955 Y17.051 Z-1.657 R1.508
X-0.787 Y14.588 Z-1.907 R1.508
X-0.363 Y14.38 Z-1.932 R1.508
G2 X-0.293 Y14.358 R13.009
G3 X0.265 Y14.353 R0.951
G2 X1.06 Y14.53 R5.959
G3 X1.861 Y14.675 R15.221
X2.074 Y14.78 R0.474
X2.25 Y14.94 R4.391
X2.779 Y15.453 R73.9
X3.295 Y15.979 R19.195
X2.961 Y16.754 R0.459
G1 X-2.963
G3 X-3.297 Y15.979 R0.459
G1 X-2.664 Y15.31
G3 X-2.007 Y14.744 R4.26
X-1.62 Y14.613 R0.734
G2 X-1.212 Y14.582 R6.412
X-0.747 Y14.492 R2.925
X-0.363 Y14.38 R13.009
X0.656 Y13.454 R1.629
G3 X1.853 Y12.774 R1.127
G2 X1.988 Y12.792 R7.583
G3 X3.091 Y13.215 R2.438
X3.314 Y13.407 R1.485
G2 X3.522 Y13.616 R6.637
G3 X4.605 Y14.69 R48.392
X5.634 Y15.817 R22.624
X6.213 Y16.752 R3.64
X6.56 Y17.796 R6.667
X5.9 Y18.635 R0.679
G1 X-5.901
G3 X-6.555 Y17.792 R0.676
X-5.333 Y15.494 R5.531
X-3.527 Y13.619 R32.011
X-2.27 Y12.941 R2.688
G2 X-0.891 Y12.573 R20.234
G3 X0.83 Y12.557 R3.039
G2 X1.853 Y12.774 R7.583
G3 X1.947 Y12.799 Z-1.916 R0.317
X2.022 Y12.845 Z-1.871 R0.318
X2.071 Y12.896 Z-1.801 R0.318
X2.096 Y12.933 Z-1.712 R0.318
X2.103 Y12.947 Z-1.614 R0.317
G0 Z5.
X10.634 Y1.433
Z-0.59
G3 X10.62 Y1.43 Z-0.685 R1.508 F400.
X10.579 Y1.421 Z-0.771 R1.508
X10.515 Y1.405 Z-0.841 R1.508
X10.435 Y1.38 Z-0.887 R1.508
X10.347 Y1.346 Z-0.907 R1.508
X11.503 Y-1.44 Z-1.157 R1.508
X10.347 Y1.346 Z-1.407 R1.508
X11.503 Y-1.44 Z-1.657 R1.508
X12.21 Y0.742 Z-1.794 R1.508
X9.945 Y1.1 Z-1.932 R1.508
G2 X9.315 Y0.63 R5.886
X9.166 Y0.54 R2.777
G3 X9.015 Y0.453 R5.497
Y-0.453 R0.529
G2 X10.215 Y-1.351 R7.51
X11.19 Y-2.488 R6.304
X11.492 Y-3.042 R3.48
G1 X11.718 Y-3.564
G3 X12.365 Y-3.43 R0.337
G1 Y3.43
G3 X11.718 Y3.564 R0.337
G2 X10.734 Y1.919 R7.356
X9.945 Y1.1 R5.886
X8.318 Y0.976 R1.381
G3 X6.712 Y1.266 R2.214
G2 X5.583 Y1.179 R4.692
G3 X1.842 Y1.26 R86.09
G2 X1.113 Y1.342 R3.281
X0.408 Y1.541 R7.196
G3 X-0.408 R1.273
G2 X-3.063 Y1.137 R7.714
G3 X-5.748 Y1.17 R111.252
G2 X-7.609 Y1.56 R4.632
X-9.184 Y2.626 R5.261
X-9.93 Y3.709 R3.47
G3 X-10.522 Y4.883 R12.115
X-11.465 Y6.138 R6.39
G2 X-12.55 Y7.274 R154.883
X-12.997 Y7.777 R10.781
G3 X-13.444 Y8.281 R10.781
X-14.122 Y8.011 R0.393
G1 Y7.601
G3 X-13.946 Y7.274 R0.393
G2 X-12.555 Y5.848 R4.745
X-12.003 Y3.934 R3.593
G1 Y-3.933
G2 X-12.555 Y-5.847 R3.591
X-13.946 Y-7.272 R4.746
G3 X-14.122 Y-7.599 R0.393
G1 Y-7.843
G3 X-13.329 Y-8.159 R0.459
X-11.569 Y-6.248 R105.687
X-10.166 Y-4.062 R8.059
G2 X-9.036 Y-2.484 R4.584
X-7.382 Y-1.468 R5.287
X-5.748 Y-1.17 R4.5
G1 X5.748
G2 X7.609 Y-1.56 R4.632
X9.184 Y-2.626 R5.261
X9.93 Y-3.709 R3.47
G3 X10.522 Y-4.883 R12.115
X10.684 Y-5.144 R4.16
X10.869 Y-5.389 R3.062
X13.33 Y-8.16 R60.86
X14.123 Y-7.844 R0.46
G1 Y7.844
G3 X13.33 Y8.16 R0.459
X10.841 Y5.353 R59.912
X9.994 Y3.915 R5.182
G2 X9.076 Y2.521 R3.972
X6.712 Y1.266 R4.692
X5.792 Y1.649 R0.893
G3 X4.937 Y2.163 R1.158
G2 X4.798 Y2.179 R4.302
G3 X1.842 Y2.37 R22.953
G2 X1.283 Y2.434 R2.495
X0.742 Y2.589 R5.292
G3 X-0.742 R2.275
G2 X-3.232 Y2.221 R6.823
G3 X-5.748 Y2.269 R64.941
G2 X-7.193 Y2.578 R3.537
X-8.413 Y3.411 R4.168
X-9.056 Y4.383 R2.806
G3 X-9.562 Y5.434 R7.995
X-10.603 Y6.777 R6.168
G2 X-11.795 Y7.988 R42.363
G3 X-12.919 Y9.142 R55.088
X-14.293 Y9.983 R3.455
X-15.222 Y9.307 R0.71
G1 Y7.481
G3 X-14.622 Y6.401 R1.273
G2 X-13.559 Y5.36 R3.462
X-13.133 Y3.934 R2.604
G1 Y-3.933
G2 X-13.559 Y-5.359 R2.601
X-14.622 Y-6.399 R3.464
G3 X-15.222 Y-7.479 R1.273
G1 Y-9.39
G3 X-14.361 Y-10.012 R0.655
X-12.952 Y-9.156 R3.685
X-11.794 Y-7.982 R38.525
X-10.324 Y-6.356 R50.508
X-9.157 Y-4.499 R7.219
G2 X-8.275 Y-3.278 R3.49
X-6.988 Y-2.495 R4.196
X-6.378 Y-2.325 R3.343
X-5.748 Y-2.269 R3.582
G1 X5.748
G2 X7.193 Y-2.578 R3.537
X8.413 Y-3.411 R4.168
X9.056 Y-4.383 R2.806
G3 X9.562 Y-5.434 R7.995
X9.786 Y-5.769 R2.92
X10.039 Y-6.083 R11.116
X11.356 Y-7.614 R68.907
X12.758 Y-9.069 R24.124
X13.508 Y-9.63 R3.912
X14.363 Y-10.012 R4.64
X15.223 Y-9.391 R0.655
G1 Y9.346
G3 X14.337 Y9.993 R0.68
X13.495 Y9.622 R4.3
X12.758 Y9.07 R3.853
X11.34 Y7.598 R24.43
X10.008 Y6.046 R66.348
X8.97 Y4.351 R6.905
G2 X7.688 Y2.832 R3.408
X4.937 Y2.163 R4.302
X3.294 Y3.297 R2.056
G3 X1.687 Y4.484 R2.184
G1 X1.547 Y4.506
G2 X1.389 Y4.549 R0.794
G1 X1.241 Y4.606
G2 X1.095 Y4.681 R0.794
G1 X0.952 Y4.773
G2 X0.827 Y4.874 R0.794
G1 X0.72 Y4.979
G2 X0.626 Y5.091 R0.794
G1 X0.544 Y5.208
G2 X0.468 Y5.344 R0.794
G1 X0.4 Y5.5
G2 X0.364 Y5.6 R0.794
G1 X0.353 Y5.639
G2 X0.334 Y5.723 R0.794
G1 X0.311 Y5.855
G2 X0.3 Y5.988 R0.794
G1 X0.299 Y9.093
G2 X0.308 Y9.218 R0.794
G1 X0.332 Y9.368
G2 X0.371 Y9.517 R0.794
G1 X0.425 Y9.664
G2 X0.497 Y9.812 R0.794
G1 X0.589 Y9.958
G2 X0.693 Y10.09 R0.794
G1 X0.805 Y10.206
G2 X0.919 Y10.303 R0.794
G1 X1.032 Y10.382
G2 X1.154 Y10.453 R0.794
G1 X1.285 Y10.513
G2 X1.435 Y10.565 R0.794
G1 X1.602 Y10.605
G2 X1.702 Y10.622 R0.794
G1 X2.684 Y10.726
X3.524 Y10.99
X4.305 Y11.422
X4.387 Y11.485
X5.03 Y12.045
X7.272 Y14.419
X7.85 Y15.169
X8.24 Y15.97
X8.467 Y16.829
X8.586 Y17.32
G2 X8.644 Y17.483 R0.794
G1 X9.052 Y18.315
G2 X9.059 Y18.328 R0.794
G1 X9.164 Y18.531
G2 X9.227 Y18.634 R0.794
G1 X9.301 Y18.736
G2 X9.39 Y18.84 R0.794
G1 X9.533 Y18.978
G2 X9.553 Y18.997 R0.794
G1 X10.269 Y19.645
G2 X10.389 Y19.735 R0.794
G1 X10.527 Y19.818
G2 X10.653 Y19.88 R0.794
G1 X11.714 Y20.289
G2 X11.876 Y20.332 R0.794
G1 X12.044 Y20.358
G2 X12.169 Y20.368 R0.794
G1 X13.285 Y20.364
G2 X13.454 Y20.345 R0.794
G1 X13.621 Y20.308
G2 X13.737 Y20.273 R0.794
G1 X14.742 Y19.883
G2 X14.858 Y19.826 R0.794
G1 X14.993 Y19.747
G2 X15.124 Y19.65 R0.794
G1 X15.981 Y18.868
G2 X16.092 Y18.744 R0.794
G1 X16.189 Y18.608
G2 X16.256 Y18.497 R0.794
G1 X16.755 Y17.484
G2 X16.815 Y17.318 R0.794
G1 X16.855 Y17.151
G2 X16.873 Y17.04 R0.794
G1 X16.97 Y15.986
G2 X16.972 Y15.864 R0.794
G1 X16.961 Y15.697
G2 X16.932 Y15.53 R0.794
G1 X16.613 Y14.408
G2 X16.546 Y14.244 R0.794
G1 X16.46 Y14.087
G2 X16.397 Y13.991 R0.794
G1 X15.772 Y13.162
G2 X15.708 Y13.087 R0.794
G1 X15.6 Y12.976
G2 X15.507 Y12.895 R0.794
G1 X15.433 Y12.839
G2 X15.371 Y12.797 R0.794
G1 X14.423 Y12.216
G2 X14.27 Y12.144 R0.794
G1 X14.103 Y12.085
G2 X14.081 Y12.078 R0.794
G1 X12.774 Y11.662
X12.022 Y11.237
X11.29 Y10.607
X8.314 Y7.456
X7.643 Y6.537
X7.139 Y5.373
G2 X7.07 Y5.246 R0.794
G1 X6.974 Y5.103
G2 X6.871 Y4.979 R0.794
G1 X6.763 Y4.873
G2 X6.638 Y4.772 R0.794
G1 X6.494 Y4.68
G2 X6.348 Y4.605 R0.794
G1 X6.2 Y4.549
G2 X6.042 Y4.506 R0.794
G1 X5.874 Y4.479
G2 X5.748 Y4.469 R0.794
G1 X1.842
G2 X1.714 Y4.479 R0.794
G1 X1.687 Y4.484
X-1.378 Y4.543
G3 X-1.43 Y4.535 R0.159
G2 X-1.547 Y4.506 R0.794
G1 X-1.714 Y4.479
G2 X-1.842 Y4.469 R0.794
G1 X-5.748
G2 X-5.874 Y4.479 R0.794
G1 X-6.042 Y4.506
G2 X-6.2 Y4.549 R0.794
G1 X-6.348 Y4.605
G2 X-6.494 Y4.68 R0.794
G1 X-6.638 Y4.772
G2 X-6.763 Y4.873 R0.794
G1 X-6.871 Y4.979
G2 X-6.974 Y5.103 R0.794
G1 X-7.07 Y5.246
G2 X-7.139 Y5.373 R0.794
G1 X-7.642 Y6.536
X-8.347 Y7.495
X-11.29 Y10.607
X-12.022 Y11.237
X-12.766 Y11.657
X-13.856 Y12.01
X-14.184 Y12.11
G2 X-14.286 Y12.15 R0.794
G1 X-14.398 Y12.201
G2 X-14.483 Y12.247 R0.794
G1 X-15.413 Y12.826
G2 X-15.519 Y12.905 R0.794
G1 X-15.615 Y12.99
G2 X-15.72 Y13.103 R0.794
G1 X-16.356 Y13.935
G2 X-16.391 Y13.986 R0.794
G1 X-16.493 Y14.143
G2 X-16.549 Y14.246 R0.794
G1 X-16.573 Y14.298
G2 X-16.613 Y14.408 R0.794
G1 X-16.932 Y15.53
G2 X-16.961 Y15.697 R0.794
G1 X-16.972 Y15.864
G2 X-16.97 Y15.989 R0.794
G1 X-16.864 Y17.098
G2 X-16.83 Y17.262 R0.794
G1 X-16.777 Y17.429
G2 X-16.73 Y17.546 R0.794
G1 X-16.225 Y18.548
G2 X-16.126 Y18.699 R0.794
G1 X-16.014 Y18.835
G2 X-15.936 Y18.916 R0.794
G1 X-15.122 Y19.652
G2 X-14.993 Y19.747 R0.794
G1 X-14.858 Y19.826
G2 X-14.742 Y19.883 R0.794
G1 X-13.737 Y20.273
G2 X-13.621 Y20.308 R0.794
G1 X-13.454 Y20.345
G2 X-13.285 Y20.364 R0.794
G1 X-12.169 Y20.368
G2 X-12.044 Y20.358 R0.794
G1 X-11.876 Y20.332
G2 X-11.714 Y20.289 R0.794
G1 X-10.653 Y19.88
G2 X-10.527 Y19.818 R0.794
G1 X-10.389 Y19.735
G2 X-10.268 Y19.644 R0.794
G1 X-9.461 Y18.913
G2 X-9.394 Y18.844 R0.794
G1 X-9.303 Y18.739
G2 X-9.242 Y18.659 R0.794
G1 X-9.208 Y18.608
G2 X-9.16 Y18.524 R0.794
G1 X-8.669 Y17.544
G2 X-8.632 Y17.456 R0.794
G1 X-8.592 Y17.345
G2 X-8.567 Y17.258 R0.794
G1 X-8.466 Y16.826
X-8.24 Y15.97
X-7.851 Y15.17
X-7.243 Y14.385
X-5.031 Y12.047
X-4.341 Y11.449
X-4.307 Y11.424
X-3.524 Y10.99
X-2.683 Y10.726
X-1.644 Y10.612
G2 X-1.49 Y10.58 R0.794
G1 X-1.323 Y10.527
G2 X-1.163 Y10.456 R0.794
G1 X-1.013 Y10.369
G2 X-0.88 Y10.271 R0.794
G1 X-0.764 Y10.167
G2 X-0.663 Y10.056 R0.794
G1 X-0.577 Y9.942
G2 X-0.497 Y9.811 R0.794
G1 X-0.425 Y9.664
G2 X-0.371 Y9.516 R0.794
G1 X-0.332 Y9.367
G2 X-0.312 Y9.255 R0.794
G1 X-0.303 Y9.18
G2 X-0.299 Y9.093 R0.794
G1 X-0.3 Y5.988
G2 X-0.315 Y5.835 R0.794
G1 X-0.348 Y5.665
G2 X-0.4 Y5.5 R0.794
G1 X-0.468 Y5.344
G2 X-0.544 Y5.208 R0.794
G1 X-0.626 Y5.091
G2 X-0.72 Y4.979 R0.794
G1 X-0.827 Y4.874
G2 X-0.952 Y4.773 R0.794
G1 X-1.095 Y4.681
G2 X-1.241 Y4.606 R0.794
G1 X-1.389 Y4.549
G2 X-1.43 Y4.535 R0.794
G3 X-1.538 Y4.359 R0.159
G1 X-0.166 Y-4.335
G3 X-0.01 Y-4.469 R0.159
G1 X5.748
G2 X5.874 Y-4.479 R0.794
G1 X6.042 Y-4.506
G2 X6.2 Y-4.549 R0.794
G1 X6.348 Y-4.605
G2 X6.494 Y-4.68 R0.794
G1 X6.638 Y-4.772
G2 X6.763 Y-4.873 R0.794
G1 X6.871 Y-4.979
G2 X6.974 Y-5.103 R0.794
G1 X7.07 Y-5.246
G2 X7.139 Y-5.373 R0.794
G1 X7.642 Y-6.536
X8.347 Y-7.495
X11.29 Y-10.607
X12.022 Y-11.237
X12.768 Y-11.658
X13.867 Y-12.022
G2 X13.915 Y-12.04 R0.794
G1 X14.745 Y-12.376
G2 X14.835 Y-12.419 R0.794
G1 X14.954 Y-12.486
G2 X15.079 Y-12.572 R0.794
G1 X15.246 Y-12.714
G2 X15.271 Y-12.736 R0.794
G1 X15.981 Y-13.389
G2 X16.079 Y-13.496 R0.794
G1 X16.162 Y-13.607
G2 X16.237 Y-13.729 R0.794
G1 X16.736 Y-14.727
G2 X16.787 Y-14.855 R0.794
G1 X16.836 Y-15.021
G2 X16.866 Y-15.174 R0.794
G1 X16.97 Y-16.283
G2 X16.971 Y-16.42 R0.794
G1 X16.958 Y-16.586
G2 X16.93 Y-16.742 R0.794
G1 X16.613 Y-17.851
G2 X16.555 Y-17.997 R0.794
G1 X16.49 Y-18.122
G2 X16.419 Y-18.236 R0.794
G1 X15.743 Y-19.13
G2 X15.652 Y-19.231 R0.794
G1 X15.549 Y-19.328
G2 X15.426 Y-19.422 R0.794
G1 X14.484 Y-20.01
G2 X14.371 Y-20.068 R0.794
G1 X14.204 Y-20.139
G2 X14.043 Y-20.187 R0.794
G1 X12.927 Y-20.397
G2 X12.777 Y-20.41 R0.794
G1 X12.609
G2 X12.465 Y-20.396 R0.794
G1 X11.349 Y-20.185
G2 X11.181 Y-20.133 R0.794
G1 X11.011 Y-20.06
G2 X10.909 Y-20.006 R0.794
G1 X10.015 Y-19.452
G2 X9.92 Y-19.382 R0.794
G1 X9.796 Y-19.277
G2 X9.679 Y-19.154 R0.794
G1 X9.049 Y-18.33
G2 X9.013 Y-18.279 R0.794
G1 X8.904 Y-18.109
G2 X8.828 Y-17.957 R0.794
G1 X8.769 Y-17.8
G2 X8.754 Y-17.757 R0.794
G1 X8.478 Y-16.87
G2 X8.469 Y-16.837 R0.794
G1 X8.24 Y-15.97
X7.851 Y-15.17
X7.243 Y-14.385
X5.032 Y-12.051
X4.325 Y-11.441
X3.522 Y-10.995
X2.686 Y-10.732
X1.691 Y-10.632
X-1.745 Y-10.636
X-2.685 Y-10.732
X-3.522 Y-10.995
X-4.325 Y-11.441
X-5.067 Y-12.082
X-7.272 Y-14.419
X-7.85 Y-15.169
X-8.24 Y-15.97
X-8.469 Y-16.837
G2 X-8.478 Y-16.87 R0.794
G1 X-8.754 Y-17.757
G2 X-8.769 Y-17.8 R0.794
G1 X-8.828 Y-17.957
G2 X-8.904 Y-18.109 R0.794
G1 X-9.013 Y-18.279
G2 X-9.049 Y-18.33 R0.794
G1 X-9.679 Y-19.154
G2 X-9.796 Y-19.277 R0.794
G1 X-9.92 Y-19.382
G2 X-10.018 Y-19.454 R0.794
G1 X-10.97 Y-20.038
G2 X-11.127 Y-20.112 R0.794
G1 X-11.294 Y-20.17
G2 X-11.408 Y-20.2 R0.794
G1 X-12.468 Y-20.396
G2 X-12.609 Y-20.41 R0.794
G1 X-12.777
G2 X-12.927 Y-20.397 R0.794
G1 X-14.043 Y-20.187
G2 X-14.204 Y-20.139 R0.794
G1 X-14.371 Y-20.068
G2 X-14.484 Y-20.01 R0.794
G1 X-15.426 Y-19.422
G2 X-15.549 Y-19.328 R0.794
G1 X-15.652 Y-19.231
G2 X-15.743 Y-19.13 R0.794
G1 X-16.419 Y-18.236
G2 X-16.49 Y-18.122 R0.794
G1 X-16.555 Y-17.997
G2 X-16.613 Y-17.851 R0.794
G1 X-16.93 Y-16.742
G2 X-16.958 Y-16.586 R0.794
G1 X-16.971 Y-16.42
G2 X-16.97 Y-16.283 R0.794
G1 X-16.866 Y-15.174
G2 X-16.836 Y-15.021 R0.794
G1 X-16.787 Y-14.855
G2 X-16.736 Y-14.727 R0.794
G1 X-16.237 Y-13.729
G2 X-16.162 Y-13.607 R0.794
G1 X-16.079 Y-13.496
G2 X-15.98 Y-13.388 R0.794
G1 X-15.158 Y-12.635
G2 X-15.069 Y-12.564 R0.794
G1 X-14.958 Y-12.488
G2 X-14.843 Y-12.423 R0.794
G1 X-14.717 Y-12.365
G2 X-14.682 Y-12.35 R0.794
G1 X-13.915 Y-12.04
G2 X-13.867 Y-12.022 R0.794
G1 X-12.768 Y-11.658
X-12.022 Y-11.237
X-11.29 Y-10.607
X-8.314 Y-7.456
X-7.643 Y-6.537
X-7.139 Y-5.373
G2 X-7.07 Y-5.246 R0.794
G1 X-6.974 Y-5.103
G2 X-6.871 Y-4.979 R0.794
G1 X-6.763 Y-4.873
G2 X-6.638 Y-4.772 R0.794
G1 X-6.494 Y-4.68
G2 X-6.348 Y-4.605 R0.794
G1 X-6.2 Y-4.549
G2 X-6.042 Y-4.506 R0.794
G1 X-5.874 Y-4.479
G2 X-5.748 Y-4.469 R0.794
G1 X-0.01
G3 X0.087 Y-4.454 Z-1.916 R0.318
X0.167 Y-4.416 Z-1.871 R0.318
X0.22 Y-4.371 Z-1.801 R0.318
X0.249 Y-4.336 Z-1.712 R0.318
X0.258 Y-4.323 Z-1.614 R0.318
G0 Z5.
X-11.828 Y-3.717
Z0.068
G1 Z-1.614 F400.
X-11.836 Z-1.685
X-11.859 Y-3.716 Z-1.752
X-11.897 Y-3.715 Z-1.812
X-11.947 Y-3.714 Z-1.863
X-12.007 Y-3.713 Z-1.9
X-12.074 Y-3.711 Z-1.924
X-12.145 Y-3.709 Z-1.932
X-14.963 Y-3.642
G3 X-15.288 Y-3.952 R0.317
G2 X-15.595 Y-4.56 R0.794
G1 X-15.649 Y-4.602
G2 X-15.939 Y-4.744 R0.794
G1 X-16.172 Y-4.803
X-16.315 Y-4.856
X-16.511 Y-4.955
X-16.627 Y-5.031
X-16.772 Y-5.148
X-16.836 Y-5.209
X-16.92 Y-5.303
X-16.988 Y-5.392
X-17.062 Y-5.504
X-17.142 Y-5.656
X-17.201 Y-5.803
X-17.244 Y-5.951
X-17.271 Y-6.099
X-17.285 Y-6.247
X-17.287 Y-16.166
X-17.256 Y-16.653
X-17.233 Y-16.788
X-16.954 Y-17.739
X-16.885 Y-17.968
X-16.8 Y-18.183
X-16.718 Y-18.335
X-16.68 Y-18.392
X-15.892 Y-19.412
X-15.76 Y-19.546
X-15.668 Y-19.621
X-15.425 Y-19.782
X-14.564 Y-20.307
X-14.47 Y-20.356
X-14.375 Y-20.399
X-14.19 Y-20.461
X-13.91 Y-20.52
X-13.039 Y-20.681
X-12.865 Y-20.707
X-12.702 Y-20.716
X12.702
X13.198 Y-20.688
X13.354 Y-20.664
X13.414 Y-20.65
X14.526 Y-20.319
X14.739 Y-20.236
X14.892 Y-20.155
X14.947 Y-20.12
X15.972 Y-19.331
X16.108 Y-19.199
X16.195 Y-19.094
X16.231 Y-19.045
X16.867 Y-18.012
X16.924 Y-17.905
X16.964 Y-17.817
X17.026 Y-17.639
X17.086 Y-17.367
X17.276 Y-16.313
X17.287 Y-16.162
Y16.166
X17.256 Y16.653
X17.233 Y16.788
X16.954 Y17.739
X16.885 Y17.968
X16.8 Y18.183
X16.718 Y18.335
X16.68 Y18.392
X15.892 Y19.412
X15.76 Y19.546
X15.668 Y19.621
X15.425 Y19.782
X14.564 Y20.307
X14.47 Y20.356
X14.375 Y20.399
X14.19 Y20.461
X13.91 Y20.52
X13.039 Y20.681
X12.865 Y20.707
X12.702 Y20.716
X-12.702
X-13.198 Y20.688
X-13.354 Y20.664
X-13.414 Y20.65
X-14.526 Y20.319
X-14.739 Y20.236
X-14.892 Y20.155
X-14.947 Y20.12
X-15.972 Y19.331
X-16.108 Y19.199
X-16.195 Y19.094
X-16.231 Y19.045
X-16.867 Y18.012
X-16.924 Y17.905
X-16.964 Y17.817
X-17.026 Y17.639
X-17.086 Y17.367
X-17.276 Y16.313
X-17.287 Y16.162
X-17.285 Y6.247
X-17.271 Y6.099
X-17.244 Y5.951
X-17.201 Y5.803
X-17.142 Y5.656
X-17.062 Y5.504
X-16.988 Y5.392
X-16.92 Y5.303
X-16.844 Y5.218
X-16.688 Y5.077
X-16.572 Y4.993
X-16.39 Y4.89
X-16.245 Y4.828
X-16.092 Y4.78
X-15.963 Y4.752
G2 X-15.641 Y4.598 R0.794
G1 X-15.588 Y4.556
G2 X-15.288 Y3.934 R0.794
G1 Y0.009
Y-2.87
Y-3.933
G2 Y-3.952 R0.794
G3 X-13.584 Y-5.483 Z-1.989 R1.508
X-12.333 Y-3.564 Z-2.046 R1.508
G1 X-13.253 Y-0.424 Z-2.118
G2 X-12.02 Y1.493 Z-2.175 R1.508
X-10.297 Y0. Z-2.232 R1.508
G1 Y-0.298
G3 X-9.524 Y-0.701 R0.492
G2 X-9.346 Y-0.581 R6.334
X-9.165 Y-0.464 R19.879
G3 Y0.464 R0.55
G2 X-9.326 Y0.568 R21.342
X-9.486 Y0.674 R6.906
G3 X-10.297 Y0.248 R0.518
G1 Y0.
G3 X-10.282 Y-0.097 Z-2.216 R0.317
X-10.244 Y-0.176 Z-2.171 R0.318
X-10.199 Y-0.23 Z-2.101 R0.318
X-10.164 Y-0.258 Z-2.012 R0.317
X-10.151 Y-0.267 Z-1.914 R0.317
G0 Z5.
X1.571 Y16.106
Z-1.09
G3 X1.568 Y16.121 Z-1.185 R1.508 F400.
X1.561 Y16.162 Z-1.271 R1.508
X1.547 Y16.227 Z-1.341 R1.508
X1.525 Y16.308 Z-1.387 R1.508
X1.494 Y16.397 Z-1.407 R1.508
X-1.332 Y15.343 Z-1.657 R1.508
X1.494 Y16.397 Z-1.907 R1.508
X-1.332 Y15.343 Z-2.157 R1.508
X-0.323 Y14.417 Z-2.232 R1.508
G2 X-0.265 Y14.401 R12.602
G3 X0.247 Y14.399 R0.951
G2 X0.905 Y14.551 R8.24
X1.574 Y14.644 R7.094
G3 X1.962 Y14.752 R1.124
X2.293 Y14.982 R1.298
X2.801 Y15.474 R51.924
X3.295 Y15.979 R19.002
X2.961 Y16.753 R0.459
G1 X-2.962
G3 X-3.295 Y15.979 R0.459
G1 X-2.672 Y15.322
G3 X-2.013 Y14.754 R4.29
X-1.614 Y14.621 R0.746
G2 X-1.194 Y14.596 R10.616
X-0.724 Y14.522 R2.946
X-0.323 Y14.417 R12.602
X0.712 Y13.507 R1.586
G3 X1.941 Y12.881 R1.071
G2 X2.233 Y12.948 R40.238
G3 X3.559 Y13.659 R2.808
X4.624 Y14.711 R45.696
X5.634 Y15.816 R21.857
X6.213 Y16.752 R3.644
X6.56 Y17.796 R6.662
X5.9 Y18.635 R0.679
G1 X-5.901
G3 X-6.555 Y17.792 R0.676
X-5.334 Y15.497 R5.514
X-3.528 Y13.628 R31.686
X-2.231 Y12.943 R2.688
G2 X-0.805 Y12.598 R25.407
G3 X0.772 Y12.591 R3.039
G2 X1.941 Y12.881 R40.238
G3 X2.035 Y12.906 Z-2.216 R0.318
X2.11 Y12.952 Z-2.171 R0.318
X2.159 Y13.002 Z-2.101 R0.318
X2.184 Y13.04 Z-2.012 R0.318
X2.192 Y13.054 Z-1.914 R0.318
G0 Z5.
X10.29 Y-1.415
Z-1.09
G3 X10.303 Y-1.421 Z-1.185 R1.508 F400.
X10.342 Y-1.438 Z-1.271 R1.508
X10.403 Y-1.462 Z-1.341 R1.508
X10.483 Y-1.489 Z-1.387 R1.508
X10.573 Y-1.513 Z-1.407 R1.508
X11.276 Y1.42 Z-1.657 R1.508
X10.573 Y-1.513 Z-1.907 R1.508
X11.276 Y1.42 Z-2.157 R1.508
X9.945 Y1.1 Z-2.232 R1.508
G2 X9.315 Y0.63 R5.886
X9.166 Y0.54 R2.777
G3 X9.015 Y0.453 R5.497
Y-0.453 R0.529
G2 X10.215 Y-1.351 R7.51
X11.19 Y-2.488 R6.304
X11.492 Y-3.042 R3.48
G1 X11.718 Y-3.564
G3 X12.365 Y-3.43 R0.337
G1 Y3.43
G3 X11.718 Y3.564 R0.337
G2 X10.734 Y1.919 R7.356
X9.945 Y1.1 R5.886
X8.32 Y0.975 R1.381
G3 X6.716 Y1.258 R2.196
G2 X5.499 Y1.164 R4.749
G3 X1.674 Y1.264 R73.258
G2 X1.012 Y1.334 R3.183
X0.367 Y1.499 R8.063
G3 X-0.367 R1.273
G2 X-1.012 Y1.334 R8.063
X-1.674 Y1.264 R3.183
G3 X-5.499 Y1.164 R73.258
G2 X-9.076 Y2.521 R4.749
X-10.008 Y3.933 R4.046
G3 X-10.869 Y5.389 R5.258
X-13.329 Y8.159 R60.836
X-14.122 Y7.843 R0.459
G1 Y7.601
G3 X-13.946 Y7.274 R0.393
G2 X-12.555 Y5.848 R4.745
X-12.003 Y3.934 R3.593
G1 Y-3.933
G2 X-12.555 Y-5.847 R3.591
X-13.946 Y-7.272 R4.746
G3 X-14.122 Y-7.599 R0.393
G1 Y-7.843
G3 X-13.329 Y-8.159 R0.459
X-11.569 Y-6.248 R105.687
X-10.166 Y-4.062 R8.059
G2 X-6.353 Y-1.346 R4.527
X-1.674 Y-1.17 R62.113
G1 X5.748
G2 X7.609 Y-1.56 R4.632
X9.184 Y-2.626 R5.261
X9.93 Y-3.709 R3.47
G3 X10.522 Y-4.883 R12.115
X10.684 Y-5.144 R4.16
X10.869 Y-5.389 R3.062
X13.33 Y-8.16 R60.86
X14.123 Y-7.844 R0.46
G1 Y7.844
G3 X13.33 Y8.16 R0.459
X10.841 Y5.353 R59.912
X9.994 Y3.915 R5.182
G2 X9.076 Y2.521 R3.972
X6.716 Y1.258 R4.749
X5.789 Y1.636 R0.896
G3 X4.927 Y2.145 R1.158
G2 X4.714 Y2.168 R4.393
G3 X1.674 Y2.373 R22.661
G2 X1.164 Y2.427 R2.423
X0.668 Y2.557 R5.971
G3 X-0.668 R2.275
G2 X-1.164 Y2.427 R5.971
X-1.674 Y2.373 R2.423
G3 X-5.734 Y2.317 R146.905
G2 X-9.157 Y4.499 R3.622
G3 X-10.728 Y6.965 R9.26
X-12.757 Y9.07 R35.149
X-13.488 Y9.619 R3.896
X-14.323 Y9.992 R4.292
X-15.222 Y9.338 R0.687
G1 Y7.481
G3 X-14.622 Y6.401 R1.273
G2 X-13.559 Y5.36 R3.462
X-13.133 Y3.934 R2.604
G1 Y-3.933
G2 X-13.559 Y-5.359 R2.601
X-14.622 Y-6.399 R3.464
G3 X-15.222 Y-7.479 R1.273
G1 Y-9.39
G3 X-14.361 Y-10.012 R0.655
X-12.952 Y-9.156 R3.685
X-11.794 Y-7.982 R38.525
X-10.324 Y-6.356 R50.508
X-9.157 Y-4.499 R7.219
G2 X-5.763 Y-2.269 R3.699
G1 X5.748
G2 X7.193 Y-2.578 R3.537
X8.413 Y-3.411 R4.168
X9.056 Y-4.383 R2.806
G3 X9.562 Y-5.434 R7.995
X9.786 Y-5.769 R2.92
X10.039 Y-6.083 R11.116
X11.356 Y-7.614 R68.907
X12.758 Y-9.069 R24.124
X13.508 Y-9.63 R3.912
X14.363 Y-10.012 R4.64
X15.223 Y-9.391 R0.655
G1 Y9.346
G3 X14.337 Y9.993 R0.68
X13.495 Y9.622 R4.3
X12.758 Y9.07 R3.853
X11.34 Y7.598 R24.43
X10.008 Y6.046 R66.348
X8.97 Y4.351 R6.905
G2 X7.688 Y2.832 R3.408
X4.927 Y2.145 R4.393
X3.285 Y3.319 R1.979
G3 X1.628 Y4.47 R1.934
G2 X1.553 Y4.478 R0.794
G1 X1.385 Y4.504
G2 X1.217 Y4.55 R0.794
G1 X1.049 Y4.615
G2 X0.91 Y4.687 R0.794
G1 X0.798 Y4.758
G2 X0.686 Y4.846 R0.794
G1 X0.574 Y4.95
G2 X0.473 Y5.066 R0.794
G1 X0.382 Y5.191
G2 X0.299 Y5.337 R0.794
G1 X0.226 Y5.504
G2 X0.173 Y5.671 R0.794
G1 X0.141 Y5.837
G2 X0.127 Y5.988 R0.794
G1 X0.125 Y9.093
G2 X0.137 Y9.226 R0.794
G1 X0.165 Y9.392
G2 X0.213 Y9.56 R0.794
G1 X0.28 Y9.726
G2 X0.366 Y9.882 R0.794
G1 X0.466 Y10.026
G2 X0.574 Y10.15 R0.794
G1 X0.686 Y10.254
G2 X0.798 Y10.342 R0.794
G1 X0.91 Y10.414
G2 X1.049 Y10.485 R0.794
G1 X1.217 Y10.551
G2 X1.385 Y10.596 R0.794
G1 X1.553 Y10.622
G2 X1.611 Y10.629 R0.794
G1 X1.937 Y10.655
X2.685 Y10.732
X3.522 Y10.995
X4.325 Y11.442
X5.067 Y12.083
X7.272 Y14.419
X7.85 Y15.169
X8.24 Y15.97
X8.467 Y16.829
X8.586 Y17.32
G2 X8.644 Y17.483 R0.794
G1 X9.052 Y18.315
G2 X9.059 Y18.328 R0.794
G1 X9.164 Y18.531
G2 X9.227 Y18.634 R0.794
G1 X9.301 Y18.736
G2 X9.39 Y18.84 R0.794
G1 X9.533 Y18.978
G2 X9.553 Y18.997 R0.794
G1 X10.269 Y19.645
G2 X10.389 Y19.735 R0.794
G1 X10.527 Y19.818
G2 X10.653 Y19.88 R0.794
G1 X11.714 Y20.289
G2 X11.876 Y20.332 R0.794
G1 X12.044 Y20.358
G2 X12.169 Y20.368 R0.794
G1 X13.285 Y20.364
G2 X13.454 Y20.345 R0.794
G1 X13.621 Y20.308
G2 X13.737 Y20.273 R0.794
G1 X14.742 Y19.883
G2 X14.858 Y19.826 R0.794
G1 X14.993 Y19.747
G2 X15.124 Y19.65 R0.794
G1 X15.981 Y18.868
G2 X16.092 Y18.744 R0.794
G1 X16.189 Y18.608
G2 X16.256 Y18.497 R0.794
G1 X16.755 Y17.484
G2 X16.815 Y17.318 R0.794
G1 X16.855 Y17.151
G2 X16.873 Y17.04 R0.794
G1 X16.97 Y15.986
G2 X16.972 Y15.864 R0.794
G1 X16.961 Y15.697
G2 X16.932 Y15.53 R0.794
G1 X16.613 Y14.408
G2 X16.546 Y14.244 R0.794
G1 X16.46 Y14.087
G2 X16.397 Y13.991 R0.794
G1 X15.772 Y13.162
G2 X15.708 Y13.087 R0.794
G1 X15.6 Y12.976
G2 X15.507 Y12.895 R0.794
G1 X15.433 Y12.839
G2 X15.371 Y12.797 R0.794
G1 X14.423 Y12.216
G2 X14.27 Y12.144 R0.794
G1 X14.103 Y12.085
G2 X14.081 Y12.078 R0.794
G1 X12.774 Y11.662
X12.022 Y11.237
X11.29 Y10.607
X8.314 Y7.456
X7.643 Y6.537
X7.139 Y5.373
G2 X7.07 Y5.246 R0.794
G1 X6.974 Y5.103
G2 X6.871 Y4.979 R0.794
G1 X6.763 Y4.873
G2 X6.638 Y4.772 R0.794
G1 X6.494 Y4.68
G2 X6.348 Y4.605 R0.794
G1 X6.2 Y4.549
G2 X6.042 Y4.506 R0.794
G1 X5.874 Y4.479
G2 X5.748 Y4.469 R0.794
G1 X1.674
G2 X1.628 Y4.47 R0.794
G1 X-1.238 Y4.532
G3 X-1.286 Y4.526 R0.159
G2 X-1.385 Y4.504 R0.794
G1 X-1.553 Y4.478
G2 X-1.674 Y4.469 R0.794
G1 X-5.748
G2 X-5.874 Y4.479 R0.794
G1 X-6.042 Y4.506
G2 X-6.2 Y4.549 R0.794
G1 X-6.348 Y4.605
G2 X-6.494 Y4.68 R0.794
G1 X-6.638 Y4.772
G2 X-6.763 Y4.873 R0.794
G1 X-6.871 Y4.979
G2 X-6.974 Y5.103 R0.794
G1 X-7.07 Y5.246
G2 X-7.139 Y5.373 R0.794
G1 X-7.642 Y6.536
X-8.347 Y7.495
X-10.221 Y9.476
X-11.29 Y10.607
X-12.022 Y11.237
X-12.766 Y11.657
X-13.856 Y12.01
X-14.184 Y12.11
G2 X-14.286 Y12.15 R0.794
G1 X-14.398 Y12.201
G2 X-14.483 Y12.247 R0.794
G1 X-15.413 Y12.826
G2 X-15.519 Y12.905 R0.794
G1 X-15.615 Y12.99
G2 X-15.72 Y13.103 R0.794
G1 X-16.356 Y13.935
G2 X-16.391 Y13.986 R0.794
G1 X-16.493 Y14.143
G2 X-16.549 Y14.246 R0.794
G1 X-16.573 Y14.298
G2 X-16.613 Y14.408 R0.794
G1 X-16.932 Y15.53
G2 X-16.961 Y15.697 R0.794
G1 X-16.972 Y15.864
G2 X-16.97 Y15.989 R0.794
G1 X-16.864 Y17.098
G2 X-16.83 Y17.262 R0.794
G1 X-16.777 Y17.429
G2 X-16.73 Y17.546 R0.794
G1 X-16.225 Y18.548
G2 X-16.126 Y18.699 R0.794
G1 X-16.014 Y18.835
G2 X-15.936 Y18.916 R0.794
G1 X-15.122 Y19.652
G2 X-14.993 Y19.747 R0.794
G1 X-14.858 Y19.826
G2 X-14.742 Y19.883 R0.794
G1 X-13.737 Y20.273
G2 X-13.621 Y20.308 R0.794
G1 X-13.454 Y20.345
G2 X-13.285 Y20.364 R0.794
G1 X-12.169 Y20.368
G2 X-12.044 Y20.358 R0.794
G1 X-11.876 Y20.332
G2 X-11.714 Y20.289 R0.794
G1 X-10.653 Y19.88
G2 X-10.527 Y19.818 R0.794
G1 X-10.389 Y19.735
G2 X-10.268 Y19.644 R0.794
G1 X-9.461 Y18.913
G2 X-9.394 Y18.844 R0.794
G1 X-9.303 Y18.739
G2 X-9.242 Y18.659 R0.794
G1 X-9.208 Y18.608
G2 X-9.16 Y18.524 R0.794
G1 X-8.669 Y17.544
G2 X-8.632 Y17.456 R0.794
G1 X-8.592 Y17.345
G2 X-8.567 Y17.258 R0.794
G1 X-8.466 Y16.826
X-8.24 Y15.97
X-7.851 Y15.17
X-7.243 Y14.385
X-5.032 Y12.051
X-4.325 Y11.442
X-3.522 Y10.995
X-2.685 Y10.732
X-1.715 Y10.632
X-1.501 Y10.616
G2 X-1.329 Y10.583 R0.794
G1 X-1.161 Y10.531
G2 X-1.022 Y10.473 R0.794
G1 X-0.91 Y10.414
G2 X-0.798 Y10.341 R0.794
G1 X-0.686 Y10.255
G2 X-0.589 Y10.166 R0.794
G1 X-0.506 Y10.076
G2 X-0.427 Y9.975 R0.794
G1 X-0.354 Y9.864
G2 X-0.28 Y9.726 R0.794
G1 X-0.213 Y9.56
G2 X-0.165 Y9.392 R0.794
G1 X-0.137 Y9.226
G2 X-0.125 Y9.093 R0.794
G1 X-0.127 Y5.988
G2 X-0.141 Y5.837 R0.794
G1 X-0.173 Y5.671
G2 X-0.226 Y5.504 R0.794
G1 X-0.299 Y5.337
G2 X-0.382 Y5.191 R0.794
G1 X-0.473 Y5.066
G2 X-0.574 Y4.95 R0.794
G1 X-0.686 Y4.846
G2 X-0.798 Y4.758 R0.794
G1 X-0.91 Y4.687
G2 X-1.049 Y4.615 R0.794
G1 X-1.217 Y4.55
G2 X-1.286 Y4.526 R0.794
G3 X-1.374 Y4.485 Z-2.216 R0.318
X-1.44 Y4.426 Z-2.171 R0.317
X-1.479 Y4.368 Z-2.101 R0.317
X-1.497 Y4.326 Z-2.012 R0.317
X-1.502 Y4.311 Z-1.914 R0.317
G0 Z5.
X0.016 Y-16.742
Z-1.09
G3 X0.022 Y-16.756 Z-1.185 R1.508 F400.
X0.038 Y-16.795 Z-1.271 R1.508
X0.066 Y-16.855 Z-1.341 R1.508
X0.106 Y-16.929 Z-1.387 R1.508
X0.155 Y-17.009 Z-1.407 R1.508
X2.679 Y-15.358 Z-1.657 R1.508
X0.155 Y-17.009 Z-1.907 R1.508
X2.679 Y-15.358 Z-2.157 R1.508
X1.491 Y-14.677 Z-2.232 R1.508
X-1.537 Y-14.679 R30.448
X-1.939 Y-14.765 R1.286
X-2.286 Y-14.987 R1.059
X-2.787 Y-15.472 R53.345
X-3.275 Y-15.97 R18.652
X-2.941 Y-16.745 R0.459
G1 X2.941
G3 X3.274 Y-15.971 R0.459
G1 X2.658 Y-15.32
G3 X2.008 Y-14.761 R4.229
X1.756 Y-14.683 R0.434
G2 X1.491 Y-14.677 R4.427
X0.2 Y-13.692 R1.433
G3 X-1.145 Y-12.78 R1.328
X-2.232 Y-12.925 R7.765
X-2.932 Y-13.219 R1.971
X-3.524 Y-13.694 R4.393
X-4.602 Y-14.732 R288.943
X-5.626 Y-15.823 R15.638
X-6.187 Y-16.729 R3.511
X-6.554 Y-17.73 R10.687
X-5.897 Y-18.624 R0.689
G1 X5.897
G3 X6.554 Y-17.73 R0.689
X5.282 Y-15.502 R5.951
X3.491 Y-13.665 R35.424
X2.609 Y-13.091 R2.852
X1.581 Y-12.861 R3.099
X-0.328 Y-12.773 R316.682
X-1.145 Y-12.78 R7.765
G2 X-2.864 Y-11.996 R2.007
G3 X-4.743 Y-11.803 R1.297
G1 X-5.067 Y-12.082
X-7.272 Y-14.419
X-7.85 Y-15.169
X-8.24 Y-15.97
X-8.469 Y-16.837
G2 X-8.478 Y-16.87 R0.794
G1 X-8.754 Y-17.757
G2 X-8.769 Y-17.8 R0.794
G1 X-8.828 Y-17.957
G2 X-8.904 Y-18.109 R0.794
G1 X-9.013 Y-18.279
G2 X-9.049 Y-18.33 R0.794
G1 X-9.679 Y-19.154
G2 X-9.796 Y-19.277 R0.794
G1 X-9.92 Y-19.382
G2 X-10.018 Y-19.454 R0.794
G1 X-10.97 Y-20.038
G2 X-11.127 Y-20.112 R0.794
G1 X-11.294 Y-20.17
G2 X-11.408 Y-20.2 R0.794
G1 X-12.468 Y-20.396
G2 X-12.609 Y-20.41 R0.794
G1 X-12.777
G2 X-12.927 Y-20.397 R0.794
G1 X-14.043 Y-20.187
G2 X-14.204 Y-20.139 R0.794
G1 X-14.371 Y-20.068
G2 X-14.484 Y-20.01 R0.794
G1 X-15.426 Y-19.422
G2 X-15.549 Y-19.328 R0.794
G1 X-15.652 Y-19.231
G2 X-15.743 Y-19.13 R0.794
G1 X-16.419 Y-18.236
G2 X-16.49 Y-18.122 R0.794
G1 X-16.555 Y-17.997
G2 X-16.613 Y-17.851 R0.794
G1 X-16.93 Y-16.742
G2 X-16.958 Y-16.586 R0.794
G1 X-16.971 Y-16.42
G2 X-16.97 Y-16.283 R0.794
G1 X-16.866 Y-15.174
G2 X-16.836 Y-15.021 R0.794
G1 X-16.787 Y-14.855
G2 X-16.736 Y-14.727 R0.794
G1 X-16.237 Y-13.729
G2 X-16.162 Y-13.607 R0.794
G1 X-16.079 Y-13.496
G2 X-15.98 Y-13.388 R0.794
G1 X-15.158 Y-12.635
G2 X-15.069 Y-12.564 R0.794
G1 X-14.958 Y-12.488
G2 X-14.843 Y-12.423 R0.794
G1 X-14.717 Y-12.365
G2 X-14.682 Y-12.35 R0.794
G1 X-13.915 Y-12.04
G2 X-13.867 Y-12.022 R0.794
G1 X-12.768 Y-11.658
X-12.022 Y-11.237
X-11.29 Y-10.607
X-8.314 Y-7.456
X-7.643 Y-6.537
X-7.139 Y-5.373
G2 X-7.07 Y-5.246 R0.794
G1 X-6.974 Y-5.103
G2 X-6.871 Y-4.979 R0.794
G1 X-6.763 Y-4.873
G2 X-6.638 Y-4.772 R0.794
G1 X-6.494 Y-4.68
G2 X-6.348 Y-4.605 R0.794
G1 X-6.2 Y-4.549
G2 X-6.042 Y-4.506 R0.794
G1 X-5.874 Y-4.479
G2 X-5.748 Y-4.469 R0.794
G1 X5.748
G2 X5.874 Y-4.479 R0.794
G1 X6.042 Y-4.506
G2 X6.2 Y-4.549 R0.794
G1 X6.348 Y-4.605
G2 X6.494 Y-4.68 R0.794
G1 X6.638 Y-4.772
G2 X6.763 Y-4.873 R0.794
G1 X6.871 Y-4.979
G2 X6.974 Y-5.103 R0.794
G1 X7.07 Y-5.246
G2 X7.139 Y-5.373 R0.794
G1 X7.642 Y-6.536
X8.347 Y-7.495
X11.29 Y-10.607
X12.022 Y-11.237
X12.768 Y-11.658
X13.867 Y-12.022
G2 X13.915 Y-12.04 R0.794
G1 X14.745 Y-12.376
G2 X14.835 Y-12.419 R0.794
G1 X14.954 Y-12.486
G2 X15.079 Y-12.572 R0.794
G1 X15.246 Y-12.714
G2 X15.271 Y-12.736 R0.794
G1 X15.981 Y-13.389
G2 X16.079 Y-13.496 R0.794
G1 X16.162 Y-13.607
G2 X16.237 Y-13.729 R0.794
G1 X16.736 Y-14.727
G2 X16.787 Y-14.855 R0.794
G1 X16.836 Y-15.021
G2 X16.866 Y-15.174 R0.794
G1 X16.97 Y-16.283
G2 X16.971 Y-16.42 R0.794
G1 X16.958 Y-16.586
G2 X16.93 Y-16.742 R0.794
G1 X16.613 Y-17.851
G2 X16.555 Y-17.997 R0.794
G1 X16.49 Y-18.122
G2 X16.419 Y-18.236 R0.794
G1 X15.743 Y-19.13
G2 X15.652 Y-19.231 R0.794
G1 X15.549 Y-19.328
G2 X15.426 Y-19.422 R0.794
G1 X14.484 Y-20.01
G2 X14.371 Y-20.068 R0.794
G1 X14.204 Y-20.139
G2 X14.043 Y-20.187 R0.794
G1 X12.927 Y-20.397
G2 X12.777 Y-20.41 R0.794
G1 X12.609
G2 X12.465 Y-20.396 R0.794
G1 X11.349 Y-20.185
G2 X11.181 Y-20.133 R0.794
G1 X11.011 Y-20.06
G2 X10.909 Y-20.006 R0.794
G1 X10.015 Y-19.452
G2 X9.92 Y-19.382 R0.794
G1 X9.796 Y-19.277
G2 X9.679 Y-19.154 R0.794
G1 X9.049 Y-18.33
G2 X9.013 Y-18.279 R0.794
G1 X8.904 Y-18.109
G2 X8.828 Y-17.957 R0.794
G1 X8.769 Y-17.8
G2 X8.754 Y-17.757 R0.794
G1 X8.478 Y-16.87
G2 X8.469 Y-16.837 R0.794
G1 X8.24 Y-15.97
X7.851 Y-15.17
X7.243 Y-14.385
X5.032 Y-12.051
X4.325 Y-11.441
X3.522 Y-10.995
X2.686 Y-10.732
X1.691 Y-10.632
X-1.745 Y-10.636
X-2.685 Y-10.732
X-3.522 Y-10.995
X-4.325 Y-11.441
X-4.743 Y-11.803
G3 X-4.769 Y-12.014 R0.159
G1 X1.307 Y-20.649
G3 X1.437 Y-20.716 R0.159
G1 X12.702
X13.198 Y-20.688
X13.354 Y-20.664
X13.414 Y-20.65
X14.526 Y-20.319
X14.739 Y-20.236
X14.892 Y-20.155
X14.947 Y-20.12
X15.972 Y-19.331
X16.108 Y-19.199
X16.195 Y-19.094
X16.231 Y-19.045
X16.867 Y-18.012
X16.924 Y-17.905
X16.964 Y-17.817
X17.026 Y-17.639
X17.086 Y-17.367
X17.276 Y-16.313
X17.287 Y-16.162
Y16.166
X17.256 Y16.653
X17.233 Y16.788
X16.954 Y17.739
X16.885 Y17.968
X16.8 Y18.183
X16.718 Y18.335
X16.68 Y18.392
X15.892 Y19.412
X15.76 Y19.546
X15.668 Y19.621
X15.425 Y19.782
X14.564 Y20.307
X14.47 Y20.356
X14.375 Y20.399
X14.19 Y20.461
X13.91 Y20.52
X13.039 Y20.681
X12.865 Y20.707
X12.702 Y20.716
X-12.702
X-13.198 Y20.688
X-13.354 Y20.664
X-13.414 Y20.65
X-14.526 Y20.319
X-14.739 Y20.236
X-14.892 Y20.155
X-14.947 Y20.12
X-15.972 Y19.331
X-16.108 Y19.199
X-16.195 Y19.094
X-16.231 Y19.045
X-16.867 Y18.012
X-16.924 Y17.905
X-16.964 Y17.817
X-17.026 Y17.639
X-17.086 Y17.367
X-17.276 Y16.313
X-17.287 Y16.162
X-17.285 Y6.247
X-17.271 Y6.099
X-17.244 Y5.951
X-17.201 Y5.803
X-17.142 Y5.656
X-17.062 Y5.504
X-16.988 Y5.392
X-16.92 Y5.303
X-16.844 Y5.218
X-16.688 Y5.077
X-16.572 Y4.993
X-16.39 Y4.89
X-16.245 Y4.828
X-16.092 Y4.78
X-15.963 Y4.752
G2 X-15.641 Y4.598 R0.794
G1 X-15.588 Y4.556
G2 X-15.288 Y3.934 R0.794
G1 Y-3.933
G2 X-15.595 Y-4.56 R0.794
G1 X-15.649 Y-4.602
G2 X-15.939 Y-4.744 R0.794
G1 X-16.172 Y-4.803
X-16.315 Y-4.856
X-16.511 Y-4.955
X-16.627 Y-5.031
X-16.772 Y-5.148
X-16.836 Y-5.209
X-16.92 Y-5.303
X-16.988 Y-5.392
X-17.062 Y-5.504
X-17.142 Y-5.656
X-17.201 Y-5.803
X-17.244 Y-5.951
X-17.271 Y-6.099
X-17.285 Y-6.247
X-17.287 Y-16.166
X-17.256 Y-16.653
X-17.233 Y-16.788
X-16.954 Y-17.739
X-16.885 Y-17.968
X-16.8 Y-18.183
X-16.718 Y-18.335
X-16.68 Y-18.392
X-15.892 Y-19.412
X-15.76 Y-19.546
X-15.668 Y-19.621
X-15.425 Y-19.782
X-14.564 Y-20.307
X-14.47 Y-20.356
X-14.375 Y-20.399
X-14.19 Y-20.461
X-13.91 Y-20.52
X-13.039 Y-20.681
X-12.865 Y-20.707
X-12.702 Y-20.716
X-3.641
X1.437
G3 X2.945 Y-19.198 Z-2.325 R1.508
G1 X2.925 Y-16.174 Z-2.443
G3 X1.491 Y-14.677 Z-2.532 R1.508
X-1.537 Y-14.679 R30.448
X-1.939 Y-14.765 R1.286
X-2.286 Y-14.987 R1.059
X-2.787 Y-15.472 R53.345
X-3.275 Y-15.97 R18.652
X-2.941 Y-16.745 R0.459
G1 X2.941
G3 X3.274 Y-15.971 R0.459
G1 X2.658 Y-15.32
G3 X2.008 Y-14.761 R4.229
X1.756 Y-14.683 R0.434
G2 X1.491 Y-14.677 R4.427
X0.2 Y-13.692 R1.433
G3 X-1.145 Y-12.78 R1.328
X-2.232 Y-12.925 R7.765
X-2.932 Y-13.219 R1.971
X-3.524 Y-13.694 R4.393
X-4.602 Y-14.732 R288.943
X-5.626 Y-15.823 R15.638
X-6.187 Y-16.729 R3.511
X-6.554 Y-17.73 R10.687
X-5.897 Y-18.624 R0.689
G1 X5.897
G3 X6.554 Y-17.73 R0.689
X5.282 Y-15.502 R5.951
X3.491 Y-13.665 R35.424
X2.609 Y-13.091 R2.852
X1.581 Y-12.861 R3.099
X-0.328 Y-12.773 R316.682
X-1.145 Y-12.78 R7.765
X-1.241 Y-12.795 Z-2.516 R0.317
X-1.321 Y-12.834 Z-2.471 R0.317
X-1.374 Y-12.879 Z-2.401 R0.317
X-1.403 Y-12.913 Z-2.312 R0.318
X-1.412 Y-12.926 Z-2.214 R0.318
G0 Z5.
X-8.162 Y-1.372
Z-1.39
G3 X-8.149 Y-1.365 Z-1.485 R1.508 F400.
X-8.111 Y-1.347 Z-1.571 R1.508
X-8.053 Y-1.316 Z-1.641 R1.508
X-7.981 Y-1.273 Z-1.687 R1.508
X-7.903 Y-1.22 Z-1.707 R1.508
X-9.676 Y1.22 Z-1.957 R1.508
X-7.903 Y-1.22 Z-2.207 R1.508
X-9.676 Y1.22 Z-2.457 R1.508
X-10.297 Y0. Z-2.532 R1.508
G1 Y-0.298
G3 X-9.524 Y-0.701 R0.492
G2 X-9.346 Y-0.581 R6.334
X-9.165 Y-0.464 R19.879
G3 Y0.464 R0.55
G2 X-9.326 Y0.568 R21.342
X-9.486 Y0.674 R6.906
G3 X-10.297 Y0.248 R0.518
G1 Y0.
G3 X-10.282 Y-0.097 Z-2.516 R0.317
X-10.244 Y-0.176 Z-2.471 R0.318
X-10.199 Y-0.23 Z-2.401 R0.318
X-10.164 Y-0.258 Z-2.312 R0.317
X-10.151 Y-0.267 Z-2.214 R0.317
G0 Z5.
X1.102 Y16.839
Z-1.39
G3 X1.093 Y16.85 Z-1.485 R1.508 F400.
X1.067 Y16.883 Z-1.571 R1.508
X1.023 Y16.933 Z-1.641 R1.508
X0.965 Y16.993 Z-1.687 R1.508
X0.895 Y17.056 Z-1.707 R1.508
X-1.07 Y14.768 Z-1.957 R1.508
X0.895 Y17.056 Z-2.207 R1.508
X-1.07 Y14.768 Z-2.457 R1.508
X0.261 Y14.445 Z-2.532 R1.508
G2 X0.857 Y14.564 R8.54
X1.507 Y14.636 R6.311
G3 X1.931 Y14.739 R1.216
X2.293 Y14.982 R1.273
X2.801 Y15.474 R51.924
X3.295 Y15.979 R19.002
X2.961 Y16.753 R0.459
G1 X-2.962
G3 X-3.295 Y15.979 R0.459
G1 X-2.672 Y15.322
G3 X-2.013 Y14.754 R4.29
X-1.695 Y14.641 R0.641
X-1.357 Y14.625 R5.994
G2 X-0.784 Y14.557 R2.961
X-0.221 Y14.431 R51.731
G3 X0.216 Y14.434 R0.951
G2 X0.261 Y14.445 R8.54
X1.754 Y13.796 R1.358
G3 X3.352 Y13.483 R1.075
X3.557 Y13.661 R2.796
X4.623 Y14.712 R48.351
X5.634 Y15.816 R21.297
X6.213 Y16.752 R3.644
X6.56 Y17.796 R6.662
X5.9 Y18.635 R0.679
G1 X-5.901
G3 X-6.555 Y17.792 R0.676
X-5.333 Y15.499 R5.498
X-3.526 Y13.63 R32.215
X-2.177 Y12.928 R2.735
G2 X-0.69 Y12.608 R54.814
G3 X0.684 Y12.611 R3.039
G2 X2.191 Y12.943 R59.322
G3 X3.352 Y13.483 R2.796
X3.415 Y13.557 Z-2.516 R0.318
X3.45 Y13.638 Z-2.471 R0.318
X3.462 Y13.707 Z-2.401 R0.318
X3.461 Y13.752 Z-2.312 R0.317
X3.459 Y13.768 Z-2.214 R0.317
G0 Z5.
X10.29 Y-1.415
Z-1.39
G3 X10.303 Y-1.421 Z-1.485 R1.508 F400.
X10.342 Y-1.437 Z-1.571 R1.508
X10.403 Y-1.462 Z-1.641 R1.508
X10.483 Y-1.489 Z-1.687 R1.508
X10.574 Y-1.513 Z-1.707 R1.508
X11.276 Y1.42 Z-1.957 R1.508
X10.574 Y-1.513 Z-2.207 R1.508
X11.276 Y1.42 Z-2.457 R1.508
X9.945 Y1.1 Z-2.532 R1.508
G2 X9.315 Y0.63 R5.886
X9.166 Y0.54 R2.777
G3 X9.015 Y0.453 R5.497
Y-0.453 R0.529
G2 X10.215 Y-1.351 R7.51
X11.19 Y-2.488 R6.304
X11.492 Y-3.042 R3.48
G1 X11.718 Y-3.564
G3 X12.365 Y-3.43 R0.337
G1 Y3.43
G3 X11.718 Y3.564 R0.337
G2 X10.734 Y1.919 R7.356
X9.945 Y1.1 R5.886
X8.323 Y0.974 R1.38
G3 X6.72 Y1.249 R2.178
G2 X5.415 Y1.15 R4.808
G3 X1.507 Y1.268 R64.57
G2 X0.909 Y1.327 R3.037
X0.323 Y1.464 R9.779
G3 X-0.343 Y1.461 R1.273
G2 X-0.947 Y1.322 R7.14
X-1.564 Y1.266 R3.397
G3 X-5.443 Y1.155 R67.017
G2 X-9.076 Y2.521 R4.788
X-10.008 Y3.933 R4.046
G3 X-10.869 Y5.389 R5.258
X-13.329 Y8.159 R60.836
X-14.122 Y7.843 R0.459
G1 Y7.601
G3 X-13.946 Y7.274 R0.393
G2 X-12.555 Y5.848 R4.745
X-12.003 Y3.934 R3.593
G1 Y-3.933
G2 X-12.555 Y-5.847 R3.591
X-13.946 Y-7.272 R4.746
G3 X-14.122 Y-7.599 R0.393
G1 Y-7.843
G3 X-13.329 Y-8.159 R0.459
X-11.569 Y-6.248 R105.687
X-10.166 Y-4.062 R8.059
G2 X-6.297 Y-1.329 R4.551
X-1.563 Y-1.17 R70.228
G1 X5.748
G2 X7.609 Y-1.56 R4.632
X9.184 Y-2.626 R5.261
X9.93 Y-3.709 R3.47
G3 X10.522 Y-4.883 R12.115
X10.684 Y-5.144 R4.16
X10.869 Y-5.389 R3.062
X13.33 Y-8.16 R60.86
X14.123 Y-7.844 R0.46
G1 Y7.844
G3 X13.33 Y8.16 R0.459
X10.841 Y5.353 R59.912
X9.994 Y3.915 R5.182
G2 X9.076 Y2.521 R3.972
X6.72 Y1.249 R4.808
X5.739 Y1.665 R0.926
G3 X4.795 Y2.161 R1.056
G2 X3.641 Y2.163 R12.487
X1.067 Y2.424 R24.449
X0.827 Y2.471 R3.079
X0.591 Y2.531 R7.638
G3 X-0.621 Y2.525 R2.275
G2 X-1.087 Y2.417 R5.068
X-1.563 Y2.374 R2.658
G3 X-5.678 Y2.302 R114.489
G2 X-9.157 Y4.499 R3.649
G3 X-10.728 Y6.965 R9.26
X-12.757 Y9.07 R35.149
X-13.488 Y9.619 R3.896
X-14.323 Y9.992 R4.292
X-15.222 Y9.338 R0.687
G1 Y7.481
G3 X-14.622 Y6.401 R1.273
G2 X-13.559 Y5.36 R3.462
X-13.133 Y3.934 R2.604
G1 Y-3.933
G2 X-13.559 Y-5.359 R2.601
X-14.622 Y-6.399 R3.464
