O0001
(This Post Processor is distributed on an "AS IS" BASIS, )
(WITHOUT WARRANTIES OR CONDITIONS OF ANY KIND, either express or implied. )
N1 G21
N2 (3MM CRB 2FL 12 LOC)
N3 G91 G28 X0 Y0 Z0
N4 T01 M06
N5 S10610 M03
N6 G90 G00 X-13.47 Y14.531
N7 G43 Z2.5 H01 M08
N8 G01 Z.25 F220.695
N9 G17 X-13.506 Y14.566 Z.248 F110.347
N10 G03 X-14.566 Z.189 I-.53 J-.53 F36.782
N11 Y13.506 Z.131 I.53 J-.53
N12 G01 X-14.531 Y13.47 Z.128 F110.347
N13 G03 X-13.47 Z.07 I.53 J.53 F36.782
N14 Y14.531 Z.011 I-.53 J.53
N15 G01 X-13.506 Y14.566 Z.009 F110.347
N16 G03 X-14.566 Z-.05 I-.53 J-.53 F36.782
N17 Y13.506 Z-.108 I.53 J-.53
N18 G01 X-14.531 Y13.47 Z-.11 F110.347
N19 G03 X-13.47 Z-.169 I.53 J.53 F36.782
N20 Y14.531 Z-.227 I-.53 J.53
N21 G01 X-13.506 Y14.566 Z-.23 F110.347
N22 G03 X-14.566 Z-.288 I-.53 J-.53 F36.782
N23 Y13.506 Z-.347 I.53 J-.53
N24 G01 X-14.531 Y13.47 Z-.349 F220.695
N25 G03 X-13.47 Z-.407 I.53 J.53 F73.565
N26 Y14.531 Z-.466 I-.53 J.53
N27 G01 X-13.506 Y14.566 Z-.468 F220.695
N28 G03 X-14.566 Z-.527 I-.53 J-.53 F73.565
N29 Y13.506 Z-.585 I.53 J-.53
N30 G01 X-14.531 Y13.47 Z-.588 F220.695
N31 G03 X-13.47 Z-.646 I.53 J.53 F73.565
N32 Y14.531 Z-.705 I-.53 J.53
N33 G01 X-13.506 Y14.566 Z-.707 F220.695
N34 G03 X-14.566 Z-.765 I-.53 J-.53 F73.565
N35 Y13.506 Z-.824 I.53 J-.53
N36 G01 X-14.531 Y13.47 Z-.826 F220.695
N37 G03 X-13.47 Z-.885 I.53 J.53 F73.565
N38 Y14.531 Z-.943 I-.53 J.53
N39 G01 X-13.506 Y14.566 Z-.946 F220.695
N40 G03 X-14.566 Z-1.004 I-.53 J-.53 F73.565
N41 Y13.506 Z-1.062 I.53 J-.53
N42 G01 X-14.531 Y13.47 Z-1.065 F220.695
N43 G03 X-13.47 Z-1.123 I.53 J.53 F73.565
N44 Y14.531 Z-1.182 I-.53 J.53
N45 G01 X-13.506 Y14.566 Z-1.184 F220.695
N46 G03 X-14.566 Z-1.243 I-.53 J-.53 F73.565
N47 Y13.506 Z-1.301 I.53 J-.53
N48 G01 X-14.531 Y13.47 Z-1.304 F220.695
N49 G03 X-13.47 Z-1.362 I.53 J.53 F73.565
N50 Y14.531 Z-1.42 I-.53 J.53
N51 G01 X-13.506 Y14.566 Z-1.423 F220.695
N52 G03 X-14.566 Z-1.481 I-.53 J-.53 F73.565
N53 Y13.506 Z-1.54 I.53 J-.53
N54 G01 X-14.531 Y13.47 Z-1.542 F220.695
N55 G03 X-13.47 Z-1.601 I.53 J.53 F73.565
N56 Y14.531 Z-1.659 I-.53 J.53
N57 G01 X-13.506 Y14.566 Z-1.662 F220.695
N58 G03 X-14.566 Z-1.72 I-.53 J-.53 F73.565
N59 Y13.506 Z-1.778 I.53 J-.53
N60 G01 X-14.531 Y13.47 Z-1.781 F220.695
N61 G03 X-13.47 Z-1.839 I.53 J.53 F73.565
N62 Y14.531 Z-1.898 I-.53 J.53
N63 G01 X-13.506 Y14.566 Z-1.9 F220.695
N64 G03 X-14.566 Z-1.959 I-.53 J-.53 F73.565
N65 Y13.506 Z-2.017 I.53 J-.53
N66 G01 X-14.531 Y13.47 Z-2.02 F220.695
N67 G03 X-13.47 Z-2.078 I.53 J.53 F73.565
N68 Y14.531 Z-2.136 I-.53 J.53
N69 G01 X-13.506 Y14.566 Z-2.139 F220.695
N70 G03 X-14.566 Z-2.197 I-.53 J-.53 F73.565
N71 Y13.506 Z-2.256 I.53 J-.53
N72 G01 X-14.531 Y13.47 Z-2.258 F220.695
N73 G03 X-13.47 Z-2.317 I.53 J.53 F73.565
N74 Y14.531 Z-2.375 I-.53 J.53
N75 G01 X-13.506 Y14.566 Z-2.377 F220.695
N76 G03 X-14.566 Z-2.436 I-.53 J-.53 F73.565
N77 Y13.506 Z-2.494 I.53 J-.53
N78 G01 X-14.531 Y13.47 Z-2.497 F220.695
N79 G03 X-13.47 Z-2.555 I.53 J.53 F73.565
N80 Y14.531 Z-2.614 I-.53 J.53
N81 G01 X-13.506 Y14.566 Z-2.616 F220.695
N82 G03 X-14.566 Z-2.675 I-.53 J-.53 F73.565
N83 Y13.506 Z-2.733 I.53 J-.53
N84 G01 X-14.531 Y13.47 Z-2.735 F220.695
N85 G03 X-13.47 Z-2.794 I.53 J.53 F73.565
N86 Y14.531 Z-2.852 I-.53 J.53
N87 G01 X-13.506 Y14.566 Z-2.855 F220.695
N88 G03 X-14.566 Z-2.913 I-.53 J-.53 F73.565
N89 Y13.506 Z-2.972 I.53 J-.53
N90 G01 X-14.531 Y13.47 Z-2.974 F220.695
N91 G03 X-13.47 Z-3.032 I.53 J.53 F73.565
N92 Y14.531 Z-3.091 I-.53 J.53
N93 G01 X-13.506 Y14.566 Z-3.093 F220.695
N94 G03 X-14.566 Z-3.152 I-.53 J-.53 F73.565
N95 Y13.506 Z-3.21 I.53 J-.53
N96 G01 X-14.531 Y13.47 Z-3.213 F220.695
N97 G03 X-13.47 Z-3.271 I.53 J.53 F73.565
N98 Y14.531 Z-3.33 I-.53 J.53
N99 G01 X-13.506 Y14.566 Z-3.332 F220.695
N100 G03 X-14.566 Z-3.39 I-.53 J-.53 F73.565
N101 Y13.506 Z-3.449 I.53 J-.53
N102 G01 X-14.531 Y13.47 Z-3.451 F220.695
N103 G03 X-13.47 Z-3.51 I.53 J.53 F73.565
N104 Y14.531 Z-3.568 I-.53 J.53
N105 G01 X-13.506 Y14.566 Z-3.571 F220.695
N106 G03 X-14.566 Z-3.629 I-.53 J-.53 F73.565
N107 Y13.506 Z-3.688 I.53 J-.53
N108 G01 X-14.531 Y13.47 Z-3.69 F220.695
N109 G03 X-13.47 Z-3.748 I.53 J.53 F73.565
N110 Y14.531 Z-3.807 I-.53 J.53
N111 G01 X-13.506 Y14.566 Z-3.809 F220.695
N112 G03 X-14.566 Z-3.868 I-.53 J-.53 F73.565
N113 Y13.506 Z-3.926 I.53 J-.53
N114 G01 X-14.531 Y13.47 Z-3.929 F220.695
N115 G03 X-13.47 Z-3.987 I.53 J.53 F73.565
N116 Y14.531 Z-4.045 I-.53 J.53
N117 G01 X-13.506 Y14.566 Z-4.048 F220.695
N118 G03 X-14.566 Z-4.106 I-.53 J-.53 F73.565
N119 Y13.506 Z-4.165 I.53 J-.53
N120 G01 X-14.531 Y13.47 Z-4.167 F220.695
N121 G03 X-13.47 Z-4.226 I.53 J.53 F73.565
N122 Y14.531 Z-4.284 I-.53 J.53
N123 G01 X-13.506 Y14.566 Z-4.287 F220.695
N124 G03 X-14.566 Z-4.345 I-.53 J-.53 F73.565
N125 Y13.506 Z-4.403 I.53 J-.53
N126 G01 X-14.531 Y13.47 Z-4.406 F220.695
N127 G03 X-13.47 Z-4.464 I.53 J.53 F73.565
N128 Y14.531 Z-4.523 I-.53 J.53
N129 G01 X-13.506 Y14.566 Z-4.525 F220.695
N130 G03 X-14.566 Z-4.584 I-.53 J-.53 F73.565
N131 Y13.506 Z-4.642 I.53 J-.53
N132 G01 X-14.531 Y13.47 Z-4.645 F220.695
N133 G03 X-13.47 Z-4.703 I.53 J.53 F73.565
N134 Y14.531 Z-4.761 I-.53 J.53
N135 G01 X-13.506 Y14.566 Z-4.764 F220.695
N136 G03 X-14.566 Z-4.822 I-.53 J-.53 F73.565
N137 Y13.506 Z-4.881 I.53 J-.53
N138 G01 X-14.531 Y13.47 Z-4.883 F220.695
N139 G03 X-13.47 Z-4.942 I.53 J.53 F73.565
N140 Y14.531 Z-5. I-.53 J.53
N141 G01 X-13.506 Y14.566 F220.695
N142 G03 X-14.566 I-.53 J-.53 F73.565
N143 Y13.506 I.53 J-.53
N144 G01 X-14.531 Y13.47 F220.695
N145 G03 X-13.47 I.53 J.53 F73.565
N146 Y14.531 I-.53 J.53
N147 X-14.001 Z-4.76 I-.265 J-.265 F441.39
N148 G01 X-14.018 Y14.549 Z-4.75 F500.
N149 X-14.036 Y14.566 Z-4.76
N150 G03 X-14.566 Z-5. I-.265 J-.265 F220.695
N151 X-14.371 Y13.292 I.566 J-.566 F76.763
N152 X-13.435 Y13.435 I.37 J.709 F153.527
N153 X-13.325 Y13.689 I-.265 J.265 F88.278
N154 X-13.435 Y13.965 Z-4.909 I-.375 J.011 F441.39
N155 G01 X-13.856 Y14.301 Z-4.75 F500.
N156 X-14.189 Y14.566 Z-4.876
N157 G03 X-14.566 Z-5. I-.189 J-.189 F441.39
N158 X-14.784 Y14.346 I14.291 J-14.291 F410.893
N159 X-14.998 Y14.122 I15.723 J-15.248 F413.099
N160 X-14.964 Y12.99 I.582 J-.549 F153.527
N161 X-13.833 Y13.025 I.548 J.582
N162 G02 X-13.636 Y13.231 I12.98 J-12.205 F441.39
N163 X-13.435 Y13.435 I13.949 J-13.544
N164 G03 X-13.555 Y13.881 Z-4.865 I-.189 J.189
N165 G01 X-14.014 Y14.004 Z-4.75 F500.
N166 X-14.735 Y14.196 Z-4.931
N167 G03 X-14.998 Y14.122 Z-5. I-.069 J-.258 F441.39
N168 X-15.214 Y13.888 I14.463 J-13.634 F410.416
N169 X-15.427 Y13.652 I14.531 J-13.266 F410.124
N170 X-15.357 Y12.523 I.599 J-.53 F153.527
N171 X-14.228 Y12.592 I.53 J.599
N172 G02 X-14.032 Y12.81 I13.221 J-11.688 F441.39
N173 X-13.833 Y13.025 I15.28 J-13.967
N174 G03 X-13.969 Y13.468 Z-4.865 I-.194 J.183
N175 G01 X-14.434 Y13.571 Z-4.75 F500.
N176 X-15.169 Y13.735 Z-4.931
N177 G03 X-15.427 Y13.652 Z-5. I-.058 J-.26 F441.39
N178 X-15.635 Y13.413 I16.235 J-14.347 F412.809
N179 X-15.839 Y13.172 I16.111 J-13.824 F412.261
N180 X-15.735 Y12.045 I.615 J-.512 F153.527
N181 X-14.608 Y12.149 I.512 J.615
N182 G02 X-14.42 Y12.372 I13.603 J-11.3 F441.39
N183 X-14.228 Y12.592 I15.571 J-13.375
N184 G03 X-14.377 Y13.031 Z-4.865 I-.2 J.177
N185 G01 X-14.844 Y13.121 Z-4.75 F500.
N186 X-15.583 Y13.263 Z-4.931
N187 G03 X-15.839 Y13.172 Z-5. I-.05 J-.262 F441.39
N188 X-16.044 Y12.921 I15.139 J-12.603 F410.157
N189 X-16.245 Y12.667 I16.086 J-12.949 F411.499
N190 X-16.106 Y11.544 I.631 J-.492 F153.527
N191 X-14.984 Y11.683 I.492 J.631
N192 G02 X-14.798 Y11.917 I14.96 J-11.669 F441.39
N193 X-14.608 Y12.149 I15.55 J-12.528
N194 G03 X-14.774 Y12.583 Z-4.865 I-.205 J.17
N195 G01 X-15.245 Y12.654 Z-4.75 F500.
N196 X-15.995 Y12.767 Z-4.932
N197 G03 X-16.245 Y12.667 Z-5. I-.04 J-.264 F441.39
N198 X-16.434 Y12.421 I16.263 J-12.677 F411.458
N199 X-16.619 Y12.172 I17.106 J-12.925 F412.529
N200 X-16.447 Y11.054 I.645 J-.473 F153.527
N201 X-15.328 Y11.227 I.473 J.645
N202 G02 X-15.158 Y11.456 I14.695 J-10.752 F441.39
N203 X-14.984 Y11.683 I15.152 J-11.456
N204 G03 X-15.157 Y12.111 Z-4.865 I-.21 J.164
N205 G01 X-15.628 Y12.176 Z-4.75 F500.
N206 X-16.367 Y12.279 Z-4.931
N207 G03 X-16.619 Y12.172 Z-5. I-.037 J-.264 F441.39
N208 X-16.802 Y11.919 I15.33 J-11.239 F409.106
N209 X-16.981 Y11.663 I19.527 J-13.828 F415.352
N210 X-16.775 Y10.55 I.659 J-.454 F153.528
N211 X-15.662 Y10.757 I.453 J.659
N212 G02 X-15.497 Y10.993 I14.179 J-9.72 F441.39
N213 X-15.328 Y11.227 I16.813 J-11.944
N214 G03 X-15.516 Y11.65 Z-4.865 I-.215 J.157
N215 G01 X-15.989 Y11.699 Z-4.75 F500.
N216 X-16.734 Y11.776 Z-4.931
N217 G03 X-16.982 Y11.661 Z-5. I-.027 J-.265 F441.39
N218 X-17.161 Y11.395 I19.077 J-13.063 F414.499
N219 X-17.337 Y11.127 I17.114 J-11.374 F411.361
N220 X-17.096 Y10.021 I.673 J-.432 F153.527
N221 X-15.99 Y10.262 I.432 J.673
N222 G02 X-15.828 Y10.511 I15.005 J-9.622 F441.39
N223 X-15.662 Y10.757 I17.522 J-11.652
N224 G03 X-15.866 Y11.174 Z-4.865 I-.22 J.151
N225 G01 X-16.341 Y11.203 Z-4.75 F500.
N226 X-17.096 Y11.249 Z-4.932
N227 G03 X-17.337 Y11.127 Z-5. I-.016 J-.266 F441.39
N228 X-17.504 Y10.862 I16.113 J-10.35 F409.328
N229 X-17.667 Y10.594 I20.269 J-12.556 F415.265
N230 X-17.393 Y9.496 I.686 J-.412 F153.528
N231 X-16.295 Y9.771 I.412 J.686
N232 G02 X-16.144 Y10.018 I15.024 J-8.994 F441.39
N233 X-15.99 Y10.262 I17.246 J-10.715
N234 G03 X-16.204 Y10.673 Z-4.865 I-.224 J.144
N235 G01 X-16.679 Y10.692 Z-4.75 F500.
N236 X-17.428 Y10.722 Z-4.931
N237 G03 X-17.668 Y10.593 Z-5. I-.011 J-.266 F441.39
N238 X-17.83 Y10.317 I19.905 J-11.899 F414.574
N239 X-17.988 Y10.039 I17.651 J-10.223 F411.155
N240 X-17.68 Y8.95 I.698 J-.39 F153.527
N241 X-16.591 Y9.259 I.39 J.699
N242 G02 X-16.445 Y9.516 I15.76 J-8.788 F441.39
N243 X-16.295 Y9.771 I17.846 J-10.339
N244 G03 X-16.524 Y10.175 Z-4.865 I-.229 J.137
N245 G01 X-17. Z-4.75 F500.
N246 X-17.756 Z-4.932
N247 G03 X-17.988 Y10.039 Z-5. I0 J-.267 F441.39
N248 X-18.139 Y9.763 I16.845 J-9.407 F409.549
N249 X-18.286 Y9.486 I20.931 J-11.246 F415.179
N250 X-17.945 Y8.406 I.71 J-.369 F153.528
N251 X-16.866 Y8.748 I.369 J.71
N252 G02 X-16.731 Y9.005 I15.839 J-8.205 F441.39
N253 X-16.591 Y9.259 I17.604 J-9.485
N254 G03 X-16.83 Y9.655 Z-4.865 I-.233 J.13
N255 G01 X-17.306 Y9.645 Z-4.75 F500.
N256 X-18.056 Y9.628 Z-4.931
N257 G03 X-18.287 Y9.484 Z-5. I.006 J-.267 F441.39
N258 X-18.432 Y9.199 I20.663 J-10.682 F414.651
N259 X-18.572 Y8.913 I18.112 J-9.051 F410.946
N260 X-18.197 Y7.845 I.721 J-.346 F153.527
N261 X-17.13 Y8.22 I.346 J.721
N262 G02 X-17. Y8.485 I16.475 J-7.902 F441.39
N263 X-16.866 Y8.748 I18.087 J-9.037
N264 G03 X-17.119 Y9.137 Z-4.865 I-.237 J.123
N265 G01 X-17.594 Y9.109 Z-4.75 F500.
N266 X-18.348 Y9.063 Z-4.932
N267 G03 X-18.572 Y8.913 Z-5. I.016 J-.266 F441.39
N268 X-18.706 Y8.628 I17.522 J-8.413 F409.767
N269 X-18.836 Y8.341 I21.509 J-9.903 F415.095
N270 X-18.429 Y7.285 I.731 J-.325 F153.528
N271 X-17.373 Y7.693 I.324 J.731
N272 G02 X-17.253 Y7.957 I16.622 J-7.352 F441.39
N273 X-17.13 Y8.22 I17.889 J-8.257
N274 G03 X-17.393 Y8.601 Z-4.865 I-.24 J.115
N275 G01 X-17.867 Y8.561 Z-4.75 F500.
N276 X-18.615 Y8.497 Z-4.931
N277 G03 X-18.837 Y8.339 Z-5. I.023 J-.266 F441.39
N278 X-18.963 Y8.047 I21.348 J-9.418 F414.729
N279 X-19.085 Y7.753 I18.498 J-7.861 F410.736
N280 X-18.645 Y6.711 I.741 J-.301 F153.527
N281 X-17.603 Y7.151 I.301 J.741
N282 G02 X-17.49 Y7.423 I17.148 J-6.963 F441.39
N283 X-17.373 Y7.693 I18.248 J-7.75
N284 G03 X-17.649 Y8.065 Z-4.865 I-.244 J.108
N285 G01 X-18.122 Y8.008 Z-4.75 F500.
N286 X-18.87 Y7.917 Z-4.932
N287 G03 X-19.085 Y7.753 Z-5. I.032 J-.265 F441.39
N288 X-19.202 Y7.46 I18.141 J-7.372 F409.985
N289 X-19.314 Y7.165 I22.004 J-8.532 F415.012
N290 X-18.843 Y6.136 I.75 J-.279 F153.528
N291 X-17.814 Y6.607 I.279 J.75
N292 G02 X-17.711 Y6.88 I17.367 J-6.437 F441.39
N293 X-17.603 Y7.151 I18.101 J-7.035
N294 G03 X-17.889 Y7.515 Z-4.865 I-.247 J.1
N295 G01 X-18.36 Y7.445 Z-4.75 F500.
N296 X-19.104 Y7.334 Z-4.931
N297 G03 X-19.315 Y7.163 Z-5. I.039 J-.264 F441.39
N298 X-19.421 Y6.87 I22.556 J-8.332 F415.472
N299 X-19.522 Y6.576 I17.734 J-6.291 F408.801
N300 X-19.019 Y5.563 I.758 J-.255 F153.527
N301 X-18.006 Y6.066 I.255 J.758
N302 G02 X-17.912 Y6.337 I16.665 J-5.601 F441.39
N303 X-17.814 Y6.607 I18.782 J-6.656
N304 G03 X-18.11 Y6.963 Z-4.865 I-.25 J.093
N305 G01 X-18.578 Y6.882 Z-4.75 F500.
N306 X-19.315 Y6.754 Z-4.931
N307 G03 X-19.522 Y6.576 Z-5. I.046 J-.263 F441.39
N308 X-19.621 Y6.275 I20.19 J-6.788 F412.352
N309 X-19.715 Y5.973 I20.579 J-6.581 F412.735
N310 X-19.181 Y4.975 I.765 J-.232 F153.527
N311 X-18.184 Y5.509 I.232 J.766
N312 G02 X-18.097 Y5.788 I16.624 J-5.024 F441.39
N313 X-18.006 Y6.066 I19.986 J-6.409
N314 G03 X-18.314 Y6.412 Z-4.865 I-.253 J.085
N315 G01 X-18.779 Y6.313 Z-4.75 F500.
N316 X-19.515 Y6.157 Z-4.931
N317 G03 X-19.715 Y5.973 Z-5. I.055 J-.261 F441.39
N318 X-19.805 Y5.669 I18.89 J-5.737 F410.221
N319 X-19.89 Y5.362 I19.008 J-5.44 F410.263
N320 X-19.325 Y4.382 I.773 J-.208 F153.527
N321 X-18.345 Y4.947 I.208 J.773
N322 G02 X-18.266 Y5.229 I16.858 J-4.534 F441.39
N323 X-18.184 Y5.509 I20.108 J-5.771
N324 G03 X-18.503 Y5.846 Z-4.865 I-.255 J.077
N325 G01 X-18.965 Y5.732 Z-4.75 F500.
N326 X-19.696 Y5.552 Z-4.931
N327 G03 X-19.89 Y5.362 Z-5. I.064 J-.259 F441.39
N328 X-19.97 Y5.056 I20.82 J-5.599 F412.678
N329 X-20.045 Y4.749 I20.719 J-5.247 F412.444
N330 X-19.451 Y3.786 I.778 J-.185 F153.527
N331 X-18.488 Y4.38 I.184 J.778
N332 G02 X-18.419 Y4.664 I17.063 J-4.031 F441.39
N333 X-18.345 Y4.947 I20.143 J-5.115
N334 G03 X-18.674 Y5.273 Z-4.865 I-.258 J.069
N335 G01 X-19.132 Y5.146 Z-4.75 F500.
N336 X-19.857 Y4.944 Z-4.931
N337 G03 X-20.045 Y4.749 Z-5. I.071 J-.257 F441.39
N338 X-20.116 Y4.439 I19.378 J-4.603 F410.476
N339 X-20.182 Y4.128 I19.185 J-4.234 F410.081
N340 X-19.558 Y3.184 I.784 J-.16 F153.527
N341 X-18.615 Y3.808 I.16 J.784
N342 G02 X-18.554 Y4.094 I17.349 J-3.539 F441.39
N343 X-18.488 Y4.38 I20.148 J-4.459
N344 G03 X-18.827 Y4.696 Z-4.865 I-.26 J.061
N345 G01 X-19.282 Y4.554 Z-4.75 F500.
N346 X-20.001 Y4.329 Z-4.931
N347 G03 X-20.182 Y4.128 Z-5. I.08 J-.255 F441.39
N348 X-20.243 Y3.817 I21.261 J-4.333 F412.849
N349 X-20.299 Y3.506 I20.818 J-3.928 F412.204
N350 X-19.647 Y2.581 I.788 J-.137 F153.527
N351 X-18.723 Y3.234 I.136 J.788
N352 G02 X-18.671 Y3.521 I17.474 J-3.009 F441.39
N353 X-18.615 Y3.808 I20.092 J-3.801
N354 G03 X-18.963 Y4.113 Z-4.865 I-.261 J.053
N355 G01 X-19.412 Y3.958 Z-4.75 F500.
N356 X-20.124 Y3.713 Z-4.931
N357 G03 X-20.299 Y3.506 Z-5. I.087 J-.252 F441.39
N358 X-20.352 Y3.186 I19.454 J-3.37 F410.223
N359 X-20.4 Y2.866 I20.354 J-3.183 F411.432
N360 X-19.719 Y1.962 I.792 J-.111 F153.527
N361 X-18.815 Y2.643 I.111 J.792
N362 G02 X-18.771 Y2.939 I18.834 J-2.649 F441.39
N363 X-18.723 Y3.234 I19.677 J-3.084
N364 G03 X-19.083 Y3.528 Z-4.865 I-.263 J.045
N365 G01 X-19.527 Y3.354 Z-4.75 F500.
N366 X-20.233 Y3.077 Z-4.932
N367 G03 X-20.4 Y2.866 Z-5. I.097 J-.248 F441.39
N368 X-20.44 Y2.558 I20.469 J-2.872 F411.525
N369 X-20.477 Y2.251 I21.222 J-2.654 F412.462
N370 X-19.769 Y1.368 I.795 J-.088 F153.527
N371 X-18.886 Y2.076 I.087 J.795
N372 G02 X-18.853 Y2.36 I18.148 J-1.986 F441.39
N373 X-18.815 Y2.643 I18.798 J-2.356
N374 G03 X-19.179 Y2.927 Z-4.865 I-.264 J.037
N375 G01 X-19.62 Y2.749 Z-4.75 F500.
N376 X-20.312 Y2.469 Z-4.931
N377 G03 X-20.477 Y2.251 Z-5. I.1 J-.247 F441.39
N378 X-20.508 Y1.94 I18.927 J-2.089 F409.159
N379 X-20.536 Y1.628 I23.803 J-2.232 F415.331
N380 X-19.802 Y.767 I.797 J-.064 F153.528
N381 X-18.941 Y1.502 I.063 J.797
N382 G02 X-18.916 Y1.789 I17.212 J-1.35 F441.39
N383 X-18.886 Y2.076 I20.454 J-1.948
N384 G03 X-19.26 Y2.348 Z-4.865 I-.265 J.029
N385 G01 X-19.694 Y2.154 Z-4.75 F500.
N386 X-20.379 Y1.849 Z-4.931
N387 G03 X-20.536 Y1.626 Z-5. I.109 J-.244 F441.39
N388 X-20.558 Y1.306 I23.067 J-1.797 F414.516
N389 X-20.576 Y.986 I20.471 J-1.309 F411.313
N390 X-19.816 Y.149 I.799 J-.039 F153.527
N391 X-18.978 Y.91 I.038 J.799
N392 G02 X-18.962 Y1.206 I17.856 J-.849 F441.39
N393 X-18.941 Y1.502 I20.9 J-1.342
N394 G03 X-19.325 Y1.761 Z-4.865 I-.266 J.021
N395 G01 X-19.752 Y1.549 Z-4.75 F500.
N396 X-20.429 Y1.212 Z-4.932
N397 G03 X-20.576 Y.986 Z-5. I.119 J-.239 F441.39
N398 X-20.589 Y.673 I19.162 J-.925 F409.38
N399 X-20.597 Y.36 I23.811 J-.76 F415.245
N400 X-19.811 Y-.455 I.8 J-.015 F153.528
N401 X-18.997 Y.332 I.014 J.8
N402 G02 X-18.99 Y.621 I17.584 J-.295 F441.39
N403 X-18.978 Y.91 I20.219 J-.672
N404 G03 X-19.368 Y1.159 Z-4.865 I-.266 J.013
N405 G01 X-19.79 Y.938 Z-4.75 F500.
N406 X-20.454 Y.59 Z-4.931
N407 G03 X-20.597 Y.358 Z-5. I.124 J-.236 F441.39
N408 X-20.599 Y.179 I26.121 J-.42 F417.423
N409 X-20.6 Y0 I19.375 J-.179 F409.675
N410 X-19.8 Y-.8 I.8 J0 F153.527
N411 X-19. Y0 I0 J.8
N412 G02 X-18.999 Y.166 I18.34 J0 F441.39
N413 X-18.997 Y.332 I21.444 J-.194
N414 G03 X-19.259 Y.603 Z-4.75 I-.267 J.004
N415 G00 Z5.
N416 X-13.965 Y13.435
N417 Z2.5
N418 G01 Z-2.5 F500.
N419 Z-4.75 F220.695
N420 G03 X-13.435 Z-5. I.265 J.265
N421 X-13.63 Y14.71 I-.566 J.566 F76.763
N422 X-14.566 Y14.566 I-.37 J-.709 F153.527
N423 Y14.036 Z-4.75 I.265 J-.265 F441.39
N424 G00 Z25.
N425 X-19.032 Y7.883
N426 Z5.
N427 G01 Z-5. F150.
N428 G03 X-20.6 Y0 I19.032 J-7.883 F500.
N429 X-19. I.8 J0
N430 G02 X-13.435 Y13.435 I19. J0
N431 G03 X-14.566 Y14.566 I-.566 J.566
N432 X-19.032 Y7.883 I14.566 J-14.566
N433 X-20.6 Y0 I19.032 J-7.883 F100.
N434 X-19. I.8 J0
N435 G02 X-13.435 Y13.435 I19. J0
N436 G03 X-14.566 Y14.566 I-.566 J.566
N437 X-20.6 Y0 I14.566 J-14.566
N438 X-19. I.8 J0
N439 G02 X-13.435 Y13.435 I19. J0
N440 G03 X-14.566 Y14.566 I-.566 J.566
N441 X-19.032 Y7.883 I14.566 J-14.566
N442 G00 Z5.
N443 Z25.
N444 X19.8 Y.75
N445 Z2.5
N446 G01 Z.25 F250.
N447 X19.75 Z.248 F125.
N448 G03 X19. Y0 Z.189 I0 J-.75 F41.667
N449 X19.75 Y-.75 Z.131 I.75 J0
N450 G01 X19.8 Z.128 F125.
N451 G03 X20.55 Y0 Z.07 I0 J.75 F41.667
N452 X19.8 Y.75 Z.011 I-.75 J0
N453 G01 X19.75 Z.009 F125.
N454 G03 X19. Y0 Z-.05 I0 J-.75 F41.667
N455 X19.75 Y-.75 Z-.108 I.75 J0
N456 G01 X19.8 Z-.11 F125.
N457 G03 X20.55 Y0 Z-.169 I0 J.75 F41.667
N458 X19.8 Y.75 Z-.227 I-.75 J0
N459 G01 X19.75 Z-.23 F125.
N460 G03 X19. Y0 Z-.288 I0 J-.75 F41.667
N461 X19.75 Y-.75 Z-.347 I.75 J0
N462 G01 X19.8 Z-.349 F250.
N463 G03 X20.55 Y0 Z-.407 I0 J.75 F83.333
N464 X19.8 Y.75 Z-.466 I-.75 J0
N465 G01 X19.75 Z-.468 F250.
N466 G03 X19. Y0 Z-.527 I0 J-.75 F83.333
N467 X19.75 Y-.75 Z-.585 I.75 J0
N468 G01 X19.8 Z-.588 F250.
N469 G03 X20.55 Y0 Z-.646 I0 J.75 F83.333
N470 X19.8 Y.75 Z-.705 I-.75 J0
N471 G01 X19.75 Z-.707 F250.
N472 G03 X19. Y0 Z-.765 I0 J-.75 F83.333
N473 X19.75 Y-.75 Z-.824 I.75 J0
N474 G01 X19.8 Z-.826 F250.
N475 G03 X20.55 Y0 Z-.885 I0 J.75 F83.333
N476 X19.8 Y.75 Z-.943 I-.75 J0
N477 G01 X19.75 Z-.946 F250.
N478 G03 X19. Y0 Z-1.004 I0 J-.75 F83.333
N479 X19.75 Y-.75 Z-1.062 I.75 J0
N480 G01 X19.8 Z-1.065 F250.
N481 G03 X20.55 Y0 Z-1.123 I0 J.75 F83.333
N482 X19.8 Y.75 Z-1.182 I-.75 J0
N483 G01 X19.75 Z-1.184 F250.
N484 G03 X19. Y0 Z-1.243 I0 J-.75 F83.333
N485 X19.75 Y-.75 Z-1.301 I.75 J0
N486 G01 X19.8 Z-1.304 F250.
N487 G03 X20.55 Y0 Z-1.362 I0 J.75 F83.333
N488 X19.8 Y.75 Z-1.42 I-.75 J0
N489 G01 X19.75 Z-1.423 F250.
N490 G03 X19. Y0 Z-1.481 I0 J-.75 F83.333
N491 X19.75 Y-.75 Z-1.54 I.75 J0
N492 G01 X19.8 Z-1.542 F250.
N493 G03 X20.55 Y0 Z-1.601 I0 J.75 F83.333
N494 X19.8 Y.75 Z-1.659 I-.75 J0
N495 G01 X19.75 Z-1.662 F250.
N496 G03 X19. Y0 Z-1.72 I0 J-.75 F83.333
N497 X19.75 Y-.75 Z-1.778 I.75 J0
N498 G01 X19.8 Z-1.781 F250.
N499 G03 X20.55 Y0 Z-1.839 I0 J.75 F83.333
N500 X19.8 Y.75 Z-1.898 I-.75 J0
N501 G01 X19.75 Z-1.9 F250.
N502 G03 X19. Y0 Z-1.959 I0 J-.75 F83.333
N503 X19.75 Y-.75 Z-2.017 I.75 J0
N504 G01 X19.8 Z-2.02 F250.
N505 G03 X20.55 Y0 Z-2.078 I0 J.75 F83.333
N506 X19.8 Y.75 Z-2.136 I-.75 J0
N507 G01 X19.75 Z-2.139 F250.
N508 G03 X19. Y0 Z-2.197 I0 J-.75 F83.333
N509 X19.75 Y-.75 Z-2.256 I.75 J0
N510 G01 X19.8 Z-2.258 F250.
N511 G03 X20.55 Y0 Z-2.317 I0 J.75 F83.333
N512 X19.8 Y.75 Z-2.375 I-.75 J0
N513 G01 X19.75 Z-2.377 F250.
N514 G03 X19. Y0 Z-2.436 I0 J-.75 F83.333
N515 X19.75 Y-.75 Z-2.494 I.75 J0
N516 G01 X19.8 Z-2.497 F250.
N517 G03 X20.55 Y0 Z-2.555 I0 J.75 F83.333
N518 X19.8 Y.75 Z-2.614 I-.75 J0
N519 G01 X19.75 Z-2.616 F250.
N520 G03 X19. Y0 Z-2.675 I0 J-.75 F83.333
N521 X19.75 Y-.75 Z-2.733 I.75 J0
N522 G01 X19.8 Z-2.735 F250.
N523 G03 X20.55 Y0 Z-2.794 I0 J.75 F83.333
N524 X19.8 Y.75 Z-2.852 I-.75 J0
N525 G01 X19.75 Z-2.855 F250.
N526 G03 X19. Y0 Z-2.913 I0 J-.75 F83.333
N527 X19.75 Y-.75 Z-2.972 I.75 J0
N528 G01 X19.8 Z-2.974 F250.
N529 G03 X20.55 Y0 Z-3.032 I0 J.75 F83.333
N530 X19.8 Y.75 Z-3.091 I-.75 J0
N531 G01 X19.75 Z-3.093 F250.
N532 G03 X19. Y0 Z-3.152 I0 J-.75 F83.333
N533 X19.75 Y-.75 Z-3.21 I.75 J0
N534 G01 X19.8 Z-3.213 F250.
N535 G03 X20.55 Y0 Z-3.271 I0 J.75 F83.333
N536 X19.8 Y.75 Z-3.33 I-.75 J0
N537 G01 X19.75 Z-3.332 F250.
N538 G03 X19. Y0 Z-3.39 I0 J-.75 F83.333
N539 X19.75 Y-.75 Z-3.449 I.75 J0
N540 G01 X19.8 Z-3.451 F250.
N541 G03 X20.55 Y0 Z-3.51 I0 J.75 F83.333
N542 X19.8 Y.75 Z-3.568 I-.75 J0
N543 G01 X19.75 Z-3.571 F250.
N544 G03 X19. Y0 Z-3.629 I0 J-.75 F83.333
N545 X19.75 Y-.75 Z-3.687 I.75 J0
N546 G01 X19.8 Z-3.69 F250.
N547 G03 X20.55 Y0 Z-3.748 I0 J.75 F83.333
N548 X19.8 Y.75 Z-3.807 I-.75 J0
N549 G01 X19.75 Z-3.809 F250.
N550 G03 X19. Y0 Z-3.868 I0 J-.75 F83.333
N551 X19.75 Y-.75 Z-3.926 I.75 J0
N552 G01 X19.8 Z-3.929 F250.
N553 G03 X20.55 Y0 Z-3.987 I0 J.75 F83.333
N554 X19.8 Y.75 Z-4.045 I-.75 J0
N555 G01 X19.75 Z-4.048 F250.
N556 G03 X19. Y0 Z-4.106 I0 J-.75 F83.333
N557 X19.75 Y-.75 Z-4.165 I.75 J0
N558 G01 X19.8 Z-4.167 F250.
N559 G03 X20.55 Y0 Z-4.226 I0 J.75 F83.333
N560 X19.8 Y.75 Z-4.284 I-.75 J0
N561 G01 X19.75 Z-4.287 F250.
N562 G03 X19. Y0 Z-4.345 I0 J-.75 F83.333
N563 X19.75 Y-.75 Z-4.403 I.75 J0
N564 G01 X19.8 Z-4.406 F250.
N565 G03 X20.55 Y0 Z-4.464 I0 J.75 F83.333
N566 X19.8 Y.75 Z-4.523 I-.75 J0
N567 G01 X19.75 Z-4.525 F250.
N568 G03 X19. Y0 Z-4.584 I0 J-.75 F83.333
N569 X19.75 Y-.75 Z-4.642 I.75 J0
N570 G01 X19.8 Z-4.645 F250.
N571 G03 X20.55 Y0 Z-4.703 I0 J.75 F83.333
N572 X19.8 Y.75 Z-4.761 I-.75 J0
N573 G01 X19.75 Z-4.764 F250.
N574 G03 X19. Y0 Z-4.822 I0 J-.75 F83.333
N575 X19.75 Y-.75 Z-4.881 I.75 J0
N576 G01 X19.8 Z-4.883 F250.
N577 G03 X20.55 Y0 Z-4.942 I0 J.75 F83.333
N578 X19.8 Y.75 Z-5. I-.75 J0
N579 G01 X19.75 F250.
N580 G03 X19. Y0 I0 J-.75 F83.333
N581 X19.75 Y-.75 I.75 J0
N582 G01 X19.8 F250.
N583 G03 X20.55 Y0 I0 J.75 F83.333
N584 X19.8 Y.75 I-.75 J0
N585 X19.425 Y.375 Z-4.76 I0 J-.375 F500.
N586 G01 X19.4 Z-4.75
N587 X19.375 Z-4.76
N588 G03 X19. Y0 Z-5. I0 J-.375 F250.
N589 X20.04 Y-.763 I.8 J0 F86.957
N590 X20.6 Y0 I-.24 J.763 F173.913
N591 X20.498 Y.257 I-.375 J0 F100.
N592 X20.225 Y.375 Z-4.909 I-.273 J-.257 F500.
N593 G01 X19.69 Y.314 Z-4.75
N594 X19.267 Y.267 Z-4.876
N595 G03 X19. Y0 Z-5. I0 J-.267
N596 G02 X18.996 Y-.369 I-19.137 J0
N597 X18.986 Y-.738 I-18.602 J.359
N598 G03 X19.754 Y-1.569 I.799 J-.031 F173.914
N599 X20.585 Y-.799 I.031 J.799
N600 X20.596 Y-.4 I-22.806 J.856 F469.164
N601 X20.6 Y0 I-19.977 J.4 F465.085
N602 X20.182 Y.219 Z-4.865 I-.267 J0 F500.
N603 G01 X19.778 Y-.06 Z-4.75
N604 X19.1 Y-.529 Z-4.942
N605 G03 X18.986 Y-.738 Z-5. I.152 J-.219
N606 G02 X18.968 Y-1.099 I-18.749 J.734
N607 X18.944 Y-1.459 I-21.087 J1.232
N608 G03 X19.68 Y-2.317 I.798 J-.06 F173.912
N609 X20.539 Y-1.581 I.061 J.798
N610 X20.565 Y-1.192 I-18.613 J1.45 F462.814
N611 X20.584 Y-.802 I-23.485 J1.336 F470.028
N612 X20.177 Y-.564 Z-4.864 I-.266 J.011 F500.
N613 G01 X19.762 Y-.822 Z-4.75
N614 X19.069 Y-1.253 Z-4.941
N615 G03 X18.944 Y-1.459 Z-5. I.141 J-.226
N616 G02 X18.913 Y-1.819 I-21.01 J1.648
N617 X18.875 Y-2.179 I-18.787 J1.798
N618 G03 X19.578 Y-3.065 I.795 J-.091 F173.913
N619 X20.464 Y-2.363 I.092 J.795
N620 X20.505 Y-1.972 I-19.531 J2.261 F464.559
N621 X20.539 Y-1.581 I-22.236 J2.126 F468.537
N622 X20.141 Y-1.329 Z-4.865 I-.266 J.021 F500.
N623 G01 X19.717 Y-1.572 Z-4.75
N624 X19.007 Y-1.978 Z-4.942
N625 G03 X18.875 Y-2.179 Z-5. I.132 J-.231
N626 G02 X18.83 Y-2.54 I-18.607 J2.142
N627 X18.777 Y-2.9 I-18.294 J2.467
N628 G03 X19.446 Y-3.813 I.791 J-.122 F173.913
N629 X20.359 Y-3.144 I.122 J.791
N630 X20.415 Y-2.754 I-20.918 J3.221 F466.908
N631 X20.464 Y-2.363 I-20.695 J2.793 F466.491
N632 X20.075 Y-2.096 Z-4.865 I-.265 J.031 F500.
N633 G01 X19.642 Y-2.324 Z-4.75
N634 X18.917 Y-2.705 Z-4.942
N635 G03 X18.777 Y-2.9 Z-5. I.124 J-.236
N636 G02 X18.721 Y-3.247 I-19.469 J3.017
N637 X18.657 Y-3.592 I-18.685 J3.237
N638 G03 X19.292 Y-4.529 I.786 J-.151 F173.913
N639 X20.229 Y-3.894 I.151 J.786
N640 X20.297 Y-3.52 I-20.277 J3.906 F466.139
N641 X20.359 Y-3.144 I-19.641 J3.41 F465.01
N642 X19.984 Y-2.861 Z-4.865 I-.264 J.041 F500.
N643 G01 X19.542 Y-3.064 Z-4.75
N644 X18.808 Y-3.4 Z-4.94
N645 G03 X18.657 Y-3.592 Z-5. I.111 J-.242
N646 G02 X18.584 Y-3.955 I-18.469 J3.553
N647 X18.503 Y-4.317 I-18.641 J3.968
N648 G03 X19.101 Y-5.277 I.779 J-.182 F173.914
N649 X20.062 Y-4.679 I.181 J.779
N650 X20.149 Y-4.287 I-22.147 J5.135 F469.053
N651 X20.229 Y-3.894 I-19.724 J4.208 F465.387
N652 X19.859 Y-3.6 Z-4.865 I-.262 J.05 F500.
N653 G01 X19.41 Y-3.799 Z-4.75
N654 X18.655 Y-4.133 Z-4.942
N655 G03 X18.503 Y-4.317 Z-5. I.108 J-.244
N656 G02 X18.416 Y-4.676 I-18.577 J4.334
N657 X18.321 Y-5.035 I-18.217 J4.625
N658 G03 X18.88 Y-6.018 I.771 J-.212 F173.913
N659 X19.864 Y-5.459 I.212 J.771
N660 X19.966 Y-5.071 I-19.455 J5.344 F465.398
N661 X20.061 Y-4.681 I-22.035 J5.584 F469.049
N662 X19.703 Y-4.372 Z-4.864 I-.26 J.061 F500.
N663 G01 X19.247 Y-4.553 Z-4.75
N664 X18.48 Y-4.857 Z-4.942
N665 G03 X18.321 Y-5.035 Z-5. I.098 J-.248
N666 G02 X18.222 Y-5.381 I-17.906 J4.923
N667 X18.117 Y-5.725 I-20.341 J6.019
N668 G03 X18.638 Y-6.729 I.762 J-.242 F173.912
N669 X19.642 Y-6.207 I.241 J.763
N670 X19.757 Y-5.834 I-20.534 J6.478 F467.436
N671 X19.864 Y-5.459 I-19.307 J5.708 F465.331
N672 X19.521 Y-5.135 Z-4.865 I-.257 J.071 F500.
N673 G01 X19.059 Y-5.292 Z-4.75
N674 X18.286 Y-5.553 Z-4.941
N675 G03 X18.117 Y-5.725 Z-5. I.085 J-.253
N676 G02 X18.007 Y-6.062 I-20.555 J6.527
N677 X17.89 Y-6.398 I-16.942 J5.688
N678 G03 X18.374 Y-7.421 I.753 J-.27 F173.913
N679 X19.397 Y-6.936 I.269 J.753
N680 X19.523 Y-6.573 I-20.206 J7.219 F467.33
N681 X19.642 Y-6.207 I-18.595 J6.269 F464.495
N682 X19.314 Y-5.871 Z-4.865 I-.254 J.08 F500.
N683 G01 X18.846 Y-6.006 Z-4.75
N684 X18.067 Y-6.231 Z-4.941
N685 G03 X17.89 Y-6.398 Z-5. I.074 J-.256
N686 G02 X17.769 Y-6.727 I-18.278 J6.544
N687 X17.642 Y-7.054 I-17.991 J6.81
N688 G03 X18.088 Y-8.094 I.743 J-.297 F173.913
N689 X19.128 Y-7.648 I.297 J.743
N690 X19.266 Y-7.294 I-18.914 J7.568 F465.709
N691 X19.397 Y-6.936 I-18.892 J7.153 F465.439
N692 X19.083 Y-6.588 Z-4.865 I-.251 J.09 F500.
N693 G01 X18.61 Y-6.703 Z-4.75
N694 X17.826 Y-6.894 Z-4.94
N695 G03 X17.642 Y-7.054 Z-5. I.063 J-.259
N696 G02 X17.504 Y-7.391 I-17.54 J7.008
N697 X17.359 Y-7.725 I-16.868 J7.119
N698 G03 X17.764 Y-8.781 I.731 J-.326 F173.913
N699 X18.821 Y-8.375 I.325 J.731
N700 X18.977 Y-8.013 I-19.491 J8.661 F467.147
N701 X19.128 Y-7.648 I-19.091 J8.064 F466.254
N702 X18.822 Y-7.289 Z-4.865 I-.248 J.099 F500.
N703 G01 X18.344 Y-7.395 Z-4.75
N704 X17.545 Y-7.573 Z-4.942
N705 G03 X17.359 Y-7.725 Z-5. I.058 J-.26
N706 G02 X17.213 Y-8.044 I-18.155 J8.091
N707 X17.062 Y-8.361 I-17.038 J7.957
N708 G03 X17.428 Y-9.431 I.718 J-.352 F173.913
N709 X18.498 Y-9.065 I.352 J.718
N710 X18.663 Y-8.721 I-18.694 J9.162 F466.395
N711 X18.821 Y-8.375 I-17.918 J8.379 F464.756
N712 X18.533 Y-8.004 Z-4.865 I-.244 J.108 F500.
N713 G01 X18.054 Y-8.083 Z-4.75
N714 X17.258 Y-8.215 Z-4.94
N715 G03 X17.062 Y-8.361 Z-5. I.044 J-.263
N716 G02 X16.896 Y-8.691 I-17.062 J8.36
N717 X16.723 Y-9.018 I-16.708 J8.593
N718 G03 X17.048 Y-10.102 I.704 J-.38 F173.914
N719 X18.132 Y-9.777 I.379 J.704
N720 X18.319 Y-9.422 I-20.07 J10.789 F469.118
N721 X18.498 Y-9.065 I-17.83 J9.184 F465.208
N722 X18.219 Y-8.684 Z-4.865 I-.239 J.117 F500.
N723 G01 X17.734 Y-8.757 Z-4.75
N724 X16.918 Y-8.881 Z-4.942
N725 G03 X16.723 Y-9.018 Z-5. I.04 J-.264
N726 G02 X16.549 Y-9.333 I-16.375 J8.833
N727 X16.37 Y-9.645 I-18.457 J10.423
N728 G03 X16.652 Y-10.741 I.689 J-.407 F173.912
N729 X17.747 Y-10.459 I.407 J.689
N730 X17.943 Y-10.121 I-16.065 J9.487 F462.792
N731 X18.131 Y-9.779 I-20.507 J11.538 F470.036
N732 X17.87 Y-9.386 Z-4.864 I-.235 J.127 F500.
N733 G01 X17.385 Y-9.435 Z-4.75
N734 X16.573 Y-9.516 Z-4.941
N735 G03 X16.37 Y-9.645 Z-5. I.026 J-.265
N736 G02 X16.183 Y-9.956 I-18.111 J10.706
N737 X15.99 Y-10.262 I-16.147 J9.924
N738 G03 X16.231 Y-11.367 I.673 J-.432 F173.913
N739 X17.337 Y-11.127 I.432 J.673
N740 X17.545 Y-10.795 I-16.476 J10.583 F464.424
N741 X17.747 Y-10.459 I-19.076 J11.72 F468.605
N742 X17.501 Y-10.057 Z-4.865 I-.23 J.136 F500.
N743 G01 X17.013 Y-10.088 Z-4.75
N744 X16.198 Y-10.14 Z-4.941
N745 G03 X15.99 Y-10.262 Z-5. I.017 J-.266
N746 G02 X15.791 Y-10.567 I-15.677 J10.053
N747 X15.585 Y-10.867 I-15.43 J10.325
N748 G03 X15.784 Y-11.981 I.656 J-.458 F173.913
N749 X16.898 Y-11.782 I.458 J.656
N750 X17.12 Y-11.456 I-17.274 J12.034 F466.744
N751 X17.337 Y-11.127 I-17.446 J11.675 F466.655
N752 X17.105 Y-10.716 Z-4.865 I-.224 J.144 F500.
N753 G01 X16.616 Y-10.73 Z-4.75
N754 X15.797 Y-10.753 Z-4.942
N755 G03 X15.585 Y-10.867 Z-5. I.008 J-.267
N756 G02 X15.382 Y-11.153 I-16.059 J11.208
N757 X15.173 Y-11.435 I-15.443 J11.195
N758 G03 X15.331 Y-12.556 I.639 J-.481 F173.913
N759 X16.451 Y-12.398 I.481 J.639
N760 X16.677 Y-12.092 I-16.397 J12.362 F465.964
N761 X16.898 Y-11.782 I-16.224 J11.767 F465.185
N762 X16.686 Y-11.363 Z-4.865 I-.219 J.152 F500.
N763 G01 X16.2 Y-11.35 Z-4.75
N764 X15.393 Y-11.329 Z-4.94
N765 G03 X15.173 Y-11.435 Z-5. I-.007 J-.267
N766 G02 X14.947 Y-11.73 I-14.918 J11.239
N767 X14.715 Y-12.019 I-15.141 J11.885
N768 G03 X14.829 Y-13.145 I.62 J-.506 F173.914
N769 X15.955 Y-13.03 I.506 J.62
N770 X16.206 Y-12.717 I-17.6 J14.336 F469.008
N771 X16.451 Y-12.398 I-15.921 J12.506 F465.51
N772 X16.248 Y-11.971 Z-4.865 I-.213 J.161 F500.
N773 G01 X15.757 Y-11.953 Z-4.75
N774 X14.932 Y-11.921 Z-4.943
N775 G03 X14.715 Y-12.019 Z-5. I-.01 J-.266
N776 G02 X14.479 Y-12.303 I-14.631 J11.947
N777 X14.236 Y-12.583 I-14.423 J12.256
N778 G03 X14.306 Y-13.712 I.599 J-.53 F173.913
N779 X15.435 Y-13.642 I.53 J.599
N780 X15.697 Y-13.34 I-15.06 J13.309 F465.275
N781 X15.954 Y-13.032 I-17.357 J14.733 F469.094
N782 X15.769 Y-12.597 Z-4.864 I-.206 J.169 F500.
N783 G01 X15.279 Y-12.559 Z-4.75
N784 X14.457 Y-12.494 Z-4.942
N785 G03 X14.236 Y-12.583 Z-5. I-.021 J-.266
N786 G02 X13.99 Y-12.856 I-14.5 J12.818
N787 X13.738 Y-13.125 I-13.498 J12.398
N788 G03 X13.764 Y-14.257 I.578 J-.553 F173.914
N789 X14.895 Y-14.23 I.552 J.579
N790 X15.168 Y-13.939 I-16.562 J15.782 F469.234
N791 X15.435 Y-13.642 I-14.617 J13.45 F464.894
N792 X15.267 Y-13.201 Z-4.865 I-.2 J.177 F500.
N793 G01 X14.78 Y-13.143 Z-4.75
N794 X13.962 Y-13.045 Z-4.942
N795 G03 X13.738 Y-13.125 Z-5. I-.032 J-.265
N796 G02 X13.587 Y-13.281 I-14.569 J13.932
N797 X13.435 Y-13.435 I-13.341 J13.035
N798 G03 Y-14.566 I.566 J-.566 F173.913
N799 X14.566 I.566 J.566
N800 X14.731 Y-14.4 I-13.869 J13.869 F464.479
N801 X14.894 Y-14.232 I-17.622 J17.206 F471.296
N802 X14.886 Y-13.855 Z-4.75 I-.193 J.184 F500.
N803 G00 Z5.
N804 X20.225 Y-.375
N805 Z2.5
N806 G01 Z-2.5
N807 Z-4.75 F250.
N808 G03 X20.6 Y0 Z-5. I0 J.375
N809 X19.56 Y.763 I-.8 J0 F86.957
N810 X19. Y0 I.24 J-.763 F173.913
N811 X19.375 Y-.375 Z-4.75 I.375 J0 F500.
N812 G00 Z25.
N813 X19.032 Y-7.883
N814 Z5.
N815 G01 Z-5. F150.
N816 G03 X20.6 Y0 I-19.032 J7.883 F500.
N817 X19. I-.8 J0
N818 G02 X13.435 Y-13.435 I-19. J0
N819 G03 X14.566 Y-14.566 I.566 J-.566
N820 X19.032 Y-7.883 I-14.566 J14.566
N821 X20.6 Y0 I-19.032 J7.883 F100.
N822 X19. I-.8 J0
N823 G02 X13.435 Y-13.435 I-19. J0
N824 G03 X14.566 Y-14.566 I.566 J-.566
N825 X20.6 Y0 I-14.566 J14.566
N826 X19. I-.8 J0
N827 G02 X13.435 Y-13.435 I-19. J0
N828 G03 X14.566 Y-14.566 I.566 J-.566
N829 X19.032 Y-7.883 I-14.566 J14.566
N830 G00 Z5.
N831 Z25.
N832 X14.531 Y13.47
N833 Z2.5
N834 G01 Z.25 F250.
N835 X14.566 Y13.506 Z.248 F125.
N836 G03 Y14.566 Z.189 I-.53 J.53 F41.667
N837 X13.506 Z.131 I-.53 J-.53
N838 G01 X13.47 Y14.531 Z.128 F125.
N839 G03 Y13.47 Z.07 I.53 J-.53 F41.667
N840 X14.531 Z.011 I.53 J.53
N841 G01 X14.566 Y13.506 Z.009 F125.
N842 G03 Y14.566 Z-.05 I-.53 J.53 F41.667
N843 X13.506 Z-.108 I-.53 J-.53
N844 G01 X13.47 Y14.531 Z-.11 F125.
N845 G03 Y13.47 Z-.169 I.53 J-.53 F41.667
N846 X14.531 Z-.227 I.53 J.53
N847 G01 X14.566 Y13.506 Z-.23 F125.
N848 G03 Y14.566 Z-.288 I-.53 J.53 F41.667
N849 X13.506 Z-.347 I-.53 J-.53
N850 G01 X13.47 Y14.531 Z-.349 F250.
N851 G03 Y13.47 Z-.407 I.53 J-.53 F83.333
N852 X14.531 Z-.466 I.53 J.53
N853 G01 X14.566 Y13.506 Z-.468 F250.
N854 G03 Y14.566 Z-.527 I-.53 J.53 F83.333
N855 X13.506 Z-.585 I-.53 J-.53
N856 G01 X13.47 Y14.531 Z-.588 F250.
N857 G03 Y13.47 Z-.646 I.53 J-.53 F83.333
N858 X14.531 Z-.705 I.53 J.53
N859 G01 X14.566 Y13.506 Z-.707 F250.
N860 G03 Y14.566 Z-.765 I-.53 J.53 F83.333
N861 X13.506 Z-.824 I-.53 J-.53
N862 G01 X13.47 Y14.531 Z-.826 F250.
N863 G03 Y13.47 Z-.885 I.53 J-.53 F83.333
N864 X14.531 Z-.943 I.53 J.53
N865 G01 X14.566 Y13.506 Z-.946 F250.
N866 G03 Y14.566 Z-1.004 I-.53 J.53 F83.333
N867 X13.506 Z-1.062 I-.53 J-.53
N868 G01 X13.47 Y14.531 Z-1.065 F250.
N869 G03 Y13.47 Z-1.123 I.53 J-.53 F83.333
N870 X14.531 Z-1.182 I.53 J.53
N871 G01 X14.566 Y13.506 Z-1.184 F250.
N872 G03 Y14.566 Z-1.243 I-.53 J.53 F83.333
N873 X13.506 Z-1.301 I-.53 J-.53
N874 G01 X13.47 Y14.531 Z-1.304 F250.
N875 G03 Y13.47 Z-1.362 I.53 J-.53 F83.333
N876 X14.531 Z-1.42 I.53 J.53
N877 G01 X14.566 Y13.506 Z-1.423 F250.
N878 G03 Y14.566 Z-1.481 I-.53 J.53 F83.333
N879 X13.506 Z-1.54 I-.53 J-.53
N880 G01 X13.47 Y14.531 Z-1.542 F250.
N881 G03 Y13.47 Z-1.601 I.53 J-.53 F83.333
N882 X14.531 Z-1.659 I.53 J.53
N883 G01 X14.566 Y13.506 Z-1.662 F250.
N884 G03 Y14.566 Z-1.72 I-.53 J.53 F83.333
N885 X13.506 Z-1.778 I-.53 J-.53
N886 G01 X13.47 Y14.531 Z-1.781 F250.
N887 G03 Y13.47 Z-1.839 I.53 J-.53 F83.333
N888 X14.531 Z-1.898 I.53 J.53
N889 G01 X14.566 Y13.506 Z-1.9 F250.
N890 G03 Y14.566 Z-1.959 I-.53 J.53 F83.333
N891 X13.506 Z-2.017 I-.53 J-.53
N892 G01 X13.47 Y14.531 Z-2.02 F250.
N893 G03 Y13.47 Z-2.078 I.53 J-.53 F83.333
N894 X14.531 Z-2.136 I.53 J.53
N895 G01 X14.566 Y13.506 Z-2.139 F250.
N896 G03 Y14.566 Z-2.197 I-.53 J.53 F83.333
N897 X13.506 Z-2.256 I-.53 J-.53
N898 G01 X13.47 Y14.531 Z-2.258 F250.
N899 G03 Y13.47 Z-2.317 I.53 J-.53 F83.333
N900 X14.531 Z-2.375 I.53 J.53
N901 G01 X14.566 Y13.506 Z-2.377 F250.
N902 G03 Y14.566 Z-2.436 I-.53 J.53 F83.333
N903 X13.506 Z-2.494 I-.53 J-.53
N904 G01 X13.47 Y14.531 Z-2.497 F250.
N905 G03 Y13.47 Z-2.555 I.53 J-.53 F83.333
N906 X14.531 Z-2.614 I.53 J.53
N907 G01 X14.566 Y13.506 Z-2.616 F250.
N908 G03 Y14.566 Z-2.675 I-.53 J.53 F83.333
N909 X13.506 Z-2.733 I-.53 J-.53
N910 G01 X13.47 Y14.531 Z-2.735 F250.
N911 G03 Y13.47 Z-2.794 I.53 J-.53 F83.333
N912 X14.531 Z-2.852 I.53 J.53
N913 G01 X14.566 Y13.506 Z-2.855 F250.
N914 G03 Y14.566 Z-2.913 I-.53 J.53 F83.333
N915 X13.506 Z-2.972 I-.53 J-.53
N916 G01 X13.47 Y14.531 Z-2.974 F250.
N917 G03 Y13.47 Z-3.032 I.53 J-.53 F83.333
N918 X14.531 Z-3.091 I.53 J.53
N919 G01 X14.566 Y13.506 Z-3.093 F250.
N920 G03 Y14.566 Z-3.152 I-.53 J.53 F83.333
N921 X13.506 Z-3.21 I-.53 J-.53
N922 G01 X13.47 Y14.531 Z-3.213 F250.
N923 G03 Y13.47 Z-3.271 I.53 J-.53 F83.333
N924 X14.531 Z-3.33 I.53 J.53
N925 G01 X14.566 Y13.506 Z-3.332 F250.
N926 G03 Y14.566 Z-3.39 I-.53 J.53 F83.333
N927 X13.506 Z-3.449 I-.53 J-.53
N928 G01 X13.47 Y14.531 Z-3.451 F250.
N929 G03 Y13.47 Z-3.51 I.53 J-.53 F83.333
N930 X14.531 Z-3.568 I.53 J.53
N931 G01 X14.566 Y13.506 Z-3.571 F250.
N932 G03 Y14.566 Z-3.629 I-.53 J.53 F83.333
N933 X13.506 Z-3.687 I-.53 J-.53
N934 G01 X13.47 Y14.531 Z-3.69 F250.
N935 G03 Y13.47 Z-3.748 I.53 J-.53 F83.333
N936 X14.531 Z-3.807 I.53 J.53
N937 G01 X14.566 Y13.506 Z-3.809 F250.
N938 G03 Y14.566 Z-3.868 I-.53 J.53 F83.333
N939 X13.506 Z-3.926 I-.53 J-.53
N940 G01 X13.47 Y14.531 Z-3.929 F250.
N941 G03 Y13.47 Z-3.987 I.53 J-.53 F83.333
N942 X14.531 Z-4.045 I.53 J.53
N943 G01 X14.566 Y13.506 Z-4.048 F250.
N944 G03 Y14.566 Z-4.106 I-.53 J.53 F83.333
N945 X13.506 Z-4.165 I-.53 J-.53
N946 G01 X13.47 Y14.531 Z-4.167 F250.
N947 G03 Y13.47 Z-4.226 I.53 J-.53 F83.333
N948 X14.531 Z-4.284 I.53 J.53
N949 G01 X14.566 Y13.506 Z-4.287 F250.
N950 G03 Y14.566 Z-4.345 I-.53 J.53 F83.333
N951 X13.506 Z-4.403 I-.53 J-.53
N952 G01 X13.47 Y14.531 Z-4.406 F250.
N953 G03 Y13.47 Z-4.464 I.53 J-.53 F83.333
N954 X14.531 Z-4.523 I.53 J.53
N955 G01 X14.566 Y13.506 Z-4.525 F250.
N956 G03 Y14.566 Z-4.584 I-.53 J.53 F83.333
N957 X13.506 Z-4.642 I-.53 J-.53
N958 G01 X13.47 Y14.531 Z-4.645 F250.
N959 G03 Y13.47 Z-4.703 I.53 J-.53 F83.333
N960 X14.531 Z-4.761 I.53 J.53
N961 G01 X14.566 Y13.506 Z-4.764 F250.
N962 G03 Y14.566 Z-4.822 I-.53 J.53 F83.333
N963 X13.506 Z-4.881 I-.53 J-.53
N964 G01 X13.47 Y14.531 Z-4.883 F250.
N965 G03 Y13.47 Z-4.942 I.53 J-.53 F83.333
N966 X14.531 Z-5. I.53 J.53
N967 G01 X14.566 Y13.506 F250.
N968 G03 Y14.566 I-.53 J.53 F83.333
N969 X13.506 I-.53 J-.53
N970 G01 X13.47 Y14.531 F250.
N971 G03 Y13.47 I.53 J-.53 F83.333
N972 X14.531 I.53 J.53
N973 Y14.001 Z-4.76 I-.265 J.265 F500.
N974 G01 X14.549 Y14.018 Z-4.75
N975 X14.566 Y14.036 Z-4.76
N976 G03 Y14.566 Z-5. I-.265 J.265 F250.
N977 X13.292 Y14.371 I-.566 J-.566 F86.957
N978 X13.435 Y13.435 I.709 J-.37 F173.913
N979 X13.683 Y13.326 I.265 J.265 F100.
N980 X13.965 Y13.435 Z-4.908 I.017 J.375 F500.
N981 G01 X14.299 Y13.854 Z-4.75
N982 X14.566 Y14.189 Z-4.876
N983 G03 Y14.566 Z-5. I-.189 J.189
N984 X14.281 Y14.846 I-14.129 J-14.129 F465.085
N985 X13.99 Y15.121 I-15.811 J-16.457 F469.164
N986 X12.859 Y15.078 I-.544 J-.587 F173.914
N987 X12.903 Y13.947 I.587 J-.544
N988 G02 X13.172 Y13.694 I-12.631 J-13.661 F500.
N989 X13.435 Y13.435 I-13.268 J-13.79
N990 G03 X13.888 Y13.586 Z-4.863 I.189 J.189
N991 G01 X13.956 Y14.073 Z-4.75
N992 X14.072 Y14.889 Z-4.94
N993 G03 X13.989 Y15.122 Z-5. I-.264 J.037
N994 X13.699 Y15.385 I-15.951 J-17.288 F470.028
N995 X13.405 Y15.642 I-12.43 J-13.929 F462.814
N996 X12.278 Y15.554 I-.52 J-.608 F173.912
N997 X12.364 Y14.427 I.607 J-.521
N998 G02 X12.636 Y14.189 I-13.768 J-16.02 F500.
N999 X12.903 Y13.947 I-12.471 J-14.019
N1000 G03 X13.349 Y14.112 Z-4.864 I.181 J.196
N1001 G01 X13.404 Y14.598 Z-4.75
N1002 X13.497 Y15.409 Z-4.94
N1003 G03 X13.405 Y15.642 Z-5. I-.265 J.03
N1004 X13.105 Y15.894 I-14.521 J-16.974 F468.537
N1005 X12.8 Y16.141 I-12.517 J-15.163 F464.559
N1006 X11.676 Y16.011 I-.497 J-.627 F173.913
N1007 X11.805 Y14.887 I.627 J-.497
N1008 G02 X12.087 Y14.66 I-11.732 J-14.784 F500.
N1009 X12.364 Y14.427 I-13.414 J-16.254
N1010 G03 X12.803 Y14.61 Z-4.864 I.173 J.203
N1011 G01 X12.839 Y15.098 Z-4.75
N1012 X12.9 Y15.912 Z-4.94
N1013 G03 X12.8 Y16.141 Z-5. I-.266 J.02
N1014 X12.488 Y16.383 I-12.97 J-16.366 F466.491
N1015 X12.172 Y16.619 I-12.829 J-16.833 F466.908
N1016 X11.054 Y16.447 I-.473 J-.645 F173.913
N1017 X11.227 Y15.328 I.645 J-.473
N1018 G02 X11.518 Y15.111 I-10.901 J-14.898 F500.
N1019 X11.805 Y14.887 I-11.356 J-14.895
N1020 G03 X12.238 Y15.087 Z-4.863 I.166 J.209
N1021 G01 X12.254 Y15.576 Z-4.75
N1022 X12.281 Y16.395 Z-4.94
N1023 G03 X12.172 Y16.619 Z-5. I-.267 J.009
N1024 X11.863 Y16.841 I-11.786 J-16.077 F465.01
N1025 X11.55 Y17.058 I-11.889 J-16.884 F466.139
N1026 X10.439 Y16.844 I-.448 J-.662 F173.913
N1027 X10.653 Y15.733 I.662 J-.449
N1028 G02 X10.942 Y15.533 I-10.634 J-15.701 F500.
N1029 X11.227 Y15.328 I-11.348 J-16.105
N1030 G03 X11.651 Y15.54 Z-4.864 I.157 J.215
N1031 G01 X11.657 Y16.027 Z-4.75
N1032 X11.667 Y16.833 Z-4.938
N1033 G03 X11.55 Y17.058 Z-5. I-.267 J.003
N1034 X11.216 Y17.279 I-11.306 J-16.701 F465.387
N1035 X10.877 Y17.494 I-12.368 J-19.077 F469.053
N1036 X9.775 Y17.238 I-.423 J-.679 F173.914
N1037 X10.031 Y16.136 I.679 J-.423
N1038 G02 X10.344 Y15.937 I-10.063 J-16.186 F500.
N1039 X10.653 Y15.733 I-10.238 J-15.776
N1040 G03 X11.069 Y15.967 Z-4.863 I.15 J.221
N1041 G01 X11.044 Y16.458 Z-4.75
N1042 X11.001 Y17.282 Z-4.941
N1043 G03 X10.875 Y17.495 Z-5. I-.266 J-.014
N1044 X10.533 Y17.704 I-11.976 J-19.321 F469.049
N1045 X10.186 Y17.906 I-10.325 J-17.333 F465.398
N1046 X9.095 Y17.606 I-.396 J-.695 F173.913
N1047 X9.395 Y16.515 I.695 J-.396
N1048 G02 X9.715 Y16.328 I-9.291 J-16.338 F500.
N1049 X10.031 Y16.136 I-9.755 J-16.393
N1050 G03 X10.438 Y16.386 Z-4.863 I.141 J.226
N1051 G01 X10.394 Y16.876 Z-4.75
N1052 X10.32 Y17.698 Z-4.941
N1053 G03 X10.186 Y17.906 Z-5. I-.266 J-.024
N1054 X9.845 Y18.095 I-9.957 J-17.498 F465.331
N1055 X9.5 Y18.279 I-10.284 J-18.917 F467.436
N1056 X8.421 Y17.938 I-.369 J-.71 F173.912
N1057 X8.763 Y16.859 I.71 J-.369
N1058 G02 X9.08 Y16.69 I-9.81 J-18.808 F500.
N1059 X9.395 Y16.515 I-8.866 J-16.317
N1060 G03 X9.792 Y16.777 Z-4.864 I.132 J.232
N1061 G01 X9.735 Y17.262 Z-4.75
N1062 X9.642 Y18.073 Z-4.94
N1063 G03 X9.5 Y18.279 Z-5. I-.265 J-.031
N1064 X9.157 Y18.453 I-9.059 J-17.408 F464.495
N1065 X8.811 Y18.621 I-9.53 J-19.225 F467.33
N1066 X7.745 Y18.24 I-.342 J-.723 F173.913
N1067 X8.127 Y17.174 I.723 J-.342
N1068 G02 X8.446 Y17.019 I-7.638 J-16.157 F500.
N1069 X8.763 Y16.859 I-9.603 J-19.31
N1070 G03 X9.149 Y17.134 Z-4.864 I.123 J.237
N1071 G01 X9.078 Y17.616 Z-4.75
N1072 X8.961 Y18.418 Z-4.939
N1073 G03 X8.811 Y18.621 Z-5. I-.264 J-.039
N1074 X8.465 Y18.78 I-8.646 J-18.257 F465.439
N1075 X8.117 Y18.933 I-8.371 J-18.573 F465.709
N1076 X7.067 Y18.513 I-.315 J-.735 F173.913
N1077 X7.486 Y17.463 I.735 J-.315
N1078 G02 X7.808 Y17.322 I-7.585 J-17.679 F500.
N1079 X8.127 Y17.174 I-7.979 J-17.699
N1080 G03 X8.503 Y17.463 Z-4.864 I.114 J.241
N1081 G01 X8.417 Y17.941 Z-4.75
N1082 X8.274 Y18.735 Z-4.938
N1083 G03 X8.117 Y18.933 Z-5. I-.262 J-.047
N1084 X7.753 Y19.085 I-8.161 J-19.05 F466.254
N1085 X7.386 Y19.23 I-8.025 J-19.762 F467.147
N1086 X6.352 Y18.771 I-.287 J-.747 F173.913
N1087 X6.812 Y17.737 I.747 J-.287
N1088 G02 X7.151 Y17.603 I-6.555 J-17.095 F500.
N1089 X7.486 Y17.463 I-7.111 J-17.499
N1090 G03 X7.851 Y17.769 Z-4.863 I.105 J.245
N1091 G01 X7.738 Y18.246 Z-4.75
N1092 X7.55 Y19.043 Z-4.94
N1093 G03 X7.386 Y19.23 Z-5. I-.26 J-.061
N1094 X7.03 Y19.364 I-7.102 J-18.462 F464.756
N1095 X6.671 Y19.49 I-7.099 J-19.57 F466.395
N1096 X5.655 Y18.992 I-.259 J-.757 F173.913
N1097 X6.152 Y17.976 I.757 J-.259
N1098 G02 X6.484 Y17.86 I-6.09 J-17.791 F500.
N1099 X6.812 Y17.737 I-6.787 J-18.681
N1100 G03 X7.166 Y18.052 Z-4.864 I.095 J.249
N1101 G01 X7.044 Y18.523 Z-4.75
N1102 X6.842 Y19.305 Z-4.938
N1103 G03 X6.671 Y19.49 Z-5. I-.258 J-.067
N1104 X6.291 Y19.616 I-6.494 J-18.976 F465.208
N1105 X5.908 Y19.735 I-6.946 J-21.702 F469.118
N1106 X4.911 Y19.198 I-.23 J-.766 F173.914
N1107 X5.448 Y18.202 I.766 J-.23
N1108 G02 X5.802 Y18.093 I-5.385 J-18. F500.
N1109 X6.152 Y17.976 I-5.803 J-18.092
N1110 G03 X6.492 Y18.311 Z-4.863 I.086 J.252
N1111 G01 X6.34 Y18.778 Z-4.75
N1112 X6.083 Y19.562 Z-4.941
N1113 G03 X5.906 Y19.735 Z-5. I-.253 J-.083
N1114 X5.531 Y19.844 I-6.717 J-22.551 F470.036
N1115 X5.154 Y19.945 I-5.029 J-17.966 F462.792
N1116 X4.18 Y19.37 I-.199 J-.775 F173.912
N1117 X4.755 Y18.395 I.775 J-.199
N1118 G02 X5.103 Y18.302 I-5.333 J-20.514 F500.
N1119 X5.448 Y18.202 I-4.986 J-17.925
N1120 G03 X5.776 Y18.547 Z-4.864 I.076 J.255
N1121 G01 X5.612 Y19.007 Z-4.75
N1122 X5.339 Y19.776 Z-4.939
N1123 G03 X5.154 Y19.945 Z-5. I-.251 J-.089
N1124 X4.773 Y20.039 I-5.582 J-21.682 F468.605
N1125 X4.391 Y20.127 I-4.549 J-19.046 F464.424
N1126 X3.439 Y19.515 I-.17 J-.782 F173.913
N1127 X4.05 Y18.563 I.782 J-.171
N1128 G02 X4.403 Y18.483 I-4.048 J-18.516 F500.
N1129 X4.755 Y18.395 I-4.885 J-20.464
N1130 G03 X5.069 Y18.753 Z-4.864 I.066 J.258
N1131 G01 X4.886 Y19.207 Z-4.75
N1132 X4.582 Y19.965 Z-4.94
N1133 G03 X4.391 Y20.127 Z-5. I-.247 J-.099
N1134 X4.005 Y20.207 I-4.467 J-20.511 F466.655
N1135 X3.617 Y20.28 I-4.093 J-20.651 F466.744
N1136 X2.689 Y19.633 I-.141 J-.788 F173.913
N1137 X3.336 Y18.705 I.788 J-.14
N1138 G02 X3.694 Y18.638 I-3.252 J-18.278 F500.
N1139 X4.05 Y18.563 I-3.621 J-18.268
N1140 G03 X4.35 Y18.933 Z-4.863 I.057 J.261
N1141 G01 X4.15 Y19.38 Z-4.75
N1142 X3.814 Y20.127 Z-4.94
N1143 G03 X3.617 Y20.28 Z-5. I-.243 J-.109
N1144 X3.242 Y20.343 I-3.527 J-19.729 F465.185
N1145 X2.866 Y20.4 I-3.23 J-20.28 F465.964
N1146 X1.962 Y19.719 I-.111 J-.792 F173.913
N1147 X2.643 Y18.815 I.792 J-.111
N1148 G02 X2.99 Y18.763 I-2.657 J-18.888 F500.
N1149 X3.336 Y18.705 I-3.084 J-19.339
N1150 G03 X3.624 Y19.082 Z-4.864 I.047 J.263
N1151 G01 X3.416 Y19.521 Z-4.75
N1152 X3.07 Y20.25 Z-4.938
N1153 G03 X2.866 Y20.4 Z-5. I-.241 J-.114
N1154 X2.467 Y20.452 I-2.813 J-20.049 F465.51
N1155 X2.068 Y20.496 I-2.707 J-22.538 F469.008
N1156 X1.191 Y19.781 I-.081 J-.796 F173.914
N1157 X1.907 Y18.904 I.796 J-.081
N1158 G02 X2.275 Y18.863 I-1.934 J-19.151 F500.
N1159 X2.643 Y18.815 I-2.234 J-18.544
N1160 G03 X2.913 Y19.209 Z-4.863 I.037 J.264
N1161 G01 X2.674 Y19.639 Z-4.75
N1162 X2.273 Y20.36 Z-4.941
N1163 G03 X2.066 Y20.496 Z-5. I-.233 J-.13
N1164 X1.667 Y20.532 I-2.254 J-22.655 F469.094
N1165 X1.268 Y20.561 I-1.638 J-20.032 F465.275
N1166 X.42 Y19.812 I-.049 J-.798 F173.913
N1167 X1.169 Y18.964 I.798 J-.049
N1168 G02 X1.538 Y18.938 I-1.163 J-18.891 F500.
N1169 X1.907 Y18.904 I-1.529 J-18.827
N1170 G03 X2.161 Y19.308 Z-4.863 I.027 J.265
N1171 G01 X1.907 Y19.728 Z-4.75
N1172 X1.479 Y20.433 Z-4.941
N1173 G03 X1.268 Y20.561 Z-5. I-.228 J-.138
N1174 X.869 Y20.582 I-1.224 J-19.826 F464.894
N1175 X.47 Y20.595 I-.951 J-22.858 F469.234
N1176 X-.349 Y19.813 I-.019 J-.8 F173.914
N1177 X.433 Y18.995 I.8 J-.019
N1178 G02 X.801 Y18.983 I-.41 J-18.323 F500.
N1179 X1.169 Y18.964 I-.821 J-19.335
N1180 G03 X1.408 Y19.377 Z-4.863 I.016 J.266
N1181 G01 X1.138 Y19.787 Z-4.75
N1182 X.685 Y20.475 Z-4.94
N1183 G03 X.468 Y20.595 Z-5. I-.223 J-.147
N1184 X.234 Y20.599 I-.528 J-24.623 F471.296
N1185 X0 Y20.6 I-.234 J-19.613 F464.479
N1186 X-.8 Y19.8 I0 J-.8 F173.913
N1187 X0 Y19. I.8 J0
N1188 G02 X.217 Y18.999 I0 J-18.652 F500.
N1189 X.433 Y18.995 I-.234 J-20.157
N1190 G03 X.706 Y19.256 Z-4.75 I.006 J.267
N1191 G00 Z5.
N1192 X13.435 Y13.965
N1193 Z2.5
N1194 G01 Z-2.5
N1195 Z-4.75 F250.
N1196 G03 Y13.435 Z-5. I.265 J-.265
N1197 X14.71 Y13.63 I.566 J.566 F86.957
N1198 X14.566 Y14.566 I-.709 J.37 F173.913
N1199 X14.036 Z-4.75 I-.265 J-.265 F500.
N1200 G00 Z25.
N1201 X.75 Y-19.8
N1202 Z2.5
N1203 G01 Z.25 F250.
N1204 Y-19.75 Z.248 F125.
N1205 G03 X0 Y-19. Z.189 I-.75 J0 F41.667
N1206 X-.75 Y-19.75 Z.131 I0 J-.75
N1207 G01 Y-19.8 Z.128 F125.
N1208 G03 X0 Y-20.55 Z.07 I.75 J0 F41.667
N1209 X.75 Y-19.8 Z.011 I0 J.75
N1210 G01 Y-19.75 Z.009 F125.
N1211 G03 X0 Y-19. Z-.05 I-.75 J0 F41.667
N1212 X-.75 Y-19.75 Z-.108 I0 J-.75
N1213 G01 Y-19.8 Z-.11 F125.
N1214 G03 X0 Y-20.55 Z-.169 I.75 J0 F41.667
N1215 X.75 Y-19.8 Z-.227 I0 J.75
N1216 G01 Y-19.75 Z-.23 F125.
N1217 G03 X0 Y-19. Z-.288 I-.75 J0 F41.667
N1218 X-.75 Y-19.75 Z-.347 I0 J-.75
N1219 G01 Y-19.8 Z-.349 F250.
N1220 G03 X0 Y-20.55 Z-.407 I.75 J0 F83.333
N1221 X.75 Y-19.8 Z-.466 I0 J.75
N1222 G01 Y-19.75 Z-.468 F250.
N1223 G03 X0 Y-19. Z-.527 I-.75 J0 F83.333
N1224 X-.75 Y-19.75 Z-.585 I0 J-.75
N1225 G01 Y-19.8 Z-.588 F250.
N1226 G03 X0 Y-20.55 Z-.646 I.75 J0 F83.333
N1227 X.75 Y-19.8 Z-.705 I0 J.75
N1228 G01 Y-19.75 Z-.707 F250.
N1229 G03 X0 Y-19. Z-.765 I-.75 J0 F83.333
N1230 X-.75 Y-19.75 Z-.824 I0 J-.75
N1231 G01 Y-19.8 Z-.826 F250.
N1232 G03 X0 Y-20.55 Z-.885 I.75 J0 F83.333
N1233 X.75 Y-19.8 Z-.943 I0 J.75
N1234 G01 Y-19.75 Z-.946 F250.
N1235 G03 X0 Y-19. Z-1.004 I-.75 J0 F83.333
N1236 X-.75 Y-19.75 Z-1.062 I0 J-.75
N1237 G01 Y-19.8 Z-1.065 F250.
N1238 G03 X0 Y-20.55 Z-1.123 I.75 J0 F83.333
N1239 X.75 Y-19.8 Z-1.182 I0 J.75
N1240 G01 Y-19.75 Z-1.184 F250.
N1241 G03 X0 Y-19. Z-1.243 I-.75 J0 F83.333
N1242 X-.75 Y-19.75 Z-1.301 I0 J-.75
N1243 G01 Y-19.8 Z-1.304 F250.
N1244 G03 X0 Y-20.55 Z-1.362 I.75 J0 F83.333
N1245 X.75 Y-19.8 Z-1.42 I0 J.75
N1246 G01 Y-19.75 Z-1.423 F250.
N1247 G03 X0 Y-19. Z-1.481 I-.75 J0 F83.333
N1248 X-.75 Y-19.75 Z-1.54 I0 J-.75
N1249 G01 Y-19.8 Z-1.542 F250.
N1250 G03 X0 Y-20.55 Z-1.601 I.75 J0 F83.333
N1251 X.75 Y-19.8 Z-1.659 I0 J.75
N1252 G01 Y-19.75 Z-1.662 F250.
N1253 G03 X0 Y-19. Z-1.72 I-.75 J0 F83.333
N1254 X-.75 Y-19.75 Z-1.778 I0 J-.75
N1255 G01 Y-19.8 Z-1.781 F250.
N1256 G03 X0 Y-20.55 Z-1.839 I.75 J0 F83.333
N1257 X.75 Y-19.8 Z-1.898 I0 J.75
N1258 G01 Y-19.75 Z-1.9 F250.
N1259 G03 X0 Y-19. Z-1.959 I-.75 J0 F83.333
N1260 X-.75 Y-19.75 Z-2.017 I0 J-.75
N1261 G01 Y-19.8 Z-2.02 F250.
N1262 G03 X0 Y-20.55 Z-2.078 I.75 J0 F83.333
N1263 X.75 Y-19.8 Z-2.136 I0 J.75
N1264 G01 Y-19.75 Z-2.139 F250.
N1265 G03 X0 Y-19. Z-2.197 I-.75 J0 F83.333
N1266 X-.75 Y-19.75 Z-2.256 I0 J-.75
N1267 G01 Y-19.8 Z-2.258 F250.
N1268 G03 X0 Y-20.55 Z-2.317 I.75 J0 F83.333
N1269 X.75 Y-19.8 Z-2.375 I0 J.75
N1270 G01 Y-19.75 Z-2.377 F250.
N1271 G03 X0 Y-19. Z-2.436 I-.75 J0 F83.333
N1272 X-.75 Y-19.75 Z-2.494 I0 J-.75
N1273 G01 Y-19.8 Z-2.497 F250.
N1274 G03 X0 Y-20.55 Z-2.555 I.75 J0 F83.333
N1275 X.75 Y-19.8 Z-2.614 I0 J.75
N1276 G01 Y-19.75 Z-2.616 F250.
N1277 G03 X0 Y-19. Z-2.675 I-.75 J0 F83.333
N1278 X-.75 Y-19.75 Z-2.733 I0 J-.75
N1279 G01 Y-19.8 Z-2.735 F250.
N1280 G03 X0 Y-20.55 Z-2.794 I.75 J0 F83.333
N1281 X.75 Y-19.8 Z-2.852 I0 J.75
N1282 G01 Y-19.75 Z-2.855 F250.
N1283 G03 X0 Y-19. Z-2.913 I-.75 J0 F83.333
N1284 X-.75 Y-19.75 Z-2.972 I0 J-.75
N1285 G01 Y-19.8 Z-2.974 F250.
N1286 G03 X0 Y-20.55 Z-3.032 I.75 J0 F83.333
N1287 X.75 Y-19.8 Z-3.091 I0 J.75
N1288 G01 Y-19.75 Z-3.093 F250.
N1289 G03 X0 Y-19. Z-3.152 I-.75 J0 F83.333
N1290 X-.75 Y-19.75 Z-3.21 I0 J-.75
N1291 G01 Y-19.8 Z-3.213 F250.
N1292 G03 X0 Y-20.55 Z-3.271 I.75 J0 F83.333
N1293 X.75 Y-19.8 Z-3.33 I0 J.75
N1294 G01 Y-19.75 Z-3.332 F250.
N1295 G03 X0 Y-19. Z-3.39 I-.75 J0 F83.333
N1296 X-.75 Y-19.75 Z-3.449 I0 J-.75
N1297 G01 Y-19.8 Z-3.451 F250.
N1298 G03 X0 Y-20.55 Z-3.51 I.75 J0 F83.333
N1299 X.75 Y-19.8 Z-3.568 I0 J.75
N1300 G01 Y-19.75 Z-3.571 F250.
N1301 G03 X0 Y-19. Z-3.629 I-.75 J0 F83.333
N1302 X-.75 Y-19.75 Z-3.687 I0 J-.75
N1303 G01 Y-19.8 Z-3.69 F250.
N1304 G03 X0 Y-20.55 Z-3.748 I.75 J0 F83.333
N1305 X.75 Y-19.8 Z-3.807 I0 J.75
N1306 G01 Y-19.75 Z-3.809 F250.
N1307 G03 X0 Y-19. Z-3.868 I-.75 J0 F83.333
N1308 X-.75 Y-19.75 Z-3.926 I0 J-.75
N1309 G01 Y-19.8 Z-3.929 F250.
N1310 G03 X0 Y-20.55 Z-3.987 I.75 J0 F83.333
N1311 X.75 Y-19.8 Z-4.045 I0 J.75
N1312 G01 Y-19.75 Z-4.048 F250.
N1313 G03 X0 Y-19. Z-4.106 I-.75 J0 F83.333
N1314 X-.75 Y-19.75 Z-4.165 I0 J-.75
N1315 G01 Y-19.8 Z-4.167 F250.
N1316 G03 X0 Y-20.55 Z-4.226 I.75 J0 F83.333
N1317 X.75 Y-19.8 Z-4.284 I0 J.75
N1318 G01 Y-19.75 Z-4.287 F250.
N1319 G03 X0 Y-19. Z-4.345 I-.75 J0 F83.333
N1320 X-.75 Y-19.75 Z-4.403 I0 J-.75
N1321 G01 Y-19.8 Z-4.406 F250.
N1322 G03 X0 Y-20.55 Z-4.464 I.75 J0 F83.333
N1323 X.75 Y-19.8 Z-4.523 I0 J.75
N1324 G01 Y-19.75 Z-4.525 F250.
N1325 G03 X0 Y-19. Z-4.584 I-.75 J0 F83.333
N1326 X-.75 Y-19.75 Z-4.642 I0 J-.75
N1327 G01 Y-19.8 Z-4.645 F250.
N1328 G03 X0 Y-20.55 Z-4.703 I.75 J0 F83.333
N1329 X.75 Y-19.8 Z-4.761 I0 J.75
N1330 G01 Y-19.75 Z-4.764 F250.
N1331 G03 X0 Y-19. Z-4.822 I-.75 J0 F83.333
N1332 X-.75 Y-19.75 Z-4.881 I0 J-.75
N1333 G01 Y-19.8 Z-4.883 F250.
N1334 G03 X0 Y-20.55 Z-4.942 I.75 J0 F83.333
N1335 X.75 Y-19.8 Z-5. I0 J.75
N1336 G01 Y-19.75 F250.
N1337 G03 X0 Y-19. I-.75 J0 F83.333
N1338 X-.75 Y-19.75 I0 J-.75
N1339 G01 Y-19.8 F250.
N1340 G03 X0 Y-20.55 I.75 J0 F83.333
N1341 X.75 Y-19.8 I0 J.75
N1342 X.375 Y-19.425 Z-4.76 I-.375 J0 F500.
N1343 G01 Y-19.4 Z-4.75
N1344 Y-19.375 Z-4.76
N1345 G03 X0 Y-19. Z-5. I-.375 J0 F250.
N1346 X-.763 Y-20.04 I0 J-.8 F86.957
N1347 X0 Y-20.6 I.763 J.24 F173.913
N1348 X.253 Y-20.502 I0 J.375 F100.
N1349 X.375 Y-20.225 Z-4.908 I-.253 J.277 F500.
N1350 G01 X.315 Y-19.693 Z-4.75
N1351 X.267 Y-19.267 Z-4.876
N1352 G03 X0 Y-19. Z-5. I-.267 J0
N1353 G02 X-.369 Y-18.996 I0 J19.137
N1354 X-.738 Y-18.986 I.359 J18.602
N1355 G03 X-1.569 Y-19.754 I-.031 J-.799 F173.914
N1356 X-.799 Y-20.585 I.799 J-.031
N1357 X-.4 Y-20.596 I.856 J22.806 F469.164
N1358 X0 Y-20.6 I.4 J19.977 F465.085
N1359 X.219 Y-20.182 Z-4.865 I0 J.267 F500.
N1360 G01 X-.06 Y-19.778 Z-4.75
N1361 X-.529 Y-19.1 Z-4.942
N1362 G03 X-.738 Y-18.986 Z-5. I-.219 J-.152
N1363 G02 X-1.099 Y-18.968 I.734 J18.749
N1364 X-1.459 Y-18.944 I1.232 J21.087
N1365 G03 X-2.317 Y-19.68 I-.06 J-.798 F173.912
N1366 X-1.581 Y-20.539 I.798 J-.061
N1367 X-1.192 Y-20.565 I1.45 J18.613 F462.814
N1368 X-.802 Y-20.584 I1.336 J23.485 F470.028
N1369 X-.564 Y-20.177 Z-4.864 I.011 J.266 F500.
N1370 G01 X-.822 Y-19.762 Z-4.75
N1371 X-1.253 Y-19.069 Z-4.941
N1372 G03 X-1.459 Y-18.944 Z-5. I-.226 J-.141
N1373 G02 X-1.819 Y-18.913 I1.648 J21.01
N1374 X-2.179 Y-18.875 I1.798 J18.787
N1375 G03 X-3.065 Y-19.578 I-.091 J-.795 F173.913
N1376 X-2.363 Y-20.464 I.795 J-.092
N1377 X-1.972 Y-20.505 I2.261 J19.531 F464.559
N1378 X-1.581 Y-20.539 I2.126 J22.236 F468.537
N1379 X-1.329 Y-20.141 Z-4.865 I.021 J.266 F500.
N1380 G01 X-1.572 Y-19.717 Z-4.75
N1381 X-1.978 Y-19.007 Z-4.942
N1382 G03 X-2.179 Y-18.875 Z-5. I-.231 J-.132
N1383 G02 X-2.54 Y-18.83 I2.142 J18.607
N1384 X-2.9 Y-18.777 I2.467 J18.294
N1385 G03 X-3.813 Y-19.446 I-.122 J-.791 F173.913
N1386 X-3.144 Y-20.359 I.791 J-.122
N1387 X-2.754 Y-20.415 I3.221 J20.918 F466.908
N1388 X-2.363 Y-20.464 I2.793 J20.695 F466.491
N1389 X-2.096 Y-20.075 Z-4.865 I.031 J.265 F500.
N1390 G01 X-2.324 Y-19.642 Z-4.75
N1391 X-2.705 Y-18.917 Z-4.942
N1392 G03 X-2.9 Y-18.777 Z-5. I-.236 J-.124
N1393 G02 X-3.247 Y-18.721 I3.017 J19.469
N1394 X-3.592 Y-18.657 I3.237 J18.685
N1395 G03 X-4.529 Y-19.292 I-.151 J-.786 F173.913
N1396 X-3.894 Y-20.229 I.786 J-.151
N1397 X-3.52 Y-20.297 I3.906 J20.277 F466.139
N1398 X-3.144 Y-20.359 I3.41 J19.641 F465.01
N1399 X-2.861 Y-19.984 Z-4.865 I.041 J.264 F500.
N1400 G01 X-3.064 Y-19.542 Z-4.75
N1401 X-3.4 Y-18.808 Z-4.94
N1402 G03 X-3.592 Y-18.657 Z-5. I-.242 J-.111
N1403 G02 X-3.955 Y-18.584 I3.553 J18.469
N1404 X-4.317 Y-18.503 I3.968 J18.641
N1405 G03 X-5.277 Y-19.101 I-.182 J-.779 F173.914
N1406 X-4.679 Y-20.062 I.779 J-.181
N1407 X-4.287 Y-20.149 I5.135 J22.147 F469.053
N1408 X-3.894 Y-20.229 I4.208 J19.724 F465.387
N1409 X-3.6 Y-19.859 Z-4.865 I.05 J.262 F500.
N1410 G01 X-3.799 Y-19.41 Z-4.75
N1411 X-4.133 Y-18.655 Z-4.942
N1412 G03 X-4.317 Y-18.503 Z-5. I-.244 J-.108
N1413 G02 X-4.676 Y-18.416 I4.334 J18.577
N1414 X-5.035 Y-18.321 I4.625 J18.217
N1415 G03 X-6.018 Y-18.88 I-.212 J-.771 F173.913
N1416 X-5.459 Y-19.864 I.771 J-.212
N1417 X-5.071 Y-19.966 I5.344 J19.455 F465.398
N1418 X-4.681 Y-20.061 I5.584 J22.035 F469.049
N1419 X-4.372 Y-19.703 Z-4.864 I.061 J.26 F500.
N1420 G01 X-4.553 Y-19.247 Z-4.75
N1421 X-4.857 Y-18.48 Z-4.942
N1422 G03 X-5.035 Y-18.321 Z-5. I-.248 J-.098
N1423 G02 X-5.381 Y-18.222 I4.923 J17.906
N1424 X-5.725 Y-18.117 I6.019 J20.341
N1425 G03 X-6.729 Y-18.638 I-.242 J-.762 F173.912
N1426 X-6.207 Y-19.642 I.763 J-.241
N1427 X-5.834 Y-19.757 I6.478 J20.534 F467.436
N1428 X-5.459 Y-19.864 I5.708 J19.307 F465.331
N1429 X-5.135 Y-19.521 Z-4.865 I.071 J.257 F500.
N1430 G01 X-5.292 Y-19.059 Z-4.75
N1431 X-5.553 Y-18.286 Z-4.941
N1432 G03 X-5.725 Y-18.117 Z-5. I-.253 J-.085
N1433 G02 X-6.062 Y-18.007 I6.527 J20.555
N1434 X-6.398 Y-17.89 I5.688 J16.942
N1435 G03 X-7.421 Y-18.374 I-.27 J-.753 F173.913
N1436 X-6.936 Y-19.397 I.753 J-.269
N1437 X-6.573 Y-19.523 I7.219 J20.206 F467.33
N1438 X-6.207 Y-19.642 I6.269 J18.595 F464.495
N1439 X-5.871 Y-19.314 Z-4.865 I.08 J.254 F500.
N1440 G01 X-6.006 Y-18.846 Z-4.75
N1441 X-6.231 Y-18.067 Z-4.941
N1442 G03 X-6.398 Y-17.89 Z-5. I-.256 J-.074
N1443 G02 X-6.727 Y-17.769 I6.544 J18.278
N1444 X-7.054 Y-17.642 I6.81 J17.991
N1445 G03 X-8.094 Y-18.088 I-.297 J-.743 F173.913
N1446 X-7.648 Y-19.128 I.743 J-.297
N1447 X-7.294 Y-19.266 I7.568 J18.914 F465.709
N1448 X-6.936 Y-19.397 I7.153 J18.892 F465.439
N1449 X-6.588 Y-19.083 Z-4.865 I.09 J.251 F500.
N1450 G01 X-6.703 Y-18.61 Z-4.75
N1451 X-6.894 Y-17.826 Z-4.94
N1452 G03 X-7.054 Y-17.642 Z-5. I-.259 J-.063
N1453 G02 X-7.391 Y-17.504 I7.008 J17.54
N1454 X-7.725 Y-17.359 I7.119 J16.868
N1455 G03 X-8.781 Y-17.764 I-.326 J-.731 F173.913
N1456 X-8.375 Y-18.821 I.731 J-.325
N1457 X-8.013 Y-18.977 I8.661 J19.491 F467.147
N1458 X-7.648 Y-19.128 I8.064 J19.091 F466.254
N1459 X-7.289 Y-18.822 Z-4.865 I.099 J.248 F500.
N1460 G01 X-7.395 Y-18.344 Z-4.75
N1461 X-7.573 Y-17.545 Z-4.942
N1462 G03 X-7.725 Y-17.359 Z-5. I-.26 J-.058
N1463 G02 X-8.044 Y-17.213 I8.091 J18.155
N1464 X-8.361 Y-17.062 I7.957 J17.038
N1465 G03 X-9.431 Y-17.428 I-.352 J-.718 F173.913
N1466 X-9.065 Y-18.498 I.718 J-.352
N1467 X-8.721 Y-18.663 I9.162 J18.694 F466.395
N1468 X-8.375 Y-18.821 I8.379 J17.918 F464.756
N1469 X-8.004 Y-18.533 Z-4.865 I.108 J.244 F500.
N1470 G01 X-8.083 Y-18.054 Z-4.75
N1471 X-8.215 Y-17.258 Z-4.94
N1472 G03 X-8.361 Y-17.062 Z-5. I-.263 J-.044
N1473 G02 X-8.691 Y-16.896 I8.36 J17.062
N1474 X-9.018 Y-16.723 I8.593 J16.708
N1475 G03 X-10.102 Y-17.048 I-.38 J-.704 F173.914
N1476 X-9.777 Y-18.132 I.704 J-.379
N1477 X-9.422 Y-18.319 I10.789 J20.07 F469.118
N1478 X-9.065 Y-18.498 I9.184 J17.83 F465.208
N1479 X-8.684 Y-18.219 Z-4.865 I.117 J.239 F500.
N1480 G01 X-8.757 Y-17.734 Z-4.75
N1481 X-8.881 Y-16.918 Z-4.942
N1482 G03 X-9.018 Y-16.723 Z-5. I-.264 J-.04
N1483 G02 X-9.333 Y-16.549 I8.833 J16.375
N1484 X-9.645 Y-16.37 I10.423 J18.457
N1485 G03 X-10.741 Y-16.652 I-.407 J-.689 F173.912
N1486 X-10.459 Y-17.747 I.689 J-.407
N1487 X-10.121 Y-17.943 I9.487 J16.065 F462.792
N1488 X-9.779 Y-18.131 I11.538 J20.507 F470.036
N1489 X-9.386 Y-17.87 Z-4.864 I.127 J.235 F500.
N1490 G01 X-9.435 Y-17.385 Z-4.75
N1491 X-9.516 Y-16.573 Z-4.941
N1492 G03 X-9.645 Y-16.37 Z-5. I-.265 J-.026
N1493 G02 X-9.956 Y-16.183 I10.706 J18.111
N1494 X-10.262 Y-15.99 I9.924 J16.147
N1495 G03 X-11.367 Y-16.231 I-.432 J-.673 F173.913
N1496 X-11.127 Y-17.337 I.673 J-.432
N1497 X-10.795 Y-17.545 I10.583 J16.476 F464.424
N1498 X-10.459 Y-17.747 I11.72 J19.076 F468.605
N1499 X-10.057 Y-17.501 Z-4.865 I.136 J.23 F500.
N1500 G01 X-10.088 Y-17.013 Z-4.75
N1501 X-10.14 Y-16.198 Z-4.941
N1502 G03 X-10.262 Y-15.99 Z-5. I-.266 J-.017
N1503 G02 X-10.567 Y-15.791 I10.053 J15.677
N1504 X-10.867 Y-15.585 I10.325 J15.43
N1505 G03 X-11.981 Y-15.784 I-.458 J-.656 F173.913
N1506 X-11.782 Y-16.898 I.656 J-.458
N1507 X-11.456 Y-17.12 I12.034 J17.274 F466.744
N1508 X-11.127 Y-17.337 I11.675 J17.446 F466.655
N1509 X-10.716 Y-17.105 Z-4.865 I.144 J.224 F500.
N1510 G01 X-10.73 Y-16.616 Z-4.75
N1511 X-10.753 Y-15.797 Z-4.942
N1512 G03 X-10.867 Y-15.585 Z-5. I-.267 J-.008
N1513 G02 X-11.153 Y-15.382 I11.208 J16.059
N1514 X-11.435 Y-15.173 I11.195 J15.443
N1515 G03 X-12.556 Y-15.331 I-.481 J-.639 F173.913
N1516 X-12.398 Y-16.451 I.639 J-.481
N1517 X-12.092 Y-16.677 I12.362 J16.397 F465.964
N1518 X-11.782 Y-16.898 I11.767 J16.224 F465.185
N1519 X-11.363 Y-16.686 Z-4.865 I.152 J.219 F500.
N1520 G01 X-11.35 Y-16.2 Z-4.75
N1521 X-11.329 Y-15.393 Z-4.94
N1522 G03 X-11.435 Y-15.173 Z-5. I-.267 J.007
N1523 G02 X-11.73 Y-14.947 I11.239 J14.918
N1524 X-12.019 Y-14.715 I11.885 J15.141
N1525 G03 X-13.145 Y-14.829 I-.506 J-.62 F173.914
N1526 X-13.03 Y-15.955 I.62 J-.506
N1527 X-12.717 Y-16.206 I14.336 J17.6 F469.008
N1528 X-12.398 Y-16.451 I12.506 J15.921 F465.51
N1529 X-11.971 Y-16.248 Z-4.865 I.161 J.213 F500.
N1530 G01 X-11.953 Y-15.757 Z-4.75
N1531 X-11.921 Y-14.932 Z-4.943
N1532 G03 X-12.019 Y-14.715 Z-5. I-.266 J.01
N1533 G02 X-12.303 Y-14.479 I11.947 J14.631
N1534 X-12.583 Y-14.236 I12.256 J14.423
N1535 G03 X-13.712 Y-14.306 I-.53 J-.599 F173.913
N1536 X-13.642 Y-15.435 I.599 J-.53
N1537 X-13.34 Y-15.697 I13.309 J15.06 F465.275
N1538 X-13.032 Y-15.954 I14.733 J17.357 F469.094
N1539 X-12.597 Y-15.769 Z-4.864 I.169 J.206 F500.
N1540 G01 X-12.559 Y-15.279 Z-4.75
N1541 X-12.494 Y-14.457 Z-4.942
N1542 G03 X-12.583 Y-14.236 Z-5. I-.266 J.021
N1543 G02 X-12.856 Y-13.99 I12.818 J14.5
N1544 X-13.125 Y-13.738 I12.398 J13.498
N1545 G03 X-14.257 Y-13.764 I-.553 J-.578 F173.914
N1546 X-14.23 Y-14.895 I.579 J-.552
N1547 X-13.939 Y-15.168 I15.782 J16.562 F469.234
N1548 X-13.642 Y-15.435 I13.45 J14.617 F464.894
N1549 X-13.201 Y-15.267 Z-4.865 I.177 J.2 F500.
N1550 G01 X-13.143 Y-14.78 Z-4.75
N1551 X-13.045 Y-13.962 Z-4.942
N1552 G03 X-13.125 Y-13.738 Z-5. I-.265 J.032
N1553 G02 X-13.281 Y-13.587 I13.932 J14.569
N1554 X-13.435 Y-13.435 I13.035 J13.341
N1555 G03 X-14.566 I-.566 J-.566 F173.913
N1556 Y-14.566 I.566 J-.566
N1557 X-14.4 Y-14.731 I13.869 J13.869 F464.479
N1558 X-14.232 Y-14.894 I17.206 J17.622 F471.296
N1559 X-13.855 Y-14.886 Z-4.75 I.184 J.193 F500.
N1560 G00 Z5.
N1561 X-.375 Y-20.225
N1562 Z2.5
N1563 G01 Z-2.5
N1564 Z-4.75 F250.
N1565 G03 X0 Y-20.6 Z-5. I.375 J0
N1566 X.763 Y-19.56 I0 J.8 F86.957
N1567 X0 Y-19. I-.763 J-.24 F173.913
N1568 X-.375 Y-19.375 Z-4.75 I0 J-.375 F500.
N1569 G00 Z25.
N1570 X7.883 Y19.032
N1571 Z5.
N1572 G01 Z-5. F150.
N1573 G03 X0 Y20.6 I-7.883 J-19.032 F500.
N1574 Y19. I0 J-.8
N1575 G02 X13.435 Y13.435 I0 J-19.
N1576 G03 X14.566 Y14.566 I.566 J.566
N1577 X7.883 Y19.032 I-14.566 J-14.566
N1578 X0 Y20.6 I-7.883 J-19.032 F100.
N1579 Y19. I0 J-.8
N1580 G02 X13.435 Y13.435 I0 J-19.
N1581 G03 X14.566 Y14.566 I.566 J.566
N1582 X0 Y20.6 I-14.566 J-14.566
N1583 Y19. I0 J-.8
N1584 G02 X13.435 Y13.435 I0 J-19.
N1585 G03 X14.566 Y14.566 I.566 J.566
N1586 X7.883 Y19.032 I-14.566 J-14.566
N1587 G00 Z5.
N1588 Z25.
N1589 X-7.883 Y-19.032
N1590 Z5.
N1591 G01 Z-5. F150.
N1592 G03 X0 Y-20.6 I7.883 J19.032 F500.
N1593 Y-19. I0 J.8
N1594 G02 X-13.435 Y-13.435 I0 J19.
N1595 G03 X-14.566 Y-14.566 I-.566 J-.566
N1596 X-7.883 Y-19.032 I14.566 J14.566
N1597 X0 Y-20.6 I7.883 J19.032 F100.
N1598 Y-19. I0 J.8
N1599 G02 X-13.435 Y-13.435 I0 J19.
N1600 G03 X-14.566 Y-14.566 I-.566 J-.566
N1601 X0 Y-20.6 I14.566 J14.566
N1602 Y-19. I0 J.8
N1603 G02 X-13.435 Y-13.435 I0 J19.
N1604 G03 X-14.566 Y-14.566 I-.566 J-.566
N1605 X-7.883 Y-19.032 I14.566 J14.566
N1606 G00 Z5.
N1607 Z25. M09
N1608 G91 G28 Z0
N1609 G28 X0 Y0
N1610 M30
