O0001
(This Post Processor is distributed on an "AS IS" BASIS, )
(WITHOUT WARRANTIES OR CONDITIONS OF ANY KIND, either express or implied. )
N1 G21
N2 (3MM CRB 2FL 12 LOC)
N3 G91 G28 X0 Y0 Z0
N4 T01 M06
N5 S200 M03
N6 G90 G00 X-13.47 Y14.531
N7 G43 Z2.5 H01 M08
N8 G01 Z.25 F2.
N9 G17 X-13.506 Y14.566 Z.248 F1.
N10 G03 X-14.566 Z.189 I-.53 J-.53 F.333
N11 Y13.506 Z.131 I.53 J-.53
N12 G01 X-14.531 Y13.47 Z.128 F1.
N13 G03 X-13.47 Z.07 I.53 J.53 F.333
N14 Y14.531 Z.011 I-.53 J.53
N15 G01 X-13.506 Y14.566 Z.009 F1.
N16 G03 X-14.566 Z-.05 I-.53 J-.53 F.333
N17 Y13.506 Z-.108 I.53 J-.53
N18 G01 X-14.531 Y13.47 Z-.11 F1.
N19 G03 X-13.47 Z-.169 I.53 J.53 F.333
N20 Y14.531 Z-.227 I-.53 J.53
N21 G01 X-13.506 Y14.566 Z-.23 F1.
N22 G03 X-14.566 Z-.288 I-.53 J-.53 F.333
N23 Y13.506 Z-.347 I.53 J-.53
N24 G01 X-14.531 Y13.47 Z-.349 F2.
N25 G03 X-13.47 Z-.407 I.53 J.53 F.667
N26 Y14.531 Z-.466 I-.53 J.53
N27 G01 X-13.506 Y14.566 Z-.468 F2.
N28 G03 X-14.566 Z-.527 I-.53 J-.53 F.667
N29 Y13.506 Z-.585 I.53 J-.53
N30 G01 X-14.531 Y13.47 Z-.588 F2.
N31 G03 X-13.47 Z-.646 I.53 J.53 F.667
N32 Y14.531 Z-.705 I-.53 J.53
N33 G01 X-13.506 Y14.566 Z-.707 F2.
N34 G03 X-14.566 Z-.765 I-.53 J-.53 F.667
N35 Y13.506 Z-.824 I.53 J-.53
N36 G01 X-14.531 Y13.47 Z-.826 F2.
N37 G03 X-13.47 Z-.885 I.53 J.53 F.667
N38 Y14.531 Z-.943 I-.53 J.53
N39 G01 X-13.506 Y14.566 Z-.946 F2.
N40 G03 X-14.566 Z-1.004 I-.53 J-.53 F.667
N41 Y13.506 Z-1.062 I.53 J-.53
N42 G01 X-14.531 Y13.47 Z-1.065 F2.
N43 G03 X-13.47 Z-1.123 I.53 J.53 F.667
N44 Y14.531 Z-1.182 I-.53 J.53
N45 G01 X-13.506 Y14.566 Z-1.184 F2.
N46 G03 X-14.566 Z-1.243 I-.53 J-.53 F.667
N47 Y13.506 Z-1.301 I.53 J-.53
N48 G01 X-14.531 Y13.47 Z-1.304 F2.
N49 G03 X-13.47 Z-1.362 I.53 J.53 F.667
N50 Y14.531 Z-1.42 I-.53 J.53
N51 G01 X-13.506 Y14.566 Z-1.423 F2.
N52 G03 X-14.566 Z-1.481 I-.53 J-.53 F.667
N53 Y13.506 Z-1.54 I.53 J-.53
N54 G01 X-14.531 Y13.47 Z-1.542 F2.
N55 G03 X-13.47 Z-1.601 I.53 J.53 F.667
N56 Y14.531 Z-1.659 I-.53 J.53
N57 G01 X-13.506 Y14.566 Z-1.662 F2.
N58 G03 X-14.566 Z-1.72 I-.53 J-.53 F.667
N59 Y13.506 Z-1.778 I.53 J-.53
N60 G01 X-14.531 Y13.47 Z-1.781 F2.
N61 G03 X-13.47 Z-1.839 I.53 J.53 F.667
N62 Y14.531 Z-1.898 I-.53 J.53
N63 G01 X-13.506 Y14.566 Z-1.9 F2.
N64 G03 X-14.566 Z-1.959 I-.53 J-.53 F.667
N65 Y13.506 Z-2.017 I.53 J-.53
N66 G01 X-14.531 Y13.47 Z-2.02 F2.
N67 G03 X-13.47 Z-2.078 I.53 J.53 F.667
N68 Y14.531 Z-2.136 I-.53 J.53
N69 G01 X-13.506 Y14.566 Z-2.139 F2.
N70 G03 X-14.566 Z-2.197 I-.53 J-.53 F.667
N71 Y13.506 Z-2.256 I.53 J-.53
N72 G01 X-14.531 Y13.47 Z-2.258 F2.
N73 G03 X-13.47 Z-2.317 I.53 J.53 F.667
N74 Y14.531 Z-2.375 I-.53 J.53
N75 G01 X-13.506 Y14.566 Z-2.377 F2.
N76 G03 X-14.566 Z-2.436 I-.53 J-.53 F.667
N77 Y13.506 Z-2.494 I.53 J-.53
N78 G01 X-14.531 Y13.47 Z-2.497 F2.
N79 G03 X-13.47 Z-2.555 I.53 J.53 F.667
N80 Y14.531 Z-2.614 I-.53 J.53
N81 G01 X-13.506 Y14.566 Z-2.616 F2.
N82 G03 X-14.566 Z-2.675 I-.53 J-.53 F.667
N83 Y13.506 Z-2.733 I.53 J-.53
N84 G01 X-14.531 Y13.47 Z-2.735 F2.
N85 G03 X-13.47 Z-2.794 I.53 J.53 F.667
N86 Y14.531 Z-2.852 I-.53 J.53
N87 G01 X-13.506 Y14.566 Z-2.855 F2.
N88 G03 X-14.566 Z-2.913 I-.53 J-.53 F.667
N89 Y13.506 Z-2.972 I.53 J-.53
N90 G01 X-14.531 Y13.47 Z-2.974 F2.
N91 G03 X-13.47 Z-3.032 I.53 J.53 F.667
N92 Y14.531 Z-3.091 I-.53 J.53
N93 G01 X-13.506 Y14.566 Z-3.093 F2.
N94 G03 X-14.566 Z-3.152 I-.53 J-.53 F.667
N95 Y13.506 Z-3.21 I.53 J-.53
N96 G01 X-14.531 Y13.47 Z-3.213 F2.
N97 G03 X-13.47 Z-3.271 I.53 J.53 F.667
N98 Y14.531 Z-3.33 I-.53 J.53
N99 G01 X-13.506 Y14.566 Z-3.332 F2.
N100 G03 X-14.566 Z-3.39 I-.53 J-.53 F.667
N101 Y13.506 Z-3.449 I.53 J-.53
N102 G01 X-14.531 Y13.47 Z-3.451 F2.
N103 G03 X-13.47 Z-3.51 I.53 J.53 F.667
N104 Y14.531 Z-3.568 I-.53 J.53
N105 G01 X-13.506 Y14.566 Z-3.571 F2.
N106 G03 X-14.566 Z-3.629 I-.53 J-.53 F.667
N107 Y13.506 Z-3.688 I.53 J-.53
N108 G01 X-14.531 Y13.47 Z-3.69 F2.
N109 G03 X-13.47 Z-3.748 I.53 J.53 F.667
N110 Y14.531 Z-3.807 I-.53 J.53
N111 G01 X-13.506 Y14.566 Z-3.809 F2.
N112 G03 X-14.566 Z-3.868 I-.53 J-.53 F.667
N113 Y13.506 Z-3.926 I.53 J-.53
N114 G01 X-14.531 Y13.47 Z-3.929 F2.
N115 G03 X-13.47 Z-3.987 I.53 J.53 F.667
N116 Y14.531 Z-4.045 I-.53 J.53
N117 G01 X-13.506 Y14.566 Z-4.048 F2.
N118 G03 X-14.566 Z-4.106 I-.53 J-.53 F.667
N119 Y13.506 Z-4.165 I.53 J-.53
N120 G01 X-14.531 Y13.47 Z-4.167 F2.
N121 G03 X-13.47 Z-4.226 I.53 J.53 F.667
N122 Y14.531 Z-4.284 I-.53 J.53
N123 G01 X-13.506 Y14.566 Z-4.287 F2.
N124 G03 X-14.566 Z-4.345 I-.53 J-.53 F.667
N125 Y13.506 Z-4.403 I.53 J-.53
N126 G01 X-14.531 Y13.47 Z-4.406 F2.
N127 G03 X-13.47 Z-4.464 I.53 J.53 F.667
N128 Y14.531 Z-4.523 I-.53 J.53
N129 G01 X-13.506 Y14.566 Z-4.525 F2.
N130 G03 X-14.566 Z-4.584 I-.53 J-.53 F.667
N131 Y13.506 Z-4.642 I.53 J-.53
N132 G01 X-14.531 Y13.47 Z-4.645 F2.
N133 G03 X-13.47 Z-4.703 I.53 J.53 F.667
N134 Y14.531 Z-4.761 I-.53 J.53
N135 G01 X-13.506 Y14.566 Z-4.764 F2.
N136 G03 X-14.566 Z-4.822 I-.53 J-.53 F.667
N137 Y13.506 Z-4.881 I.53 J-.53
N138 G01 X-14.531 Y13.47 Z-4.883 F2.
N139 G03 X-13.47 Z-4.942 I.53 J.53 F.667
N140 Y14.531 Z-5. I-.53 J.53
N141 G01 X-13.506 Y14.566 F2.
N142 G03 X-14.566 I-.53 J-.53 F.667
N143 Y13.506 I.53 J-.53
N144 G01 X-14.531 Y13.47 F2.
N145 G03 X-13.47 I.53 J.53 F.667
N146 Y14.531 I-.53 J.53
N147 X-14.001 Z-4.76 I-.265 J-.265 F500.
N148 G01 X-14.018 Y14.549 Z-4.75
N149 X-14.036 Y14.566 Z-4.76
N150 G03 X-14.566 Z-5. I-.265 J-.265 F2.
N151 X-14.371 Y13.292 I.566 J-.566 F.696
N152 X-13.435 Y13.435 I.37 J.709 F173.913
N153 X-13.325 Y13.689 I-.265 J.265 F100.
N154 X-13.435 Y13.965 Z-4.909 I-.375 J.011 F500.
N155 G01 X-13.856 Y14.301 Z-4.75
N156 X-14.189 Y14.566 Z-4.876
N157 G03 X-14.566 Z-5. I-.189 J-.189
N158 X-14.846 Y14.281 I14.129 J-14.129 F465.085
N159 X-15.121 Y13.99 I16.457 J-15.811 F469.164
N160 X-15.078 Y12.859 I.587 J-.544 F173.914
N161 X-13.947 Y12.903 I.544 J.587
N162 G02 X-13.694 Y13.172 I13.661 J-12.631 F500.
N163 X-13.435 Y13.435 I13.79 J-13.268
N164 G03 X-13.586 Y13.888 Z-4.863 I-.189 J.189
N165 G01 X-14.073 Y13.956 Z-4.75
N166 X-14.889 Y14.072 Z-4.94
N167 G03 X-15.122 Y13.989 Z-5. I-.037 J-.264
N168 X-15.385 Y13.699 I17.288 J-15.951 F470.028
N169 X-15.642 Y13.405 I13.929 J-12.43 F462.814
N170 X-15.554 Y12.278 I.608 J-.52 F173.912
N171 X-14.427 Y12.364 I.521 J.607
N172 G02 X-14.189 Y12.636 I16.02 J-13.768 F500.
N173 X-13.947 Y12.903 I14.019 J-12.471
N174 G03 X-14.112 Y13.349 Z-4.864 I-.196 J.181
N175 G01 X-14.598 Y13.404 Z-4.75
N176 X-15.409 Y13.497 Z-4.94
N177 G03 X-15.642 Y13.405 Z-5. I-.03 J-.265
N178 X-15.894 Y13.105 I16.974 J-14.521 F468.537
N179 X-16.141 Y12.8 I15.163 J-12.517 F464.559
N180 X-16.011 Y11.676 I.627 J-.497 F173.913
N181 X-14.887 Y11.805 I.497 J.627
N182 G02 X-14.66 Y12.087 I14.784 J-11.732 F500.
N183 X-14.427 Y12.364 I16.254 J-13.414
N184 G03 X-14.61 Y12.803 Z-4.864 I-.203 J.173
N185 G01 X-15.098 Y12.839 Z-4.75
N186 X-15.912 Y12.9 Z-4.94
N187 G03 X-16.141 Y12.8 Z-5. I-.02 J-.266
N188 X-16.383 Y12.488 I16.366 J-12.97 F466.491
N189 X-16.619 Y12.172 I16.833 J-12.829 F466.908
N190 X-16.447 Y11.054 I.645 J-.473 F173.913
N191 X-15.328 Y11.227 I.473 J.645
N192 G02 X-15.111 Y11.518 I14.898 J-10.901 F500.
N193 X-14.887 Y11.805 I14.895 J-11.356
N194 G03 X-15.087 Y12.238 Z-4.863 I-.209 J.166
N195 G01 X-15.576 Y12.254 Z-4.75
N196 X-16.395 Y12.281 Z-4.94
N197 G03 X-16.619 Y12.172 Z-5. I-.009 J-.267
N198 X-16.841 Y11.863 I16.077 J-11.786 F465.01
N199 X-17.058 Y11.55 I16.884 J-11.889 F466.139
N200 X-16.844 Y10.439 I.662 J-.448 F173.913
N201 X-15.733 Y10.653 I.449 J.662
N202 G02 X-15.533 Y10.942 I15.701 J-10.634 F500.
N203 X-15.328 Y11.227 I16.105 J-11.348
N204 G03 X-15.54 Y11.651 Z-4.864 I-.215 J.157
N205 G01 X-16.027 Y11.657 Z-4.75
N206 X-16.833 Y11.667 Z-4.938
N207 G03 X-17.058 Y11.55 Z-5. I-.003 J-.267
N208 X-17.279 Y11.216 I16.701 J-11.306 F465.387
N209 X-17.494 Y10.877 I19.077 J-12.368 F469.053
N210 X-17.238 Y9.775 I.679 J-.423 F173.914
N211 X-16.136 Y10.031 I.423 J.679
N212 G02 X-15.937 Y10.344 I16.186 J-10.063 F500.
N213 X-15.733 Y10.653 I15.776 J-10.238
N214 G03 X-15.967 Y11.069 Z-4.863 I-.221 J.15
N215 G01 X-16.458 Y11.044 Z-4.75
N216 X-17.282 Y11.001 Z-4.941
N217 G03 X-17.495 Y10.875 Z-5. I.014 J-.266
N218 X-17.704 Y10.533 I19.321 J-11.976 F469.049
N219 X-17.906 Y10.186 I17.333 J-10.325 F465.398
N220 X-17.606 Y9.095 I.695 J-.396 F173.913
N221 X-16.515 Y9.395 I.396 J.695
N222 G02 X-16.328 Y9.715 I16.338 J-9.291 F500.
N223 X-16.136 Y10.031 I16.393 J-9.755
N224 G03 X-16.386 Y10.438 Z-4.863 I-.226 J.141
N225 G01 X-16.876 Y10.394 Z-4.75
N226 X-17.698 Y10.32 Z-4.941
N227 G03 X-17.906 Y10.186 Z-5. I.024 J-.266
N228 X-18.095 Y9.845 I17.498 J-9.957 F465.331
N229 X-18.279 Y9.5 I18.917 J-10.284 F467.436
N230 X-17.938 Y8.421 I.71 J-.369 F173.912
N231 X-16.859 Y8.763 I.369 J.71
N232 G02 X-16.69 Y9.08 I18.808 J-9.81 F500.
N233 X-16.515 Y9.395 I16.317 J-8.866
N234 G03 X-16.777 Y9.792 Z-4.864 I-.232 J.132
N235 G01 X-17.262 Y9.735 Z-4.75
N236 X-18.073 Y9.642 Z-4.94
N237 G03 X-18.279 Y9.5 Z-5. I.031 J-.265
N238 X-18.453 Y9.157 I17.408 J-9.059 F464.495
N239 X-18.621 Y8.811 I19.225 J-9.53 F467.33
N240 X-18.24 Y7.745 I.723 J-.342 F173.913
N241 X-17.174 Y8.127 I.342 J.723
N242 G02 X-17.019 Y8.446 I16.157 J-7.638 F500.
N243 X-16.859 Y8.763 I19.31 J-9.603
N244 G03 X-17.134 Y9.149 Z-4.864 I-.237 J.123
N245 G01 X-17.616 Y9.078 Z-4.75
N246 X-18.418 Y8.961 Z-4.939
N247 G03 X-18.621 Y8.811 Z-5. I.039 J-.264
N248 X-18.78 Y8.465 I18.257 J-8.646 F465.439
N249 X-18.933 Y8.117 I18.573 J-8.371 F465.709
N250 X-18.513 Y7.067 I.735 J-.315 F173.913
N251 X-17.463 Y7.486 I.315 J.735
N252 G02 X-17.322 Y7.808 I17.679 J-7.585 F500.
N253 X-17.174 Y8.127 I17.699 J-7.979
N254 G03 X-17.463 Y8.503 Z-4.864 I-.241 J.114
N255 G01 X-17.941 Y8.417 Z-4.75
N256 X-18.735 Y8.274 Z-4.938
N257 G03 X-18.933 Y8.117 Z-5. I.047 J-.262
N258 X-19.085 Y7.753 I19.05 J-8.161 F466.254
N259 X-19.23 Y7.386 I19.762 J-8.025 F467.147
N260 X-18.771 Y6.352 I.747 J-.287 F173.913
N261 X-17.737 Y6.812 I.287 J.747
N262 G02 X-17.603 Y7.151 I17.095 J-6.555 F500.
N263 X-17.463 Y7.486 I17.499 J-7.111
N264 G03 X-17.769 Y7.851 Z-4.863 I-.245 J.105
N265 G01 X-18.246 Y7.738 Z-4.75
N266 X-19.043 Y7.55 Z-4.94
N267 G03 X-19.23 Y7.386 Z-5. I.061 J-.26
N268 X-19.364 Y7.03 I18.462 J-7.102 F464.756
N269 X-19.49 Y6.671 I19.57 J-7.099 F466.395
N270 X-18.992 Y5.655 I.757 J-.259 F173.913
N271 X-17.976 Y6.152 I.259 J.757
N272 G02 X-17.86 Y6.484 I17.791 J-6.09 F500.
N273 X-17.737 Y6.812 I18.681 J-6.787
N274 G03 X-18.052 Y7.166 Z-4.864 I-.249 J.095
N275 G01 X-18.523 Y7.044 Z-4.75
N276 X-19.305 Y6.842 Z-4.938
N277 G03 X-19.49 Y6.671 Z-5. I.067 J-.258
N278 X-19.616 Y6.291 I18.976 J-6.494 F465.208
N279 X-19.735 Y5.908 I21.702 J-6.946 F469.118
N280 X-19.198 Y4.911 I.766 J-.23 F173.914
N281 X-18.202 Y5.448 I.23 J.766
N282 G02 X-18.093 Y5.802 I18. J-5.385 F500.
N283 X-17.976 Y6.152 I18.092 J-5.803
N284 G03 X-18.311 Y6.492 Z-4.863 I-.252 J.086
N285 G01 X-18.778 Y6.34 Z-4.75
N286 X-19.562 Y6.083 Z-4.941
N287 G03 X-19.735 Y5.906 Z-5. I.083 J-.253
N288 X-19.844 Y5.531 I22.551 J-6.717 F470.036
N289 X-19.945 Y5.154 I17.966 J-5.029 F462.792
N290 X-19.37 Y4.18 I.775 J-.199 F173.912
N291 X-18.395 Y4.755 I.199 J.775
N292 G02 X-18.302 Y5.103 I20.514 J-5.333 F500.
N293 X-18.202 Y5.448 I17.925 J-4.986
N294 G03 X-18.547 Y5.776 Z-4.864 I-.255 J.076
N295 G01 X-19.007 Y5.612 Z-4.75
N296 X-19.776 Y5.339 Z-4.939
N297 G03 X-19.945 Y5.154 Z-5. I.089 J-.251
N298 X-20.039 Y4.773 I21.682 J-5.582 F468.605
N299 X-20.127 Y4.391 I19.046 J-4.549 F464.424
N300 X-19.515 Y3.439 I.782 J-.17 F173.913
N301 X-18.563 Y4.05 I.171 J.782
N302 G02 X-18.483 Y4.403 I18.516 J-4.048 F500.
N303 X-18.395 Y4.755 I20.464 J-4.885
N304 G03 X-18.753 Y5.069 Z-4.864 I-.258 J.066
N305 G01 X-19.207 Y4.886 Z-4.75
N306 X-19.965 Y4.582 Z-4.94
N307 G03 X-20.127 Y4.391 Z-5. I.099 J-.247
N308 X-20.207 Y4.005 I20.511 J-4.467 F466.655
N309 X-20.28 Y3.617 I20.651 J-4.093 F466.744
N310 X-19.633 Y2.689 I.788 J-.141 F173.913
N311 X-18.705 Y3.336 I.14 J.788
N312 G02 X-18.638 Y3.694 I18.278 J-3.252 F500.
N313 X-18.563 Y4.05 I18.268 J-3.621
N314 G03 X-18.933 Y4.35 Z-4.863 I-.261 J.057
N315 G01 X-19.38 Y4.15 Z-4.75
N316 X-20.127 Y3.814 Z-4.94
N317 G03 X-20.28 Y3.617 Z-5. I.109 J-.243
N318 X-20.343 Y3.242 I19.729 J-3.527 F465.185
N319 X-20.4 Y2.866 I20.28 J-3.23 F465.964
N320 X-19.719 Y1.962 I.792 J-.111 F173.913
N321 X-18.815 Y2.643 I.111 J.792
N322 G02 X-18.763 Y2.99 I18.888 J-2.657 F500.
N323 X-18.705 Y3.336 I19.339 J-3.084
N324 G03 X-19.082 Y3.624 Z-4.864 I-.263 J.047
N325 G01 X-19.521 Y3.416 Z-4.75
N326 X-20.25 Y3.07 Z-4.938
N327 G03 X-20.4 Y2.866 Z-5. I.114 J-.241
N328 X-20.452 Y2.467 I20.049 J-2.813 F465.51
N329 X-20.496 Y2.068 I22.538 J-2.707 F469.008
N330 X-19.781 Y1.191 I.796 J-.081 F173.914
N331 X-18.904 Y1.907 I.081 J.796
N332 G02 X-18.863 Y2.275 I19.151 J-1.934 F500.
N333 X-18.815 Y2.643 I18.544 J-2.234
N334 G03 X-19.209 Y2.913 Z-4.863 I-.264 J.037
N335 G01 X-19.639 Y2.674 Z-4.75
N336 X-20.36 Y2.273 Z-4.941
N337 G03 X-20.496 Y2.066 Z-5. I.13 J-.233
N338 X-20.532 Y1.667 I22.655 J-2.254 F469.094
N339 X-20.561 Y1.268 I20.032 J-1.638 F465.275
N340 X-19.812 Y.42 I.798 J-.049 F173.913
N341 X-18.964 Y1.169 I.049 J.798
N342 G02 X-18.938 Y1.538 I18.891 J-1.163 F500.
N343 X-18.904 Y1.907 I18.827 J-1.529
N344 G03 X-19.308 Y2.161 Z-4.863 I-.265 J.027
N345 G01 X-19.728 Y1.907 Z-4.75
N346 X-20.433 Y1.479 Z-4.941
N347 G03 X-20.561 Y1.268 Z-5. I.138 J-.228
N348 X-20.582 Y.869 I19.826 J-1.224 F464.894
N349 X-20.595 Y.47 I22.858 J-.951 F469.234
N350 X-19.813 Y-.349 I.8 J-.019 F173.914
N351 X-18.995 Y.433 I.019 J.8
N352 G02 X-18.983 Y.801 I18.323 J-.41 F500.
N353 X-18.964 Y1.169 I19.335 J-.821
N354 G03 X-19.377 Y1.408 Z-4.863 I-.266 J.016
N355 G01 X-19.787 Y1.138 Z-4.75
N356 X-20.475 Y.685 Z-4.94
N357 G03 X-20.595 Y.468 Z-5. I.147 J-.223
N358 X-20.599 Y.234 I24.623 J-.528 F471.296
N359 X-20.6 Y0 I19.613 J-.234 F464.479
N360 X-19.8 Y-.8 I.8 J0 F173.913
N361 X-19. Y0 I0 J.8
N362 G02 X-18.999 Y.217 I18.652 J0 F500.
N363 X-18.995 Y.433 I20.157 J-.234
N364 G03 X-19.256 Y.706 Z-4.75 I-.267 J.006
N365 G00 Z5.
N366 X-13.965 Y13.435
N367 Z2.5
N368 G01 Z-2.5
N369 Z-4.75 F2.
N370 G03 X-13.435 Z-5. I.265 J.265
N371 X-13.63 Y14.71 I-.566 J.566 F.696
N372 X-14.566 Y14.566 I-.37 J-.709 F173.913
N373 Y14.036 Z-4.75 I.265 J-.265 F500.
N374 G00 Z25.
N375 X-19.032 Y7.883
N376 Z5.
N377 G01 Z-5. F2.
N378 G03 X-20.6 Y0 I19.032 J-7.883 F500.
N379 X-19. I.8 J0
N380 G02 X-13.435 Y13.435 I19. J0
N381 G03 X-14.566 Y14.566 I-.566 J.566
N382 X-19.032 Y7.883 I14.566 J-14.566
N383 X-20.6 Y0 I19.032 J-7.883 F100.
N384 X-19. I.8 J0
N385 G02 X-13.435 Y13.435 I19. J0
N386 G03 X-14.566 Y14.566 I-.566 J.566
N387 X-20.6 Y0 I14.566 J-14.566
N388 X-19. I.8 J0
N389 G02 X-13.435 Y13.435 I19. J0
N390 G03 X-14.566 Y14.566 I-.566 J.566
N391 X-19.032 Y7.883 I14.566 J-14.566
N392 G00 Z5.
N393 Z25.
N394 X19.8 Y.75
N395 Z2.5
N396 G01 Z.25 F2.
N397 X19.75 Z.248 F1.
N398 G03 X19. Y0 Z.189 I0 J-.75 F.333
N399 X19.75 Y-.75 Z.131 I.75 J0
N400 G01 X19.8 Z.128 F1.
N401 G03 X20.55 Y0 Z.07 I0 J.75 F.333
N402 X19.8 Y.75 Z.011 I-.75 J0
N403 G01 X19.75 Z.009 F1.
N404 G03 X19. Y0 Z-.05 I0 J-.75 F.333
N405 X19.75 Y-.75 Z-.108 I.75 J0
N406 G01 X19.8 Z-.11 F1.
N407 G03 X20.55 Y0 Z-.169 I0 J.75 F.333
N408 X19.8 Y.75 Z-.227 I-.75 J0
N409 G01 X19.75 Z-.23 F1.
N410 G03 X19. Y0 Z-.288 I0 J-.75 F.333
N411 X19.75 Y-.75 Z-.347 I.75 J0
N412 G01 X19.8 Z-.349 F2.
N413 G03 X20.55 Y0 Z-.407 I0 J.75 F.667
N414 X19.8 Y.75 Z-.466 I-.75 J0
N415 G01 X19.75 Z-.468 F2.
N416 G03 X19. Y0 Z-.527 I0 J-.75 F.667
N417 X19.75 Y-.75 Z-.585 I.75 J0
N418 G01 X19.8 Z-.588 F2.
N419 G03 X20.55 Y0 Z-.646 I0 J.75 F.667
N420 X19.8 Y.75 Z-.705 I-.75 J0
N421 G01 X19.75 Z-.707 F2.
N422 G03 X19. Y0 Z-.765 I0 J-.75 F.667
N423 X19.75 Y-.75 Z-.824 I.75 J0
N424 G01 X19.8 Z-.826 F2.
N425 G03 X20.55 Y0 Z-.885 I0 J.75 F.667
N426 X19.8 Y.75 Z-.943 I-.75 J0
N427 G01 X19.75 Z-.946 F2.
N428 G03 X19. Y0 Z-1.004 I0 J-.75 F.667
N429 X19.75 Y-.75 Z-1.062 I.75 J0
N430 G01 X19.8 Z-1.065 F2.
N431 G03 X20.55 Y0 Z-1.123 I0 J.75 F.667
N432 X19.8 Y.75 Z-1.182 I-.75 J0
N433 G01 X19.75 Z-1.184 F2.
N434 G03 X19. Y0 Z-1.243 I0 J-.75 F.667
N435 X19.75 Y-.75 Z-1.301 I.75 J0
N436 G01 X19.8 Z-1.304 F2.
N437 G03 X20.55 Y0 Z-1.362 I0 J.75 F.667
N438 X19.8 Y.75 Z-1.42 I-.75 J0
N439 G01 X19.75 Z-1.423 F2.
N440 G03 X19. Y0 Z-1.481 I0 J-.75 F.667
N441 X19.75 Y-.75 Z-1.54 I.75 J0
N442 G01 X19.8 Z-1.542 F2.
N443 G03 X20.55 Y0 Z-1.601 I0 J.75 F.667
N444 X19.8 Y.75 Z-1.659 I-.75 J0
N445 G01 X19.75 Z-1.662 F2.
N446 G03 X19. Y0 Z-1.72 I0 J-.75 F.667
N447 X19.75 Y-.75 Z-1.778 I.75 J0
N448 G01 X19.8 Z-1.781 F2.
N449 G03 X20.55 Y0 Z-1.839 I0 J.75 F.667
N450 X19.8 Y.75 Z-1.898 I-.75 J0
N451 G01 X19.75 Z-1.9 F2.
N452 G03 X19. Y0 Z-1.959 I0 J-.75 F.667
N453 X19.75 Y-.75 Z-2.017 I.75 J0
N454 G01 X19.8 Z-2.02 F2.
N455 G03 X20.55 Y0 Z-2.078 I0 J.75 F.667
N456 X19.8 Y.75 Z-2.136 I-.75 J0
N457 G01 X19.75 Z-2.139 F2.
N458 G03 X19. Y0 Z-2.197 I0 J-.75 F.667
N459 X19.75 Y-.75 Z-2.256 I.75 J0
N460 G01 X19.8 Z-2.258 F2.
N461 G03 X20.55 Y0 Z-2.317 I0 J.75 F.667
N462 X19.8 Y.75 Z-2.375 I-.75 J0
N463 G01 X19.75 Z-2.377 F2.
N464 G03 X19. Y0 Z-2.436 I0 J-.75 F.667
N465 X19.75 Y-.75 Z-2.494 I.75 J0
N466 G01 X19.8 Z-2.497 F2.
N467 G03 X20.55 Y0 Z-2.555 I0 J.75 F.667
N468 X19.8 Y.75 Z-2.614 I-.75 J0
N469 G01 X19.75 Z-2.616 F2.
N470 G03 X19. Y0 Z-2.675 I0 J-.75 F.667
N471 X19.75 Y-.75 Z-2.733 I.75 J0
N472 G01 X19.8 Z-2.735 F2.
N473 G03 X20.55 Y0 Z-2.794 I0 J.75 F.667
N474 X19.8 Y.75 Z-2.852 I-.75 J0
N475 G01 X19.75 Z-2.855 F2.
N476 G03 X19. Y0 Z-2.913 I0 J-.75 F.667
N477 X19.75 Y-.75 Z-2.972 I.75 J0
N478 G01 X19.8 Z-2.974 F2.
N479 G03 X20.55 Y0 Z-3.032 I0 J.75 F.667
N480 X19.8 Y.75 Z-3.091 I-.75 J0
N481 G01 X19.75 Z-3.093 F2.
N482 G03 X19. Y0 Z-3.152 I0 J-.75 F.667
N483 X19.75 Y-.75 Z-3.21 I.75 J0
N484 G01 X19.8 Z-3.213 F2.
N485 G03 X20.55 Y0 Z-3.271 I0 J.75 F.667
N486 X19.8 Y.75 Z-3.33 I-.75 J0
N487 G01 X19.75 Z-3.332 F2.
N488 G03 X19. Y0 Z-3.39 I0 J-.75 F.667
N489 X19.75 Y-.75 Z-3.449 I.75 J0
N490 G01 X19.8 Z-3.451 F2.
N491 G03 X20.55 Y0 Z-3.51 I0 J.75 F.667
N492 X19.8 Y.75 Z-3.568 I-.75 J0
N493 G01 X19.75 Z-3.571 F2.
N494 G03 X19. Y0 Z-3.629 I0 J-.75 F.667
N495 X19.75 Y-.75 Z-3.687 I.75 J0
N496 G01 X19.8 Z-3.69 F2.
N497 G03 X20.55 Y0 Z-3.748 I0 J.75 F.667
N498 X19.8 Y.75 Z-3.807 I-.75 J0
N499 G01 X19.75 Z-3.809 F2.
N500 G03 X19. Y0 Z-3.868 I0 J-.75 F.667
N501 X19.75 Y-.75 Z-3.926 I.75 J0
N502 G01 X19.8 Z-3.929 F2.
N503 G03 X20.55 Y0 Z-3.987 I0 J.75 F.667
N504 X19.8 Y.75 Z-4.045 I-.75 J0
N505 G01 X19.75 Z-4.048 F2.
N506 G03 X19. Y0 Z-4.106 I0 J-.75 F.667
N507 X19.75 Y-.75 Z-4.165 I.75 J0
N508 G01 X19.8 Z-4.167 F2.
N509 G03 X20.55 Y0 Z-4.226 I0 J.75 F.667
N510 X19.8 Y.75 Z-4.284 I-.75 J0
N511 G01 X19.75 Z-4.287 F2.
N512 G03 X19. Y0 Z-4.345 I0 J-.75 F.667
N513 X19.75 Y-.75 Z-4.403 I.75 J0
N514 G01 X19.8 Z-4.406 F2.
N515 G03 X20.55 Y0 Z-4.464 I0 J.75 F.667
N516 X19.8 Y.75 Z-4.523 I-.75 J0
N517 G01 X19.75 Z-4.525 F2.
N518 G03 X19. Y0 Z-4.584 I0 J-.75 F.667
N519 X19.75 Y-.75 Z-4.642 I.75 J0
N520 G01 X19.8 Z-4.645 F2.
N521 G03 X20.55 Y0 Z-4.703 I0 J.75 F.667
N522 X19.8 Y.75 Z-4.761 I-.75 J0
N523 G01 X19.75 Z-4.764 F2.
N524 G03 X19. Y0 Z-4.822 I0 J-.75 F.667
N525 X19.75 Y-.75 Z-4.881 I.75 J0
N526 G01 X19.8 Z-4.883 F2.
N527 G03 X20.55 Y0 Z-4.942 I0 J.75 F.667
N528 X19.8 Y.75 Z-5. I-.75 J0
N529 G01 X19.75 F2.
N530 G03 X19. Y0 I0 J-.75 F.667
N531 X19.75 Y-.75 I.75 J0
N532 G01 X19.8 F2.
N533 G03 X20.55 Y0 I0 J.75 F.667
N534 X19.8 Y.75 I-.75 J0
N535 X19.425 Y.375 Z-4.76 I0 J-.375 F500.
N536 G01 X19.4 Z-4.75
N537 X19.375 Z-4.76
N538 G03 X19. Y0 Z-5. I0 J-.375 F2.
N539 X20.04 Y-.763 I.8 J0 F.696
N540 X20.6 Y0 I-.24 J.763 F173.913
N541 X20.498 Y.257 I-.375 J0 F100.
N542 X20.225 Y.375 Z-4.909 I-.273 J-.257 F500.
N543 G01 X19.69 Y.314 Z-4.75
N544 X19.267 Y.267 Z-4.876
N545 G03 X19. Y0 Z-5. I0 J-.267
N546 G02 X18.996 Y-.369 I-19.137 J0
N547 X18.986 Y-.738 I-18.602 J.359
N548 G03 X19.754 Y-1.569 I.799 J-.031 F173.914
N549 X20.585 Y-.799 I.031 J.799
N550 X20.596 Y-.4 I-22.806 J.856 F469.164
N551 X20.6 Y0 I-19.977 J.4 F465.085
N552 X20.182 Y.219 Z-4.865 I-.267 J0 F500.
N553 G01 X19.778 Y-.06 Z-4.75
N554 X19.1 Y-.529 Z-4.942
N555 G03 X18.986 Y-.738 Z-5. I.152 J-.219
N556 G02 X18.968 Y-1.099 I-18.749 J.734
N557 X18.944 Y-1.459 I-21.087 J1.232
N558 G03 X19.68 Y-2.317 I.798 J-.06 F173.912
N559 X20.539 Y-1.581 I.061 J.798
N560 X20.565 Y-1.192 I-18.613 J1.45 F462.814
N561 X20.584 Y-.802 I-23.485 J1.336 F470.028
N562 X20.177 Y-.564 Z-4.864 I-.266 J.011 F500.
N563 G01 X19.762 Y-.822 Z-4.75
N564 X19.069 Y-1.253 Z-4.941
N565 G03 X18.944 Y-1.459 Z-5. I.141 J-.226
N566 G02 X18.913 Y-1.819 I-21.01 J1.648
N567 X18.875 Y-2.179 I-18.787 J1.798
N568 G03 X19.578 Y-3.065 I.795 J-.091 F173.913
N569 X20.464 Y-2.363 I.092 J.795
N570 X20.505 Y-1.972 I-19.531 J2.261 F464.559
N571 X20.539 Y-1.581 I-22.236 J2.126 F468.537
N572 X20.141 Y-1.329 Z-4.865 I-.266 J.021 F500.
N573 G01 X19.717 Y-1.572 Z-4.75
N574 X19.007 Y-1.978 Z-4.942
N575 G03 X18.875 Y-2.179 Z-5. I.132 J-.231
N576 G02 X18.83 Y-2.54 I-18.607 J2.142
N577 X18.777 Y-2.9 I-18.294 J2.467
N578 G03 X19.446 Y-3.813 I.791 J-.122 F173.913
N579 X20.359 Y-3.144 I.122 J.791
N580 X20.415 Y-2.754 I-20.918 J3.221 F466.908
N581 X20.464 Y-2.363 I-20.695 J2.793 F466.491
N582 X20.075 Y-2.096 Z-4.865 I-.265 J.031 F500.
N583 G01 X19.642 Y-2.324 Z-4.75
N584 X18.917 Y-2.705 Z-4.942
N585 G03 X18.777 Y-2.9 Z-5. I.124 J-.236
N586 G02 X18.721 Y-3.247 I-19.469 J3.017
N587 X18.657 Y-3.592 I-18.685 J3.237
N588 G03 X19.292 Y-4.529 I.786 J-.151 F173.913
N589 X20.229 Y-3.894 I.151 J.786
N590 X20.297 Y-3.52 I-20.277 J3.906 F466.139
N591 X20.359 Y-3.144 I-19.641 J3.41 F465.01
N592 X19.984 Y-2.861 Z-4.865 I-.264 J.041 F500.
N593 G01 X19.542 Y-3.064 Z-4.75
N594 X18.808 Y-3.4 Z-4.94
N595 G03 X18.657 Y-3.592 Z-5. I.111 J-.242
N596 G02 X18.584 Y-3.955 I-18.469 J3.553
N597 X18.503 Y-4.317 I-18.641 J3.968
N598 G03 X19.101 Y-5.277 I.779 J-.182 F173.914
N599 X20.062 Y-4.679 I.181 J.779
N600 X20.149 Y-4.287 I-22.147 J5.135 F469.053
N601 X20.229 Y-3.894 I-19.724 J4.208 F465.387
N602 X19.859 Y-3.6 Z-4.865 I-.262 J.05 F500.
N603 G01 X19.41 Y-3.799 Z-4.75
N604 X18.655 Y-4.133 Z-4.942
N605 G03 X18.503 Y-4.317 Z-5. I.108 J-.244
N606 G02 X18.416 Y-4.676 I-18.577 J4.334
N607 X18.321 Y-5.035 I-18.217 J4.625
N608 G03 X18.88 Y-6.018 I.771 J-.212 F173.913
N609 X19.864 Y-5.459 I.212 J.771
N610 X19.966 Y-5.071 I-19.455 J5.344 F465.398
N611 X20.061 Y-4.681 I-22.035 J5.584 F469.049
N612 X19.703 Y-4.372 Z-4.864 I-.26 J.061 F500.
N613 G01 X19.247 Y-4.553 Z-4.75
N614 X18.48 Y-4.857 Z-4.942
N615 G03 X18.321 Y-5.035 Z-5. I.098 J-.248
N616 G02 X18.222 Y-5.381 I-17.906 J4.923
N617 X18.117 Y-5.725 I-20.341 J6.019
N618 G03 X18.638 Y-6.729 I.762 J-.242 F173.912
N619 X19.642 Y-6.207 I.241 J.763
N620 X19.757 Y-5.834 I-20.534 J6.478 F467.436
N621 X19.864 Y-5.459 I-19.307 J5.708 F465.331
N622 X19.521 Y-5.135 Z-4.865 I-.257 J.071 F500.
N623 G01 X19.059 Y-5.292 Z-4.75
N624 X18.286 Y-5.553 Z-4.941
N625 G03 X18.117 Y-5.725 Z-5. I.085 J-.253
N626 G02 X18.007 Y-6.062 I-20.555 J6.527
N627 X17.89 Y-6.398 I-16.942 J5.688
N628 G03 X18.374 Y-7.421 I.753 J-.27 F173.913
N629 X19.397 Y-6.936 I.269 J.753
N630 X19.523 Y-6.573 I-20.206 J7.219 F467.33
N631 X19.642 Y-6.207 I-18.595 J6.269 F464.495
N632 X19.314 Y-5.871 Z-4.865 I-.254 J.08 F500.
N633 G01 X18.846 Y-6.006 Z-4.75
N634 X18.067 Y-6.231 Z-4.941
N635 G03 X17.89 Y-6.398 Z-5. I.074 J-.256
N636 G02 X17.769 Y-6.727 I-18.278 J6.544
N637 X17.642 Y-7.054 I-17.991 J6.81
N638 G03 X18.088 Y-8.094 I.743 J-.297 F173.913
N639 X19.128 Y-7.648 I.297 J.743
N640 X19.266 Y-7.294 I-18.914 J7.568 F465.709
N641 X19.397 Y-6.936 I-18.892 J7.153 F465.439
N642 X19.083 Y-6.588 Z-4.865 I-.251 J.09 F500.
N643 G01 X18.61 Y-6.703 Z-4.75
N644 X17.826 Y-6.894 Z-4.94
N645 G03 X17.642 Y-7.054 Z-5. I.063 J-.259
N646 G02 X17.504 Y-7.391 I-17.54 J7.008
N647 X17.359 Y-7.725 I-16.868 J7.119
N648 G03 X17.764 Y-8.781 I.731 J-.326 F173.913
N649 X18.821 Y-8.375 I.325 J.731
N650 X18.977 Y-8.013 I-19.491 J8.661 F467.147
N651 X19.128 Y-7.648 I-19.091 J8.064 F466.254
N652 X18.822 Y-7.289 Z-4.865 I-.248 J.099 F500.
N653 G01 X18.344 Y-7.395 Z-4.75
N654 X17.545 Y-7.573 Z-4.942
N655 G03 X17.359 Y-7.725 Z-5. I.058 J-.26
N656 G02 X17.213 Y-8.044 I-18.155 J8.091
N657 X17.062 Y-8.361 I-17.038 J7.957
N658 G03 X17.428 Y-9.431 I.718 J-.352 F173.913
N659 X18.498 Y-9.065 I.352 J.718
N660 X18.663 Y-8.721 I-18.694 J9.162 F466.395
N661 X18.821 Y-8.375 I-17.918 J8.379 F464.756
N662 X18.533 Y-8.004 Z-4.865 I-.244 J.108 F500.
N663 G01 X18.054 Y-8.083 Z-4.75
N664 X17.258 Y-8.215 Z-4.94
N665 G03 X17.062 Y-8.361 Z-5. I.044 J-.263
N666 G02 X16.896 Y-8.691 I-17.062 J8.36
N667 X16.723 Y-9.018 I-16.708 J8.593
N668 G03 X17.048 Y-10.102 I.704 J-.38 F173.914
N669 X18.132 Y-9.777 I.379 J.704
N670 X18.319 Y-9.422 I-20.07 J10.789 F469.118
N671 X18.498 Y-9.065 I-17.83 J9.184 F465.208
N672 X18.219 Y-8.684 Z-4.865 I-.239 J.117 F500.
N673 G01 X17.734 Y-8.757 Z-4.75
N674 X16.918 Y-8.881 Z-4.942
N675 G03 X16.723 Y-9.018 Z-5. I.04 J-.264
N676 G02 X16.549 Y-9.333 I-16.375 J8.833
N677 X16.37 Y-9.645 I-18.457 J10.423
N678 G03 X16.652 Y-10.741 I.689 J-.407 F173.912
N679 X17.747 Y-10.459 I.407 J.689
N680 X17.943 Y-10.121 I-16.065 J9.487 F462.792
N681 X18.131 Y-9.779 I-20.507 J11.538 F470.036
N682 X17.87 Y-9.386 Z-4.864 I-.235 J.127 F500.
N683 G01 X17.385 Y-9.435 Z-4.75
N684 X16.573 Y-9.516 Z-4.941
N685 G03 X16.37 Y-9.645 Z-5. I.026 J-.265
N686 G02 X16.183 Y-9.956 I-18.111 J10.706
N687 X15.99 Y-10.262 I-16.147 J9.924
N688 G03 X16.231 Y-11.367 I.673 J-.432 F173.913
N689 X17.337 Y-11.127 I.432 J.673
N690 X17.545 Y-10.795 I-16.476 J10.583 F464.424
N691 X17.747 Y-10.459 I-19.076 J11.72 F468.605
N692 X17.501 Y-10.057 Z-4.865 I-.23 J.136 F500.
N693 G01 X17.013 Y-10.088 Z-4.75
N694 X16.198 Y-10.14 Z-4.941
N695 G03 X15.99 Y-10.262 Z-5. I.017 J-.266
N696 G02 X15.791 Y-10.567 I-15.677 J10.053
N697 X15.585 Y-10.867 I-15.43 J10.325
N698 G03 X15.784 Y-11.981 I.656 J-.458 F173.913
N699 X16.898 Y-11.782 I.458 J.656
N700 X17.12 Y-11.456 I-17.274 J12.034 F466.744
N701 X17.337 Y-11.127 I-17.446 J11.675 F466.655
N702 X17.105 Y-10.716 Z-4.865 I-.224 J.144 F500.
N703 G01 X16.616 Y-10.73 Z-4.75
N704 X15.797 Y-10.753 Z-4.942
N705 G03 X15.585 Y-10.867 Z-5. I.008 J-.267
N706 G02 X15.382 Y-11.153 I-16.059 J11.208
N707 X15.173 Y-11.435 I-15.443 J11.195
N708 G03 X15.331 Y-12.556 I.639 J-.481 F173.913
N709 X16.451 Y-12.398 I.481 J.639
N710 X16.677 Y-12.092 I-16.397 J12.362 F465.964
N711 X16.898 Y-11.782 I-16.224 J11.767 F465.185
N712 X16.686 Y-11.363 Z-4.865 I-.219 J.152 F500.
N713 G01 X16.2 Y-11.35 Z-4.75
N714 X15.393 Y-11.329 Z-4.94
N715 G03 X15.173 Y-11.435 Z-5. I-.007 J-.267
N716 G02 X14.947 Y-11.73 I-14.918 J11.239
N717 X14.715 Y-12.019 I-15.141 J11.885
N718 G03 X14.829 Y-13.145 I.62 J-.506 F173.914
N719 X15.955 Y-13.03 I.506 J.62
N720 X16.206 Y-12.717 I-17.6 J14.336 F469.008
N721 X16.451 Y-12.398 I-15.921 J12.506 F465.51
N722 X16.248 Y-11.971 Z-4.865 I-.213 J.161 F500.
N723 G01 X15.757 Y-11.953 Z-4.75
N724 X14.932 Y-11.921 Z-4.943
N725 G03 X14.715 Y-12.019 Z-5. I-.01 J-.266
N726 G02 X14.479 Y-12.303 I-14.631 J11.947
N727 X14.236 Y-12.583 I-14.423 J12.256
N728 G03 X14.306 Y-13.712 I.599 J-.53 F173.913
N729 X15.435 Y-13.642 I.53 J.599
N730 X15.697 Y-13.34 I-15.06 J13.309 F465.275
N731 X15.954 Y-13.032 I-17.357 J14.733 F469.094
N732 X15.769 Y-12.597 Z-4.864 I-.206 J.169 F500.
N733 G01 X15.279 Y-12.559 Z-4.75
N734 X14.457 Y-12.494 Z-4.942
N735 G03 X14.236 Y-12.583 Z-5. I-.021 J-.266
N736 G02 X13.99 Y-12.856 I-14.5 J12.818
N737 X13.738 Y-13.125 I-13.498 J12.398
N738 G03 X13.764 Y-14.257 I.578 J-.553 F173.914
N739 X14.895 Y-14.23 I.552 J.579
N740 X15.168 Y-13.939 I-16.562 J15.782 F469.234
N741 X15.435 Y-13.642 I-14.617 J13.45 F464.894
N742 X15.267 Y-13.201 Z-4.865 I-.2 J.177 F500.
N743 G01 X14.78 Y-13.143 Z-4.75
N744 X13.962 Y-13.045 Z-4.942
N745 G03 X13.738 Y-13.125 Z-5. I-.032 J-.265
N746 G02 X13.587 Y-13.281 I-14.569 J13.932
N747 X13.435 Y-13.435 I-13.341 J13.035
N748 G03 Y-14.566 I.566 J-.566 F173.913
N749 X14.566 I.566 J.566
N750 X14.731 Y-14.4 I-13.869 J13.869 F464.479
N751 X14.894 Y-14.232 I-17.622 J17.206 F471.296
N752 X14.886 Y-13.855 Z-4.75 I-.193 J.184 F500.
N753 G00 Z5.
N754 X20.225 Y-.375
N755 Z2.5
N756 G01 Z-2.5
N757 Z-4.75 F2.
N758 G03 X20.6 Y0 Z-5. I0 J.375
N759 X19.56 Y.763 I-.8 J0 F.696
N760 X19. Y0 I.24 J-.763 F173.913
N761 X19.375 Y-.375 Z-4.75 I.375 J0 F500.
N762 G00 Z25.
N763 X19.032 Y-7.883
N764 Z5.
N765 G01 Z-5. F2.
N766 G03 X20.6 Y0 I-19.032 J7.883 F500.
N767 X19. I-.8 J0
N768 G02 X13.435 Y-13.435 I-19. J0
N769 G03 X14.566 Y-14.566 I.566 J-.566
N770 X19.032 Y-7.883 I-14.566 J14.566
N771 X20.6 Y0 I-19.032 J7.883 F100.
N772 X19. I-.8 J0
N773 G02 X13.435 Y-13.435 I-19. J0
N774 G03 X14.566 Y-14.566 I.566 J-.566
N775 X20.6 Y0 I-14.566 J14.566
N776 X19. I-.8 J0
N777 G02 X13.435 Y-13.435 I-19. J0
N778 G03 X14.566 Y-14.566 I.566 J-.566
N779 X19.032 Y-7.883 I-14.566 J14.566
N780 G00 Z5.
N781 Z25.
N782 X14.531 Y13.47
N783 Z2.5
N784 G01 Z.25 F2.
N785 X14.566 Y13.506 Z.248 F1.
N786 G03 Y14.566 Z.189 I-.53 J.53 F.333
N787 X13.506 Z.131 I-.53 J-.53
N788 G01 X13.47 Y14.531 Z.128 F1.
N789 G03 Y13.47 Z.07 I.53 J-.53 F.333
N790 X14.531 Z.011 I.53 J.53
N791 G01 X14.566 Y13.506 Z.009 F1.
N792 G03 Y14.566 Z-.05 I-.53 J.53 F.333
N793 X13.506 Z-.108 I-.53 J-.53
N794 G01 X13.47 Y14.531 Z-.11 F1.
N795 G03 Y13.47 Z-.169 I.53 J-.53 F.333
N796 X14.531 Z-.227 I.53 J.53
N797 G01 X14.566 Y13.506 Z-.23 F1.
N798 G03 Y14.566 Z-.288 I-.53 J.53 F.333
N799 X13.506 Z-.347 I-.53 J-.53
N800 G01 X13.47 Y14.531 Z-.349 F2.
N801 G03 Y13.47 Z-.407 I.53 J-.53 F.667
N802 X14.531 Z-.466 I.53 J.53
N803 G01 X14.566 Y13.506 Z-.468 F2.
N804 G03 Y14.566 Z-.527 I-.53 J.53 F.667
N805 X13.506 Z-.585 I-.53 J-.53
N806 G01 X13.47 Y14.531 Z-.588 F2.
N807 G03 Y13.47 Z-.646 I.53 J-.53 F.667
N808 X14.531 Z-.705 I.53 J.53
N809 G01 X14.566 Y13.506 Z-.707 F2.
N810 G03 Y14.566 Z-.765 I-.53 J.53 F.667
N811 X13.506 Z-.824 I-.53 J-.53
N812 G01 X13.47 Y14.531 Z-.826 F2.
N813 G03 Y13.47 Z-.885 I.53 J-.53 F.667
N814 X14.531 Z-.943 I.53 J.53
N815 G01 X14.566 Y13.506 Z-.946 F2.
N816 G03 Y14.566 Z-1.004 I-.53 J.53 F.667
N817 X13.506 Z-1.062 I-.53 J-.53
N818 G01 X13.47 Y14.531 Z-1.065 F2.
N819 G03 Y13.47 Z-1.123 I.53 J-.53 F.667
N820 X14.531 Z-1.182 I.53 J.53
N821 G01 X14.566 Y13.506 Z-1.184 F2.
N822 G03 Y14.566 Z-1.243 I-.53 J.53 F.667
N823 X13.506 Z-1.301 I-.53 J-.53
N824 G01 X13.47 Y14.531 Z-1.304 F2.
N825 G03 Y13.47 Z-1.362 I.53 J-.53 F.667
N826 X14.531 Z-1.42 I.53 J.53
N827 G01 X14.566 Y13.506 Z-1.423 F2.
N828 G03 Y14.566 Z-1.481 I-.53 J.53 F.667
N829 X13.506 Z-1.54 I-.53 J-.53
N830 G01 X13.47 Y14.531 Z-1.542 F2.
N831 G03 Y13.47 Z-1.601 I.53 J-.53 F.667
N832 X14.531 Z-1.659 I.53 J.53
N833 G01 X14.566 Y13.506 Z-1.662 F2.
N834 G03 Y14.566 Z-1.72 I-.53 J.53 F.667
N835 X13.506 Z-1.778 I-.53 J-.53
N836 G01 X13.47 Y14.531 Z-1.781 F2.
N837 G03 Y13.47 Z-1.839 I.53 J-.53 F.667
N838 X14.531 Z-1.898 I.53 J.53
N839 G01 X14.566 Y13.506 Z-1.9 F2.
N840 G03 Y14.566 Z-1.959 I-.53 J.53 F.667
N841 X13.506 Z-2.017 I-.53 J-.53
N842 G01 X13.47 Y14.531 Z-2.02 F2.
N843 G03 Y13.47 Z-2.078 I.53 J-.53 F.667
N844 X14.531 Z-2.136 I.53 J.53
N845 G01 X14.566 Y13.506 Z-2.139 F2.
N846 G03 Y14.566 Z-2.197 I-.53 J.53 F.667
N847 X13.506 Z-2.256 I-.53 J-.53
N848 G01 X13.47 Y14.531 Z-2.258 F2.
N849 G03 Y13.47 Z-2.317 I.53 J-.53 F.667
N850 X14.531 Z-2.375 I.53 J.53
N851 G01 X14.566 Y13.506 Z-2.377 F2.
N852 G03 Y14.566 Z-2.436 I-.53 J.53 F.667
N853 X13.506 Z-2.494 I-.53 J-.53
N854 G01 X13.47 Y14.531 Z-2.497 F2.
N855 G03 Y13.47 Z-2.555 I.53 J-.53 F.667
N856 X14.531 Z-2.614 I.53 J.53
N857 G01 X14.566 Y13.506 Z-2.616 F2.
N858 G03 Y14.566 Z-2.675 I-.53 J.53 F.667
N859 X13.506 Z-2.733 I-.53 J-.53
N860 G01 X13.47 Y14.531 Z-2.735 F2.
N861 G03 Y13.47 Z-2.794 I.53 J-.53 F.667
N862 X14.531 Z-2.852 I.53 J.53
N863 G01 X14.566 Y13.506 Z-2.855 F2.
N864 G03 Y14.566 Z-2.913 I-.53 J.53 F.667
N865 X13.506 Z-2.972 I-.53 J-.53
N866 G01 X13.47 Y14.531 Z-2.974 F2.
N867 G03 Y13.47 Z-3.032 I.53 J-.53 F.667
N868 X14.531 Z-3.091 I.53 J.53
N869 G01 X14.566 Y13.506 Z-3.093 F2.
N870 G03 Y14.566 Z-3.152 I-.53 J.53 F.667
N871 X13.506 Z-3.21 I-.53 J-.53
N872 G01 X13.47 Y14.531 Z-3.213 F2.
N873 G03 Y13.47 Z-3.271 I.53 J-.53 F.667
N874 X14.531 Z-3.33 I.53 J.53
N875 G01 X14.566 Y13.506 Z-3.332 F2.
N876 G03 Y14.566 Z-3.39 I-.53 J.53 F.667
N877 X13.506 Z-3.449 I-.53 J-.53
N878 G01 X13.47 Y14.531 Z-3.451 F2.
N879 G03 Y13.47 Z-3.51 I.53 J-.53 F.667
N880 X14.531 Z-3.568 I.53 J.53
N881 G01 X14.566 Y13.506 Z-3.571 F2.
N882 G03 Y14.566 Z-3.629 I-.53 J.53 F.667
N883 X13.506 Z-3.687 I-.53 J-.53
N884 G01 X13.47 Y14.531 Z-3.69 F2.
N885 G03 Y13.47 Z-3.748 I.53 J-.53 F.667
N886 X14.531 Z-3.807 I.53 J.53
N887 G01 X14.566 Y13.506 Z-3.809 F2.
N888 G03 Y14.566 Z-3.868 I-.53 J.53 F.667
N889 X13.506 Z-3.926 I-.53 J-.53
N890 G01 X13.47 Y14.531 Z-3.929 F2.
N891 G03 Y13.47 Z-3.987 I.53 J-.53 F.667
N892 X14.531 Z-4.045 I.53 J.53
N893 G01 X14.566 Y13.506 Z-4.048 F2.
N894 G03 Y14.566 Z-4.106 I-.53 J.53 F.667
N895 X13.506 Z-4.165 I-.53 J-.53
N896 G01 X13.47 Y14.531 Z-4.167 F2.
N897 G03 Y13.47 Z-4.226 I.53 J-.53 F.667
N898 X14.531 Z-4.284 I.53 J.53
N899 G01 X14.566 Y13.506 Z-4.287 F2.
N900 G03 Y14.566 Z-4.345 I-.53 J.53 F.667
N901 X13.506 Z-4.403 I-.53 J-.53
N902 G01 X13.47 Y14.531 Z-4.406 F2.
N903 G03 Y13.47 Z-4.464 I.53 J-.53 F.667
N904 X14.531 Z-4.523 I.53 J.53
N905 G01 X14.566 Y13.506 Z-4.525 F2.
N906 G03 Y14.566 Z-4.584 I-.53 J.53 F.667
N907 X13.506 Z-4.642 I-.53 J-.53
N908 G01 X13.47 Y14.531 Z-4.645 F2.
N909 G03 Y13.47 Z-4.703 I.53 J-.53 F.667
N910 X14.531 Z-4.761 I.53 J.53
N911 G01 X14.566 Y13.506 Z-4.764 F2.
N912 G03 Y14.566 Z-4.822 I-.53 J.53 F.667
N913 X13.506 Z-4.881 I-.53 J-.53
N914 G01 X13.47 Y14.531 Z-4.883 F2.
N915 G03 Y13.47 Z-4.942 I.53 J-.53 F.667
N916 X14.531 Z-5. I.53 J.53
N917 G01 X14.566 Y13.506 F2.
N918 G03 Y14.566 I-.53 J.53 F.667
N919 X13.506 I-.53 J-.53
N920 G01 X13.47 Y14.531 F2.
N921 G03 Y13.47 I.53 J-.53 F.667
N922 X14.531 I.53 J.53
N923 Y14.001 Z-4.76 I-.265 J.265 F500.
N924 G01 X14.549 Y14.018 Z-4.75
N925 X14.566 Y14.036 Z-4.76
N926 G03 Y14.566 Z-5. I-.265 J.265 F2.
N927 X13.292 Y14.371 I-.566 J-.566 F.696
N928 X13.435 Y13.435 I.709 J-.37 F173.913
N929 X13.683 Y13.326 I.265 J.265 F100.
N930 X13.965 Y13.435 Z-4.908 I.017 J.375 F500.
N931 G01 X14.299 Y13.854 Z-4.75
N932 X14.566 Y14.189 Z-4.876
N933 G03 Y14.566 Z-5. I-.189 J.189
N934 X14.281 Y14.846 I-14.129 J-14.129 F465.085
N935 X13.99 Y15.121 I-15.811 J-16.457 F469.164
N936 X12.859 Y15.078 I-.544 J-.587 F173.914
N937 X12.903 Y13.947 I.587 J-.544
N938 G02 X13.172 Y13.694 I-12.631 J-13.661 F500.
N939 X13.435 Y13.435 I-13.268 J-13.79
N940 G03 X13.888 Y13.586 Z-4.863 I.189 J.189
N941 G01 X13.956 Y14.073 Z-4.75
N942 X14.072 Y14.889 Z-4.94
N943 G03 X13.989 Y15.122 Z-5. I-.264 J.037
N944 X13.699 Y15.385 I-15.951 J-17.288 F470.028
N945 X13.405 Y15.642 I-12.43 J-13.929 F462.814
N946 X12.278 Y15.554 I-.52 J-.608 F173.912
N947 X12.364 Y14.427 I.607 J-.521
N948 G02 X12.636 Y14.189 I-13.768 J-16.02 F500.
N949 X12.903 Y13.947 I-12.471 J-14.019
N950 G03 X13.349 Y14.112 Z-4.864 I.181 J.196
N951 G01 X13.404 Y14.598 Z-4.75
N952 X13.497 Y15.409 Z-4.94
N953 G03 X13.405 Y15.642 Z-5. I-.265 J.03
N954 X13.105 Y15.894 I-14.521 J-16.974 F468.537
N955 X12.8 Y16.141 I-12.517 J-15.163 F464.559
N956 X11.676 Y16.011 I-.497 J-.627 F173.913
N957 X11.805 Y14.887 I.627 J-.497
N958 G02 X12.087 Y14.66 I-11.732 J-14.784 F500.
N959 X12.364 Y14.427 I-13.414 J-16.254
N960 G03 X12.803 Y14.61 Z-4.864 I.173 J.203
N961 G01 X12.839 Y15.098 Z-4.75
N962 X12.9 Y15.912 Z-4.94
N963 G03 X12.8 Y16.141 Z-5. I-.266 J.02
N964 X12.488 Y16.383 I-12.97 J-16.366 F466.491
N965 X12.172 Y16.619 I-12.829 J-16.833 F466.908
N966 X11.054 Y16.447 I-.473 J-.645 F173.913
N967 X11.227 Y15.328 I.645 J-.473
N968 G02 X11.518 Y15.111 I-10.901 J-14.898 F500.
N969 X11.805 Y14.887 I-11.356 J-14.895
N970 G03 X12.238 Y15.087 Z-4.863 I.166 J.209
N971 G01 X12.254 Y15.576 Z-4.75
N972 X12.281 Y16.395 Z-4.94
N973 G03 X12.172 Y16.619 Z-5. I-.267 J.009
N974 X11.863 Y16.841 I-11.786 J-16.077 F465.01
N975 X11.55 Y17.058 I-11.889 J-16.884 F466.139
N976 X10.439 Y16.844 I-.448 J-.662 F173.913
N977 X10.653 Y15.733 I.662 J-.449
N978 G02 X10.942 Y15.533 I-10.634 J-15.701 F500.
N979 X11.227 Y15.328 I-11.348 J-16.105
N980 G03 X11.651 Y15.54 Z-4.864 I.157 J.215
N981 G01 X11.657 Y16.027 Z-4.75
N982 X11.667 Y16.833 Z-4.938
N983 G03 X11.55 Y17.058 Z-5. I-.267 J.003
N984 X11.216 Y17.279 I-11.306 J-16.701 F465.387
N985 X10.877 Y17.494 I-12.368 J-19.077 F469.053
N986 X9.775 Y17.238 I-.423 J-.679 F173.914
N987 X10.031 Y16.136 I.679 J-.423
N988 G02 X10.344 Y15.937 I-10.063 J-16.186 F500.
N989 X10.653 Y15.733 I-10.238 J-15.776
N990 G03 X11.069 Y15.967 Z-4.863 I.15 J.221
N991 G01 X11.044 Y16.458 Z-4.75
N992 X11.001 Y17.282 Z-4.941
N993 G03 X10.875 Y17.495 Z-5. I-.266 J-.014
N994 X10.533 Y17.704 I-11.976 J-19.321 F469.049
N995 X10.186 Y17.906 I-10.325 J-17.333 F465.398
N996 X9.095 Y17.606 I-.396 J-.695 F173.913
N997 X9.395 Y16.515 I.695 J-.396
N998 G02 X9.715 Y16.328 I-9.291 J-16.338 F500.
N999 X10.031 Y16.136 I-9.755 J-16.393
N1000 G03 X10.438 Y16.386 Z-4.863 I.141 J.226
N1001 G01 X10.394 Y16.876 Z-4.75
N1002 X10.32 Y17.698 Z-4.941
N1003 G03 X10.186 Y17.906 Z-5. I-.266 J-.024
N1004 X9.845 Y18.095 I-9.957 J-17.498 F465.331
N1005 X9.5 Y18.279 I-10.284 J-18.917 F467.436
N1006 X8.421 Y17.938 I-.369 J-.71 F173.912
N1007 X8.763 Y16.859 I.71 J-.369
N1008 G02 X9.08 Y16.69 I-9.81 J-18.808 F500.
N1009 X9.395 Y16.515 I-8.866 J-16.317
N1010 G03 X9.792 Y16.777 Z-4.864 I.132 J.232
N1011 G01 X9.735 Y17.262 Z-4.75
N1012 X9.642 Y18.073 Z-4.94
N1013 G03 X9.5 Y18.279 Z-5. I-.265 J-.031
N1014 X9.157 Y18.453 I-9.059 J-17.408 F464.495
N1015 X8.811 Y18.621 I-9.53 J-19.225 F467.33
N1016 X7.745 Y18.24 I-.342 J-.723 F173.913
N1017 X8.127 Y17.174 I.723 J-.342
N1018 G02 X8.446 Y17.019 I-7.638 J-16.157 F500.
N1019 X8.763 Y16.859 I-9.603 J-19.31
N1020 G03 X9.149 Y17.134 Z-4.864 I.123 J.237
N1021 G01 X9.078 Y17.616 Z-4.75
N1022 X8.961 Y18.418 Z-4.939
N1023 G03 X8.811 Y18.621 Z-5. I-.264 J-.039
N1024 X8.465 Y18.78 I-8.646 J-18.257 F465.439
N1025 X8.117 Y18.933 I-8.371 J-18.573 F465.709
N1026 X7.067 Y18.513 I-.315 J-.735 F173.913
N1027 X7.486 Y17.463 I.735 J-.315
N1028 G02 X7.808 Y17.322 I-7.585 J-17.679 F500.
N1029 X8.127 Y17.174 I-7.979 J-17.699
N1030 G03 X8.503 Y17.463 Z-4.864 I.114 J.241
N1031 G01 X8.417 Y17.941 Z-4.75
N1032 X8.274 Y18.735 Z-4.938
N1033 G03 X8.117 Y18.933 Z-5. I-.262 J-.047
N1034 X7.753 Y19.085 I-8.161 J-19.05 F466.254
N1035 X7.386 Y19.23 I-8.025 J-19.762 F467.147
N1036 X6.352 Y18.771 I-.287 J-.747 F173.913
N1037 X6.812 Y17.737 I.747 J-.287
N1038 G02 X7.151 Y17.603 I-6.555 J-17.095 F500.
N1039 X7.486 Y17.463 I-7.111 J-17.499
N1040 G03 X7.851 Y17.769 Z-4.863 I.105 J.245
N1041 G01 X7.738 Y18.246 Z-4.75
N1042 X7.55 Y19.043 Z-4.94
N1043 G03 X7.386 Y19.23 Z-5. I-.26 J-.061
N1044 X7.03 Y19.364 I-7.102 J-18.462 F464.756
N1045 X6.671 Y19.49 I-7.099 J-19.57 F466.395
N1046 X5.655 Y18.992 I-.259 J-.757 F173.913
N1047 X6.152 Y17.976 I.757 J-.259
N1048 G02 X6.484 Y17.86 I-6.09 J-17.791 F500.
N1049 X6.812 Y17.737 I-6.787 J-18.681
N1050 G03 X7.166 Y18.052 Z-4.864 I.095 J.249
N1051 G01 X7.044 Y18.523 Z-4.75
N1052 X6.842 Y19.305 Z-4.938
N1053 G03 X6.671 Y19.49 Z-5. I-.258 J-.067
N1054 X6.291 Y19.616 I-6.494 J-18.976 F465.208
N1055 X5.908 Y19.735 I-6.946 J-21.702 F469.118
N1056 X4.911 Y19.198 I-.23 J-.766 F173.914
N1057 X5.448 Y18.202 I.766 J-.23
N1058 G02 X5.802 Y18.093 I-5.385 J-18. F500.
N1059 X6.152 Y17.976 I-5.803 J-18.092
N1060 G03 X6.492 Y18.311 Z-4.863 I.086 J.252
N1061 G01 X6.34 Y18.778 Z-4.75
N1062 X6.083 Y19.562 Z-4.941
N1063 G03 X5.906 Y19.735 Z-5. I-.253 J-.083
N1064 X5.531 Y19.844 I-6.717 J-22.551 F470.036
N1065 X5.154 Y19.945 I-5.029 J-17.966 F462.792
N1066 X4.18 Y19.37 I-.199 J-.775 F173.912
N1067 X4.755 Y18.395 I.775 J-.199
N1068 G02 X5.103 Y18.302 I-5.333 J-20.514 F500.
N1069 X5.448 Y18.202 I-4.986 J-17.925
N1070 G03 X5.776 Y18.547 Z-4.864 I.076 J.255
N1071 G01 X5.612 Y19.007 Z-4.75
N1072 X5.339 Y19.776 Z-4.939
N1073 G03 X5.154 Y19.945 Z-5. I-.251 J-.089
N1074 X4.773 Y20.039 I-5.582 J-21.682 F468.605
N1075 X4.391 Y20.127 I-4.549 J-19.046 F464.424
N1076 X3.439 Y19.515 I-.17 J-.782 F173.913
N1077 X4.05 Y18.563 I.782 J-.171
N1078 G02 X4.403 Y18.483 I-4.048 J-18.516 F500.
N1079 X4.755 Y18.395 I-4.885 J-20.464
N1080 G03 X5.069 Y18.753 Z-4.864 I.066 J.258
N1081 G01 X4.886 Y19.207 Z-4.75
N1082 X4.582 Y19.965 Z-4.94
N1083 G03 X4.391 Y20.127 Z-5. I-.247 J-.099
N1084 X4.005 Y20.207 I-4.467 J-20.511 F466.655
N1085 X3.617 Y20.28 I-4.093 J-20.651 F466.744
N1086 X2.689 Y19.633 I-.141 J-.788 F173.913
N1087 X3.336 Y18.705 I.788 J-.14
N1088 G02 X3.694 Y18.638 I-3.252 J-18.278 F500.
N1089 X4.05 Y18.563 I-3.621 J-18.268
N1090 G03 X4.35 Y18.933 Z-4.863 I.057 J.261
N1091 G01 X4.15 Y19.38 Z-4.75
N1092 X3.814 Y20.127 Z-4.94
N1093 G03 X3.617 Y20.28 Z-5. I-.243 J-.109
N1094 X3.242 Y20.343 I-3.527 J-19.729 F465.185
N1095 X2.866 Y20.4 I-3.23 J-20.28 F465.964
N1096 X1.962 Y19.719 I-.111 J-.792 F173.913
N1097 X2.643 Y18.815 I.792 J-.111
N1098 G02 X2.99 Y18.763 I-2.657 J-18.888 F500.
N1099 X3.336 Y18.705 I-3.084 J-19.339
N1100 G03 X3.624 Y19.082 Z-4.864 I.047 J.263
N1101 G01 X3.416 Y19.521 Z-4.75
N1102 X3.07 Y20.25 Z-4.938
N1103 G03 X2.866 Y20.4 Z-5. I-.241 J-.114
N1104 X2.467 Y20.452 I-2.813 J-20.049 F465.51
N1105 X2.068 Y20.496 I-2.707 J-22.538 F469.008
N1106 X1.191 Y19.781 I-.081 J-.796 F173.914
N1107 X1.907 Y18.904 I.796 J-.081
N1108 G02 X2.275 Y18.863 I-1.934 J-19.151 F500.
N1109 X2.643 Y18.815 I-2.234 J-18.544
N1110 G03 X2.913 Y19.209 Z-4.863 I.037 J.264
N1111 G01 X2.674 Y19.639 Z-4.75
N1112 X2.273 Y20.36 Z-4.941
N1113 G03 X2.066 Y20.496 Z-5. I-.233 J-.13
N1114 X1.667 Y20.532 I-2.254 J-22.655 F469.094
N1115 X1.268 Y20.561 I-1.638 J-20.032 F465.275
N1116 X.42 Y19.812 I-.049 J-.798 F173.913
N1117 X1.169 Y18.964 I.798 J-.049
N1118 G02 X1.538 Y18.938 I-1.163 J-18.891 F500.
N1119 X1.907 Y18.904 I-1.529 J-18.827
N1120 G03 X2.161 Y19.308 Z-4.863 I.027 J.265
N1121 G01 X1.907 Y19.728 Z-4.75
N1122 X1.479 Y20.433 Z-4.941
N1123 G03 X1.268 Y20.561 Z-5. I-.228 J-.138
N1124 X.869 Y20.582 I-1.224 J-19.826 F464.894
N1125 X.47 Y20.595 I-.951 J-22.858 F469.234
N1126 X-.349 Y19.813 I-.019 J-.8 F173.914
N1127 X.433 Y18.995 I.8 J-.019
N1128 G02 X.801 Y18.983 I-.41 J-18.323 F500.
N1129 X1.169 Y18.964 I-.821 J-19.335
N1130 G03 X1.408 Y19.377 Z-4.863 I.016 J.266
N1131 G01 X1.138 Y19.787 Z-4.75
N1132 X.685 Y20.475 Z-4.94
N1133 G03 X.468 Y20.595 Z-5. I-.223 J-.147
N1134 X.234 Y20.599 I-.528 J-24.623 F471.296
N1135 X0 Y20.6 I-.234 J-19.613 F464.479
N1136 X-.8 Y19.8 I0 J-.8 F173.913
N1137 X0 Y19. I.8 J0
N1138 G02 X.217 Y18.999 I0 J-18.652 F500.
N1139 X.433 Y18.995 I-.234 J-20.157
N1140 G03 X.706 Y19.256 Z-4.75 I.006 J.267
N1141 G00 Z5.
N1142 X13.435 Y13.965
N1143 Z2.5
N1144 G01 Z-2.5
N1145 Z-4.75 F2.
N1146 G03 Y13.435 Z-5. I.265 J-.265
N1147 X14.71 Y13.63 I.566 J.566 F.696
N1148 X14.566 Y14.566 I-.709 J.37 F173.913
N1149 X14.036 Z-4.75 I-.265 J-.265 F500.
N1150 G00 Z25.
N1151 X.75 Y-19.8
N1152 Z2.5
N1153 G01 Z.25 F2.
N1154 Y-19.75 Z.248 F1.
N1155 G03 X0 Y-19. Z.189 I-.75 J0 F.333
N1156 X-.75 Y-19.75 Z.131 I0 J-.75
N1157 G01 Y-19.8 Z.128 F1.
N1158 G03 X0 Y-20.55 Z.07 I.75 J0 F.333
N1159 X.75 Y-19.8 Z.011 I0 J.75
N1160 G01 Y-19.75 Z.009 F1.
N1161 G03 X0 Y-19. Z-.05 I-.75 J0 F.333
N1162 X-.75 Y-19.75 Z-.108 I0 J-.75
N1163 G01 Y-19.8 Z-.11 F1.
N1164 G03 X0 Y-20.55 Z-.169 I.75 J0 F.333
N1165 X.75 Y-19.8 Z-.227 I0 J.75
N1166 G01 Y-19.75 Z-.23 F1.
N1167 G03 X0 Y-19. Z-.288 I-.75 J0 F.333
N1168 X-.75 Y-19.75 Z-.347 I0 J-.75
N1169 G01 Y-19.8 Z-.349 F2.
N1170 G03 X0 Y-20.55 Z-.407 I.75 J0 F.667
N1171 X.75 Y-19.8 Z-.466 I0 J.75
N1172 G01 Y-19.75 Z-.468 F2.
N1173 G03 X0 Y-19. Z-.527 I-.75 J0 F.667
N1174 X-.75 Y-19.75 Z-.585 I0 J-.75
N1175 G01 Y-19.8 Z-.588 F2.
N1176 G03 X0 Y-20.55 Z-.646 I.75 J0 F.667
N1177 X.75 Y-19.8 Z-.705 I0 J.75
N1178 G01 Y-19.75 Z-.707 F2.
N1179 G03 X0 Y-19. Z-.765 I-.75 J0 F.667
N1180 X-.75 Y-19.75 Z-.824 I0 J-.75
N1181 G01 Y-19.8 Z-.826 F2.
N1182 G03 X0 Y-20.55 Z-.885 I.75 J0 F.667
N1183 X.75 Y-19.8 Z-.943 I0 J.75
N1184 G01 Y-19.75 Z-.946 F2.
N1185 G03 X0 Y-19. Z-1.004 I-.75 J0 F.667
N1186 X-.75 Y-19.75 Z-1.062 I0 J-.75
N1187 G01 Y-19.8 Z-1.065 F2.
N1188 G03 X0 Y-20.55 Z-1.123 I.75 J0 F.667
N1189 X.75 Y-19.8 Z-1.182 I0 J.75
N1190 G01 Y-19.75 Z-1.184 F2.
N1191 G03 X0 Y-19. Z-1.243 I-.75 J0 F.667
N1192 X-.75 Y-19.75 Z-1.301 I0 J-.75
N1193 G01 Y-19.8 Z-1.304 F2.
N1194 G03 X0 Y-20.55 Z-1.362 I.75 J0 F.667
N1195 X.75 Y-19.8 Z-1.42 I0 J.75
N1196 G01 Y-19.75 Z-1.423 F2.
N1197 G03 X0 Y-19. Z-1.481 I-.75 J0 F.667
N1198 X-.75 Y-19.75 Z-1.54 I0 J-.75
N1199 G01 Y-19.8 Z-1.542 F2.
N1200 G03 X0 Y-20.55 Z-1.601 I.75 J0 F.667
N1201 X.75 Y-19.8 Z-1.659 I0 J.75
N1202 G01 Y-19.75 Z-1.662 F2.
N1203 G03 X0 Y-19. Z-1.72 I-.75 J0 F.667
N1204 X-.75 Y-19.75 Z-1.778 I0 J-.75
N1205 G01 Y-19.8 Z-1.781 F2.
N1206 G03 X0 Y-20.55 Z-1.839 I.75 J0 F.667
N1207 X.75 Y-19.8 Z-1.898 I0 J.75
N1208 G01 Y-19.75 Z-1.9 F2.
N1209 G03 X0 Y-19. Z-1.959 I-.75 J0 F.667
N1210 X-.75 Y-19.75 Z-2.017 I0 J-.75
N1211 G01 Y-19.8 Z-2.02 F2.
N1212 G03 X0 Y-20.55 Z-2.078 I.75 J0 F.667
N1213 X.75 Y-19.8 Z-2.136 I0 J.75
N1214 G01 Y-19.75 Z-2.139 F2.
N1215 G03 X0 Y-19. Z-2.197 I-.75 J0 F.667
N1216 X-.75 Y-19.75 Z-2.256 I0 J-.75
N1217 G01 Y-19.8 Z-2.258 F2.
N1218 G03 X0 Y-20.55 Z-2.317 I.75 J0 F.667
N1219 X.75 Y-19.8 Z-2.375 I0 J.75
N1220 G01 Y-19.75 Z-2.377 F2.
N1221 G03 X0 Y-19. Z-2.436 I-.75 J0 F.667
N1222 X-.75 Y-19.75 Z-2.494 I0 J-.75
N1223 G01 Y-19.8 Z-2.497 F2.
N1224 G03 X0 Y-20.55 Z-2.555 I.75 J0 F.667
N1225 X.75 Y-19.8 Z-2.614 I0 J.75
N1226 G01 Y-19.75 Z-2.616 F2.
N1227 G03 X0 Y-19. Z-2.675 I-.75 J0 F.667
N1228 X-.75 Y-19.75 Z-2.733 I0 J-.75
N1229 G01 Y-19.8 Z-2.735 F2.
N1230 G03 X0 Y-20.55 Z-2.794 I.75 J0 F.667
N1231 X.75 Y-19.8 Z-2.852 I0 J.75
N1232 G01 Y-19.75 Z-2.855 F2.
N1233 G03 X0 Y-19. Z-2.913 I-.75 J0 F.667
N1234 X-.75 Y-19.75 Z-2.972 I0 J-.75
N1235 G01 Y-19.8 Z-2.974 F2.
N1236 G03 X0 Y-20.55 Z-3.032 I.75 J0 F.667
N1237 X.75 Y-19.8 Z-3.091 I0 J.75
N1238 G01 Y-19.75 Z-3.093 F2.
N1239 G03 X0 Y-19. Z-3.152 I-.75 J0 F.667
N1240 X-.75 Y-19.75 Z-3.21 I0 J-.75
N1241 G01 Y-19.8 Z-3.213 F2.
N1242 G03 X0 Y-20.55 Z-3.271 I.75 J0 F.667
N1243 X.75 Y-19.8 Z-3.33 I0 J.75
N1244 G01 Y-19.75 Z-3.332 F2.
N1245 G03 X0 Y-19. Z-3.39 I-.75 J0 F.667
N1246 X-.75 Y-19.75 Z-3.449 I0 J-.75
N1247 G01 Y-19.8 Z-3.451 F2.
N1248 G03 X0 Y-20.55 Z-3.51 I.75 J0 F.667
N1249 X.75 Y-19.8 Z-3.568 I0 J.75
N1250 G01 Y-19.75 Z-3.571 F2.
N1251 G03 X0 Y-19. Z-3.629 I-.75 J0 F.667
N1252 X-.75 Y-19.75 Z-3.687 I0 J-.75
N1253 G01 Y-19.8 Z-3.69 F2.
N1254 G03 X0 Y-20.55 Z-3.748 I.75 J0 F.667
N1255 X.75 Y-19.8 Z-3.807 I0 J.75
N1256 G01 Y-19.75 Z-3.809 F2.
N1257 G03 X0 Y-19. Z-3.868 I-.75 J0 F.667
N1258 X-.75 Y-19.75 Z-3.926 I0 J-.75
N1259 G01 Y-19.8 Z-3.929 F2.
N1260 G03 X0 Y-20.55 Z-3.987 I.75 J0 F.667
N1261 X.75 Y-19.8 Z-4.045 I0 J.75
N1262 G01 Y-19.75 Z-4.048 F2.
N1263 G03 X0 Y-19. Z-4.106 I-.75 J0 F.667
N1264 X-.75 Y-19.75 Z-4.165 I0 J-.75
N1265 G01 Y-19.8 Z-4.167 F2.
N1266 G03 X0 Y-20.55 Z-4.226 I.75 J0 F.667
N1267 X.75 Y-19.8 Z-4.284 I0 J.75
N1268 G01 Y-19.75 Z-4.287 F2.
N1269 G03 X0 Y-19. Z-4.345 I-.75 J0 F.667
N1270 X-.75 Y-19.75 Z-4.403 I0 J-.75
N1271 G01 Y-19.8 Z-4.406 F2.
N1272 G03 X0 Y-20.55 Z-4.464 I.75 J0 F.667
N1273 X.75 Y-19.8 Z-4.523 I0 J.75
N1274 G01 Y-19.75 Z-4.525 F2.
N1275 G03 X0 Y-19. Z-4.584 I-.75 J0 F.667
N1276 X-.75 Y-19.75 Z-4.642 I0 J-.75
N1277 G01 Y-19.8 Z-4.645 F2.
N1278 G03 X0 Y-20.55 Z-4.703 I.75 J0 F.667
N1279 X.75 Y-19.8 Z-4.761 I0 J.75
N1280 G01 Y-19.75 Z-4.764 F2.
N1281 G03 X0 Y-19. Z-4.822 I-.75 J0 F.667
N1282 X-.75 Y-19.75 Z-4.881 I0 J-.75
N1283 G01 Y-19.8 Z-4.883 F2.
N1284 G03 X0 Y-20.55 Z-4.942 I.75 J0 F.667
N1285 X.75 Y-19.8 Z-5. I0 J.75
N1286 G01 Y-19.75 F2.
N1287 G03 X0 Y-19. I-.75 J0 F.667
N1288 X-.75 Y-19.75 I0 J-.75
N1289 G01 Y-19.8 F2.
N1290 G03 X0 Y-20.55 I.75 J0 F.667
N1291 X.75 Y-19.8 I0 J.75
N1292 X.375 Y-19.425 Z-4.76 I-.375 J0 F500.
N1293 G01 Y-19.4 Z-4.75
N1294 Y-19.375 Z-4.76
N1295 G03 X0 Y-19. Z-5. I-.375 J0 F2.
N1296 X-.763 Y-20.04 I0 J-.8 F.696
N1297 X0 Y-20.6 I.763 J.24 F173.913
N1298 X.253 Y-20.502 I0 J.375 F100.
N1299 X.375 Y-20.225 Z-4.908 I-.253 J.277 F500.
N1300 G01 X.315 Y-19.693 Z-4.75
N1301 X.267 Y-19.267 Z-4.876
N1302 G03 X0 Y-19. Z-5. I-.267 J0
N1303 G02 X-.369 Y-18.996 I0 J19.137
N1304 X-.738 Y-18.986 I.359 J18.602
N1305 G03 X-1.569 Y-19.754 I-.031 J-.799 F173.914
N1306 X-.799 Y-20.585 I.799 J-.031
N1307 X-.4 Y-20.596 I.856 J22.806 F469.164
N1308 X0 Y-20.6 I.4 J19.977 F465.085
N1309 X.219 Y-20.182 Z-4.865 I0 J.267 F500.
N1310 G01 X-.06 Y-19.778 Z-4.75
N1311 X-.529 Y-19.1 Z-4.942
N1312 G03 X-.738 Y-18.986 Z-5. I-.219 J-.152
N1313 G02 X-1.099 Y-18.968 I.734 J18.749
N1314 X-1.459 Y-18.944 I1.232 J21.087
N1315 G03 X-2.317 Y-19.68 I-.06 J-.798 F173.912
N1316 X-1.581 Y-20.539 I.798 J-.061
N1317 X-1.192 Y-20.565 I1.45 J18.613 F462.814
N1318 X-.802 Y-20.584 I1.336 J23.485 F470.028
N1319 X-.564 Y-20.177 Z-4.864 I.011 J.266 F500.
N1320 G01 X-.822 Y-19.762 Z-4.75
N1321 X-1.253 Y-19.069 Z-4.941
N1322 G03 X-1.459 Y-18.944 Z-5. I-.226 J-.141
N1323 G02 X-1.819 Y-18.913 I1.648 J21.01
N1324 X-2.179 Y-18.875 I1.798 J18.787
N1325 G03 X-3.065 Y-19.578 I-.091 J-.795 F173.913
N1326 X-2.363 Y-20.464 I.795 J-.092
N1327 X-1.972 Y-20.505 I2.261 J19.531 F464.559
N1328 X-1.581 Y-20.539 I2.126 J22.236 F468.537
N1329 X-1.329 Y-20.141 Z-4.865 I.021 J.266 F500.
N1330 G01 X-1.572 Y-19.717 Z-4.75
N1331 X-1.978 Y-19.007 Z-4.942
N1332 G03 X-2.179 Y-18.875 Z-5. I-.231 J-.132
N1333 G02 X-2.54 Y-18.83 I2.142 J18.607
N1334 X-2.9 Y-18.777 I2.467 J18.294
N1335 G03 X-3.813 Y-19.446 I-.122 J-.791 F173.913
N1336 X-3.144 Y-20.359 I.791 J-.122
N1337 X-2.754 Y-20.415 I3.221 J20.918 F466.908
N1338 X-2.363 Y-20.464 I2.793 J20.695 F466.491
N1339 X-2.096 Y-20.075 Z-4.865 I.031 J.265 F500.
N1340 G01 X-2.324 Y-19.642 Z-4.75
N1341 X-2.705 Y-18.917 Z-4.942
N1342 G03 X-2.9 Y-18.777 Z-5. I-.236 J-.124
N1343 G02 X-3.247 Y-18.721 I3.017 J19.469
N1344 X-3.592 Y-18.657 I3.237 J18.685
N1345 G03 X-4.529 Y-19.292 I-.151 J-.786 F173.913
N1346 X-3.894 Y-20.229 I.786 J-.151
N1347 X-3.52 Y-20.297 I3.906 J20.277 F466.139
N1348 X-3.144 Y-20.359 I3.41 J19.641 F465.01
N1349 X-2.861 Y-19.984 Z-4.865 I.041 J.264 F500.
N1350 G01 X-3.064 Y-19.542 Z-4.75
N1351 X-3.4 Y-18.808 Z-4.94
N1352 G03 X-3.592 Y-18.657 Z-5. I-.242 J-.111
N1353 G02 X-3.955 Y-18.584 I3.553 J18.469
N1354 X-4.317 Y-18.503 I3.968 J18.641
N1355 G03 X-5.277 Y-19.101 I-.182 J-.779 F173.914
N1356 X-4.679 Y-20.062 I.779 J-.181
N1357 X-4.287 Y-20.149 I5.135 J22.147 F469.053
N1358 X-3.894 Y-20.229 I4.208 J19.724 F465.387
N1359 X-3.6 Y-19.859 Z-4.865 I.05 J.262 F500.
N1360 G01 X-3.799 Y-19.41 Z-4.75
N1361 X-4.133 Y-18.655 Z-4.942
N1362 G03 X-4.317 Y-18.503 Z-5. I-.244 J-.108
N1363 G02 X-4.676 Y-18.416 I4.334 J18.577
N1364 X-5.035 Y-18.321 I4.625 J18.217
N1365 G03 X-6.018 Y-18.88 I-.212 J-.771 F173.913
N1366 X-5.459 Y-19.864 I.771 J-.212
N1367 X-5.071 Y-19.966 I5.344 J19.455 F465.398
N1368 X-4.681 Y-20.061 I5.584 J22.035 F469.049
N1369 X-4.372 Y-19.703 Z-4.864 I.061 J.26 F500.
N1370 G01 X-4.553 Y-19.247 Z-4.75
N1371 X-4.857 Y-18.48 Z-4.942
N1372 G03 X-5.035 Y-18.321 Z-5. I-.248 J-.098
N1373 G02 X-5.381 Y-18.222 I4.923 J17.906
N1374 X-5.725 Y-18.117 I6.019 J20.341
N1375 G03 X-6.729 Y-18.638 I-.242 J-.762 F173.912
N1376 X-6.207 Y-19.642 I.763 J-.241
N1377 X-5.834 Y-19.757 I6.478 J20.534 F467.436
N1378 X-5.459 Y-19.864 I5.708 J19.307 F465.331
N1379 X-5.135 Y-19.521 Z-4.865 I.071 J.257 F500.
N1380 G01 X-5.292 Y-19.059 Z-4.75
N1381 X-5.553 Y-18.286 Z-4.941
N1382 G03 X-5.725 Y-18.117 Z-5. I-.253 J-.085
N1383 G02 X-6.062 Y-18.007 I6.527 J20.555
N1384 X-6.398 Y-17.89 I5.688 J16.942
N1385 G03 X-7.421 Y-18.374 I-.27 J-.753 F173.913
N1386 X-6.936 Y-19.397 I.753 J-.269
N1387 X-6.573 Y-19.523 I7.219 J20.206 F467.33
N1388 X-6.207 Y-19.642 I6.269 J18.595 F464.495
N1389 X-5.871 Y-19.314 Z-4.865 I.08 J.254 F500.
N1390 G01 X-6.006 Y-18.846 Z-4.75
N1391 X-6.231 Y-18.067 Z-4.941
N1392 G03 X-6.398 Y-17.89 Z-5. I-.256 J-.074
N1393 G02 X-6.727 Y-17.769 I6.544 J18.278
N1394 X-7.054 Y-17.642 I6.81 J17.991
N1395 G03 X-8.094 Y-18.088 I-.297 J-.743 F173.913
N1396 X-7.648 Y-19.128 I.743 J-.297
N1397 X-7.294 Y-19.266 I7.568 J18.914 F465.709
N1398 X-6.936 Y-19.397 I7.153 J18.892 F465.439
N1399 X-6.588 Y-19.083 Z-4.865 I.09 J.251 F500.
N1400 G01 X-6.703 Y-18.61 Z-4.75
N1401 X-6.894 Y-17.826 Z-4.94
N1402 G03 X-7.054 Y-17.642 Z-5. I-.259 J-.063
N1403 G02 X-7.391 Y-17.504 I7.008 J17.54
N1404 X-7.725 Y-17.359 I7.119 J16.868
N1405 G03 X-8.781 Y-17.764 I-.326 J-.731 F173.913
N1406 X-8.375 Y-18.821 I.731 J-.325
N1407 X-8.013 Y-18.977 I8.661 J19.491 F467.147
N1408 X-7.648 Y-19.128 I8.064 J19.091 F466.254
N1409 X-7.289 Y-18.822 Z-4.865 I.099 J.248 F500.
N1410 G01 X-7.395 Y-18.344 Z-4.75
N1411 X-7.573 Y-17.545 Z-4.942
N1412 G03 X-7.725 Y-17.359 Z-5. I-.26 J-.058
N1413 G02 X-8.044 Y-17.213 I8.091 J18.155
N1414 X-8.361 Y-17.062 I7.957 J17.038
N1415 G03 X-9.431 Y-17.428 I-.352 J-.718 F173.913
N1416 X-9.065 Y-18.498 I.718 J-.352
N1417 X-8.721 Y-18.663 I9.162 J18.694 F466.395
N1418 X-8.375 Y-18.821 I8.379 J17.918 F464.756
N1419 X-8.004 Y-18.533 Z-4.865 I.108 J.244 F500.
N1420 G01 X-8.083 Y-18.054 Z-4.75
N1421 X-8.215 Y-17.258 Z-4.94
N1422 G03 X-8.361 Y-17.062 Z-5. I-.263 J-.044
N1423 G02 X-8.691 Y-16.896 I8.36 J17.062
N1424 X-9.018 Y-16.723 I8.593 J16.708
N1425 G03 X-10.102 Y-17.048 I-.38 J-.704 F173.914
N1426 X-9.777 Y-18.132 I.704 J-.379
N1427 X-9.422 Y-18.319 I10.789 J20.07 F469.118
N1428 X-9.065 Y-18.498 I9.184 J17.83 F465.208
N1429 X-8.684 Y-18.219 Z-4.865 I.117 J.239 F500.
N1430 G01 X-8.757 Y-17.734 Z-4.75
N1431 X-8.881 Y-16.918 Z-4.942
N1432 G03 X-9.018 Y-16.723 Z-5. I-.264 J-.04
N1433 G02 X-9.333 Y-16.549 I8.833 J16.375
N1434 X-9.645 Y-16.37 I10.423 J18.457
N1435 G03 X-10.741 Y-16.652 I-.407 J-.689 F173.912
N1436 X-10.459 Y-17.747 I.689 J-.407
N1437 X-10.121 Y-17.943 I9.487 J16.065 F462.792
N1438 X-9.779 Y-18.131 I11.538 J20.507 F470.036
N1439 X-9.386 Y-17.87 Z-4.864 I.127 J.235 F500.
N1440 G01 X-9.435 Y-17.385 Z-4.75
N1441 X-9.516 Y-16.573 Z-4.941
N1442 G03 X-9.645 Y-16.37 Z-5. I-.265 J-.026
N1443 G02 X-9.956 Y-16.183 I10.706 J18.111
N1444 X-10.262 Y-15.99 I9.924 J16.147
N1445 G03 X-11.367 Y-16.231 I-.432 J-.673 F173.913
N1446 X-11.127 Y-17.337 I.673 J-.432
N1447 X-10.795 Y-17.545 I10.583 J16.476 F464.424
N1448 X-10.459 Y-17.747 I11.72 J19.076 F468.605
N1449 X-10.057 Y-17.501 Z-4.865 I.136 J.23 F500.
N1450 G01 X-10.088 Y-17.013 Z-4.75
N1451 X-10.14 Y-16.198 Z-4.941
N1452 G03 X-10.262 Y-15.99 Z-5. I-.266 J-.017
N1453 G02 X-10.567 Y-15.791 I10.053 J15.677
N1454 X-10.867 Y-15.585 I10.325 J15.43
N1455 G03 X-11.981 Y-15.784 I-.458 J-.656 F173.913
N1456 X-11.782 Y-16.898 I.656 J-.458
N1457 X-11.456 Y-17.12 I12.034 J17.274 F466.744
N1458 X-11.127 Y-17.337 I11.675 J17.446 F466.655
N1459 X-10.716 Y-17.105 Z-4.865 I.144 J.224 F500.
N1460 G01 X-10.73 Y-16.616 Z-4.75
N1461 X-10.753 Y-15.797 Z-4.942
N1462 G03 X-10.867 Y-15.585 Z-5. I-.267 J-.008
N1463 G02 X-11.153 Y-15.382 I11.208 J16.059
N1464 X-11.435 Y-15.173 I11.195 J15.443
N1465 G03 X-12.556 Y-15.331 I-.481 J-.639 F173.913
N1466 X-12.398 Y-16.451 I.639 J-.481
N1467 X-12.092 Y-16.677 I12.362 J16.397 F465.964
N1468 X-11.782 Y-16.898 I11.767 J16.224 F465.185
N1469 X-11.363 Y-16.686 Z-4.865 I.152 J.219 F500.
N1470 G01 X-11.35 Y-16.2 Z-4.75
N1471 X-11.329 Y-15.393 Z-4.94
N1472 G03 X-11.435 Y-15.173 Z-5. I-.267 J.007
N1473 G02 X-11.73 Y-14.947 I11.239 J14.918
N1474 X-12.019 Y-14.715 I11.885 J15.141
N1475 G03 X-13.145 Y-14.829 I-.506 J-.62 F173.914
N1476 X-13.03 Y-15.955 I.62 J-.506
N1477 X-12.717 Y-16.206 I14.336 J17.6 F469.008
N1478 X-12.398 Y-16.451 I12.506 J15.921 F465.51
N1479 X-11.971 Y-16.248 Z-4.865 I.161 J.213 F500.
N1480 G01 X-11.953 Y-15.757 Z-4.75
N1481 X-11.921 Y-14.932 Z-4.943
N1482 G03 X-12.019 Y-14.715 Z-5. I-.266 J.01
N1483 G02 X-12.303 Y-14.479 I11.947 J14.631
N1484 X-12.583 Y-14.236 I12.256 J14.423
N1485 G03 X-13.712 Y-14.306 I-.53 J-.599 F173.913
N1486 X-13.642 Y-15.435 I.599 J-.53
N1487 X-13.34 Y-15.697 I13.309 J15.06 F465.275
N1488 X-13.032 Y-15.954 I14.733 J17.357 F469.094
N1489 X-12.597 Y-15.769 Z-4.864 I.169 J.206 F500.
N1490 G01 X-12.559 Y-15.279 Z-4.75
N1491 X-12.494 Y-14.457 Z-4.942
N1492 G03 X-12.583 Y-14.236 Z-5. I-.266 J.021
N1493 G02 X-12.856 Y-13.99 I12.818 J14.5
N1494 X-13.125 Y-13.738 I12.398 J13.498
N1495 G03 X-14.257 Y-13.764 I-.553 J-.578 F173.914
N1496 X-14.23 Y-14.895 I.579 J-.552
N1497 X-13.939 Y-15.168 I15.782 J16.562 F469.234
N1498 X-13.642 Y-15.435 I13.45 J14.617 F464.894
N1499 X-13.201 Y-15.267 Z-4.865 I.177 J.2 F500.
N1500 G01 X-13.143 Y-14.78 Z-4.75
N1501 X-13.045 Y-13.962 Z-4.942
N1502 G03 X-13.125 Y-13.738 Z-5. I-.265 J.032
N1503 G02 X-13.281 Y-13.587 I13.932 J14.569
N1504 X-13.435 Y-13.435 I13.035 J13.341
N1505 G03 X-14.566 I-.566 J-.566 F173.913
N1506 Y-14.566 I.566 J-.566
N1507 X-14.4 Y-14.731 I13.869 J13.869 F464.479
N1508 X-14.232 Y-14.894 I17.206 J17.622 F471.296
N1509 X-13.855 Y-14.886 Z-4.75 I.184 J.193 F500.
N1510 G00 Z5.
N1511 X-.375 Y-20.225
N1512 Z2.5
N1513 G01 Z-2.5
N1514 Z-4.75 F2.
N1515 G03 X0 Y-20.6 Z-5. I.375 J0
N1516 X.763 Y-19.56 I0 J.8 F.696
N1517 X0 Y-19. I-.763 J-.24 F173.913
N1518 X-.375 Y-19.375 Z-4.75 I0 J-.375 F500.
N1519 G00 Z25.
N1520 X7.883 Y19.032
N1521 Z5.
N1522 G01 Z-5. F2.
N1523 G03 X0 Y20.6 I-7.883 J-19.032 F500.
N1524 Y19. I0 J-.8
N1525 G02 X13.435 Y13.435 I0 J-19.
N1526 G03 X14.566 Y14.566 I.566 J.566
N1527 X7.883 Y19.032 I-14.566 J-14.566
N1528 X0 Y20.6 I-7.883 J-19.032 F100.
N1529 Y19. I0 J-.8
N1530 G02 X13.435 Y13.435 I0 J-19.
N1531 G03 X14.566 Y14.566 I.566 J.566
N1532 X0 Y20.6 I-14.566 J-14.566
N1533 Y19. I0 J-.8
N1534 G02 X13.435 Y13.435 I0 J-19.
N1535 G03 X14.566 Y14.566 I.566 J.566
N1536 X7.883 Y19.032 I-14.566 J-14.566
N1537 G00 Z5.
N1538 Z25.
N1539 X-7.883 Y-19.032
N1540 Z5.
N1541 G01 Z-5. F2.
N1542 G03 X0 Y-20.6 I7.883 J19.032 F500.
N1543 Y-19. I0 J.8
N1544 G02 X-13.435 Y-13.435 I0 J19.
N1545 G03 X-14.566 Y-14.566 I-.566 J-.566
N1546 X-7.883 Y-19.032 I14.566 J14.566
N1547 X0 Y-20.6 I7.883 J19.032 F100.
N1548 Y-19. I0 J.8
N1549 G02 X-13.435 Y-13.435 I0 J19.
N1550 G03 X-14.566 Y-14.566 I-.566 J-.566
N1551 X0 Y-20.6 I14.566 J14.566
N1552 Y-19. I0 J.8
N1553 G02 X-13.435 Y-13.435 I0 J19.
N1554 G03 X-14.566 Y-14.566 I-.566 J-.566
N1555 X-7.883 Y-19.032 I14.566 J14.566
N1556 G00 Z5.
N1557 Z25. M09
N1558 G91 G28 Z0
N1559 G28 X0 Y0
N1560 M30
