(Exported by FreeCAD)
(Post Processor: grbl_post)
(Output Time:2024-02-17 21:48:07.109856)
(Begin preamble)
G17 G90
G21
(Block-name: Fixture)
(Block-expand: 0)
(Block-enable: 1)
(Begin operation: Fixture)
(Path: Fixture)
G54
(Finish operation: Fixture)
(Block-name: 2mm Endmill001)
(Block-expand: 0)
(Block-enable: 1)
(Begin operation: 2mm Endmill001)
(Path: 2mm Endmill001)
(2mm Endmill001)
(Begin toolchange)
( M6 T5 )
M3 S8000
(Finish operation: 2mm Endmill001)
(Block-name: Adaptive001_16mm)
(Block-expand: 0)
(Block-enable: 1)
(Begin operation: Adaptive001_16mm)
(Path: Adaptive001_16mm)
(Adaptive001_16mm)
(Helix to depth: -4.000000)
G0 Z5.000
G0 X0.736 Y0.077 Z5.000
G0 X0.736 Y0.077 Z3.000
G1 X0.736 Y0.077 Z0.000 F420.000
G1 X0.736 Y0.077 Z0.000 F420.000
G1 X0.707 Y0.219 Z-0.013 F420.000
G1 X0.650 Y0.353 Z-0.026 F420.000
G1 X0.569 Y0.473 Z-0.039 F420.000
G1 X0.466 Y0.575 Z-0.052 F420.000
G1 X0.345 Y0.655 Z-0.064 F420.000
G1 X0.210 Y0.709 Z-0.077 F420.000
G1 X0.068 Y0.737 Z-0.090 F420.000
G1 X-0.077 Y0.736 Z-0.103 F420.000
G1 X-0.219 Y0.707 Z-0.116 F420.000
G1 X-0.353 Y0.650 Z-0.129 F420.000
G1 X-0.473 Y0.569 Z-0.142 F420.000
G1 X-0.575 Y0.466 Z-0.155 F420.000
G1 X-0.655 Y0.345 Z-0.167 F420.000
G1 X-0.709 Y0.210 Z-0.180 F420.000
G1 X-0.737 Y0.068 Z-0.193 F420.000
G1 X-0.736 Y-0.077 Z-0.206 F420.000
G1 X-0.707 Y-0.219 Z-0.219 F420.000
G1 X-0.650 Y-0.353 Z-0.232 F420.000
G1 X-0.569 Y-0.473 Z-0.245 F420.000
G1 X-0.466 Y-0.575 Z-0.258 F420.000
G1 X-0.345 Y-0.655 Z-0.271 F420.000
G1 X-0.210 Y-0.709 Z-0.283 F420.000
G1 X-0.068 Y-0.737 Z-0.296 F420.000
G1 X0.077 Y-0.736 Z-0.309 F420.000
G1 X0.219 Y-0.707 Z-0.322 F420.000
G1 X0.353 Y-0.650 Z-0.335 F420.000
G1 X0.473 Y-0.569 Z-0.348 F420.000
G1 X0.575 Y-0.466 Z-0.361 F420.000
G1 X0.655 Y-0.345 Z-0.374 F420.000
G1 X0.709 Y-0.210 Z-0.387 F420.000
G1 X0.737 Y-0.068 Z-0.399 F420.000
G1 X0.736 Y0.077 Z-0.412 F420.000
G1 X0.707 Y0.219 Z-0.425 F420.000
G1 X0.650 Y0.353 Z-0.438 F420.000
G1 X0.569 Y0.473 Z-0.451 F420.000
G1 X0.466 Y0.575 Z-0.464 F420.000
G1 X0.345 Y0.655 Z-0.477 F420.000
G1 X0.210 Y0.709 Z-0.490 F420.000
G1 X0.068 Y0.737 Z-0.502 F420.000
G1 X-0.077 Y0.736 Z-0.515 F420.000
G1 X-0.219 Y0.707 Z-0.528 F420.000
G1 X-0.353 Y0.650 Z-0.541 F420.000
G1 X-0.473 Y0.569 Z-0.554 F420.000
G1 X-0.575 Y0.466 Z-0.567 F420.000
G1 X-0.655 Y0.345 Z-0.580 F420.000
G1 X-0.709 Y0.210 Z-0.593 F420.000
G1 X-0.737 Y0.068 Z-0.606 F420.000
G1 X-0.736 Y-0.077 Z-0.618 F420.000
G1 X-0.707 Y-0.219 Z-0.631 F420.000
G1 X-0.650 Y-0.353 Z-0.644 F420.000
G1 X-0.569 Y-0.473 Z-0.657 F420.000
G1 X-0.466 Y-0.575 Z-0.670 F420.000
G1 X-0.345 Y-0.655 Z-0.683 F420.000
G1 X-0.210 Y-0.709 Z-0.696 F420.000
G1 X-0.068 Y-0.737 Z-0.709 F420.000
G1 X0.077 Y-0.736 Z-0.721 F420.000
G1 X0.219 Y-0.707 Z-0.734 F420.000
G1 X0.353 Y-0.650 Z-0.747 F420.000
G1 X0.473 Y-0.569 Z-0.760 F420.000
G1 X0.575 Y-0.466 Z-0.773 F420.000
G1 X0.655 Y-0.345 Z-0.786 F420.000
G1 X0.709 Y-0.210 Z-0.799 F420.000
G1 X0.737 Y-0.068 Z-0.812 F420.000
G1 X0.736 Y0.077 Z-0.825 F420.000
G1 X0.707 Y0.219 Z-0.837 F420.000
G1 X0.650 Y0.353 Z-0.850 F420.000
G1 X0.569 Y0.473 Z-0.863 F420.000
G1 X0.466 Y0.575 Z-0.876 F420.000
G1 X0.345 Y0.655 Z-0.889 F420.000
G1 X0.210 Y0.709 Z-0.902 F420.000
G1 X0.068 Y0.737 Z-0.915 F420.000
G1 X-0.077 Y0.736 Z-0.928 F420.000
G1 X-0.219 Y0.707 Z-0.941 F420.000
G1 X-0.353 Y0.650 Z-0.953 F420.000
G1 X-0.473 Y0.569 Z-0.966 F420.000
G1 X-0.575 Y0.466 Z-0.979 F420.000
G1 X-0.655 Y0.345 Z-0.992 F420.000
G1 X-0.709 Y0.210 Z-1.005 F420.000
G1 X-0.737 Y0.068 Z-1.018 F420.000
G1 X-0.736 Y-0.077 Z-1.031 F420.000
G1 X-0.707 Y-0.219 Z-1.044 F420.000
G1 X-0.650 Y-0.353 Z-1.056 F420.000
G1 X-0.569 Y-0.473 Z-1.069 F420.000
G1 X-0.466 Y-0.575 Z-1.082 F420.000
G1 X-0.345 Y-0.655 Z-1.095 F420.000
G1 X-0.210 Y-0.709 Z-1.108 F420.000
G1 X-0.068 Y-0.737 Z-1.121 F420.000
G1 X0.077 Y-0.736 Z-1.134 F420.000
G1 X0.219 Y-0.707 Z-1.147 F420.000
G1 X0.353 Y-0.650 Z-1.160 F420.000
G1 X0.473 Y-0.569 Z-1.172 F420.000
G1 X0.575 Y-0.466 Z-1.185 F420.000
G1 X0.655 Y-0.345 Z-1.198 F420.000
G1 X0.709 Y-0.210 Z-1.211 F420.000
G1 X0.737 Y-0.068 Z-1.224 F420.000
G1 X0.736 Y0.077 Z-1.237 F420.000
G1 X0.707 Y0.219 Z-1.250 F420.000
G1 X0.650 Y0.353 Z-1.263 F420.000
G1 X0.569 Y0.473 Z-1.275 F420.000
G1 X0.466 Y0.575 Z-1.288 F420.000
G1 X0.345 Y0.655 Z-1.301 F420.000
G1 X0.210 Y0.709 Z-1.314 F420.000
G1 X0.068 Y0.737 Z-1.327 F420.000
G1 X-0.077 Y0.736 Z-1.340 F420.000
G1 X-0.219 Y0.707 Z-1.353 F420.000
G1 X-0.353 Y0.650 Z-1.366 F420.000
G1 X-0.473 Y0.569 Z-1.379 F420.000
G1 X-0.575 Y0.466 Z-1.391 F420.000
G1 X-0.655 Y0.345 Z-1.404 F420.000
G1 X-0.709 Y0.210 Z-1.417 F420.000
G1 X-0.737 Y0.068 Z-1.430 F420.000
G1 X-0.736 Y-0.077 Z-1.443 F420.000
G1 X-0.707 Y-0.219 Z-1.456 F420.000
G1 X-0.650 Y-0.353 Z-1.469 F420.000
G1 X-0.569 Y-0.473 Z-1.482 F420.000
G1 X-0.466 Y-0.575 Z-1.495 F420.000
G1 X-0.345 Y-0.655 Z-1.507 F420.000
G1 X-0.210 Y-0.709 Z-1.520 F420.000
G1 X-0.068 Y-0.737 Z-1.533 F420.000
G1 X0.077 Y-0.736 Z-1.546 F420.000
G1 X0.219 Y-0.707 Z-1.559 F420.000
G1 X0.353 Y-0.650 Z-1.572 F420.000
G1 X0.473 Y-0.569 Z-1.585 F420.000
G1 X0.575 Y-0.466 Z-1.598 F420.000
G1 X0.655 Y-0.345 Z-1.610 F420.000
G1 X0.709 Y-0.210 Z-1.623 F420.000
G1 X0.737 Y-0.068 Z-1.636 F420.000
G1 X0.736 Y0.077 Z-1.649 F420.000
G1 X0.707 Y0.219 Z-1.662 F420.000
G1 X0.650 Y0.353 Z-1.675 F420.000
G1 X0.569 Y0.473 Z-1.688 F420.000
G1 X0.466 Y0.575 Z-1.701 F420.000
G1 X0.345 Y0.655 Z-1.714 F420.000
G1 X0.210 Y0.709 Z-1.726 F420.000
G1 X0.068 Y0.737 Z-1.739 F420.000
G1 X-0.077 Y0.736 Z-1.752 F420.000
G1 X-0.219 Y0.707 Z-1.765 F420.000
G1 X-0.353 Y0.650 Z-1.778 F420.000
G1 X-0.473 Y0.569 Z-1.791 F420.000
G1 X-0.575 Y0.466 Z-1.804 F420.000
G1 X-0.655 Y0.345 Z-1.817 F420.000
G1 X-0.709 Y0.210 Z-1.829 F420.000
G1 X-0.737 Y0.068 Z-1.842 F420.000
G1 X-0.736 Y-0.077 Z-1.855 F420.000
G1 X-0.707 Y-0.219 Z-1.868 F420.000
G1 X-0.650 Y-0.353 Z-1.881 F420.000
G1 X-0.569 Y-0.473 Z-1.894 F420.000
G1 X-0.466 Y-0.575 Z-1.907 F420.000
G1 X-0.345 Y-0.655 Z-1.920 F420.000
G1 X-0.210 Y-0.709 Z-1.933 F420.000
G1 X-0.068 Y-0.737 Z-1.945 F420.000
G1 X0.077 Y-0.736 Z-1.958 F420.000
G1 X0.219 Y-0.707 Z-1.971 F420.000
G1 X0.353 Y-0.650 Z-1.984 F420.000
G1 X0.473 Y-0.569 Z-1.997 F420.000
G1 X0.575 Y-0.466 Z-2.010 F420.000
G1 X0.655 Y-0.345 Z-2.023 F420.000
G1 X0.709 Y-0.210 Z-2.036 F420.000
G1 X0.737 Y-0.068 Z-2.049 F420.000
G1 X0.736 Y0.077 Z-2.061 F420.000
G1 X0.707 Y0.219 Z-2.074 F420.000
G1 X0.650 Y0.353 Z-2.087 F420.000
G1 X0.569 Y0.473 Z-2.100 F420.000
G1 X0.466 Y0.575 Z-2.113 F420.000
G1 X0.345 Y0.655 Z-2.126 F420.000
G1 X0.210 Y0.709 Z-2.139 F420.000
G1 X0.068 Y0.737 Z-2.152 F420.000
G1 X-0.077 Y0.736 Z-2.164 F420.000
G1 X-0.219 Y0.707 Z-2.177 F420.000
G1 X-0.353 Y0.650 Z-2.190 F420.000
G1 X-0.473 Y0.569 Z-2.203 F420.000
G1 X-0.575 Y0.466 Z-2.216 F420.000
G1 X-0.655 Y0.345 Z-2.229 F420.000
G1 X-0.709 Y0.210 Z-2.242 F420.000
G1 X-0.737 Y0.068 Z-2.255 F420.000
G1 X-0.736 Y-0.077 Z-2.268 F420.000
G1 X-0.707 Y-0.219 Z-2.280 F420.000
G1 X-0.650 Y-0.353 Z-2.293 F420.000
G1 X-0.569 Y-0.473 Z-2.306 F420.000
G1 X-0.466 Y-0.575 Z-2.319 F420.000
G1 X-0.345 Y-0.655 Z-2.332 F420.000
G1 X-0.210 Y-0.709 Z-2.345 F420.000
G1 X-0.068 Y-0.737 Z-2.358 F420.000
G1 X0.077 Y-0.736 Z-2.371 F420.000
G1 X0.219 Y-0.707 Z-2.383 F420.000
G1 X0.353 Y-0.650 Z-2.396 F420.000
G1 X0.473 Y-0.569 Z-2.409 F420.000
G1 X0.575 Y-0.466 Z-2.422 F420.000
G1 X0.655 Y-0.345 Z-2.435 F420.000
G1 X0.709 Y-0.210 Z-2.448 F420.000
G1 X0.737 Y-0.068 Z-2.461 F420.000
G1 X0.736 Y0.077 Z-2.474 F420.000
G1 X0.707 Y0.219 Z-2.487 F420.000
G1 X0.650 Y0.353 Z-2.499 F420.000
G1 X0.569 Y0.473 Z-2.512 F420.000
G1 X0.466 Y0.575 Z-2.525 F420.000
G1 X0.345 Y0.655 Z-2.538 F420.000
G1 X0.210 Y0.709 Z-2.551 F420.000
G1 X0.068 Y0.737 Z-2.564 F420.000
G1 X-0.077 Y0.736 Z-2.577 F420.000
G1 X-0.219 Y0.707 Z-2.590 F420.000
G1 X-0.353 Y0.650 Z-2.603 F420.000
G1 X-0.473 Y0.569 Z-2.615 F420.000
G1 X-0.575 Y0.466 Z-2.628 F420.000
G1 X-0.655 Y0.345 Z-2.641 F420.000
G1 X-0.709 Y0.210 Z-2.654 F420.000
G1 X-0.737 Y0.068 Z-2.667 F420.000
G1 X-0.736 Y-0.077 Z-2.680 F420.000
G1 X-0.707 Y-0.219 Z-2.693 F420.000
G1 X-0.650 Y-0.353 Z-2.706 F420.000
G1 X-0.569 Y-0.473 Z-2.718 F420.000
G1 X-0.466 Y-0.575 Z-2.731 F420.000
G1 X-0.345 Y-0.655 Z-2.744 F420.000
G1 X-0.210 Y-0.709 Z-2.757 F420.000
G1 X-0.068 Y-0.737 Z-2.770 F420.000
G1 X0.077 Y-0.736 Z-2.783 F420.000
G1 X0.219 Y-0.707 Z-2.796 F420.000
G1 X0.353 Y-0.650 Z-2.809 F420.000
G1 X0.473 Y-0.569 Z-2.822 F420.000
G1 X0.575 Y-0.466 Z-2.834 F420.000
G1 X0.655 Y-0.345 Z-2.847 F420.000
G1 X0.709 Y-0.210 Z-2.860 F420.000
G1 X0.737 Y-0.068 Z-2.873 F420.000
G1 X0.736 Y0.077 Z-2.886 F420.000
G1 X0.707 Y0.219 Z-2.899 F420.000
G1 X0.650 Y0.353 Z-2.912 F420.000
G1 X0.569 Y0.473 Z-2.925 F420.000
G1 X0.466 Y0.575 Z-2.937 F420.000
G1 X0.345 Y0.655 Z-2.950 F420.000
G1 X0.210 Y0.709 Z-2.963 F420.000
G1 X0.068 Y0.737 Z-2.976 F420.000
G1 X-0.077 Y0.736 Z-2.989 F420.000
G1 X-0.219 Y0.707 Z-3.002 F420.000
G1 X-0.353 Y0.650 Z-3.015 F420.000
G1 X-0.473 Y0.569 Z-3.028 F420.000
G1 X-0.575 Y0.466 Z-3.041 F420.000
G1 X-0.655 Y0.345 Z-3.053 F420.000
G1 X-0.709 Y0.210 Z-3.066 F420.000
G1 X-0.737 Y0.068 Z-3.079 F420.000
G1 X-0.736 Y-0.077 Z-3.092 F420.000
G1 X-0.707 Y-0.219 Z-3.105 F420.000
G1 X-0.650 Y-0.353 Z-3.118 F420.000
G1 X-0.569 Y-0.473 Z-3.131 F420.000
G1 X-0.466 Y-0.575 Z-3.144 F420.000
G1 X-0.345 Y-0.655 Z-3.157 F420.000
G1 X-0.210 Y-0.709 Z-3.169 F420.000
G1 X-0.068 Y-0.737 Z-3.182 F420.000
G1 X0.077 Y-0.736 Z-3.195 F420.000
G1 X0.219 Y-0.707 Z-3.208 F420.000
G1 X0.353 Y-0.650 Z-3.221 F420.000
G1 X0.473 Y-0.569 Z-3.234 F420.000
G1 X0.575 Y-0.466 Z-3.247 F420.000
G1 X0.655 Y-0.345 Z-3.260 F420.000
G1 X0.709 Y-0.210 Z-3.272 F420.000
G1 X0.737 Y-0.068 Z-3.285 F420.000
G1 X0.736 Y0.077 Z-3.298 F420.000
G1 X0.707 Y0.219 Z-3.311 F420.000
G1 X0.650 Y0.353 Z-3.324 F420.000
G1 X0.569 Y0.473 Z-3.337 F420.000
G1 X0.466 Y0.575 Z-3.350 F420.000
G1 X0.345 Y0.655 Z-3.363 F420.000
G1 X0.210 Y0.709 Z-3.376 F420.000
G1 X0.068 Y0.737 Z-3.388 F420.000
G1 X-0.077 Y0.736 Z-3.401 F420.000
G1 X-0.219 Y0.707 Z-3.414 F420.000
G1 X-0.353 Y0.650 Z-3.427 F420.000
G1 X-0.473 Y0.569 Z-3.440 F420.000
G1 X-0.575 Y0.466 Z-3.453 F420.000
G1 X-0.655 Y0.345 Z-3.466 F420.000
G1 X-0.709 Y0.210 Z-3.479 F420.000
G1 X-0.737 Y0.068 Z-3.492 F420.000
G1 X-0.736 Y-0.077 Z-3.504 F420.000
G1 X-0.707 Y-0.219 Z-3.517 F420.000
G1 X-0.650 Y-0.353 Z-3.530 F420.000
G1 X-0.569 Y-0.473 Z-3.543 F420.000
G1 X-0.466 Y-0.575 Z-3.556 F420.000
G1 X-0.345 Y-0.655 Z-3.569 F420.000
G1 X-0.210 Y-0.709 Z-3.582 F420.000
G1 X-0.068 Y-0.737 Z-3.595 F420.000
G1 X0.077 Y-0.736 Z-3.607 F420.000
G1 X0.219 Y-0.707 Z-3.620 F420.000
G1 X0.353 Y-0.650 Z-3.633 F420.000
G1 X0.473 Y-0.569 Z-3.646 F420.000
G1 X0.575 Y-0.466 Z-3.659 F420.000
G1 X0.655 Y-0.345 Z-3.672 F420.000
G1 X0.709 Y-0.210 Z-3.685 F420.000
G1 X0.737 Y-0.068 Z-3.698 F420.000
G1 X0.736 Y0.077 Z-3.711 F420.000
G1 X0.707 Y0.219 Z-3.723 F420.000
G1 X0.650 Y0.353 Z-3.736 F420.000
G1 X0.569 Y0.473 Z-3.749 F420.000
G1 X0.466 Y0.575 Z-3.762 F420.000
G1 X0.345 Y0.655 Z-3.775 F420.000
G1 X0.210 Y0.709 Z-3.788 F420.000
G1 X0.068 Y0.737 Z-3.801 F420.000
G1 X-0.077 Y0.736 Z-3.814 F420.000
G1 X-0.219 Y0.707 Z-3.826 F420.000
G1 X-0.353 Y0.650 Z-3.839 F420.000
G1 X-0.473 Y0.569 Z-3.852 F420.000
G1 X-0.575 Y0.466 Z-3.865 F420.000
G1 X-0.655 Y0.345 Z-3.878 F420.000
G1 X-0.709 Y0.210 Z-3.891 F420.000
G1 X-0.737 Y0.068 Z-3.904 F420.000
G1 X-0.736 Y-0.077 Z-3.917 F420.000
G1 X-0.707 Y-0.219 Z-3.930 F420.000
G1 X-0.650 Y-0.353 Z-3.942 F420.000
G1 X-0.569 Y-0.473 Z-3.955 F420.000
G1 X-0.466 Y-0.575 Z-3.968 F420.000
G1 X-0.345 Y-0.655 Z-3.981 F420.000
G1 X-0.210 Y-0.709 Z-3.994 F420.000
G1 X-0.068 Y-0.737 Z-4.000 F420.000
G1 X0.077 Y-0.736 Z-4.000 F420.000
G1 X0.219 Y-0.707 Z-4.000 F420.000
G1 X0.353 Y-0.650 Z-4.000 F420.000
G1 X0.473 Y-0.569 Z-4.000 F420.000
G1 X0.575 Y-0.466 Z-4.000 F420.000
G1 X0.655 Y-0.345 Z-4.000 F420.000
G1 X0.709 Y-0.210 Z-4.000 F420.000
G1 X0.737 Y-0.068 Z-4.000 F420.000
G1 X0.736 Y0.077 Z-4.000 F420.000
G1 X0.707 Y0.219 Z-4.000 F420.000
G1 X0.650 Y0.353 Z-4.000 F420.000
G1 X0.569 Y0.473 Z-4.000 F420.000
G1 X0.466 Y0.575 Z-4.000 F420.000
G1 X0.345 Y0.655 Z-4.000 F420.000
G1 X0.210 Y0.709 Z-4.000 F420.000
G1 X0.068 Y0.737 Z-4.000 F420.000
G1 X-0.077 Y0.736 Z-4.000 F420.000
G1 X-0.219 Y0.707 Z-4.000 F420.000
G1 X-0.353 Y0.650 Z-4.000 F420.000
G1 X-0.473 Y0.569 Z-4.000 F420.000
G1 X-0.575 Y0.466 Z-4.000 F420.000
G1 X-0.655 Y0.345 Z-4.000 F420.000
G1 X-0.709 Y0.210 Z-4.000 F420.000
G1 X-0.737 Y0.068 Z-4.000 F420.000
G1 X-0.736 Y-0.077 Z-4.000 F420.000
G1 X-0.707 Y-0.219 Z-4.000 F420.000
G1 X-0.650 Y-0.353 Z-4.000 F420.000
G1 X-0.569 Y-0.473 Z-4.000 F420.000
G1 X-0.466 Y-0.575 Z-4.000 F420.000
G1 X-0.345 Y-0.655 Z-4.000 F420.000
G1 X-0.210 Y-0.709 Z-4.000 F420.000
(Adaptive - depth: -4.000000)
G1 X0.000 Y-0.750 F420.000
G1 X0.028 Y-0.777 F420.000
G1 X0.100 Y-0.805 F420.000
G1 X0.175 Y-0.818 F420.000
G1 X0.287 Y-0.810 F420.000
G1 X0.325 Y-0.802 F420.000
G1 X0.557 Y-0.713 F420.000
G1 X0.675 Y-0.620 F420.000
G1 X0.735 Y-0.552 F420.000
G1 X0.787 Y-0.477 F420.000
G1 X0.848 Y-0.370 F420.000
G1 X0.905 Y-0.215 F420.000
G1 X0.930 Y-0.070 F420.000
G1 X0.932 Y0.048 F420.000
G1 X0.917 Y0.168 F420.000
G1 X0.887 Y0.290 F420.000
G1 X0.830 Y0.432 F420.000
G1 X0.750 Y0.562 F420.000
G1 X0.662 Y0.660 F420.000
G1 X0.573 Y0.738 F420.000
G1 X0.463 Y0.812 F420.000
G1 X0.320 Y0.880 F420.000
G1 X0.182 Y0.920 F420.000
G1 X0.052 Y0.938 F420.000
G1 X-0.070 Y0.935 F420.000
G1 X-0.200 Y0.915 F420.000
G1 X-0.333 Y0.877 F420.000
G1 X-0.475 Y0.812 F420.000
G1 X-0.593 Y0.730 F420.000
G1 X-0.682 Y0.647 F420.000
G1 X-0.762 Y0.547 F420.000
G1 X-0.830 Y0.438 F420.000
G1 X-0.887 Y0.297 F420.000
G1 X-0.920 Y0.165 F420.000
G1 X-0.935 Y0.028 F420.000
G1 X-0.930 Y-0.110 F420.000
G1 X-0.905 Y-0.245 F420.000
G1 X-0.863 Y-0.378 F420.000
G1 X-0.797 Y-0.500 F420.000
G1 X-0.725 Y-0.600 F420.000
G1 X-0.630 Y-0.695 F420.000
G1 X-0.527 Y-0.777 F420.000
G1 X-0.400 Y-0.860 F420.000
G1 X-0.245 Y-0.940 F420.000
G1 X-0.045 Y-0.988 F420.000
G1 X0.220 Y-1.008 F420.000
G1 X0.465 Y-0.968 F420.000
G1 X0.652 Y-0.882 F420.000
G1 X0.738 Y-0.820 F420.000
G1 X0.805 Y-0.757 F420.000
G1 X0.885 Y-0.672 F420.000
G1 X0.993 Y-0.522 F420.000
G1 X1.067 Y-0.360 F420.000
G1 X1.105 Y-0.233 F420.000
G1 X1.127 Y-0.105 F420.000
G1 X1.135 Y0.035 F420.000
G1 X1.123 Y0.195 F420.000
G1 X1.090 Y0.352 F420.000
G1 X1.032 Y0.495 F420.000
G1 X0.970 Y0.613 F420.000
G1 X0.882 Y0.733 F420.000
G1 X0.782 Y0.838 F420.000
G1 X0.662 Y0.935 F420.000
G1 X0.535 Y1.012 F420.000
G1 X0.398 Y1.075 F420.000
G1 X0.250 Y1.117 F420.000
G1 X0.100 Y1.140 F420.000
G1 X-0.048 Y1.145 F420.000
G1 X-0.195 Y1.130 F420.000
G1 X-0.340 Y1.095 F420.000
G1 X-0.480 Y1.045 F420.000
G1 X-0.627 Y0.968 F420.000
G1 X-0.752 Y0.873 F420.000
G1 X-0.848 Y0.782 F420.000
G1 X-0.940 Y0.665 F420.000
G1 X-1.012 Y0.537 F420.000
G1 X-1.070 Y0.407 F420.000
G1 X-1.115 Y0.250 F420.000
G1 X-1.137 Y0.100 F420.000
G1 X-1.143 Y-0.050 F420.000
G1 X-1.125 Y-0.203 F420.000
G1 X-1.093 Y-0.350 F420.000
G1 X-1.035 Y-0.505 F420.000
G1 X-0.958 Y-0.640 F420.000
G1 X-0.877 Y-0.750 F420.000
G1 X-0.770 Y-0.860 F420.000
G1 X-0.657 Y-0.958 F420.000
G1 X-0.500 Y-1.060 F420.000
G1 X-0.355 Y-1.130 F420.000
G1 X-0.203 Y-1.185 F420.000
G1 X-0.035 Y-1.222 F420.000
G1 X0.128 Y-1.240 F420.000
G1 X0.290 Y-1.230 F420.000
G1 X0.427 Y-1.208 F420.000
G1 X0.575 Y-1.163 F420.000
G1 X0.713 Y-1.097 F420.000
G1 X0.838 Y-1.018 F420.000
G1 X0.953 Y-0.920 F420.000
G1 X1.055 Y-0.812 F420.000
G1 X1.155 Y-0.675 F420.000
G1 X1.230 Y-0.537 F420.000
G1 X1.290 Y-0.388 F420.000
G1 X1.333 Y-0.230 F420.000
G1 X1.355 Y-0.070 F420.000
G1 X1.357 Y0.087 F420.000
G1 X1.340 Y0.245 F420.000
G1 X1.305 Y0.400 F420.000
G1 X1.245 Y0.565 F420.000
G1 X1.170 Y0.713 F420.000
G1 X1.080 Y0.850 F420.000
G1 X0.973 Y0.978 F420.000
G1 X0.848 Y1.087 F420.000
G1 X0.728 Y1.173 F420.000
G1 X0.585 Y1.248 F420.000
G1 X0.438 Y1.305 F420.000
G1 X0.275 Y1.345 F420.000
G1 X0.113 Y1.367 F420.000
G1 X-0.065 Y1.375 F420.000
G1 X-0.247 Y1.360 F420.000
G1 X-0.417 Y1.320 F420.000
G1 X-0.555 Y1.272 F420.000
G1 X-0.705 Y1.198 F420.000
G1 X-0.840 Y1.107 F420.000
G1 X-0.963 Y1.002 F420.000
G1 X-1.073 Y0.882 F420.000
G1 X-1.165 Y0.750 F420.000
G1 X-1.242 Y0.608 F420.000
G1 X-1.302 Y0.455 F420.000
G1 X-1.343 Y0.297 F420.000
G1 X-1.367 Y0.135 F420.000
G1 X-1.373 Y-0.045 F420.000
G1 X-1.357 Y-0.210 F420.000
G1 X-1.323 Y-0.375 F420.000
G1 X-1.268 Y-0.537 F420.000
G1 X-1.195 Y-0.690 F420.000
G1 X-1.105 Y-0.835 F420.000
G1 X-0.998 Y-0.970 F420.000
G1 X-0.877 Y-1.090 F420.000
G1 X-0.743 Y-1.198 F420.000
G1 X-0.595 Y-1.288 F420.000
G1 X-0.440 Y-1.360 F420.000
G1 X-0.275 Y-1.415 F420.000
G1 X-0.105 Y-1.455 F420.000
G1 X0.085 Y-1.475 F420.000
G1 X0.260 Y-1.475 F420.000
G1 X0.438 Y-1.448 F420.000
G1 X0.583 Y-1.410 F420.000
G1 X0.738 Y-1.347 F420.000
G1 X0.882 Y-1.270 F420.000
G1 X1.025 Y-1.170 F420.000
G1 X1.153 Y-1.058 F420.000
G1 X1.265 Y-0.930 F420.000
G1 X1.363 Y-0.790 F420.000
G1 X1.448 Y-0.642 F420.000
G1 X1.520 Y-0.470 F420.000
G1 X1.570 Y-0.300 F420.000
G1 X1.593 Y-0.122 F420.000
G1 X1.600 Y0.020 F420.000
G1 X1.593 Y0.198 F420.000
G1 X1.562 Y0.390 F420.000
G1 X1.505 Y0.575 F420.000
G1 X1.442 Y0.725 F420.000
G1 X1.355 Y0.885 F420.000
G1 X1.250 Y1.030 F420.000
G1 X1.133 Y1.160 F420.000
G1 X1.000 Y1.278 F420.000
G1 X0.855 Y1.380 F420.000
G1 X0.700 Y1.465 F420.000
G1 X0.535 Y1.532 F420.000
G1 X0.362 Y1.583 F420.000
G1 X0.188 Y1.613 F420.000
G1 X0.010 Y1.623 F420.000
G1 X-0.165 Y1.617 F420.000
G1 X-0.365 Y1.587 F420.000
G1 X-0.542 Y1.540 F420.000
G1 X-0.715 Y1.468 F420.000
G1 X-0.855 Y1.393 F420.000
G1 X-1.000 Y1.290 F420.000
G1 X-1.133 Y1.175 F420.000
G1 X-1.258 Y1.040 F420.000
G1 X-1.363 Y0.897 F420.000
G1 X-1.452 Y0.743 F420.000
G1 X-1.525 Y0.578 F420.000
G1 X-1.580 Y0.405 F420.000
G1 X-1.615 Y0.228 F420.000
G1 X-1.630 Y0.048 F420.000
G1 X-1.625 Y-0.130 F420.000
G1 X-1.600 Y-0.307 F420.000
G1 X-1.555 Y-0.480 F420.000
G1 X-1.492 Y-0.647 F420.000
G1 X-1.415 Y-0.810 F420.000
G1 X-1.308 Y-0.980 F420.000
G1 X-1.192 Y-1.127 F420.000
G1 X-1.060 Y-1.265 F420.000
G1 X-0.912 Y-1.390 F420.000
G1 X-0.750 Y-1.490 F420.000
G1 X-0.608 Y-1.560 F420.000
G1 X-0.443 Y-1.627 F420.000
G1 X-0.235 Y-1.690 F420.000
G1 X-0.018 Y-1.722 F420.000
G1 X0.150 Y-1.730 F420.000
G1 X0.315 Y-1.720 F420.000
G1 X0.497 Y-1.692 F420.000
G1 X0.703 Y-1.637 F420.000
G1 X0.875 Y-1.565 F420.000
G1 X1.020 Y-1.488 F420.000
G1 X1.173 Y-1.383 F420.000
G1 X1.305 Y-1.265 F420.000
G1 X1.425 Y-1.137 F420.000
G1 X1.542 Y-0.980 F420.000
G1 X1.640 Y-0.825 F420.000
G1 X1.735 Y-0.635 F420.000
G1 X1.795 Y-0.445 F420.000
G1 X1.833 Y-0.285 F420.000
G1 X1.855 Y-0.098 F420.000
G1 X1.860 Y0.083 F420.000
G1 X1.843 Y0.282 F420.000
G1 X1.808 Y0.468 F420.000
G1 X1.752 Y0.647 F420.000
G1 X1.677 Y0.828 F420.000
G1 X1.585 Y0.995 F420.000
G1 X1.475 Y1.153 F420.000
G1 X1.350 Y1.298 F420.000
G1 X1.210 Y1.430 F420.000
G1 X1.058 Y1.548 F420.000
G1 X0.892 Y1.650 F420.000
G1 X0.718 Y1.735 F420.000
G1 X0.535 Y1.800 F420.000
G1 X0.347 Y1.847 F420.000
G1 X0.155 Y1.875 F420.000
G1 X-0.035 Y1.883 F420.000
G1 X-0.225 Y1.870 F420.000
G1 X-0.412 Y1.837 F420.000
G1 X-0.598 Y1.790 F420.000
G1 X-0.802 Y1.712 F420.000
G1 X-0.978 Y1.617 F420.000
G1 X-1.115 Y1.528 F420.000
G1 X-1.262 Y1.405 F420.000
G1 X-1.395 Y1.275 F420.000
G1 X-1.528 Y1.113 F420.000
G1 X-1.635 Y0.950 F420.000
G1 X-1.728 Y0.775 F420.000
G1 X-1.802 Y0.590 F420.000
G1 X-1.853 Y0.398 F420.000
G1 X-1.883 Y0.228 F420.000
G1 X-1.893 Y0.037 F420.000
G1 X-1.885 Y-0.145 F420.000
G1 X-1.855 Y-0.345 F420.000
G1 X-1.812 Y-0.532 F420.000
G1 X-1.742 Y-0.740 F420.000
G1 X-1.657 Y-0.925 F420.000
G1 X-1.550 Y-1.100 F420.000
G1 X-1.445 Y-1.240 F420.000
G1 X-1.317 Y-1.385 F420.000
G1 X-1.153 Y-1.530 F420.000
G1 X-0.995 Y-1.645 F420.000
G1 X-0.823 Y-1.750 F420.000
G1 X-0.637 Y-1.837 F420.000
G1 X-0.448 Y-1.905 F420.000
G1 X-0.250 Y-1.955 F420.000
G1 X-0.048 Y-1.985 F420.000
G1 X0.152 Y-1.995 F420.000
G1 X0.352 Y-1.985 F420.000
G1 X0.552 Y-1.955 F420.000
G1 X0.748 Y-1.905 F420.000
G1 X0.935 Y-1.830 F420.000
G1 X1.083 Y-1.755 F420.000
G1 X1.245 Y-1.655 F420.000
G1 X1.417 Y-1.522 F420.000
G1 X1.573 Y-1.377 F420.000
G1 X1.705 Y-1.220 F420.000
G1 X1.812 Y-1.067 F420.000
G1 X1.910 Y-0.892 F420.000
G1 X1.988 Y-0.710 F420.000
G1 X2.047 Y-0.522 F420.000
G1 X2.092 Y-0.330 F420.000
G1 X2.120 Y-0.102 F420.000
G1 X2.127 Y0.100 F420.000
G1 X2.115 Y0.307 F420.000
G1 X2.072 Y0.515 F420.000
G1 X2.025 Y0.677 F420.000
G1 X1.958 Y0.860 F420.000
G1 X1.855 Y1.070 F420.000
G1 X1.740 Y1.260 F420.000
G1 X1.605 Y1.427 F420.000
G1 X1.485 Y1.552 F420.000
G1 X1.333 Y1.683 F420.000
G1 X1.175 Y1.798 F420.000
G1 X0.970 Y1.915 F420.000
G1 X0.780 Y2.002 F420.000
G1 X0.583 Y2.072 F420.000
G1 X0.370 Y2.125 F420.000
G1 X0.158 Y2.147 F420.000
G1 X-0.013 Y2.152 F420.000
G1 X-0.207 Y2.145 F420.000
G1 X-0.438 Y2.115 F420.000
G1 X-0.662 Y2.062 F420.000
G1 X-0.868 Y1.982 F420.000
G1 X-1.012 Y1.913 F420.000
G1 X-1.183 Y1.808 F420.000
G1 X-1.337 Y1.695 F420.000
G1 X-1.518 Y1.540 F420.000
G1 X-1.680 Y1.370 F420.000
G1 X-1.810 Y1.192 F420.000
G1 X-1.903 Y1.040 F420.000
G1 X-1.992 Y0.853 F420.000
G1 X-2.060 Y0.662 F420.000
G1 X-2.107 Y0.475 F420.000
G1 X-2.140 Y0.278 F420.000
G1 X-2.160 Y0.052 F420.000
G1 X-2.158 Y-0.180 F420.000
G1 X-2.125 Y-0.398 F420.000
G1 X-2.087 Y-0.568 F420.000
G1 X-2.027 Y-0.765 F420.000
G1 X-1.930 Y-0.985 F420.000
G1 X-1.833 Y-1.165 F420.000
G1 X-1.715 Y-1.345 F420.000
G1 X-1.577 Y-1.512 F420.000
G1 X-1.430 Y-1.665 F420.000
G1 X-1.262 Y-1.800 F420.000
G1 X-1.103 Y-1.907 F420.000
G1 X-0.922 Y-2.010 F420.000
G1 X-0.715 Y-2.107 F420.000
G1 X-0.485 Y-2.190 F420.000
G1 X-0.265 Y-2.237 F420.000
G1 X-0.087 Y-2.263 F420.000
G1 X0.120 Y-2.275 F420.000
G1 X0.343 Y-2.268 F420.000
G1 X0.573 Y-2.232 F420.000
G1 X0.757 Y-2.190 F420.000
G1 X0.960 Y-2.120 F420.000
G1 X1.153 Y-2.030 F420.000
G1 X1.330 Y-1.927 F420.000
G1 X1.502 Y-1.810 F420.000
G1 X1.680 Y-1.660 F420.000
G1 X1.827 Y-1.502 F420.000
G1 X1.942 Y-1.357 F420.000
G1 X2.060 Y-1.183 F420.000
G1 X2.172 Y-0.970 F420.000
G1 X2.255 Y-0.775 F420.000
G1 X2.322 Y-0.568 F420.000
G1 X2.370 Y-0.350 F420.000
G1 X2.397 Y-0.135 F420.000
G1 X2.408 Y0.080 F420.000
G1 X2.395 Y0.295 F420.000
G1 X2.365 Y0.510 F420.000
G1 X2.315 Y0.720 F420.000
G1 X2.245 Y0.925 F420.000
G1 X2.158 Y1.123 F420.000
G1 X2.053 Y1.312 F420.000
G1 X1.923 Y1.488 F420.000
G1 X1.805 Y1.623 F420.000
G1 X1.660 Y1.768 F420.000
G1 X1.470 Y1.930 F420.000
G1 X1.265 Y2.075 F420.000
G1 X1.058 Y2.190 F420.000
G1 X0.877 Y2.272 F420.000
G1 X0.660 Y2.350 F420.000
G1 X0.445 Y2.402 F420.000
G1 X0.230 Y2.428 F420.000
G1 X0.050 Y2.435 F420.000
G1 X-0.150 Y2.433 F420.000
G1 X-0.398 Y2.410 F420.000
G1 X-0.642 Y2.365 F420.000
G1 X-0.880 Y2.288 F420.000
G1 X-1.045 Y2.217 F420.000
G1 X-1.210 Y2.127 F420.000
G1 X-1.380 Y2.018 F420.000
G1 X-1.577 Y1.873 F420.000
G1 X-1.762 Y1.705 F420.000
G1 X-1.915 Y1.525 F420.000
G1 X-2.022 Y1.380 F420.000
G1 X-2.138 Y1.188 F420.000
G1 X-2.230 Y1.000 F420.000
G1 X-2.315 Y0.777 F420.000
G1 X-2.375 Y0.562 F420.000
G1 X-2.417 Y0.343 F420.000
G1 X-2.440 Y0.115 F420.000
G1 X-2.442 Y-0.107 F420.000
G1 X-2.428 Y-0.330 F420.000
G1 X-2.393 Y-0.550 F420.000
G1 X-2.330 Y-0.765 F420.000
G1 X-2.263 Y-0.943 F420.000
G1 X-2.175 Y-1.135 F420.000
G1 X-2.053 Y-1.353 F420.000
G1 X-1.913 Y-1.560 F420.000
G1 X-1.755 Y-1.740 F420.000
G1 X-1.623 Y-1.873 F420.000
G1 X-1.450 Y-2.013 F420.000
G1 X-1.275 Y-2.138 F420.000
G1 X-1.058 Y-2.263 F420.000
G1 X-0.848 Y-2.362 F420.000
G1 X-0.627 Y-2.445 F420.000
G1 X-0.393 Y-2.510 F420.000
G1 X-0.160 Y-2.545 F420.000
G1 X0.025 Y-2.560 F420.000
G1 X0.240 Y-2.562 F420.000
G1 X0.485 Y-2.542 F420.000
G1 X0.730 Y-2.495 F420.000
G1 X0.922 Y-2.442 F420.000
G1 X1.140 Y-2.362 F420.000
G1 X1.345 Y-2.263 F420.000
G1 X1.530 Y-2.145 F420.000
G1 X1.683 Y-2.030 F420.000
G1 X1.843 Y-1.893 F420.000
G1 X2.018 Y-1.715 F420.000
G1 X2.178 Y-1.522 F420.000
G1 X2.312 Y-1.320 F420.000
G1 X2.417 Y-1.137 F420.000
G1 X2.515 Y-0.922 F420.000
G1 X2.590 Y-0.708 F420.000
G1 X2.647 Y-0.490 F420.000
G1 X2.685 Y-0.263 F420.000
G1 X2.703 Y-0.035 F420.000
G1 X2.700 Y0.190 F420.000
G1 X2.678 Y0.415 F420.000
G1 X2.635 Y0.637 F420.000
G1 X2.578 Y0.858 F420.000
G1 X2.493 Y1.093 F420.000
G1 X2.388 Y1.302 F420.000
G1 X2.288 Y1.472 F420.000
G1 X2.158 Y1.657 F420.000
G1 X1.995 Y1.845 F420.000
G1 X1.837 Y2.002 F420.000
G1 X1.657 Y2.152 F420.000
G1 X1.470 Y2.290 F420.000
G1 X1.255 Y2.417 F420.000
G1 X1.038 Y2.525 F420.000
G1 X0.805 Y2.605 F420.000
G1 X0.625 Y2.652 F420.000
G1 X0.407 Y2.695 F420.000
G1 X0.158 Y2.723 F420.000
G1 X-0.090 Y2.730 F420.000
G1 X-0.338 Y2.720 F420.000
G1 X-0.583 Y2.680 F420.000
G1 X-0.780 Y2.625 F420.000
G1 X-0.958 Y2.567 F420.000
G1 X-1.188 Y2.470 F420.000
G1 X-1.405 Y2.350 F420.000
G1 X-1.597 Y2.228 F420.000
G1 X-1.792 Y2.078 F420.000
G1 X-1.970 Y1.913 F420.000
G1 X-2.125 Y1.732 F420.000
G1 X-2.235 Y1.580 F420.000
G1 X-2.355 Y1.395 F420.000
G1 X-2.473 Y1.173 F420.000
G1 X-2.570 Y0.943 F420.000
G1 X-2.640 Y0.708 F420.000
G1 X-2.685 Y0.507 F420.000
G1 X-2.723 Y0.275 F420.000
G1 X-2.735 Y0.025 F420.000
G1 X-2.730 Y-0.205 F420.000
G1 X-2.705 Y-0.445 F420.000
G1 X-2.660 Y-0.685 F420.000
G1 X-2.587 Y-0.912 F420.000
G1 X-2.515 Y-1.097 F420.000
G1 X-2.420 Y-1.302 F420.000
G1 X-2.295 Y-1.520 F420.000
G1 X-2.155 Y-1.728 F420.000
G1 X-1.990 Y-1.915 F420.000
G1 X-1.853 Y-2.050 F420.000
G1 X-1.680 Y-2.205 F420.000
G1 X-1.480 Y-2.355 F420.000
G1 X-1.268 Y-2.490 F420.000
G1 X-1.042 Y-2.600 F420.000
G1 X-0.848 Y-2.680 F420.000
G1 X-0.615 Y-2.752 F420.000
G1 X-0.385 Y-2.808 F420.000
G1 X-0.138 Y-2.845 F420.000
G1 X0.110 Y-2.865 F420.000
G1 X0.357 Y-2.857 F420.000
G1 X0.565 Y-2.835 F420.000
G1 X0.797 Y-2.790 F420.000
G1 X1.020 Y-2.725 F420.000
G1 X1.232 Y-2.645 F420.000
G1 X1.440 Y-2.542 F420.000
G1 X1.637 Y-2.425 F420.000
G1 X1.827 Y-2.295 F420.000
G1 X2.020 Y-2.135 F420.000
G1 X2.192 Y-1.965 F420.000
G1 X2.355 Y-1.780 F420.000
G1 X2.502 Y-1.577 F420.000
G1 X2.632 Y-1.370 F420.000
G1 X2.745 Y-1.150 F420.000
G1 X2.840 Y-0.920 F420.000
G1 X2.908 Y-0.680 F420.000
G1 X2.947 Y-0.485 F420.000
G1 X2.982 Y-0.260 F420.000
G1 X2.998 Y-0.010 F420.000
G1 X2.995 Y0.237 F420.000
G1 X2.975 Y0.485 F420.000
G1 X2.925 Y0.730 F420.000
G1 X2.870 Y0.932 F420.000
G1 X2.788 Y1.160 F420.000
G1 X2.690 Y1.375 F420.000
G1 X2.567 Y1.593 F420.000
G1 X2.430 Y1.798 F420.000
G1 X2.277 Y1.992 F420.000
G1 X2.107 Y2.175 F420.000
G1 X1.917 Y2.337 F420.000
G1 X1.752 Y2.462 F420.000
G1 X1.558 Y2.592 F420.000
G1 X1.335 Y2.710 F420.000
G1 X1.115 Y2.808 F420.000
G1 X0.877 Y2.893 F420.000
G1 X0.635 Y2.955 F420.000
G1 X0.388 Y3.000 F420.000
G1 X0.138 Y3.025 F420.000
G1 X-0.110 Y3.030 F420.000
G1 X-0.357 Y3.015 F420.000
G1 X-0.605 Y2.982 F420.000
G1 X-0.848 Y2.922 F420.000
G1 X-1.048 Y2.857 F420.000
G1 X-1.265 Y2.765 F420.000
G1 X-1.472 Y2.663 F420.000
G1 X-1.685 Y2.533 F420.000
G1 X-1.887 Y2.385 F420.000
G1 X-2.080 Y2.225 F420.000
G1 X-2.252 Y2.042 F420.000
G1 X-2.388 Y1.880 F420.000
G1 X-2.530 Y1.683 F420.000
G1 X-2.660 Y1.468 F420.000
G1 X-2.772 Y1.245 F420.000
G1 X-2.862 Y1.010 F420.000
G1 X-2.925 Y0.802 F420.000
G1 X-2.978 Y0.562 F420.000
G1 X-3.015 Y0.328 F420.000
G1 X-3.033 Y0.077 F420.000
G1 X-3.030 Y-0.170 F420.000
G1 X-3.013 Y-0.417 F420.000
G1 X-2.975 Y-0.662 F420.000
G1 X-2.908 Y-0.902 F420.000
G1 X-2.840 Y-1.095 F420.000
G1 X-2.748 Y-1.320 F420.000
G1 X-2.635 Y-1.542 F420.000
G1 X-2.505 Y-1.755 F420.000
G1 X-2.353 Y-1.952 F420.000
G1 X-2.212 Y-2.112 F420.000
G1 X-2.038 Y-2.292 F420.000
G1 X-1.850 Y-2.458 F420.000
G1 X-1.653 Y-2.610 F420.000
G1 X-1.438 Y-2.737 F420.000
G1 X-1.255 Y-2.833 F420.000
G1 X-1.025 Y-2.933 F420.000
G1 X-0.790 Y-3.018 F420.000
G1 X-0.547 Y-3.085 F420.000
G1 X-0.302 Y-3.135 F420.000
G1 X-0.052 Y-3.160 F420.000
G1 X0.177 Y-3.170 F420.000
G1 X0.425 Y-3.160 F420.000
G1 X0.672 Y-3.130 F420.000
G1 X0.915 Y-3.072 F420.000
G1 X1.110 Y-3.013 F420.000
G1 X1.330 Y-2.928 F420.000
G1 X1.555 Y-2.822 F420.000
G1 X1.772 Y-2.700 F420.000
G1 X1.980 Y-2.562 F420.000
G1 X2.178 Y-2.410 F420.000
G1 X2.362 Y-2.243 F420.000
G1 X2.527 Y-2.055 F420.000
G1 X2.658 Y-1.890 F420.000
G1 X2.800 Y-1.685 F420.000
G1 X2.928 Y-1.470 F420.000
G1 X3.038 Y-1.245 F420.000
G1 X3.127 Y-1.010 F420.000
G1 X3.203 Y-0.777 F420.000
G1 X3.260 Y-0.532 F420.000
G1 X3.297 Y-0.285 F420.000
G1 X3.317 Y-0.035 F420.000
G1 X3.317 Y0.212 F420.000
G1 X3.290 Y0.460 F420.000
G1 X3.252 Y0.667 F420.000
G1 X3.197 Y0.905 F420.000
G1 X3.123 Y1.143 F420.000
G1 X3.030 Y1.375 F420.000
G1 X2.922 Y1.600 F420.000
G1 X2.792 Y1.812 F420.000
G1 X2.660 Y2.000 F420.000
G1 X2.500 Y2.192 F420.000
G1 X2.330 Y2.375 F420.000
G1 X2.145 Y2.545 F420.000
G1 X1.950 Y2.700 F420.000
G1 X1.745 Y2.842 F420.000
G1 X1.525 Y2.960 F420.000
G1 X1.330 Y3.050 F420.000
G1 X1.097 Y3.143 F420.000
G1 X0.858 Y3.217 F420.000
G1 X0.613 Y3.275 F420.000
G1 X0.365 Y3.317 F420.000
G1 X0.115 Y3.342 F420.000
G1 X-0.133 Y3.340 F420.000
G1 X-0.347 Y3.328 F420.000
G1 X-0.595 Y3.292 F420.000
G1 X-0.840 Y3.243 F420.000
G1 X-1.080 Y3.172 F420.000
G1 X-1.312 Y3.085 F420.000
G1 X-1.540 Y2.982 F420.000
G1 X-1.755 Y2.855 F420.000
G1 X-1.940 Y2.730 F420.000
G1 X-2.135 Y2.575 F420.000
G1 X-2.320 Y2.408 F420.000
G1 X-2.493 Y2.225 F420.000
G1 X-2.650 Y2.033 F420.000
G1 X-2.795 Y1.830 F420.000
G1 X-2.925 Y1.615 F420.000
G1 X-3.040 Y1.393 F420.000
G1 X-3.138 Y1.163 F420.000
G1 X-3.210 Y0.922 F420.000
G1 X-3.260 Y0.710 F420.000
G1 X-3.305 Y0.463 F420.000
G1 X-3.333 Y0.212 F420.000
G1 X-3.342 Y-0.035 F420.000
G1 X-3.337 Y-0.282 F420.000
G1 X-3.305 Y-0.530 F420.000
G1 X-3.263 Y-0.762 F420.000
G1 X-3.197 Y-1.002 F420.000
G1 X-3.112 Y-1.238 F420.000
G1 X-3.018 Y-1.468 F420.000
G1 X-2.902 Y-1.690 F420.000
G1 X-2.772 Y-1.903 F420.000
G1 X-2.630 Y-2.107 F420.000
G1 X-2.473 Y-2.300 F420.000
G1 X-2.300 Y-2.482 F420.000
G1 X-2.118 Y-2.652 F420.000
G1 X-1.923 Y-2.808 F420.000
G1 X-1.710 Y-2.940 F420.000
G1 X-1.518 Y-3.047 F420.000
G1 X-1.292 Y-3.158 F420.000
G1 X-1.060 Y-3.252 F420.000
G1 X-0.823 Y-3.333 F420.000
G1 X-0.580 Y-3.397 F420.000
G1 X-0.335 Y-3.447 F420.000
G1 X-0.085 Y-3.475 F420.000
G1 X0.163 Y-3.490 F420.000
G1 X0.410 Y-3.478 F420.000
G1 X0.632 Y-3.450 F420.000
G1 X0.877 Y-3.402 F420.000
G1 X1.117 Y-3.333 F420.000
G1 X1.347 Y-3.252 F420.000
G1 X1.577 Y-3.158 F420.000
G1 X1.800 Y-3.042 F420.000
G1 X2.015 Y-2.915 F420.000
G1 X2.220 Y-2.775 F420.000
G1 X2.415 Y-2.620 F420.000
G1 X2.592 Y-2.445 F420.000
G1 X2.745 Y-2.277 F420.000
G1 X2.902 Y-2.085 F420.000
G1 X3.042 Y-1.877 F420.000
G1 X3.170 Y-1.663 F420.000
G1 X3.283 Y-1.438 F420.000
G1 X3.382 Y-1.208 F420.000
G1 X3.465 Y-0.970 F420.000
G1 X3.533 Y-0.728 F420.000
G1 X3.585 Y-0.482 F420.000
G1 X3.620 Y-0.235 F420.000
G1 X3.630 Y0.013 F420.000
G1 X3.627 Y0.253 F420.000
G1 X3.605 Y0.500 F420.000
G1 X3.562 Y0.745 F420.000
G1 X3.505 Y0.988 F420.000
G1 X3.428 Y1.225 F420.000
G1 X3.333 Y1.455 F420.000
G1 X3.225 Y1.680 F420.000
G1 X3.100 Y1.895 F420.000
G1 X2.960 Y2.103 F420.000
G1 X2.808 Y2.300 F420.000
G1 X2.645 Y2.490 F420.000
G1 X2.470 Y2.667 F420.000
G1 X2.283 Y2.835 F420.000
G1 X2.087 Y2.990 F420.000
G1 X1.875 Y3.123 F420.000
G1 X1.677 Y3.232 F420.000
G1 X1.450 Y3.337 F420.000
G1 X1.218 Y3.430 F420.000
G1 X0.978 Y3.505 F420.000
G1 X0.733 Y3.565 F420.000
G1 X0.485 Y3.610 F420.000
G1 X0.235 Y3.638 F420.000
G1 X-0.013 Y3.650 F420.000
G1 X-0.260 Y3.645 F420.000
G1 X-0.507 Y3.625 F420.000
G1 X-0.752 Y3.587 F420.000
G1 X-0.995 Y3.535 F420.000
G1 X-1.232 Y3.458 F420.000
G1 X-1.452 Y3.373 F420.000
G1 X-1.677 Y3.265 F420.000
G1 X-1.893 Y3.138 F420.000
G1 X-2.098 Y2.998 F420.000
G1 X-2.297 Y2.848 F420.000
G1 X-2.482 Y2.680 F420.000
G1 X-2.658 Y2.500 F420.000
G1 X-2.820 Y2.310 F420.000
G1 X-2.973 Y2.112 F420.000
G1 X-3.110 Y1.903 F420.000
G1 X-3.235 Y1.685 F420.000
G1 X-3.348 Y1.460 F420.000
G1 X-3.438 Y1.225 F420.000
G1 X-3.515 Y0.990 F420.000
G1 X-3.575 Y0.748 F420.000
G1 X-3.615 Y0.500 F420.000
G1 X-3.640 Y0.250 F420.000
G1 X-3.652 Y0.000 F420.000
G1 X-3.645 Y-0.247 F420.000
G1 X-3.623 Y-0.495 F420.000
G1 X-3.585 Y-0.740 F420.000
G1 X-3.530 Y-0.983 F420.000
G1 X-3.460 Y-1.222 F420.000
G1 X-3.375 Y-1.458 F420.000
G1 X-3.268 Y-1.683 F420.000
G1 X-3.150 Y-1.895 F420.000
G1 X-3.018 Y-2.107 F420.000
G1 X-2.870 Y-2.310 F420.000
G1 X-2.710 Y-2.502 F420.000
G1 X-2.540 Y-2.685 F420.000
G1 X-2.357 Y-2.857 F420.000
G1 X-2.165 Y-3.018 F420.000
G1 X-1.958 Y-3.158 F420.000
G1 X-1.750 Y-3.280 F420.000
G1 X-1.528 Y-3.395 F420.000
G1 X-1.300 Y-3.498 F420.000
G1 X-1.065 Y-3.585 F420.000
G1 X-0.825 Y-3.658 F420.000
G1 X-0.580 Y-3.715 F420.000
G1 X-0.333 Y-3.757 F420.000
G1 X-0.083 Y-3.785 F420.000
G1 X0.165 Y-3.797 F420.000
G1 X0.412 Y-3.788 F420.000
G1 X0.660 Y-3.765 F420.000
G1 X0.905 Y-3.723 F420.000
G1 X1.147 Y-3.663 F420.000
G1 X1.385 Y-3.587 F420.000
G1 X1.617 Y-3.495 F420.000
G1 X1.843 Y-3.385 F420.000
G1 X2.060 Y-3.260 F420.000
G1 X2.270 Y-3.127 F420.000
G1 X2.470 Y-2.978 F420.000
G1 X2.660 Y-2.815 F420.000
G1 X2.840 Y-2.643 F420.000
G1 X3.007 Y-2.458 F420.000
G1 X3.165 Y-2.263 F420.000
G1 X3.310 Y-2.058 F420.000
G1 X3.440 Y-1.845 F420.000
G1 X3.558 Y-1.623 F420.000
G1 X3.660 Y-1.395 F420.000
G1 X3.748 Y-1.160 F420.000
G1 X3.820 Y-0.920 F420.000
G1 X3.877 Y-0.675 F420.000
G1 X3.920 Y-0.427 F420.000
G1 X3.947 Y-0.177 F420.000
G1 X3.953 Y0.070 F420.000
G1 X3.945 Y0.318 F420.000
G1 X3.920 Y0.565 F420.000
G1 X3.877 Y0.810 F420.000
G1 X3.817 Y1.052 F420.000
G1 X3.743 Y1.290 F420.000
G1 X3.650 Y1.522 F420.000
G1 X3.542 Y1.748 F420.000
G1 X3.422 Y1.968 F420.000
G1 X3.292 Y2.180 F420.000
G1 X3.147 Y2.382 F420.000
G1 X2.993 Y2.578 F420.000
G1 X2.825 Y2.763 F420.000
G1 X2.647 Y2.938 F420.000
G1 X2.460 Y3.103 F420.000
G1 X2.263 Y3.255 F420.000
G1 X2.053 Y3.390 F420.000
G1 X1.835 Y3.515 F420.000
G1 X1.610 Y3.625 F420.000
G1 X1.377 Y3.717 F420.000
G1 X1.140 Y3.795 F420.000
G1 X0.897 Y3.857 F420.000
G1 X0.652 Y3.908 F420.000
G1 X0.403 Y3.940 F420.000
G1 X0.152 Y3.958 F420.000
G1 X-0.095 Y3.967 F420.000
G1 X-0.343 Y3.958 F420.000
G1 X-0.590 Y3.935 F420.000
G1 X-0.835 Y3.890 F420.000
G1 X-1.077 Y3.833 F420.000
G1 X-1.315 Y3.760 F420.000
G1 X-1.548 Y3.670 F420.000
G1 X-1.775 Y3.567 F420.000
G1 X-1.995 Y3.450 F420.000
G1 X-2.208 Y3.317 F420.000
G1 X-2.410 Y3.172 F420.000
G1 X-2.603 Y3.013 F420.000
G1 X-2.785 Y2.840 F420.000
G1 X-2.955 Y2.658 F420.000
G1 X-3.112 Y2.462 F420.000
G1 X-3.257 Y2.257 F420.000
G1 X-3.395 Y2.047 F420.000
G1 X-3.515 Y1.827 F420.000
G1 X-3.623 Y1.603 F420.000
G1 X-3.717 Y1.370 F420.000
G1 X-3.797 Y1.133 F420.000
G1 X-3.865 Y0.890 F420.000
G1 X-3.917 Y0.645 F420.000
G1 X-3.955 Y0.398 F420.000
G1 X-3.967 Y0.147 F420.000
G1 X-3.970 Y-0.100 F420.000
G1 X-3.960 Y-0.347 F420.000
G1 X-3.933 Y-0.595 F420.000
G1 X-3.893 Y-0.840 F420.000
G1 X-3.837 Y-1.083 F420.000
G1 X-3.770 Y-1.323 F420.000
G1 X-3.678 Y-1.555 F420.000
G1 X-3.575 Y-1.782 F420.000
G1 X-3.458 Y-2.002 F420.000
G1 X-3.330 Y-2.217 F420.000
G1 X-3.188 Y-2.422 F420.000
G1 X-3.033 Y-2.618 F420.000
G1 X-2.868 Y-2.805 F420.000
G1 X-2.690 Y-2.980 F420.000
G1 X-2.502 Y-3.145 F420.000
G1 X-2.305 Y-3.297 F420.000
G1 X-2.098 Y-3.438 F420.000
G1 X-1.883 Y-3.565 F420.000
G1 X-1.660 Y-3.680 F420.000
G1 X-1.433 Y-3.785 F420.000
G1 X-1.198 Y-3.875 F420.000
G1 X-0.960 Y-3.953 F420.000
G1 X-0.718 Y-4.018 F420.000
G1 X-0.472 Y-4.067 F420.000
G1 X-0.225 Y-4.105 F420.000
G1 X0.022 Y-4.117 F420.000
G1 X0.270 Y-4.120 F420.000
G1 X0.517 Y-4.105 F420.000
G1 X0.765 Y-4.070 F420.000
G1 X1.010 Y-4.020 F420.000
G1 X1.252 Y-3.960 F420.000
G1 X1.490 Y-3.882 F420.000
G1 X1.722 Y-3.792 F420.000
G1 X1.950 Y-3.690 F420.000
G1 X2.170 Y-3.572 F420.000
G1 X2.382 Y-3.442 F420.000
G1 X2.587 Y-3.300 F420.000
G1 X2.783 Y-3.145 F420.000
G1 X2.970 Y-2.978 F420.000
G1 X3.147 Y-2.800 F420.000
G1 X3.312 Y-2.612 F420.000
G1 X3.467 Y-2.415 F420.000
G1 X3.610 Y-2.210 F420.000
G1 X3.740 Y-1.995 F420.000
G1 X3.857 Y-1.772 F420.000
G1 X3.960 Y-1.545 F420.000
G1 X4.050 Y-1.310 F420.000
G1 X4.125 Y-1.070 F420.000
G1 X4.188 Y-0.828 F420.000
G1 X4.235 Y-0.580 F420.000
G1 X4.268 Y-0.330 F420.000
G1 X4.285 Y-0.080 F420.000
G1 X4.287 Y0.168 F420.000
G1 X4.265 Y0.415 F420.000
G1 X4.232 Y0.662 F420.000
G1 X4.183 Y0.907 F420.000
G1 X4.122 Y1.150 F420.000
G1 X4.045 Y1.387 F420.000
G1 X3.953 Y1.620 F420.000
G1 X3.848 Y1.847 F420.000
G1 X3.735 Y2.070 F420.000
G1 X3.607 Y2.285 F420.000
G1 X3.467 Y2.493 F420.000
G1 X3.317 Y2.692 F420.000
G1 X3.158 Y2.885 F420.000
G1 X2.987 Y3.067 F420.000
G1 X2.808 Y3.240 F420.000
G1 X2.612 Y3.397 F420.000
G1 X2.413 Y3.547 F420.000
G1 X2.203 Y3.683 F420.000
G1 X1.982 Y3.803 F420.000
G1 X1.758 Y3.910 F420.000
G1 X1.525 Y4.005 F420.000
G1 X1.288 Y4.085 F420.000
G1 X1.045 Y4.150 F420.000
G1 X0.800 Y4.205 F420.000
G1 X0.552 Y4.242 F420.000
G1 X0.302 Y4.268 F420.000
G1 X0.052 Y4.280 F420.000
G1 X-0.195 Y4.282 F420.000
G1 X-0.443 Y4.270 F420.000
G1 X-0.690 Y4.245 F420.000
G1 X-0.935 Y4.200 F420.000
G1 X-1.177 Y4.145 F420.000
G1 X-1.417 Y4.075 F420.000
G1 X-1.653 Y3.990 F420.000
G1 X-1.877 Y3.880 F420.000
G1 X-2.085 Y3.768 F420.000
G1 X-2.297 Y3.638 F420.000
G1 X-2.505 Y3.498 F420.000
G1 X-2.703 Y3.345 F420.000
G1 X-2.893 Y3.183 F420.000
G1 X-3.072 Y3.010 F420.000
G1 X-3.237 Y2.822 F420.000
G1 X-3.395 Y2.627 F420.000
G1 X-3.540 Y2.422 F420.000
G1 X-3.670 Y2.208 F420.000
G1 X-3.792 Y1.990 F420.000
G1 X-3.900 Y1.762 F420.000
G1 X-3.995 Y1.530 F420.000
G1 X-4.077 Y1.292 F420.000
G1 X-4.150 Y1.052 F420.000
G1 X-4.207 Y0.807 F420.000
G1 X-4.255 Y0.560 F420.000
G1 X-4.277 Y0.310 F420.000
G1 X-4.293 Y0.060 F420.000
G1 X-4.290 Y-0.188 F420.000
G1 X-4.275 Y-0.435 F420.000
G1 X-4.245 Y-0.682 F420.000
G1 X-4.202 Y-0.927 F420.000
G1 X-4.145 Y-1.170 F420.000
G1 X-4.075 Y-1.410 F420.000
G1 X-3.990 Y-1.645 F420.000
G1 X-3.893 Y-1.875 F420.000
G1 X-3.783 Y-2.100 F420.000
G1 X-3.660 Y-2.317 F420.000
G1 X-3.525 Y-2.527 F420.000
G1 X-3.375 Y-2.728 F420.000
G1 X-3.215 Y-2.920 F420.000
G1 X-3.042 Y-3.100 F420.000
G1 X-2.857 Y-3.270 F420.000
G1 X-2.665 Y-3.428 F420.000
G1 X-2.465 Y-3.580 F420.000
G1 X-2.255 Y-3.717 F420.000
G1 X-2.038 Y-3.842 F420.000
G1 X-1.815 Y-3.958 F420.000
G1 X-1.590 Y-4.065 F420.000
G1 X-1.357 Y-4.160 F420.000
G1 X-1.120 Y-4.245 F420.000
G1 X-0.877 Y-4.310 F420.000
G1 X-0.632 Y-4.365 F420.000
G1 X-0.385 Y-4.407 F420.000
G1 X-0.135 Y-4.433 F420.000
G1 X0.113 Y-4.445 F420.000
G1 X0.360 Y-4.445 F420.000
G1 X0.608 Y-4.420 F420.000
G1 X0.855 Y-4.385 F420.000
G1 X1.097 Y-4.332 F420.000
G1 X1.340 Y-4.272 F420.000
G1 X1.577 Y-4.195 F420.000
G1 X1.810 Y-4.105 F420.000
G1 X2.038 Y-4.005 F420.000
G1 X2.260 Y-3.890 F420.000
G1 X2.475 Y-3.763 F420.000
G1 X2.683 Y-3.625 F420.000
G1 X2.882 Y-3.475 F420.000
G1 X3.075 Y-3.315 F420.000
G1 X3.257 Y-3.145 F420.000
G1 X3.430 Y-2.965 F420.000
G1 X3.592 Y-2.775 F420.000
G1 X3.745 Y-2.578 F420.000
G1 X3.888 Y-2.370 F420.000
G1 X4.018 Y-2.155 F420.000
G1 X4.135 Y-1.935 F420.000
G1 X4.240 Y-1.708 F420.000
G1 X4.332 Y-1.475 F420.000
G1 X4.412 Y-1.238 F420.000
G1 X4.480 Y-0.995 F420.000
G1 X4.535 Y-0.750 F420.000
G1 X4.575 Y-0.502 F420.000
G1 X4.603 Y-0.253 F420.000
G1 X4.610 Y-0.003 F420.000
G1 X4.605 Y0.245 F420.000
G1 X4.585 Y0.492 F420.000
G1 X4.548 Y0.740 F420.000
G1 X4.497 Y0.985 F420.000
G1 X4.433 Y1.225 F420.000
G1 X4.360 Y1.462 F420.000
G1 X4.270 Y1.695 F420.000
G1 X4.173 Y1.925 F420.000
G1 X4.062 Y2.150 F420.000
G1 X3.942 Y2.368 F420.000
G1 X3.812 Y2.580 F420.000
G1 X3.672 Y2.785 F420.000
G1 X3.348 Y3.165 F420.000
G1 X3.170 Y3.340 F420.000
G1 X2.985 Y3.510 F420.000
G1 X2.790 Y3.667 F420.000
G1 X2.587 Y3.815 F420.000
G1 X2.377 Y3.953 F420.000
G1 X2.160 Y4.080 F420.000
G1 X1.933 Y4.185 F420.000
G1 X1.702 Y4.282 F420.000
G1 X1.465 Y4.365 F420.000
G1 X1.225 Y4.438 F420.000
G1 X0.980 Y4.495 F420.000
G1 X0.733 Y4.540 F420.000
G1 X0.482 Y4.572 F420.000
G1 X0.233 Y4.598 F420.000
G1 X-0.015 Y4.607 F420.000
G1 X-0.263 Y4.605 F420.000
G1 X-0.510 Y4.593 F420.000
G1 X-0.757 Y4.567 F420.000
G1 X-1.002 Y4.522 F420.000
G1 X-1.245 Y4.468 F420.000
G1 X-1.485 Y4.397 F420.000
G1 X-1.720 Y4.312 F420.000
G1 X-1.948 Y4.207 F420.000
G1 X-2.170 Y4.093 F420.000
G1 X-2.388 Y3.967 F420.000
G1 X-2.598 Y3.833 F420.000
G1 X-2.800 Y3.685 F420.000
G1 X-2.995 Y3.530 F420.000
G1 X-3.183 Y3.365 F420.000
G1 X-3.355 Y3.183 F420.000
G1 X-3.520 Y2.995 F420.000
G1 X-3.672 Y2.797 F420.000
G1 X-3.817 Y2.592 F420.000
G1 X-3.950 Y2.380 F420.000
G1 X-4.070 Y2.160 F420.000
G1 X-4.180 Y1.935 F420.000
G1 X-4.277 Y1.702 F420.000
G1 X-4.362 Y1.468 F420.000
G1 X-4.440 Y1.230 F420.000
G1 X-4.503 Y0.988 F420.000
G1 X-4.555 Y0.743 F420.000
G1 X-4.595 Y0.495 F420.000
G1 X-4.612 Y0.245 F420.000
G1 X-4.622 Y-0.003 F420.000
G1 X-4.615 Y-0.250 F420.000
G1 X-4.598 Y-0.497 F420.000
G1 X-4.567 Y-0.745 F420.000
G1 X-4.522 Y-0.990 F420.000
G1 X-4.468 Y-1.232 F420.000
G1 X-4.397 Y-1.472 F420.000
G1 X-4.317 Y-1.708 F420.000
G1 X-4.225 Y-1.940 F420.000
G1 X-4.120 Y-2.167 F420.000
G1 X-4.003 Y-2.388 F420.000
G1 X-3.875 Y-2.603 F420.000
G1 X-3.730 Y-2.808 F420.000
G1 X-3.578 Y-3.005 F420.000
G1 X-3.413 Y-3.192 F420.000
G1 X-3.237 Y-3.370 F420.000
G1 X-3.053 Y-3.538 F420.000
G1 X-2.857 Y-3.695 F420.000
G1 X-2.658 Y-3.845 F420.000
G1 X-2.447 Y-3.982 F420.000
G1 X-2.232 Y-4.112 F420.000
G1 X-2.013 Y-4.230 F420.000
G1 X-1.785 Y-4.338 F420.000
G1 X-1.555 Y-4.435 F420.000
G1 X-1.320 Y-4.522 F420.000
G1 X-1.080 Y-4.598 F420.000
G1 X-0.838 Y-4.662 F420.000
G1 X-0.593 Y-4.715 F420.000
G1 X-0.345 Y-4.755 F420.000
G1 X-0.095 Y-4.775 F420.000
G1 X0.152 Y-4.785 F420.000
G1 X0.400 Y-4.780 F420.000
G1 X0.647 Y-4.758 F420.000
G1 X0.895 Y-4.725 F420.000
G1 X1.140 Y-4.678 F420.000
G1 X1.380 Y-4.615 F420.000
G1 X1.617 Y-4.537 F420.000
G1 X1.850 Y-4.447 F420.000
G1 X2.080 Y-4.350 F420.000
G1 X2.303 Y-4.237 F420.000
G1 X2.732 Y-3.982 F420.000
G1 X2.938 Y-3.840 F420.000
G1 X3.135 Y-3.688 F420.000
G1 X3.328 Y-3.527 F420.000
G1 X3.510 Y-3.357 F420.000
G1 X3.685 Y-3.178 F420.000
G1 X3.848 Y-2.987 F420.000
G1 X4.003 Y-2.790 F420.000
G1 X4.145 Y-2.585 F420.000
G1 X4.277 Y-2.373 F420.000
G1 X4.400 Y-2.152 F420.000
G1 X4.510 Y-1.927 F420.000
G1 X4.607 Y-1.698 F420.000
G1 X4.692 Y-1.462 F420.000
G1 X4.765 Y-1.222 F420.000
G1 X4.825 Y-0.980 F420.000
G1 X4.872 Y-0.733 F420.000
G1 X4.907 Y-0.485 F420.000
G1 X4.930 Y-0.235 F420.000
G1 X4.938 Y0.013 F420.000
G1 X4.933 Y0.260 F420.000
G1 X4.915 Y0.507 F420.000
G1 X4.885 Y0.755 F420.000
G1 X4.840 Y1.000 F420.000
G1 X4.782 Y1.242 F420.000
G1 X4.713 Y1.482 F420.000
G1 X4.630 Y1.718 F420.000
G1 X4.535 Y1.948 F420.000
G1 X4.428 Y2.172 F420.000
G1 X4.310 Y2.393 F420.000
G1 X4.185 Y2.607 F420.000
G1 X4.048 Y2.815 F420.000
G1 X3.900 Y3.018 F420.000
G1 X3.745 Y3.212 F420.000
G1 X3.580 Y3.400 F420.000
G1 X3.408 Y3.580 F420.000
G1 X3.220 Y3.745 F420.000
G1 X3.025 Y3.902 F420.000
G1 X2.825 Y4.053 F420.000
G1 X2.615 Y4.188 F420.000
G1 X2.400 Y4.315 F420.000
G1 X2.178 Y4.430 F420.000
G1 X1.950 Y4.532 F420.000
G1 X1.718 Y4.625 F420.000
G1 X1.480 Y4.705 F420.000
G1 X1.238 Y4.772 F420.000
G1 X0.993 Y4.827 F420.000
G1 X0.745 Y4.870 F420.000
G1 X0.497 Y4.905 F420.000
G1 X0.247 Y4.925 F420.000
G1 X0.000 Y4.935 F420.000
G1 X-0.247 Y4.935 F420.000
G1 X-0.495 Y4.923 F420.000
G1 X-0.743 Y4.897 F420.000
G1 X-0.990 Y4.862 F420.000
G1 X-1.235 Y4.815 F420.000
G1 X-1.475 Y4.747 F420.000
G1 X-1.710 Y4.662 F420.000
G1 X-1.940 Y4.567 F420.000
G1 X-2.167 Y4.465 F420.000
G1 X-2.390 Y4.350 F420.000
G1 X-2.605 Y4.225 F420.000
G1 X-2.815 Y4.090 F420.000
G1 X-3.018 Y3.945 F420.000
G1 X-3.212 Y3.790 F420.000
G1 X-3.395 Y3.620 F420.000
G1 X-3.572 Y3.442 F420.000
G1 X-3.737 Y3.255 F420.000
G1 X-4.037 Y2.855 F420.000
G1 X-4.173 Y2.643 F420.000
G1 X-4.300 Y2.428 F420.000
G1 X-4.418 Y2.205 F420.000
G1 X-4.522 Y1.978 F420.000
G1 X-4.620 Y1.745 F420.000
G1 X-4.705 Y1.510 F420.000
G1 X-4.780 Y1.270 F420.000
G1 X-4.845 Y1.028 F420.000
G1 X-4.888 Y0.780 F420.000
G1 X-4.923 Y0.530 F420.000
G1 X-4.942 Y0.280 F420.000
G1 X-4.950 Y0.030 F420.000
G1 X-4.945 Y-0.217 F420.000
G1 X-4.928 Y-0.465 F420.000
G1 X-4.902 Y-0.713 F420.000
G1 X-4.862 Y-0.958 F420.000
G1 X-4.812 Y-1.202 F420.000
G1 X-4.753 Y-1.445 F420.000
G1 X-4.680 Y-1.683 F420.000
G1 X-4.598 Y-1.917 F420.000
G1 X-4.503 Y-2.147 F420.000
G1 X-4.393 Y-2.373 F420.000
G1 X-4.275 Y-2.592 F420.000
G1 X-4.145 Y-2.805 F420.000
G1 X-4.003 Y-3.010 F420.000
G1 X-3.842 Y-3.203 F420.000
G1 X-3.675 Y-3.388 F420.000
G1 X-3.500 Y-3.567 F420.000
G1 X-3.317 Y-3.737 F420.000
G1 X-3.125 Y-3.897 F420.000
G1 X-2.928 Y-4.050 F420.000
G1 X-2.723 Y-4.192 F420.000
G1 X-2.295 Y-4.452 F420.000
G1 X-2.072 Y-4.567 F420.000
G1 X-1.845 Y-4.675 F420.000
G1 X-1.615 Y-4.772 F420.000
G1 X-1.380 Y-4.860 F420.000
G1 X-1.143 Y-4.938 F420.000
G1 X-0.897 Y-4.997 F420.000
G1 X-0.652 Y-5.050 F420.000
G1 X-0.405 Y-5.088 F420.000
G1 X-0.155 Y-5.110 F420.000
G1 X0.092 Y-5.122 F420.000
G1 X0.340 Y-5.122 F420.000
G1 X0.588 Y-5.107 F420.000
G1 X0.835 Y-5.080 F420.000
G1 X1.080 Y-5.040 F420.000
G1 X1.323 Y-4.980 F420.000
G1 X1.562 Y-4.910 F420.000
G1 X1.798 Y-4.830 F420.000
G1 X2.027 Y-4.737 F420.000
G1 X2.252 Y-4.633 F420.000
G1 X2.475 Y-4.520 F420.000
G1 X2.692 Y-4.395 F420.000
G1 X2.902 Y-4.263 F420.000
G1 X3.310 Y-3.973 F420.000
G1 X3.505 Y-3.815 F420.000
G1 X3.692 Y-3.650 F420.000
G1 X4.032 Y-3.283 F420.000
G1 X4.190 Y-3.087 F420.000
G1 X4.340 Y-2.888 F420.000
G1 X4.478 Y-2.680 F420.000
G1 X4.605 Y-2.465 F420.000
G1 X4.725 Y-2.245 F420.000
G1 X4.832 Y-2.018 F420.000
G1 X4.930 Y-1.788 F420.000
G1 X5.018 Y-1.552 F420.000
G1 X5.093 Y-1.312 F420.000
G1 X5.147 Y-1.067 F420.000
G1 X5.192 Y-0.820 F420.000
G1 X5.230 Y-0.573 F420.000
G1 X5.255 Y-0.323 F420.000
G1 X5.268 Y-0.072 F420.000
G1 X5.270 Y0.175 F420.000
G1 X5.260 Y0.422 F420.000
G1 X5.240 Y0.670 F420.000
G1 X5.197 Y0.915 F420.000
G1 X5.147 Y1.160 F420.000
G1 X5.082 Y1.400 F420.000
G1 X5.010 Y1.637 F420.000
G1 X4.923 Y1.870 F420.000
G1 X4.825 Y2.100 F420.000
G1 X4.718 Y2.325 F420.000
G1 X4.603 Y2.547 F420.000
G1 X4.475 Y2.763 F420.000
G1 X4.340 Y2.973 F420.000
G1 X4.197 Y3.178 F420.000
G1 X4.045 Y3.375 F420.000
G1 X3.885 Y3.567 F420.000
G1 X3.527 Y3.917 F420.000
G1 X3.337 Y4.080 F420.000
G1 X2.933 Y4.375 F420.000
G1 X2.720 Y4.508 F420.000
G1 X2.502 Y4.633 F420.000
G1 X2.280 Y4.747 F420.000
G1 X2.053 Y4.853 F420.000
G1 X1.817 Y4.942 F420.000
G1 X1.580 Y5.025 F420.000
G1 X1.340 Y5.095 F420.000
G1 X1.095 Y5.150 F420.000
G1 X0.848 Y5.195 F420.000
G1 X0.598 Y5.228 F420.000
G1 X0.347 Y5.253 F420.000
G1 X-0.150 Y5.272 F420.000
G1 X-0.398 Y5.268 F420.000
G1 X-0.645 Y5.253 F420.000
G1 X-0.892 Y5.223 F420.000
G1 X-1.137 Y5.173 F420.000
G1 X-1.380 Y5.115 F420.000
G1 X-1.620 Y5.048 F420.000
G1 X-1.855 Y4.963 F420.000
G1 X-2.085 Y4.867 F420.000
G1 X-2.310 Y4.763 F420.000
G1 X-2.533 Y4.650 F420.000
G1 X-2.748 Y4.525 F420.000
G1 X-2.958 Y4.390 F420.000
G1 X-3.163 Y4.247 F420.000
G1 X-3.360 Y4.095 F420.000
G1 X-3.550 Y3.935 F420.000
G1 X-3.728 Y3.760 F420.000
G1 X-3.900 Y3.578 F420.000
G1 X-4.062 Y3.388 F420.000
G1 X-4.213 Y3.188 F420.000
G1 X-4.353 Y2.980 F420.000
G1 X-4.485 Y2.768 F420.000
G1 X-4.610 Y2.550 F420.000
G1 X-4.725 Y2.328 F420.000
G1 X-4.832 Y2.100 F420.000
G1 X-4.930 Y1.870 F420.000
G1 X-5.018 Y1.635 F420.000
G1 X-5.095 Y1.397 F420.000
G1 X-5.205 Y0.907 F420.000
G1 X-5.242 Y0.660 F420.000
G1 X-5.265 Y0.410 F420.000
G1 X-5.277 Y0.160 F420.000
G1 X-5.282 Y-0.087 F420.000
G1 X-5.272 Y-0.335 F420.000
G1 X-5.253 Y-0.583 F420.000
G1 X-5.223 Y-0.830 F420.000
G1 X-5.180 Y-1.075 F420.000
G1 X-5.130 Y-1.320 F420.000
G1 X-5.067 Y-1.562 F420.000
G1 X-4.995 Y-1.800 F420.000
G1 X-4.915 Y-2.035 F420.000
G1 X-4.710 Y-2.487 F420.000
G1 X-4.593 Y-2.708 F420.000
G1 X-4.463 Y-2.920 F420.000
G1 X-4.322 Y-3.127 F420.000
G1 X-4.173 Y-3.328 F420.000
G1 X-4.013 Y-3.518 F420.000
G1 X-3.842 Y-3.700 F420.000
G1 X-3.663 Y-3.875 F420.000
G1 X-3.283 Y-4.200 F420.000
G1 X-3.080 Y-4.348 F420.000
G1 X-2.663 Y-4.622 F420.000
G1 X-2.447 Y-4.750 F420.000
G1 X-2.228 Y-4.870 F420.000
G1 X-2.005 Y-4.982 F420.000
G1 X-1.538 Y-5.162 F420.000
G1 X-1.300 Y-5.240 F420.000
G1 X-1.058 Y-5.303 F420.000
G1 X-0.812 Y-5.355 F420.000
G1 X-0.565 Y-5.400 F420.000
G1 X-0.315 Y-5.433 F420.000
G1 X-0.065 Y-5.455 F420.000
G1 X0.182 Y-5.457 F420.000
G1 X0.430 Y-5.452 F420.000
G1 X0.677 Y-5.435 F420.000
G1 X0.925 Y-5.400 F420.000
G1 X1.170 Y-5.355 F420.000
G1 X1.413 Y-5.298 F420.000
G1 X1.653 Y-5.230 F420.000
G1 X1.887 Y-5.150 F420.000
G1 X2.120 Y-5.060 F420.000
G1 X2.348 Y-4.960 F420.000
G1 X2.570 Y-4.848 F420.000
G1 X3.002 Y-4.598 F420.000
G1 X3.415 Y-4.315 F420.000
G1 X3.612 Y-4.162 F420.000
G1 X3.805 Y-4.003 F420.000
G1 X3.985 Y-3.830 F420.000
G1 X4.160 Y-3.652 F420.000
G1 X4.327 Y-3.467 F420.000
G1 X4.485 Y-3.272 F420.000
G1 X4.628 Y-3.065 F420.000
G1 X4.893 Y-2.638 F420.000
G1 X5.013 Y-2.417 F420.000
G1 X5.122 Y-2.192 F420.000
G1 X5.225 Y-1.965 F420.000
G1 X5.310 Y-1.730 F420.000
G1 X5.388 Y-1.492 F420.000
G1 X5.455 Y-1.250 F420.000
G1 X5.508 Y-1.005 F420.000
G1 X5.550 Y-0.757 F420.000
G1 X5.580 Y-0.507 F420.000
G1 X5.598 Y-0.258 F420.000
G1 X5.605 Y-0.007 F420.000
G1 X5.600 Y0.240 F420.000
G1 X5.582 Y0.487 F420.000
G1 X5.558 Y0.735 F420.000
G1 X5.520 Y0.980 F420.000
G1 X5.473 Y1.225 F420.000
G1 X5.415 Y1.468 F420.000
G1 X5.345 Y1.708 F420.000
G1 X5.258 Y1.940 F420.000
G1 X5.162 Y2.170 F420.000
G1 X5.060 Y2.397 F420.000
G1 X4.947 Y2.620 F420.000
G1 X4.825 Y2.837 F420.000
G1 X4.695 Y3.050 F420.000
G1 X4.558 Y3.257 F420.000
G1 X4.410 Y3.460 F420.000
G1 X4.255 Y3.655 F420.000
G1 X4.085 Y3.837 F420.000
G1 X3.910 Y4.015 F420.000
G1 X3.725 Y4.183 F420.000
G1 X3.533 Y4.343 F420.000
G1 X3.333 Y4.495 F420.000
G1 X2.917 Y4.775 F420.000
G1 X2.703 Y4.902 F420.000
G1 X2.482 Y5.020 F420.000
G1 X2.257 Y5.130 F420.000
G1 X2.027 Y5.230 F420.000
G1 X1.792 Y5.315 F420.000
G1 X1.555 Y5.393 F420.000
G1 X1.310 Y5.450 F420.000
G1 X0.815 Y5.540 F420.000
G1 X0.565 Y5.572 F420.000
G1 X0.315 Y5.593 F420.000
G1 X0.065 Y5.605 F420.000
G1 X-0.182 Y5.607 F420.000
G1 X-0.430 Y5.598 F420.000
G1 X-0.677 Y5.580 F420.000
G1 X-0.925 Y5.553 F420.000
G1 X-1.170 Y5.515 F420.000
G1 X-1.413 Y5.460 F420.000
G1 X-1.650 Y5.388 F420.000
G1 X-1.885 Y5.308 F420.000
G1 X-2.118 Y5.220 F420.000
G1 X-2.348 Y5.120 F420.000
G1 X-2.572 Y5.010 F420.000
G1 X-2.792 Y4.893 F420.000
G1 X-3.007 Y4.765 F420.000
G1 X-3.217 Y4.628 F420.000
G1 X-3.420 Y4.482 F420.000
G1 X-3.610 Y4.320 F420.000
G1 X-3.795 Y4.152 F420.000
G1 X-3.975 Y3.980 F420.000
G1 X-4.143 Y3.795 F420.000
G1 X-4.305 Y3.605 F420.000
G1 X-4.457 Y3.408 F420.000
G1 X-4.737 Y2.995 F420.000
G1 X-4.865 Y2.780 F420.000
G1 X-4.982 Y2.560 F420.000
G1 X-5.093 Y2.335 F420.000
G1 X-5.192 Y2.105 F420.000
G1 X-5.285 Y1.873 F420.000
G1 X-5.367 Y1.635 F420.000
G1 X-5.440 Y1.395 F420.000
G1 X-5.503 Y1.153 F420.000
G1 X-5.577 Y0.657 F420.000
G1 X-5.603 Y0.407 F420.000
G1 X-5.615 Y0.158 F420.000
G1 X-5.617 Y-0.090 F420.000
G1 X-5.610 Y-0.338 F420.000
G1 X-5.593 Y-0.585 F420.000
G1 X-5.565 Y-0.833 F420.000
G1 X-5.525 Y-1.077 F420.000
G1 X-5.475 Y-1.323 F420.000
G1 X-5.415 Y-1.565 F420.000
G1 X-5.345 Y-1.805 F420.000
G1 X-5.265 Y-2.040 F420.000
G1 X-5.175 Y-2.272 F420.000
G1 X-5.075 Y-2.500 F420.000
G1 X-4.965 Y-2.725 F420.000
G1 X-4.845 Y-2.945 F420.000
G1 X-4.715 Y-3.160 F420.000
G1 X-4.415 Y-3.560 F420.000
G1 X-4.250 Y-3.748 F420.000
G1 X-4.080 Y-3.930 F420.000
G1 X-3.900 Y-4.103 F420.000
G1 X-3.715 Y-4.270 F420.000
G1 X-3.325 Y-4.585 F420.000
G1 X-3.123 Y-4.730 F420.000
G1 X-2.913 Y-4.867 F420.000
G1 X-2.700 Y-4.997 F420.000
G1 X-2.482 Y-5.120 F420.000
G1 X-2.260 Y-5.235 F420.000
G1 X-2.033 Y-5.340 F420.000
G1 X-1.560 Y-5.510 F420.000
G1 X-1.320 Y-5.580 F420.000
G1 X-1.077 Y-5.643 F420.000
G1 X-0.833 Y-5.695 F420.000
G1 X-0.585 Y-5.737 F420.000
G1 X-0.335 Y-5.770 F420.000
G1 X-0.085 Y-5.790 F420.000
G1 X0.163 Y-5.800 F420.000
G1 X0.410 Y-5.790 F420.000
G1 X0.657 Y-5.772 F420.000
G1 X0.905 Y-5.742 F420.000
G1 X1.150 Y-5.697 F420.000
G1 X1.635 Y-5.582 F420.000
G1 X1.873 Y-5.510 F420.000
G1 X2.107 Y-5.428 F420.000
G1 X2.340 Y-5.338 F420.000
G1 X2.567 Y-5.237 F420.000
G1 X2.788 Y-5.122 F420.000
G1 X3.005 Y-5.000 F420.000
G1 X3.217 Y-4.867 F420.000
G1 X3.627 Y-4.582 F420.000
G1 X4.018 Y-4.268 F420.000
G1 X4.202 Y-4.100 F420.000
G1 X4.543 Y-3.732 F420.000
G1 X4.700 Y-3.540 F420.000
G1 X4.848 Y-3.337 F420.000
G1 X4.987 Y-3.130 F420.000
G1 X5.245 Y-2.700 F420.000
G1 X5.360 Y-2.478 F420.000
G1 X5.565 Y-2.020 F420.000
G1 X5.652 Y-1.785 F420.000
G1 X5.787 Y-1.302 F420.000
G1 X5.840 Y-1.058 F420.000
G1 X5.878 Y-0.810 F420.000
G1 X5.928 Y-0.310 F420.000
G1 X5.935 Y-0.060 F420.000
G1 X5.933 Y0.188 F420.000
G1 X5.923 Y0.435 F420.000
G1 X5.900 Y0.682 F420.000
G1 X5.867 Y0.930 F420.000
G1 X5.825 Y1.175 F420.000
G1 X5.772 Y1.417 F420.000
G1 X5.710 Y1.657 F420.000
G1 X5.638 Y1.895 F420.000
G1 X5.555 Y2.130 F420.000
G1 X5.463 Y2.360 F420.000
G1 X5.353 Y2.583 F420.000
G1 X5.112 Y3.020 F420.000
G1 X4.982 Y3.232 F420.000
G1 X4.697 Y3.645 F420.000
G1 X4.372 Y4.025 F420.000
G1 X4.200 Y4.205 F420.000
G1 X4.018 Y4.375 F420.000
G1 X3.830 Y4.540 F420.000
G1 X3.635 Y4.695 F420.000
G1 X3.433 Y4.843 F420.000
G1 X3.010 Y5.115 F420.000
G1 X2.792 Y5.237 F420.000
G1 X2.570 Y5.353 F420.000
G1 X2.342 Y5.460 F420.000
G1 X2.112 Y5.558 F420.000
G1 X1.875 Y5.640 F420.000
G1 X1.390 Y5.772 F420.000
G1 X1.145 Y5.827 F420.000
G1 X0.897 Y5.867 F420.000
G1 X0.647 Y5.900 F420.000
G1 X0.147 Y5.940 F420.000
G1 X-0.100 Y5.945 F420.000
G1 X-0.347 Y5.942 F420.000
G1 X-0.595 Y5.933 F420.000
G1 X-0.843 Y5.912 F420.000
G1 X-1.333 Y5.822 F420.000
G1 X-1.575 Y5.763 F420.000
G1 X-1.812 Y5.688 F420.000
G1 X-2.047 Y5.605 F420.000
G1 X-2.280 Y5.515 F420.000
G1 X-2.732 Y5.305 F420.000
G1 X-2.953 Y5.188 F420.000
G1 X-3.167 Y5.062 F420.000
G1 X-3.375 Y4.925 F420.000
G1 X-3.580 Y4.780 F420.000
G1 X-3.777 Y4.628 F420.000
G1 X-3.967 Y4.465 F420.000
G1 X-4.147 Y4.293 F420.000
G1 X-4.320 Y4.112 F420.000
G1 X-4.485 Y3.922 F420.000
G1 X-4.790 Y3.525 F420.000
G1 X-4.933 Y3.320 F420.000
G1 X-5.192 Y2.893 F420.000
G1 X-5.312 Y2.672 F420.000
G1 X-5.423 Y2.447 F420.000
G1 X-5.525 Y2.220 F420.000
G1 X-5.690 Y1.748 F420.000
G1 X-5.758 Y1.505 F420.000
G1 X-5.817 Y1.262 F420.000
G1 X-5.865 Y1.015 F420.000
G1 X-5.902 Y0.767 F420.000
G1 X-5.933 Y0.517 F420.000
G1 X-5.950 Y0.268 F420.000
G1 X-5.957 Y0.018 F420.000
G1 X-5.955 Y-0.230 F420.000
G1 X-5.942 Y-0.477 F420.000
G1 X-5.920 Y-0.725 F420.000
G1 X-5.888 Y-0.973 F420.000
G1 X-5.845 Y-1.218 F420.000
G1 X-5.793 Y-1.460 F420.000
G1 X-5.730 Y-1.700 F420.000
G1 X-5.657 Y-1.938 F420.000
G1 X-5.575 Y-2.172 F420.000
G1 X-5.485 Y-2.405 F420.000
G1 X-5.385 Y-2.632 F420.000
G1 X-5.275 Y-2.857 F420.000
G1 X-5.157 Y-3.078 F420.000
G1 X-5.030 Y-3.292 F420.000
G1 X-4.888 Y-3.498 F420.000
G1 X-4.737 Y-3.697 F420.000
G1 X-4.577 Y-3.890 F420.000
G1 X-4.232 Y-4.253 F420.000
G1 X-3.862 Y-4.590 F420.000
G1 X-3.667 Y-4.747 F420.000
G1 X-3.265 Y-5.043 F420.000
G1 X-3.055 Y-5.180 F420.000
G1 X-2.840 Y-5.310 F420.000
G1 X-2.623 Y-5.433 F420.000
G1 X-2.400 Y-5.548 F420.000
G1 X-1.938 Y-5.742 F420.000
G1 X-1.702 Y-5.827 F420.000
G1 X-1.462 Y-5.900 F420.000
G1 X-1.220 Y-5.965 F420.000
G1 X-0.975 Y-6.020 F420.000
G1 X-0.728 Y-6.062 F420.000
G1 X-0.477 Y-6.095 F420.000
G1 X-0.228 Y-6.117 F420.000
G1 X0.020 Y-6.130 F420.000
G1 X0.268 Y-6.133 F420.000
G1 X0.515 Y-6.125 F420.000
G1 X0.762 Y-6.098 F420.000
G1 X1.010 Y-6.062 F420.000
G1 X1.255 Y-6.020 F420.000
G1 X1.498 Y-5.968 F420.000
G1 X1.738 Y-5.905 F420.000
G1 X1.975 Y-5.832 F420.000
G1 X2.210 Y-5.753 F420.000
G1 X2.442 Y-5.662 F420.000
G1 X2.672 Y-5.565 F420.000
G1 X2.897 Y-5.457 F420.000
G1 X3.325 Y-5.202 F420.000
G1 X3.535 Y-5.067 F420.000
G1 X3.740 Y-4.925 F420.000
G1 X3.940 Y-4.775 F420.000
G1 X4.135 Y-4.617 F420.000
G1 X4.497 Y-4.272 F420.000
G1 X4.670 Y-4.090 F420.000
G1 X4.832 Y-3.900 F420.000
G1 X5.138 Y-3.502 F420.000
G1 X5.277 Y-3.295 F420.000
G1 X5.410 Y-3.083 F420.000
G1 X5.535 Y-2.865 F420.000
G1 X5.650 Y-2.643 F420.000
G1 X5.758 Y-2.417 F420.000
G1 X5.857 Y-2.188 F420.000
G1 X5.947 Y-1.952 F420.000
G1 X6.030 Y-1.715 F420.000
G1 X6.150 Y-1.228 F420.000
G1 X6.195 Y-0.980 F420.000
G1 X6.230 Y-0.733 F420.000
G1 X6.253 Y-0.482 F420.000
G1 X6.272 Y0.015 F420.000
G1 X6.268 Y0.263 F420.000
G1 X6.253 Y0.510 F420.000
G1 X6.230 Y0.757 F420.000
G1 X6.197 Y1.005 F420.000
G1 X6.155 Y1.250 F420.000
G1 X6.105 Y1.495 F420.000
G1 X6.045 Y1.738 F420.000
G1 X5.975 Y1.978 F420.000
G1 X5.890 Y2.212 F420.000
G1 X5.798 Y2.445 F420.000
G1 X5.695 Y2.672 F420.000
G1 X5.580 Y2.895 F420.000
G1 X5.330 Y3.328 F420.000
G1 X5.190 Y3.535 F420.000
G1 X4.890 Y3.935 F420.000
G1 X4.728 Y4.125 F420.000
G1 X4.558 Y4.310 F420.000
G1 X4.383 Y4.487 F420.000
G1 X4.200 Y4.657 F420.000
G1 X4.010 Y4.822 F420.000
G1 X3.815 Y4.980 F420.000
G1 X3.615 Y5.130 F420.000
G1 X3.408 Y5.270 F420.000
G1 X3.195 Y5.402 F420.000
G1 X2.978 Y5.527 F420.000
G1 X2.755 Y5.645 F420.000
G1 X2.530 Y5.753 F420.000
G1 X2.060 Y5.930 F420.000
G1 X1.820 Y6.005 F420.000
G1 X1.577 Y6.072 F420.000
G1 X1.333 Y6.130 F420.000
G1 X1.085 Y6.178 F420.000
G1 X0.838 Y6.218 F420.000
G1 X0.588 Y6.247 F420.000
G1 X0.338 Y6.268 F420.000
G1 X-0.160 Y6.287 F420.000
G1 X-0.407 Y6.282 F420.000
G1 X-0.655 Y6.270 F420.000
G1 X-1.150 Y6.205 F420.000
G1 X-1.395 Y6.160 F420.000
G1 X-1.637 Y6.103 F420.000
G1 X-1.877 Y6.035 F420.000
G1 X-2.115 Y5.957 F420.000
G1 X-2.348 Y5.870 F420.000
G1 X-2.578 Y5.772 F420.000
G1 X-2.803 Y5.665 F420.000
G1 X-3.022 Y5.548 F420.000
G1 X-3.237 Y5.420 F420.000
G1 X-3.655 Y5.145 F420.000
G1 X-4.050 Y4.840 F420.000
G1 X-4.240 Y4.678 F420.000
G1 X-4.588 Y4.320 F420.000
G1 X-4.907 Y3.935 F420.000
G1 X-5.200 Y3.527 F420.000
G1 X-5.335 Y3.317 F420.000
G1 X-5.585 Y2.882 F420.000
G1 X-5.697 Y2.660 F420.000
G1 X-5.803 Y2.433 F420.000
G1 X-5.973 Y1.960 F420.000
G1 X-6.112 Y1.478 F420.000
G1 X-6.168 Y1.232 F420.000
G1 X-6.213 Y0.985 F420.000
G1 X-6.250 Y0.738 F420.000
G1 X-6.277 Y0.487 F420.000
G1 X-6.298 Y0.237 F420.000
G1 X-6.308 Y-0.010 F420.000
G1 X-6.308 Y-0.258 F420.000
G1 X-6.293 Y-0.505 F420.000
G1 X-6.270 Y-0.752 F420.000
G1 X-6.237 Y-1.000 F420.000
G1 X-6.192 Y-1.245 F420.000
G1 X-6.077 Y-1.730 F420.000
G1 X-5.930 Y-2.205 F420.000
G1 X-5.845 Y-2.440 F420.000
G1 X-5.750 Y-2.670 F420.000
G1 X-5.643 Y-2.895 F420.000
G1 X-5.527 Y-3.118 F420.000
G1 X-5.402 Y-3.335 F420.000
G1 X-5.268 Y-3.545 F420.000
G1 X-5.125 Y-3.750 F420.000
G1 X-4.975 Y-3.950 F420.000
G1 X-4.815 Y-4.143 F420.000
G1 X-4.647 Y-4.327 F420.000
G1 X-4.473 Y-4.505 F420.000
G1 X-4.290 Y-4.675 F420.000
G1 X-3.908 Y-4.997 F420.000
G1 X-3.505 Y-5.295 F420.000
G1 X-3.297 Y-5.435 F420.000
G1 X-2.870 Y-5.695 F420.000
G1 X-2.647 Y-5.810 F420.000
G1 X-2.422 Y-5.918 F420.000
G1 X-2.192 Y-6.018 F420.000
G1 X-1.958 Y-6.107 F420.000
G1 X-1.720 Y-6.190 F420.000
G1 X-1.480 Y-6.263 F420.000
G1 X-0.990 Y-6.367 F420.000
G1 X-0.495 Y-6.440 F420.000
G1 X-0.245 Y-6.460 F420.000
G1 X0.003 Y-6.473 F420.000
G1 X0.250 Y-6.478 F420.000
G1 X0.745 Y-6.442 F420.000
G1 X0.993 Y-6.412 F420.000
G1 X1.238 Y-6.372 F420.000
G1 X1.482 Y-6.322 F420.000
G1 X1.725 Y-6.263 F420.000
G1 X1.965 Y-6.195 F420.000
G1 X2.203 Y-6.117 F420.000
G1 X2.435 Y-6.030 F420.000
G1 X2.665 Y-5.935 F420.000
G1 X2.890 Y-5.830 F420.000
G1 X3.112 Y-5.718 F420.000
G1 X3.330 Y-5.595 F420.000
G1 X3.752 Y-5.330 F420.000
G1 X3.958 Y-5.188 F420.000
G1 X4.353 Y-4.883 F420.000
G1 X4.715 Y-4.537 F420.000
G1 X5.053 Y-4.168 F420.000
G1 X5.210 Y-3.975 F420.000
G1 X5.362 Y-3.775 F420.000
G1 X5.508 Y-3.570 F420.000
G1 X5.645 Y-3.360 F420.000
G1 X5.775 Y-3.145 F420.000
G1 X5.897 Y-2.925 F420.000
G1 X6.010 Y-2.703 F420.000
G1 X6.115 Y-2.475 F420.000
G1 X6.213 Y-2.245 F420.000
G1 X6.295 Y-2.007 F420.000
G1 X6.370 Y-1.768 F420.000
G1 X6.435 Y-1.525 F420.000
G1 X6.487 Y-1.280 F420.000
G1 X6.532 Y-1.032 F420.000
G1 X6.565 Y-0.782 F420.000
G1 X6.605 Y-0.282 F420.000
G1 X6.610 Y0.215 F420.000
G1 X6.600 Y0.463 F420.000
G1 X6.555 Y0.958 F420.000
G1 X6.520 Y1.205 F420.000
G1 X6.478 Y1.450 F420.000
G1 X6.420 Y1.692 F420.000
G1 X6.355 Y1.933 F420.000
G1 X6.280 Y2.170 F420.000
G1 X6.195 Y2.405 F420.000
G1 X6.095 Y2.632 F420.000
G1 X5.987 Y2.857 F420.000
G1 X5.872 Y3.080 F420.000
G1 X5.615 Y3.507 F420.000
G1 X5.330 Y3.917 F420.000
G1 X5.178 Y4.115 F420.000
G1 X4.853 Y4.495 F420.000
G1 X4.683 Y4.678 F420.000
G1 X4.505 Y4.855 F420.000
G1 X4.122 Y5.178 F420.000
G1 X3.720 Y5.473 F420.000
G1 X3.510 Y5.610 F420.000
G1 X3.295 Y5.740 F420.000
G1 X3.078 Y5.862 F420.000
G1 X2.855 Y5.975 F420.000
G1 X2.627 Y6.080 F420.000
G1 X2.393 Y6.170 F420.000
G1 X1.917 Y6.330 F420.000
G1 X1.675 Y6.397 F420.000
G1 X1.430 Y6.457 F420.000
G1 X1.185 Y6.510 F420.000
G1 X0.938 Y6.555 F420.000
G1 X0.690 Y6.590 F420.000
G1 X0.440 Y6.617 F420.000
G1 X0.190 Y6.635 F420.000
G1 X-0.058 Y6.645 F420.000
G1 X-0.305 Y6.640 F420.000
G1 X-0.552 Y6.628 F420.000
G1 X-0.800 Y6.605 F420.000
G1 X-1.048 Y6.570 F420.000
G1 X-1.292 Y6.527 F420.000
G1 X-1.778 Y6.418 F420.000
G1 X-2.018 Y6.348 F420.000
G1 X-2.255 Y6.270 F420.000
G1 X-2.490 Y6.185 F420.000
G1 X-2.720 Y6.090 F420.000
G1 X-3.163 Y5.860 F420.000
G1 X-3.590 Y5.600 F420.000
G1 X-3.797 Y5.463 F420.000
G1 X-4.000 Y5.315 F420.000
G1 X-4.388 Y5.000 F420.000
G1 X-4.572 Y4.832 F420.000
G1 X-4.918 Y4.470 F420.000
G1 X-5.077 Y4.277 F420.000
G1 X-5.230 Y4.077 F420.000
G1 X-5.518 Y3.665 F420.000
G1 X-5.652 Y3.455 F420.000
G1 X-5.902 Y3.022 F420.000
G1 X-6.107 Y2.565 F420.000
G1 X-6.282 Y2.098 F420.000
G1 X-6.357 Y1.857 F420.000
G1 X-6.425 Y1.615 F420.000
G1 X-6.485 Y1.373 F420.000
G1 X-6.535 Y1.127 F420.000
G1 X-6.577 Y0.880 F420.000
G1 X-6.612 Y0.632 F420.000
G1 X-6.638 Y0.383 F420.000
G1 X-6.647 Y-0.115 F420.000
G1 X-6.643 Y-0.362 F420.000
G1 X-6.625 Y-0.610 F420.000
G1 X-6.600 Y-0.858 F420.000
G1 X-6.567 Y-1.105 F420.000
G1 X-6.525 Y-1.350 F420.000
G1 X-6.473 Y-1.593 F420.000
G1 X-6.412 Y-1.835 F420.000
G1 X-6.345 Y-2.075 F420.000
G1 X-6.268 Y-2.312 F420.000
G1 X-6.062 Y-2.810 F420.000
G1 X-5.735 Y-3.425 F420.000
G1 X-5.395 Y-3.942 F420.000
G1 X-5.168 Y-4.232 F420.000
G1 X-5.005 Y-4.423 F420.000
G1 X-4.665 Y-4.790 F420.000
G1 X-4.600 Y-4.840 F420.000
G1 X-4.415 Y-5.008 F420.000
G1 X-4.032 Y-5.330 F420.000
G1 X-3.800 Y-5.505 F420.000
G1 X-3.660 Y-5.588 F420.000
G1 X-3.245 Y-5.850 F420.000
G1 X-1.950 Y-6.425 F420.000
G1 X-1.155 Y-6.652 F420.000
G1 X-0.475 Y-6.760 F420.000
G1 X0.415 Y-6.793 F420.000
G1 X1.165 Y-6.718 F420.000
G1 X1.952 Y-6.540 F420.000
G1 X2.910 Y-6.173 F420.000
G1 X3.572 Y-5.808 F420.000
G1 X4.588 Y-5.060 F420.000
G1 X5.455 Y-4.133 F420.000
G1 X6.175 Y-3.010 F420.000
G1 X6.532 Y-2.205 F420.000
G1 X6.817 Y-1.052 F420.000
G1 X6.900 Y-0.253 F420.000
G1 X6.872 Y0.925 F420.000
G1 X6.763 Y1.600 F420.000
G1 X6.335 Y2.820 F420.000
G1 X5.615 Y4.035 F420.000
G1 X4.775 Y4.987 F420.000
G1 X4.138 Y5.530 F420.000
G1 X3.223 Y6.110 F420.000
G1 X2.420 Y6.470 F420.000
G1 X1.403 Y6.780 F420.000
G1 X0.522 Y6.928 F420.000
G1 X-0.260 Y6.960 F420.000
G1 X-0.935 Y6.907 F420.000
G1 X-1.798 Y6.740 F420.000
G1 X-2.725 Y6.410 F420.000
G1 X-3.632 Y5.923 F420.000
G1 X-4.525 Y5.265 F420.000
G1 X-5.420 Y4.310 F420.000
G1 X-5.835 Y3.723 F420.000
G1 X-6.310 Y2.822 F420.000
G1 X-6.655 Y1.857 F420.000
G1 X-6.857 Y0.978 F420.000
G1 X-6.935 Y0.217 F420.000
G1 X-6.910 Y-0.845 F420.000
G1 X-6.758 Y-1.708 F420.000
G1 X-6.353 Y-2.853 F420.000
G1 X-5.867 Y-3.748 F420.000
G1 X-5.197 Y-4.635 F420.000
G1 X-4.418 Y-5.383 F420.000
G1 X-3.730 Y-5.885 F420.000
G1 X-2.760 Y-6.397 F420.000
G1 X-1.810 Y-6.765 F420.000
G1 X-1.210 Y-6.900 F420.000
G1 X-0.290 Y-7.000 F420.000
G1 X0.440 Y-6.990 F420.000
G1 X1.377 Y-6.865 F420.000
G1 X2.353 Y-6.595 F420.000
G1 X3.217 Y-6.218 F420.000
G1 X3.600 Y-6.005 F420.000
G1 X4.157 Y-5.635 F420.000
G1 X4.888 Y-5.015 F420.000
G1 X5.350 Y-4.518 F420.000
G1 X5.878 Y-3.812 F420.000
G1 X6.162 Y-3.325 F420.000
G1 X6.460 Y-2.708 F420.000
G1 X6.690 Y-2.070 F420.000
G1 X6.900 Y-1.192 F420.000
G1 X6.995 Y-0.312 F420.000
G1 X6.968 Y0.680 F420.000
G1 X6.875 Y1.317 F420.000
G1 X6.652 Y2.180 F420.000
G1 X6.442 Y2.740 F420.000
G1 X6.173 Y3.308 F420.000
G1 X5.690 Y4.080 F420.000
G1 X4.853 Y5.048 F420.000
G1 X4.147 Y5.643 F420.000
G1 X3.365 Y6.145 F420.000
G1 X2.478 Y6.550 F420.000
G1 X1.500 Y6.840 F420.000
G1 X0.780 Y6.960 F420.000
G1 X-0.055 Y7.003 F420.000
G1 X-0.993 Y6.928 F420.000
G1 X-1.780 Y6.770 F420.000
G1 X-2.748 Y6.438 F420.000
G1 X-3.555 Y6.030 F420.000
G1 X-4.058 Y5.710 F420.000
G1 X-4.765 Y5.130 F420.000
G1 X-5.393 Y4.470 F420.000
G1 X-5.867 Y3.817 F420.000
G1 X-6.120 Y3.405 F420.000
G1 X-6.532 Y2.525 F420.000
G1 X-6.812 Y1.633 F420.000
G1 X-6.970 Y0.713 F420.000
G1 X-7.005 Y-0.155 F420.000
G1 X-6.923 Y-1.055 F420.000
G1 X-6.775 Y-1.768 F420.000
G1 X-6.505 Y-2.592 F420.000
G1 X-6.115 Y-3.408 F420.000
G1 X-5.737 Y-4.010 F420.000
G1 X-5.165 Y-4.730 F420.000
G1 X-4.500 Y-5.365 F420.000
G1 X-4.060 Y-5.710 F420.000
G1 X-3.442 Y-6.098 F420.000
G1 X-2.638 Y-6.490 F420.000
G1 X-2.220 Y-6.638 F420.000
G1 X-2.220 Y-6.638 F420.000
G1 X-2.178 Y-6.650 F420.000
G1 X-2.135 Y-6.652 F420.000
G1 X-2.135 Y-6.652 F420.000
G1 X-2.098 Y-6.685 F420.000
G1 X-2.098 Y-6.685 F420.000
G1 X-2.062 Y-6.710 F420.000
G1 X-2.022 Y-6.725 F420.000
G1 X-2.022 Y-6.725 F420.000
G1 X-1.750 Y-6.803 F420.000
G1 X-1.470 Y-6.867 F420.000
G1 X-1.137 Y-6.933 F420.000
G1 X-0.838 Y-6.975 F420.000
G1 X-0.475 Y-7.010 F420.000
G1 X-0.245 Y-7.022 F420.000
G1 X0.030 Y-7.025 F420.000
G1 X0.465 Y-7.010 F420.000
G1 X0.682 Y-6.990 F420.000
G1 X1.030 Y-6.947 F420.000
G1 X1.377 Y-6.885 F420.000
G1 X1.603 Y-6.838 F420.000
G1 X1.988 Y-6.735 F420.000
G1 X2.275 Y-6.643 F420.000
G1 X2.545 Y-6.548 F420.000
G1 X2.790 Y-6.442 F420.000
G1 X3.145 Y-6.277 F420.000
G1 X3.405 Y-6.143 F420.000
G1 X3.670 Y-5.987 F420.000
G1 X3.933 Y-5.820 F420.000
G1 X4.155 Y-5.662 F420.000
G1 X4.423 Y-5.452 F420.000
G1 X4.668 Y-5.247 F420.000
G1 X4.897 Y-5.032 F420.000
G1 X5.112 Y-4.812 F420.000
G1 X5.343 Y-4.555 F420.000
G1 X5.522 Y-4.338 F420.000
G1 X5.718 Y-4.080 F420.000
G1 X5.905 Y-3.805 F420.000
G1 X6.048 Y-3.570 F420.000
G1 X6.195 Y-3.310 F420.000
G1 X6.357 Y-2.980 F420.000
G1 X6.485 Y-2.700 F420.000
G1 X6.572 Y-2.475 F420.000
G1 X6.710 Y-2.078 F420.000
G1 X6.768 Y-1.880 F420.000
G1 X6.853 Y-1.528 F420.000
G1 X6.918 Y-1.215 F420.000
G1 X6.963 Y-0.915 F420.000
G1 X6.997 Y-0.600 F420.000
G1 X7.015 Y-0.335 F420.000
G1 X7.022 Y-0.028 F420.000
G1 X7.010 Y0.357 F420.000
G1 X6.990 Y0.667 F420.000
G1 X6.963 Y0.917 F420.000
G1 X6.910 Y1.245 F420.000
G1 X6.845 Y1.567 F420.000
G1 X6.763 Y1.883 F420.000
G1 X6.690 Y2.132 F420.000
G1 X6.558 Y2.513 F420.000
G1 X6.473 Y2.720 F420.000
G1 X6.325 Y3.045 F420.000
G1 X6.190 Y3.317 F420.000
G1 X6.035 Y3.587 F420.000
G1 X5.883 Y3.835 F420.000
G1 X5.710 Y4.085 F420.000
G1 X5.492 Y4.372 F420.000
G1 X5.295 Y4.610 F420.000
G1 X5.053 Y4.878 F420.000
G1 X4.900 Y5.032 F420.000
G1 X4.665 Y5.247 F420.000
G1 X4.370 Y5.497 F420.000
G1 X4.133 Y5.680 F420.000
G1 X3.928 Y5.820 F420.000
G1 X3.600 Y6.030 F420.000
G1 X3.350 Y6.175 F420.000
G1 X3.115 Y6.295 F420.000
G1 X2.752 Y6.463 F420.000
G1 X2.522 Y6.555 F420.000
G1 X2.240 Y6.657 F420.000
G1 X1.895 Y6.763 F420.000
G1 X1.390 Y6.888 F420.000
G1 X0.965 Y6.957 F420.000
G1 X0.672 Y6.992 F420.000
G1 X0.385 Y7.015 F420.000
G1 X0.048 Y7.025 F420.000
G1 X-0.247 Y7.018 F420.000
G1 X-0.522 Y7.003 F420.000
G1 X-0.907 Y6.963 F420.000
G1 X-1.192 Y6.918 F420.000
G1 X-1.512 Y6.855 F420.000
G1 X-1.778 Y6.793 F420.000
G1 X-2.060 Y6.707 F420.000
G1 X-2.445 Y6.580 F420.000
G1 X-2.688 Y6.487 F420.000
G1 X-2.990 Y6.353 F420.000
G1 X-3.283 Y6.207 F420.000
G1 X-3.507 Y6.082 F420.000
G1 X-3.815 Y5.895 F420.000
G1 X-4.067 Y5.725 F420.000
G1 X-4.303 Y5.550 F420.000
G1 X-4.532 Y5.362 F420.000
G1 X-4.795 Y5.128 F420.000
G1 X-5.013 Y4.920 F420.000
G1 X-5.237 Y4.680 F420.000
G1 X-5.440 Y4.442 F420.000
G1 X-5.628 Y4.202 F420.000
G1 X-5.830 Y3.915 F420.000
G1 X-5.970 Y3.697 F420.000
G1 X-6.145 Y3.400 F420.000
G1 X-6.280 Y3.138 F420.000
G1 X-6.433 Y2.820 F420.000
G1 X-6.550 Y2.538 F420.000
G1 X-6.630 Y2.317 F420.000
G1 X-6.755 Y1.930 F420.000
G1 X-6.825 Y1.667 F420.000
G1 X-6.885 Y1.393 F420.000
G1 X-6.950 Y1.050 F420.000
G1 X-6.987 Y0.735 F420.000
G1 X-7.015 Y0.410 F420.000
G1 X-7.025 Y0.175 F420.000
G1 X-7.022 Y-0.198 F420.000
G1 X-6.980 Y-0.795 F420.000
G1 X-6.940 Y-1.067 F420.000
G1 X-6.870 Y-1.452 F420.000
G1 X-6.808 Y-1.722 F420.000
G1 X-6.737 Y-1.980 F420.000
G1 X-6.625 Y-2.322 F420.000
G1 X-6.532 Y-2.578 F420.000
G1 X-6.397 Y-2.897 F420.000
G1 X-6.277 Y-3.145 F420.000
G1 X-6.128 Y-3.425 F420.000
G1 X-5.947 Y-3.728 F420.000
G1 X-5.772 Y-3.998 F420.000
G1 X-5.615 Y-4.215 F420.000
G1 X-5.378 Y-4.520 F420.000
G1 X-5.195 Y-4.730 F420.000
G1 X-5.010 Y-4.923 F420.000
G1 X-4.740 Y-5.178 F420.000
G1 X-4.513 Y-5.380 F420.000
G1 X-4.235 Y-5.605 F420.000
G1 X-4.060 Y-5.732 F420.000
G1 X-3.752 Y-5.935 F420.000
G1 X-3.473 Y-6.103 F420.000
G1 X-3.223 Y-6.240 F420.000
G1 X-2.945 Y-6.372 F420.000
G1 X-2.625 Y-6.515 F420.000
G1 X-2.022 Y-6.725 F420.000
G1 X-2.022 Y-6.725 F420.000
G0 Z5.000
(Helix to depth: -5.000000)
G0 Z5.000
G0 X-0.198 Y0.713 Z5.000
G0 X-0.198 Y0.713 Z3.000
G1 X-0.198 Y0.713 Z-4.000 F420.000
G1 X-0.198 Y0.713 Z-4.000 F420.000
G1 X-0.334 Y0.660 Z-4.013 F420.000
G1 X-0.456 Y0.583 Z-4.026 F420.000
G1 X-0.561 Y0.482 Z-4.039 F420.000
G1 X-0.644 Y0.364 Z-4.052 F420.000
G1 X-0.703 Y0.231 Z-4.064 F420.000
G1 X-0.735 Y0.089 Z-4.077 F420.000
G1 X-0.738 Y-0.056 Z-4.090 F420.000
G1 X-0.713 Y-0.198 Z-4.103 F420.000
G1 X-0.660 Y-0.334 Z-4.116 F420.000
G1 X-0.583 Y-0.456 Z-4.129 F420.000
G1 X-0.482 Y-0.561 Z-4.142 F420.000
G1 X-0.364 Y-0.644 Z-4.155 F420.000
G1 X-0.231 Y-0.703 Z-4.167 F420.000
G1 X-0.089 Y-0.735 Z-4.180 F420.000
G1 X0.056 Y-0.738 Z-4.193 F420.000
G1 X0.198 Y-0.713 Z-4.206 F420.000
G1 X0.334 Y-0.660 Z-4.219 F420.000
G1 X0.456 Y-0.583 Z-4.232 F420.000
G1 X0.561 Y-0.482 Z-4.245 F420.000
G1 X0.644 Y-0.364 Z-4.258 F420.000
G1 X0.703 Y-0.231 Z-4.271 F420.000
G1 X0.735 Y-0.089 Z-4.283 F420.000
G1 X0.738 Y0.056 Z-4.296 F420.000
G1 X0.713 Y0.198 Z-4.309 F420.000
G1 X0.660 Y0.334 Z-4.322 F420.000
G1 X0.583 Y0.456 Z-4.335 F420.000
G1 X0.482 Y0.561 Z-4.348 F420.000
G1 X0.364 Y0.644 Z-4.361 F420.000
G1 X0.231 Y0.703 Z-4.374 F420.000
G1 X0.089 Y0.735 Z-4.387 F420.000
G1 X-0.056 Y0.738 Z-4.399 F420.000
G1 X-0.198 Y0.713 Z-4.412 F420.000
G1 X-0.334 Y0.660 Z-4.425 F420.000
G1 X-0.456 Y0.583 Z-4.438 F420.000
G1 X-0.561 Y0.482 Z-4.451 F420.000
G1 X-0.644 Y0.364 Z-4.464 F420.000
G1 X-0.703 Y0.231 Z-4.477 F420.000
G1 X-0.735 Y0.089 Z-4.490 F420.000
G1 X-0.738 Y-0.056 Z-4.502 F420.000
G1 X-0.713 Y-0.198 Z-4.515 F420.000
G1 X-0.660 Y-0.334 Z-4.528 F420.000
G1 X-0.583 Y-0.456 Z-4.541 F420.000
G1 X-0.482 Y-0.561 Z-4.554 F420.000
G1 X-0.364 Y-0.644 Z-4.567 F420.000
G1 X-0.231 Y-0.703 Z-4.580 F420.000
G1 X-0.089 Y-0.735 Z-4.593 F420.000
G1 X0.056 Y-0.738 Z-4.606 F420.000
G1 X0.198 Y-0.713 Z-4.618 F420.000
G1 X0.334 Y-0.660 Z-4.631 F420.000
G1 X0.456 Y-0.583 Z-4.644 F420.000
G1 X0.561 Y-0.482 Z-4.657 F420.000
G1 X0.644 Y-0.364 Z-4.670 F420.000
G1 X0.703 Y-0.231 Z-4.683 F420.000
G1 X0.735 Y-0.089 Z-4.696 F420.000
G1 X0.738 Y0.056 Z-4.709 F420.000
G1 X0.713 Y0.198 Z-4.721 F420.000
G1 X0.660 Y0.334 Z-4.734 F420.000
G1 X0.583 Y0.456 Z-4.747 F420.000
G1 X0.482 Y0.561 Z-4.760 F420.000
G1 X0.364 Y0.644 Z-4.773 F420.000
G1 X0.231 Y0.703 Z-4.786 F420.000
G1 X0.089 Y0.735 Z-4.799 F420.000
G1 X-0.056 Y0.738 Z-4.812 F420.000
G1 X-0.198 Y0.713 Z-4.825 F420.000
G1 X-0.334 Y0.660 Z-4.837 F420.000
G1 X-0.456 Y0.583 Z-4.850 F420.000
G1 X-0.561 Y0.482 Z-4.863 F420.000
G1 X-0.644 Y0.364 Z-4.876 F420.000
G1 X-0.703 Y0.231 Z-4.889 F420.000
G1 X-0.735 Y0.089 Z-4.902 F420.000
G1 X-0.738 Y-0.056 Z-4.915 F420.000
G1 X-0.713 Y-0.198 Z-4.928 F420.000
G1 X-0.660 Y-0.334 Z-4.941 F420.000
G1 X-0.583 Y-0.456 Z-4.953 F420.000
G1 X-0.482 Y-0.561 Z-4.966 F420.000
G1 X-0.364 Y-0.644 Z-4.979 F420.000
G1 X-0.231 Y-0.703 Z-4.992 F420.000
G1 X-0.089 Y-0.735 Z-5.000 F420.000
G1 X0.056 Y-0.738 Z-5.000 F420.000
G1 X0.198 Y-0.713 Z-5.000 F420.000
G1 X0.334 Y-0.660 Z-5.000 F420.000
G1 X0.456 Y-0.583 Z-5.000 F420.000
G1 X0.561 Y-0.482 Z-5.000 F420.000
G1 X0.644 Y-0.364 Z-5.000 F420.000
G1 X0.703 Y-0.231 Z-5.000 F420.000
G1 X0.735 Y-0.089 Z-5.000 F420.000
G1 X0.738 Y0.056 Z-5.000 F420.000
G1 X0.713 Y0.198 Z-5.000 F420.000
G1 X0.660 Y0.334 Z-5.000 F420.000
G1 X0.583 Y0.456 Z-5.000 F420.000
G1 X0.482 Y0.561 Z-5.000 F420.000
G1 X0.364 Y0.644 Z-5.000 F420.000
G1 X0.231 Y0.703 Z-5.000 F420.000
G1 X0.089 Y0.735 Z-5.000 F420.000
G1 X-0.056 Y0.738 Z-5.000 F420.000
G1 X-0.198 Y0.713 Z-5.000 F420.000
G1 X-0.334 Y0.660 Z-5.000 F420.000
G1 X-0.456 Y0.583 Z-5.000 F420.000
G1 X-0.561 Y0.482 Z-5.000 F420.000
G1 X-0.644 Y0.364 Z-5.000 F420.000
G1 X-0.703 Y0.231 Z-5.000 F420.000
G1 X-0.735 Y0.089 Z-5.000 F420.000
G1 X-0.738 Y-0.056 Z-5.000 F420.000
G1 X-0.713 Y-0.198 Z-5.000 F420.000
G1 X-0.660 Y-0.334 Z-5.000 F420.000
G1 X-0.583 Y-0.456 Z-5.000 F420.000
G1 X-0.482 Y-0.561 Z-5.000 F420.000
G1 X-0.364 Y-0.644 Z-5.000 F420.000
G1 X-0.231 Y-0.703 Z-5.000 F420.000
(Adaptive - depth: -5.000000)
G1 X0.000 Y-0.750 F420.000
G1 X0.028 Y-0.777 F420.000
G1 X0.100 Y-0.805 F420.000
G1 X0.175 Y-0.818 F420.000
G1 X0.287 Y-0.810 F420.000
G1 X0.325 Y-0.802 F420.000
G1 X0.557 Y-0.713 F420.000
G1 X0.675 Y-0.620 F420.000
G1 X0.735 Y-0.552 F420.000
G1 X0.787 Y-0.477 F420.000
G1 X0.848 Y-0.370 F420.000
G1 X0.905 Y-0.215 F420.000
G1 X0.930 Y-0.070 F420.000
G1 X0.932 Y0.048 F420.000
G1 X0.917 Y0.168 F420.000
G1 X0.887 Y0.290 F420.000
G1 X0.830 Y0.432 F420.000
G1 X0.750 Y0.562 F420.000
G1 X0.662 Y0.660 F420.000
G1 X0.573 Y0.738 F420.000
G1 X0.463 Y0.812 F420.000
G1 X0.320 Y0.880 F420.000
G1 X0.182 Y0.920 F420.000
G1 X0.052 Y0.938 F420.000
G1 X-0.070 Y0.935 F420.000
G1 X-0.200 Y0.915 F420.000
G1 X-0.333 Y0.877 F420.000
G1 X-0.475 Y0.812 F420.000
G1 X-0.593 Y0.730 F420.000
G1 X-0.682 Y0.647 F420.000
G1 X-0.762 Y0.547 F420.000
G1 X-0.830 Y0.438 F420.000
G1 X-0.887 Y0.297 F420.000
G1 X-0.920 Y0.165 F420.000
G1 X-0.935 Y0.028 F420.000
G1 X-0.930 Y-0.110 F420.000
G1 X-0.905 Y-0.245 F420.000
G1 X-0.863 Y-0.378 F420.000
G1 X-0.797 Y-0.500 F420.000
G1 X-0.725 Y-0.600 F420.000
G1 X-0.630 Y-0.695 F420.000
G1 X-0.527 Y-0.777 F420.000
G1 X-0.400 Y-0.860 F420.000
G1 X-0.245 Y-0.940 F420.000
G1 X-0.045 Y-0.988 F420.000
G1 X0.220 Y-1.008 F420.000
G1 X0.465 Y-0.968 F420.000
G1 X0.652 Y-0.882 F420.000
G1 X0.738 Y-0.820 F420.000
G1 X0.805 Y-0.757 F420.000
G1 X0.885 Y-0.672 F420.000
G1 X0.993 Y-0.522 F420.000
G1 X1.067 Y-0.360 F420.000
G1 X1.105 Y-0.233 F420.000
G1 X1.127 Y-0.105 F420.000
G1 X1.135 Y0.035 F420.000
G1 X1.123 Y0.195 F420.000
G1 X1.090 Y0.352 F420.000
G1 X1.032 Y0.495 F420.000
G1 X0.970 Y0.613 F420.000
G1 X0.882 Y0.733 F420.000
G1 X0.782 Y0.838 F420.000
G1 X0.662 Y0.935 F420.000
G1 X0.535 Y1.012 F420.000
G1 X0.398 Y1.075 F420.000
G1 X0.250 Y1.117 F420.000
G1 X0.100 Y1.140 F420.000
G1 X-0.048 Y1.145 F420.000
G1 X-0.195 Y1.130 F420.000
G1 X-0.340 Y1.095 F420.000
G1 X-0.480 Y1.045 F420.000
G1 X-0.627 Y0.968 F420.000
G1 X-0.752 Y0.873 F420.000
G1 X-0.848 Y0.782 F420.000
G1 X-0.940 Y0.665 F420.000
G1 X-1.012 Y0.537 F420.000
G1 X-1.070 Y0.407 F420.000
G1 X-1.115 Y0.250 F420.000
G1 X-1.137 Y0.100 F420.000
G1 X-1.143 Y-0.050 F420.000
G1 X-1.125 Y-0.203 F420.000
G1 X-1.093 Y-0.350 F420.000
G1 X-1.035 Y-0.505 F420.000
G1 X-0.958 Y-0.640 F420.000
G1 X-0.877 Y-0.750 F420.000
G1 X-0.770 Y-0.860 F420.000
G1 X-0.657 Y-0.958 F420.000
G1 X-0.500 Y-1.060 F420.000
G1 X-0.355 Y-1.130 F420.000
G1 X-0.203 Y-1.185 F420.000
G1 X-0.035 Y-1.222 F420.000
G1 X0.128 Y-1.240 F420.000
G1 X0.290 Y-1.230 F420.000
G1 X0.427 Y-1.208 F420.000
G1 X0.575 Y-1.163 F420.000
G1 X0.713 Y-1.097 F420.000
G1 X0.838 Y-1.018 F420.000
G1 X0.953 Y-0.920 F420.000
G1 X1.055 Y-0.812 F420.000
G1 X1.155 Y-0.675 F420.000
G1 X1.230 Y-0.537 F420.000
G1 X1.290 Y-0.388 F420.000
G1 X1.333 Y-0.230 F420.000
G1 X1.355 Y-0.070 F420.000
G1 X1.357 Y0.087 F420.000
G1 X1.340 Y0.245 F420.000
G1 X1.305 Y0.400 F420.000
G1 X1.245 Y0.565 F420.000
G1 X1.170 Y0.713 F420.000
G1 X1.080 Y0.850 F420.000
G1 X0.973 Y0.978 F420.000
G1 X0.848 Y1.087 F420.000
G1 X0.728 Y1.173 F420.000
G1 X0.585 Y1.248 F420.000
G1 X0.438 Y1.305 F420.000
G1 X0.275 Y1.345 F420.000
G1 X0.113 Y1.367 F420.000
G1 X-0.065 Y1.375 F420.000
G1 X-0.247 Y1.360 F420.000
G1 X-0.417 Y1.320 F420.000
G1 X-0.555 Y1.272 F420.000
G1 X-0.705 Y1.198 F420.000
G1 X-0.840 Y1.107 F420.000
G1 X-0.963 Y1.002 F420.000
G1 X-1.073 Y0.882 F420.000
G1 X-1.165 Y0.750 F420.000
G1 X-1.242 Y0.608 F420.000
G1 X-1.302 Y0.455 F420.000
G1 X-1.343 Y0.297 F420.000
G1 X-1.367 Y0.135 F420.000
G1 X-1.373 Y-0.045 F420.000
G1 X-1.357 Y-0.210 F420.000
G1 X-1.323 Y-0.375 F420.000
G1 X-1.268 Y-0.537 F420.000
G1 X-1.195 Y-0.690 F420.000
G1 X-1.105 Y-0.835 F420.000
G1 X-0.998 Y-0.970 F420.000
G1 X-0.877 Y-1.090 F420.000
G1 X-0.743 Y-1.198 F420.000
G1 X-0.595 Y-1.288 F420.000
G1 X-0.440 Y-1.360 F420.000
G1 X-0.275 Y-1.415 F420.000
G1 X-0.105 Y-1.455 F420.000
G1 X0.085 Y-1.475 F420.000
G1 X0.260 Y-1.475 F420.000
G1 X0.438 Y-1.448 F420.000
G1 X0.583 Y-1.410 F420.000
G1 X0.738 Y-1.347 F420.000
G1 X0.882 Y-1.270 F420.000
G1 X1.025 Y-1.170 F420.000
G1 X1.153 Y-1.058 F420.000
G1 X1.265 Y-0.930 F420.000
G1 X1.363 Y-0.790 F420.000
G1 X1.448 Y-0.642 F420.000
G1 X1.520 Y-0.470 F420.000
G1 X1.570 Y-0.300 F420.000
G1 X1.593 Y-0.122 F420.000
G1 X1.600 Y0.020 F420.000
G1 X1.593 Y0.198 F420.000
G1 X1.562 Y0.390 F420.000
G1 X1.505 Y0.575 F420.000
G1 X1.442 Y0.725 F420.000
G1 X1.355 Y0.885 F420.000
G1 X1.250 Y1.030 F420.000
G1 X1.133 Y1.160 F420.000
G1 X1.000 Y1.278 F420.000
G1 X0.855 Y1.380 F420.000
G1 X0.700 Y1.465 F420.000
G1 X0.535 Y1.532 F420.000
G1 X0.362 Y1.583 F420.000
G1 X0.188 Y1.613 F420.000
G1 X0.010 Y1.623 F420.000
G1 X-0.165 Y1.617 F420.000
G1 X-0.365 Y1.587 F420.000
G1 X-0.542 Y1.540 F420.000
G1 X-0.715 Y1.468 F420.000
G1 X-0.855 Y1.393 F420.000
G1 X-1.000 Y1.290 F420.000
G1 X-1.133 Y1.175 F420.000
G1 X-1.258 Y1.040 F420.000
G1 X-1.363 Y0.897 F420.000
G1 X-1.452 Y0.743 F420.000
G1 X-1.525 Y0.578 F420.000
G1 X-1.580 Y0.405 F420.000
G1 X-1.615 Y0.228 F420.000
G1 X-1.630 Y0.048 F420.000
G1 X-1.625 Y-0.130 F420.000
G1 X-1.600 Y-0.307 F420.000
G1 X-1.555 Y-0.480 F420.000
G1 X-1.492 Y-0.647 F420.000
G1 X-1.415 Y-0.810 F420.000
G1 X-1.308 Y-0.980 F420.000
G1 X-1.192 Y-1.127 F420.000
G1 X-1.060 Y-1.265 F420.000
G1 X-0.912 Y-1.390 F420.000
G1 X-0.750 Y-1.490 F420.000
G1 X-0.608 Y-1.560 F420.000
G1 X-0.443 Y-1.627 F420.000
G1 X-0.235 Y-1.690 F420.000
G1 X-0.018 Y-1.722 F420.000
G1 X0.150 Y-1.730 F420.000
G1 X0.315 Y-1.720 F420.000
G1 X0.497 Y-1.692 F420.000
G1 X0.703 Y-1.637 F420.000
G1 X0.875 Y-1.565 F420.000
G1 X1.020 Y-1.488 F420.000
G1 X1.173 Y-1.383 F420.000
G1 X1.305 Y-1.265 F420.000
G1 X1.425 Y-1.137 F420.000
G1 X1.542 Y-0.980 F420.000
G1 X1.640 Y-0.825 F420.000
G1 X1.735 Y-0.635 F420.000
G1 X1.795 Y-0.445 F420.000
G1 X1.833 Y-0.285 F420.000
G1 X1.855 Y-0.098 F420.000
G1 X1.860 Y0.083 F420.000
G1 X1.843 Y0.282 F420.000
G1 X1.808 Y0.468 F420.000
G1 X1.752 Y0.647 F420.000
G1 X1.677 Y0.828 F420.000
G1 X1.585 Y0.995 F420.000
G1 X1.475 Y1.153 F420.000
G1 X1.350 Y1.298 F420.000
G1 X1.210 Y1.430 F420.000
G1 X1.058 Y1.548 F420.000
G1 X0.892 Y1.650 F420.000
G1 X0.718 Y1.735 F420.000
G1 X0.535 Y1.800 F420.000
G1 X0.347 Y1.847 F420.000
G1 X0.155 Y1.875 F420.000
G1 X-0.035 Y1.883 F420.000
G1 X-0.225 Y1.870 F420.000
G1 X-0.412 Y1.837 F420.000
G1 X-0.598 Y1.790 F420.000
G1 X-0.802 Y1.712 F420.000
G1 X-0.978 Y1.617 F420.000
G1 X-1.115 Y1.528 F420.000
G1 X-1.262 Y1.405 F420.000
G1 X-1.395 Y1.275 F420.000
G1 X-1.528 Y1.113 F420.000
G1 X-1.635 Y0.950 F420.000
G1 X-1.728 Y0.775 F420.000
G1 X-1.802 Y0.590 F420.000
G1 X-1.853 Y0.398 F420.000
G1 X-1.883 Y0.228 F420.000
G1 X-1.893 Y0.037 F420.000
G1 X-1.885 Y-0.145 F420.000
G1 X-1.855 Y-0.345 F420.000
G1 X-1.812 Y-0.532 F420.000
G1 X-1.742 Y-0.740 F420.000
G1 X-1.657 Y-0.925 F420.000
G1 X-1.550 Y-1.100 F420.000
G1 X-1.445 Y-1.240 F420.000
G1 X-1.317 Y-1.385 F420.000
G1 X-1.153 Y-1.530 F420.000
G1 X-0.995 Y-1.645 F420.000
G1 X-0.823 Y-1.750 F420.000
G1 X-0.637 Y-1.837 F420.000
G1 X-0.448 Y-1.905 F420.000
G1 X-0.250 Y-1.955 F420.000
G1 X-0.048 Y-1.985 F420.000
G1 X0.152 Y-1.995 F420.000
G1 X0.352 Y-1.985 F420.000
G1 X0.552 Y-1.955 F420.000
G1 X0.748 Y-1.905 F420.000
G1 X0.935 Y-1.830 F420.000
G1 X1.083 Y-1.755 F420.000
G1 X1.245 Y-1.655 F420.000
G1 X1.417 Y-1.522 F420.000
G1 X1.573 Y-1.377 F420.000
G1 X1.705 Y-1.220 F420.000
G1 X1.812 Y-1.067 F420.000
G1 X1.910 Y-0.892 F420.000
G1 X1.988 Y-0.710 F420.000
G1 X2.047 Y-0.522 F420.000
G1 X2.092 Y-0.330 F420.000
G1 X2.120 Y-0.102 F420.000
G1 X2.127 Y0.100 F420.000
G1 X2.115 Y0.307 F420.000
G1 X2.072 Y0.515 F420.000
G1 X2.025 Y0.677 F420.000
G1 X1.958 Y0.860 F420.000
G1 X1.855 Y1.070 F420.000
G1 X1.740 Y1.260 F420.000
G1 X1.605 Y1.427 F420.000
G1 X1.485 Y1.552 F420.000
G1 X1.333 Y1.683 F420.000
G1 X1.175 Y1.798 F420.000
G1 X0.970 Y1.915 F420.000
G1 X0.780 Y2.002 F420.000
G1 X0.583 Y2.072 F420.000
G1 X0.370 Y2.125 F420.000
G1 X0.158 Y2.147 F420.000
G1 X-0.013 Y2.152 F420.000
G1 X-0.207 Y2.145 F420.000
G1 X-0.438 Y2.115 F420.000
G1 X-0.662 Y2.062 F420.000
G1 X-0.868 Y1.982 F420.000
G1 X-1.012 Y1.913 F420.000
G1 X-1.183 Y1.808 F420.000
G1 X-1.337 Y1.695 F420.000
G1 X-1.518 Y1.540 F420.000
G1 X-1.680 Y1.370 F420.000
G1 X-1.810 Y1.192 F420.000
G1 X-1.903 Y1.040 F420.000
G1 X-1.992 Y0.853 F420.000
G1 X-2.060 Y0.662 F420.000
G1 X-2.107 Y0.475 F420.000
G1 X-2.140 Y0.278 F420.000
G1 X-2.160 Y0.052 F420.000
G1 X-2.158 Y-0.180 F420.000
G1 X-2.125 Y-0.398 F420.000
G1 X-2.087 Y-0.568 F420.000
G1 X-2.027 Y-0.765 F420.000
G1 X-1.930 Y-0.985 F420.000
G1 X-1.833 Y-1.165 F420.000
G1 X-1.715 Y-1.345 F420.000
G1 X-1.577 Y-1.512 F420.000
G1 X-1.430 Y-1.665 F420.000
G1 X-1.262 Y-1.800 F420.000
G1 X-1.103 Y-1.907 F420.000
G1 X-0.922 Y-2.010 F420.000
G1 X-0.715 Y-2.107 F420.000
G1 X-0.485 Y-2.190 F420.000
G1 X-0.265 Y-2.237 F420.000
G1 X-0.087 Y-2.263 F420.000
G1 X0.120 Y-2.275 F420.000
G1 X0.343 Y-2.268 F420.000
G1 X0.573 Y-2.232 F420.000
G1 X0.757 Y-2.190 F420.000
G1 X0.960 Y-2.120 F420.000
G1 X1.153 Y-2.030 F420.000
G1 X1.330 Y-1.927 F420.000
G1 X1.502 Y-1.810 F420.000
G1 X1.680 Y-1.660 F420.000
G1 X1.827 Y-1.502 F420.000
G1 X1.942 Y-1.357 F420.000
G1 X2.060 Y-1.183 F420.000
G1 X2.172 Y-0.970 F420.000
G1 X2.255 Y-0.775 F420.000
G1 X2.322 Y-0.568 F420.000
G1 X2.370 Y-0.350 F420.000
G1 X2.397 Y-0.135 F420.000
G1 X2.408 Y0.080 F420.000
G1 X2.395 Y0.295 F420.000
G1 X2.365 Y0.510 F420.000
G1 X2.315 Y0.720 F420.000
G1 X2.245 Y0.925 F420.000
G1 X2.158 Y1.123 F420.000
G1 X2.053 Y1.312 F420.000
G1 X1.923 Y1.488 F420.000
G1 X1.805 Y1.623 F420.000
G1 X1.660 Y1.768 F420.000
G1 X1.470 Y1.930 F420.000
G1 X1.265 Y2.075 F420.000
G1 X1.058 Y2.190 F420.000
G1 X0.877 Y2.272 F420.000
G1 X0.660 Y2.350 F420.000
G1 X0.445 Y2.402 F420.000
G1 X0.230 Y2.428 F420.000
G1 X0.050 Y2.435 F420.000
G1 X-0.150 Y2.433 F420.000
G1 X-0.398 Y2.410 F420.000
G1 X-0.642 Y2.365 F420.000
G1 X-0.880 Y2.288 F420.000
G1 X-1.045 Y2.217 F420.000
G1 X-1.210 Y2.127 F420.000
G1 X-1.380 Y2.018 F420.000
G1 X-1.577 Y1.873 F420.000
G1 X-1.762 Y1.705 F420.000
G1 X-1.915 Y1.525 F420.000
G1 X-2.022 Y1.380 F420.000
G1 X-2.138 Y1.188 F420.000
G1 X-2.230 Y1.000 F420.000
G1 X-2.315 Y0.777 F420.000
G1 X-2.375 Y0.562 F420.000
G1 X-2.417 Y0.343 F420.000
G1 X-2.440 Y0.115 F420.000
G1 X-2.442 Y-0.107 F420.000
G1 X-2.428 Y-0.330 F420.000
G1 X-2.393 Y-0.550 F420.000
G1 X-2.330 Y-0.765 F420.000
G1 X-2.263 Y-0.943 F420.000
G1 X-2.175 Y-1.135 F420.000
G1 X-2.053 Y-1.353 F420.000
G1 X-1.913 Y-1.560 F420.000
G1 X-1.755 Y-1.740 F420.000
G1 X-1.623 Y-1.873 F420.000
G1 X-1.450 Y-2.013 F420.000
G1 X-1.275 Y-2.138 F420.000
G1 X-1.058 Y-2.263 F420.000
G1 X-0.848 Y-2.362 F420.000
G1 X-0.627 Y-2.445 F420.000
G1 X-0.393 Y-2.510 F420.000
G1 X-0.160 Y-2.545 F420.000
G1 X0.025 Y-2.560 F420.000
G1 X0.240 Y-2.562 F420.000
G1 X0.485 Y-2.542 F420.000
G1 X0.730 Y-2.495 F420.000
G1 X0.922 Y-2.442 F420.000
G1 X1.140 Y-2.362 F420.000
G1 X1.345 Y-2.263 F420.000
G1 X1.530 Y-2.145 F420.000
G1 X1.683 Y-2.030 F420.000
G1 X1.843 Y-1.893 F420.000
G1 X2.018 Y-1.715 F420.000
G1 X2.178 Y-1.522 F420.000
G1 X2.312 Y-1.320 F420.000
G1 X2.417 Y-1.137 F420.000
G1 X2.515 Y-0.922 F420.000
G1 X2.590 Y-0.708 F420.000
G1 X2.647 Y-0.490 F420.000
G1 X2.685 Y-0.263 F420.000
G1 X2.703 Y-0.035 F420.000
G1 X2.700 Y0.190 F420.000
G1 X2.678 Y0.415 F420.000
G1 X2.635 Y0.637 F420.000
G1 X2.578 Y0.858 F420.000
G1 X2.493 Y1.093 F420.000
G1 X2.388 Y1.302 F420.000
G1 X2.288 Y1.472 F420.000
G1 X2.158 Y1.657 F420.000
G1 X1.995 Y1.845 F420.000
G1 X1.837 Y2.002 F420.000
G1 X1.657 Y2.152 F420.000
G1 X1.470 Y2.290 F420.000
G1 X1.255 Y2.417 F420.000
G1 X1.038 Y2.525 F420.000
G1 X0.805 Y2.605 F420.000
G1 X0.625 Y2.652 F420.000
G1 X0.407 Y2.695 F420.000
G1 X0.158 Y2.723 F420.000
G1 X-0.090 Y2.730 F420.000
G1 X-0.338 Y2.720 F420.000
G1 X-0.583 Y2.680 F420.000
G1 X-0.780 Y2.625 F420.000
G1 X-0.958 Y2.567 F420.000
G1 X-1.188 Y2.470 F420.000
G1 X-1.405 Y2.350 F420.000
G1 X-1.597 Y2.228 F420.000
G1 X-1.792 Y2.078 F420.000
G1 X-1.970 Y1.913 F420.000
G1 X-2.125 Y1.732 F420.000
G1 X-2.235 Y1.580 F420.000
G1 X-2.355 Y1.395 F420.000
G1 X-2.473 Y1.173 F420.000
G1 X-2.570 Y0.943 F420.000
G1 X-2.640 Y0.708 F420.000
G1 X-2.685 Y0.507 F420.000
G1 X-2.723 Y0.275 F420.000
G1 X-2.735 Y0.025 F420.000
G1 X-2.730 Y-0.205 F420.000
G1 X-2.705 Y-0.445 F420.000
G1 X-2.660 Y-0.685 F420.000
G1 X-2.587 Y-0.912 F420.000
G1 X-2.515 Y-1.097 F420.000
G1 X-2.420 Y-1.302 F420.000
G1 X-2.295 Y-1.520 F420.000
G1 X-2.155 Y-1.728 F420.000
G1 X-1.990 Y-1.915 F420.000
G1 X-1.853 Y-2.050 F420.000
G1 X-1.680 Y-2.205 F420.000
G1 X-1.480 Y-2.355 F420.000
G1 X-1.268 Y-2.490 F420.000
G1 X-1.042 Y-2.600 F420.000
G1 X-0.848 Y-2.680 F420.000
G1 X-0.615 Y-2.752 F420.000
G1 X-0.385 Y-2.808 F420.000
G1 X-0.138 Y-2.845 F420.000
G1 X0.110 Y-2.865 F420.000
G1 X0.357 Y-2.857 F420.000
G1 X0.565 Y-2.835 F420.000
G1 X0.797 Y-2.790 F420.000
G1 X1.020 Y-2.725 F420.000
G1 X1.232 Y-2.645 F420.000
G1 X1.440 Y-2.542 F420.000
G1 X1.637 Y-2.425 F420.000
G1 X1.827 Y-2.295 F420.000
G1 X2.020 Y-2.135 F420.000
G1 X2.192 Y-1.965 F420.000
G1 X2.355 Y-1.780 F420.000
G1 X2.502 Y-1.577 F420.000
G1 X2.632 Y-1.370 F420.000
G1 X2.745 Y-1.150 F420.000
G1 X2.840 Y-0.920 F420.000
G1 X2.908 Y-0.680 F420.000
G1 X2.947 Y-0.485 F420.000
G1 X2.982 Y-0.260 F420.000
G1 X2.998 Y-0.010 F420.000
G1 X2.995 Y0.237 F420.000
G1 X2.975 Y0.485 F420.000
G1 X2.925 Y0.730 F420.000
G1 X2.870 Y0.932 F420.000
G1 X2.788 Y1.160 F420.000
G1 X2.690 Y1.375 F420.000
G1 X2.567 Y1.593 F420.000
G1 X2.430 Y1.798 F420.000
G1 X2.277 Y1.992 F420.000
G1 X2.107 Y2.175 F420.000
G1 X1.917 Y2.337 F420.000
G1 X1.752 Y2.462 F420.000
G1 X1.558 Y2.592 F420.000
G1 X1.335 Y2.710 F420.000
G1 X1.115 Y2.808 F420.000
G1 X0.877 Y2.893 F420.000
G1 X0.635 Y2.955 F420.000
G1 X0.388 Y3.000 F420.000
G1 X0.138 Y3.025 F420.000
G1 X-0.110 Y3.030 F420.000
G1 X-0.357 Y3.015 F420.000
G1 X-0.605 Y2.982 F420.000
G1 X-0.848 Y2.922 F420.000
G1 X-1.048 Y2.857 F420.000
G1 X-1.265 Y2.765 F420.000
G1 X-1.472 Y2.663 F420.000
G1 X-1.685 Y2.533 F420.000
G1 X-1.887 Y2.385 F420.000
G1 X-2.080 Y2.225 F420.000
G1 X-2.252 Y2.042 F420.000
G1 X-2.388 Y1.880 F420.000
G1 X-2.530 Y1.683 F420.000
G1 X-2.660 Y1.468 F420.000
G1 X-2.772 Y1.245 F420.000
G1 X-2.862 Y1.010 F420.000
G1 X-2.925 Y0.802 F420.000
G1 X-2.978 Y0.562 F420.000
G1 X-3.015 Y0.328 F420.000
G1 X-3.033 Y0.077 F420.000
G1 X-3.030 Y-0.170 F420.000
G1 X-3.013 Y-0.417 F420.000
G1 X-2.975 Y-0.662 F420.000
G1 X-2.908 Y-0.902 F420.000
G1 X-2.840 Y-1.095 F420.000
G1 X-2.748 Y-1.320 F420.000
G1 X-2.635 Y-1.542 F420.000
G1 X-2.505 Y-1.755 F420.000
G1 X-2.353 Y-1.952 F420.000
G1 X-2.212 Y-2.112 F420.000
G1 X-2.038 Y-2.292 F420.000
G1 X-1.850 Y-2.458 F420.000
G1 X-1.653 Y-2.610 F420.000
G1 X-1.438 Y-2.737 F420.000
G1 X-1.255 Y-2.833 F420.000
G1 X-1.025 Y-2.933 F420.000
G1 X-0.790 Y-3.018 F420.000
G1 X-0.547 Y-3.085 F420.000
G1 X-0.302 Y-3.135 F420.000
G1 X-0.052 Y-3.160 F420.000
G1 X0.177 Y-3.170 F420.000
G1 X0.425 Y-3.160 F420.000
G1 X0.672 Y-3.130 F420.000
G1 X0.915 Y-3.072 F420.000
G1 X1.110 Y-3.013 F420.000
G1 X1.330 Y-2.928 F420.000
G1 X1.555 Y-2.822 F420.000
G1 X1.772 Y-2.700 F420.000
G1 X1.980 Y-2.562 F420.000
G1 X2.178 Y-2.410 F420.000
G1 X2.362 Y-2.243 F420.000
G1 X2.527 Y-2.055 F420.000
G1 X2.658 Y-1.890 F420.000
G1 X2.800 Y-1.685 F420.000
G1 X2.928 Y-1.470 F420.000
G1 X3.038 Y-1.245 F420.000
G1 X3.127 Y-1.010 F420.000
G1 X3.203 Y-0.777 F420.000
G1 X3.260 Y-0.532 F420.000
G1 X3.297 Y-0.285 F420.000
G1 X3.317 Y-0.035 F420.000
G1 X3.317 Y0.212 F420.000
G1 X3.290 Y0.460 F420.000
G1 X3.252 Y0.667 F420.000
G1 X3.197 Y0.905 F420.000
G1 X3.123 Y1.143 F420.000
G1 X3.030 Y1.375 F420.000
G1 X2.922 Y1.600 F420.000
G1 X2.792 Y1.812 F420.000
G1 X2.660 Y2.000 F420.000
G1 X2.500 Y2.192 F420.000
G1 X2.330 Y2.375 F420.000
G1 X2.145 Y2.545 F420.000
G1 X1.950 Y2.700 F420.000
G1 X1.745 Y2.842 F420.000
G1 X1.525 Y2.960 F420.000
G1 X1.330 Y3.050 F420.000
G1 X1.097 Y3.143 F420.000
G1 X0.858 Y3.217 F420.000
G1 X0.613 Y3.275 F420.000
G1 X0.365 Y3.317 F420.000
G1 X0.115 Y3.342 F420.000
G1 X-0.133 Y3.340 F420.000
G1 X-0.347 Y3.328 F420.000
G1 X-0.595 Y3.292 F420.000
G1 X-0.840 Y3.243 F420.000
G1 X-1.080 Y3.172 F420.000
G1 X-1.312 Y3.085 F420.000
G1 X-1.540 Y2.982 F420.000
G1 X-1.755 Y2.855 F420.000
G1 X-1.940 Y2.730 F420.000
G1 X-2.135 Y2.575 F420.000
G1 X-2.320 Y2.408 F420.000
G1 X-2.493 Y2.225 F420.000
G1 X-2.650 Y2.033 F420.000
G1 X-2.795 Y1.830 F420.000
G1 X-2.925 Y1.615 F420.000
G1 X-3.040 Y1.393 F420.000
G1 X-3.138 Y1.163 F420.000
G1 X-3.210 Y0.922 F420.000
G1 X-3.260 Y0.710 F420.000
G1 X-3.305 Y0.463 F420.000
G1 X-3.333 Y0.212 F420.000
G1 X-3.342 Y-0.035 F420.000
G1 X-3.337 Y-0.282 F420.000
G1 X-3.305 Y-0.530 F420.000
G1 X-3.263 Y-0.762 F420.000
G1 X-3.197 Y-1.002 F420.000
G1 X-3.112 Y-1.238 F420.000
G1 X-3.018 Y-1.468 F420.000
G1 X-2.902 Y-1.690 F420.000
G1 X-2.772 Y-1.903 F420.000
G1 X-2.630 Y-2.107 F420.000
G1 X-2.473 Y-2.300 F420.000
G1 X-2.300 Y-2.482 F420.000
G1 X-2.118 Y-2.652 F420.000
G1 X-1.923 Y-2.808 F420.000
G1 X-1.710 Y-2.940 F420.000
G1 X-1.518 Y-3.047 F420.000
G1 X-1.292 Y-3.158 F420.000
G1 X-1.060 Y-3.252 F420.000
G1 X-0.823 Y-3.333 F420.000
G1 X-0.580 Y-3.397 F420.000
G1 X-0.335 Y-3.447 F420.000
G1 X-0.085 Y-3.475 F420.000
G1 X0.163 Y-3.490 F420.000
G1 X0.410 Y-3.478 F420.000
G1 X0.632 Y-3.450 F420.000
G1 X0.877 Y-3.402 F420.000
G1 X1.117 Y-3.333 F420.000
G1 X1.347 Y-3.252 F420.000
G1 X1.577 Y-3.158 F420.000
G1 X1.800 Y-3.042 F420.000
G1 X2.015 Y-2.915 F420.000
G1 X2.220 Y-2.775 F420.000
G1 X2.415 Y-2.620 F420.000
G1 X2.592 Y-2.445 F420.000
G1 X2.745 Y-2.277 F420.000
G1 X2.902 Y-2.085 F420.000
G1 X3.042 Y-1.877 F420.000
G1 X3.170 Y-1.663 F420.000
G1 X3.283 Y-1.438 F420.000
G1 X3.382 Y-1.208 F420.000
G1 X3.465 Y-0.970 F420.000
G1 X3.533 Y-0.728 F420.000
G1 X3.585 Y-0.482 F420.000
G1 X3.620 Y-0.235 F420.000
G1 X3.630 Y0.013 F420.000
G1 X3.627 Y0.253 F420.000
G1 X3.605 Y0.500 F420.000
G1 X3.562 Y0.745 F420.000
G1 X3.505 Y0.988 F420.000
G1 X3.428 Y1.225 F420.000
G1 X3.333 Y1.455 F420.000
G1 X3.225 Y1.680 F420.000
G1 X3.100 Y1.895 F420.000
G1 X2.960 Y2.103 F420.000
G1 X2.808 Y2.300 F420.000
G1 X2.645 Y2.490 F420.000
G1 X2.470 Y2.667 F420.000
G1 X2.283 Y2.835 F420.000
G1 X2.087 Y2.990 F420.000
G1 X1.875 Y3.123 F420.000
G1 X1.677 Y3.232 F420.000
G1 X1.450 Y3.337 F420.000
G1 X1.218 Y3.430 F420.000
G1 X0.978 Y3.505 F420.000
G1 X0.733 Y3.565 F420.000
G1 X0.485 Y3.610 F420.000
G1 X0.235 Y3.638 F420.000
G1 X-0.013 Y3.650 F420.000
G1 X-0.260 Y3.645 F420.000
G1 X-0.507 Y3.625 F420.000
G1 X-0.752 Y3.587 F420.000
G1 X-0.995 Y3.535 F420.000
G1 X-1.232 Y3.458 F420.000
G1 X-1.452 Y3.373 F420.000
G1 X-1.677 Y3.265 F420.000
G1 X-1.893 Y3.138 F420.000
G1 X-2.098 Y2.998 F420.000
G1 X-2.297 Y2.848 F420.000
G1 X-2.482 Y2.680 F420.000
G1 X-2.658 Y2.500 F420.000
G1 X-2.820 Y2.310 F420.000
G1 X-2.973 Y2.112 F420.000
G1 X-3.110 Y1.903 F420.000
G1 X-3.235 Y1.685 F420.000
G1 X-3.348 Y1.460 F420.000
G1 X-3.438 Y1.225 F420.000
G1 X-3.515 Y0.990 F420.000
G1 X-3.575 Y0.748 F420.000
G1 X-3.615 Y0.500 F420.000
G1 X-3.640 Y0.250 F420.000
G1 X-3.652 Y0.000 F420.000
G1 X-3.645 Y-0.247 F420.000
G1 X-3.623 Y-0.495 F420.000
G1 X-3.585 Y-0.740 F420.000
G1 X-3.530 Y-0.983 F420.000
G1 X-3.460 Y-1.222 F420.000
G1 X-3.375 Y-1.458 F420.000
G1 X-3.268 Y-1.683 F420.000
G1 X-3.150 Y-1.895 F420.000
G1 X-3.018 Y-2.107 F420.000
G1 X-2.870 Y-2.310 F420.000
G1 X-2.710 Y-2.502 F420.000
G1 X-2.540 Y-2.685 F420.000
G1 X-2.357 Y-2.857 F420.000
G1 X-2.165 Y-3.018 F420.000
G1 X-1.958 Y-3.158 F420.000
G1 X-1.750 Y-3.280 F420.000
G1 X-1.528 Y-3.395 F420.000
G1 X-1.300 Y-3.498 F420.000
G1 X-1.065 Y-3.585 F420.000
G1 X-0.825 Y-3.658 F420.000
G1 X-0.580 Y-3.715 F420.000
G1 X-0.333 Y-3.757 F420.000
G1 X-0.083 Y-3.785 F420.000
G1 X0.165 Y-3.797 F420.000
G1 X0.412 Y-3.788 F420.000
G1 X0.660 Y-3.765 F420.000
G1 X0.905 Y-3.723 F420.000
G1 X1.147 Y-3.663 F420.000
G1 X1.385 Y-3.587 F420.000
G1 X1.617 Y-3.495 F420.000
G1 X1.843 Y-3.385 F420.000
G1 X2.060 Y-3.260 F420.000
G1 X2.270 Y-3.127 F420.000
G1 X2.470 Y-2.978 F420.000
G1 X2.660 Y-2.815 F420.000
G1 X2.840 Y-2.643 F420.000
G1 X3.007 Y-2.458 F420.000
G1 X3.165 Y-2.263 F420.000
G1 X3.310 Y-2.058 F420.000
G1 X3.440 Y-1.845 F420.000
G1 X3.558 Y-1.623 F420.000
G1 X3.660 Y-1.395 F420.000
G1 X3.748 Y-1.160 F420.000
G1 X3.820 Y-0.920 F420.000
G1 X3.877 Y-0.675 F420.000
G1 X3.920 Y-0.427 F420.000
G1 X3.947 Y-0.177 F420.000
G1 X3.953 Y0.070 F420.000
G1 X3.945 Y0.318 F420.000
G1 X3.920 Y0.565 F420.000
G1 X3.877 Y0.810 F420.000
G1 X3.817 Y1.052 F420.000
G1 X3.743 Y1.290 F420.000
G1 X3.650 Y1.522 F420.000
G1 X3.542 Y1.748 F420.000
G1 X3.422 Y1.968 F420.000
G1 X3.292 Y2.180 F420.000
G1 X3.147 Y2.382 F420.000
G1 X2.993 Y2.578 F420.000
G1 X2.825 Y2.763 F420.000
G1 X2.647 Y2.938 F420.000
G1 X2.460 Y3.103 F420.000
G1 X2.263 Y3.255 F420.000
G1 X2.053 Y3.390 F420.000
G1 X1.835 Y3.515 F420.000
G1 X1.610 Y3.625 F420.000
G1 X1.377 Y3.717 F420.000
G1 X1.140 Y3.795 F420.000
G1 X0.897 Y3.857 F420.000
G1 X0.652 Y3.908 F420.000
G1 X0.403 Y3.940 F420.000
G1 X0.152 Y3.958 F420.000
G1 X-0.095 Y3.967 F420.000
G1 X-0.343 Y3.958 F420.000
G1 X-0.590 Y3.935 F420.000
G1 X-0.835 Y3.890 F420.000
G1 X-1.077 Y3.833 F420.000
G1 X-1.315 Y3.760 F420.000
G1 X-1.548 Y3.670 F420.000
G1 X-1.775 Y3.567 F420.000
G1 X-1.995 Y3.450 F420.000
G1 X-2.208 Y3.317 F420.000
G1 X-2.410 Y3.172 F420.000
G1 X-2.603 Y3.013 F420.000
G1 X-2.785 Y2.840 F420.000
G1 X-2.955 Y2.658 F420.000
G1 X-3.112 Y2.462 F420.000
G1 X-3.257 Y2.257 F420.000
G1 X-3.395 Y2.047 F420.000
G1 X-3.515 Y1.827 F420.000
G1 X-3.623 Y1.603 F420.000
G1 X-3.717 Y1.370 F420.000
G1 X-3.797 Y1.133 F420.000
G1 X-3.865 Y0.890 F420.000
G1 X-3.917 Y0.645 F420.000
G1 X-3.955 Y0.398 F420.000
G1 X-3.967 Y0.147 F420.000
G1 X-3.970 Y-0.100 F420.000
G1 X-3.960 Y-0.347 F420.000
G1 X-3.933 Y-0.595 F420.000
G1 X-3.893 Y-0.840 F420.000
G1 X-3.837 Y-1.083 F420.000
G1 X-3.770 Y-1.323 F420.000
G1 X-3.678 Y-1.555 F420.000
G1 X-3.575 Y-1.782 F420.000
G1 X-3.458 Y-2.002 F420.000
G1 X-3.330 Y-2.217 F420.000
G1 X-3.188 Y-2.422 F420.000
G1 X-3.033 Y-2.618 F420.000
G1 X-2.868 Y-2.805 F420.000
G1 X-2.690 Y-2.980 F420.000
G1 X-2.502 Y-3.145 F420.000
G1 X-2.305 Y-3.297 F420.000
G1 X-2.098 Y-3.438 F420.000
G1 X-1.883 Y-3.565 F420.000
G1 X-1.660 Y-3.680 F420.000
G1 X-1.433 Y-3.785 F420.000
G1 X-1.198 Y-3.875 F420.000
G1 X-0.960 Y-3.953 F420.000
G1 X-0.718 Y-4.018 F420.000
G1 X-0.472 Y-4.067 F420.000
G1 X-0.225 Y-4.105 F420.000
G1 X0.022 Y-4.117 F420.000
G1 X0.270 Y-4.120 F420.000
G1 X0.517 Y-4.105 F420.000
G1 X0.765 Y-4.070 F420.000
G1 X1.010 Y-4.020 F420.000
G1 X1.252 Y-3.960 F420.000
G1 X1.490 Y-3.882 F420.000
G1 X1.722 Y-3.792 F420.000
G1 X1.950 Y-3.690 F420.000
G1 X2.170 Y-3.572 F420.000
G1 X2.382 Y-3.442 F420.000
G1 X2.587 Y-3.300 F420.000
G1 X2.783 Y-3.145 F420.000
G1 X2.970 Y-2.978 F420.000
G1 X3.147 Y-2.800 F420.000
G1 X3.312 Y-2.612 F420.000
G1 X3.467 Y-2.415 F420.000
G1 X3.610 Y-2.210 F420.000
G1 X3.740 Y-1.995 F420.000
G1 X3.857 Y-1.772 F420.000
G1 X3.960 Y-1.545 F420.000
G1 X4.050 Y-1.310 F420.000
G1 X4.125 Y-1.070 F420.000
G1 X4.188 Y-0.828 F420.000
G1 X4.235 Y-0.580 F420.000
G1 X4.268 Y-0.330 F420.000
G1 X4.285 Y-0.080 F420.000
G1 X4.287 Y0.168 F420.000
G1 X4.265 Y0.415 F420.000
G1 X4.232 Y0.662 F420.000
G1 X4.183 Y0.907 F420.000
G1 X4.122 Y1.150 F420.000
G1 X4.045 Y1.387 F420.000
G1 X3.953 Y1.620 F420.000
G1 X3.848 Y1.847 F420.000
G1 X3.735 Y2.070 F420.000
G1 X3.607 Y2.285 F420.000
G1 X3.467 Y2.493 F420.000
G1 X3.317 Y2.692 F420.000
G1 X3.158 Y2.885 F420.000
G1 X2.987 Y3.067 F420.000
G1 X2.808 Y3.240 F420.000
G1 X2.612 Y3.397 F420.000
G1 X2.413 Y3.547 F420.000
G1 X2.203 Y3.683 F420.000
G1 X1.982 Y3.803 F420.000
G1 X1.758 Y3.910 F420.000
G1 X1.525 Y4.005 F420.000
G1 X1.288 Y4.085 F420.000
G1 X1.045 Y4.150 F420.000
G1 X0.800 Y4.205 F420.000
G1 X0.552 Y4.242 F420.000
G1 X0.302 Y4.268 F420.000
G1 X0.052 Y4.280 F420.000
G1 X-0.195 Y4.282 F420.000
G1 X-0.443 Y4.270 F420.000
G1 X-0.690 Y4.245 F420.000
G1 X-0.935 Y4.200 F420.000
G1 X-1.177 Y4.145 F420.000
G1 X-1.417 Y4.075 F420.000
G1 X-1.653 Y3.990 F420.000
G1 X-1.877 Y3.880 F420.000
G1 X-2.085 Y3.768 F420.000
G1 X-2.297 Y3.638 F420.000
G1 X-2.505 Y3.498 F420.000
G1 X-2.703 Y3.345 F420.000
G1 X-2.893 Y3.183 F420.000
G1 X-3.072 Y3.010 F420.000
G1 X-3.237 Y2.822 F420.000
G1 X-3.395 Y2.627 F420.000
G1 X-3.540 Y2.422 F420.000
G1 X-3.670 Y2.208 F420.000
G1 X-3.792 Y1.990 F420.000
G1 X-3.900 Y1.762 F420.000
G1 X-3.995 Y1.530 F420.000
G1 X-4.077 Y1.292 F420.000
G1 X-4.150 Y1.052 F420.000
G1 X-4.207 Y0.807 F420.000
G1 X-4.255 Y0.560 F420.000
G1 X-4.277 Y0.310 F420.000
G1 X-4.293 Y0.060 F420.000
G1 X-4.290 Y-0.188 F420.000
G1 X-4.275 Y-0.435 F420.000
G1 X-4.245 Y-0.682 F420.000
G1 X-4.202 Y-0.927 F420.000
G1 X-4.145 Y-1.170 F420.000
G1 X-4.075 Y-1.410 F420.000
G1 X-3.990 Y-1.645 F420.000
G1 X-3.893 Y-1.875 F420.000
G1 X-3.783 Y-2.100 F420.000
G1 X-3.660 Y-2.317 F420.000
G1 X-3.525 Y-2.527 F420.000
G1 X-3.375 Y-2.728 F420.000
G1 X-3.215 Y-2.920 F420.000
G1 X-3.042 Y-3.100 F420.000
G1 X-2.857 Y-3.270 F420.000
G1 X-2.665 Y-3.428 F420.000
G1 X-2.465 Y-3.580 F420.000
G1 X-2.255 Y-3.717 F420.000
G1 X-2.038 Y-3.842 F420.000
G1 X-1.815 Y-3.958 F420.000
G1 X-1.590 Y-4.065 F420.000
G1 X-1.357 Y-4.160 F420.000
G1 X-1.120 Y-4.245 F420.000
G1 X-0.877 Y-4.310 F420.000
G1 X-0.632 Y-4.365 F420.000
G1 X-0.385 Y-4.407 F420.000
G1 X-0.135 Y-4.433 F420.000
G1 X0.113 Y-4.445 F420.000
G1 X0.360 Y-4.445 F420.000
G1 X0.608 Y-4.420 F420.000
G1 X0.855 Y-4.385 F420.000
G1 X1.097 Y-4.332 F420.000
G1 X1.340 Y-4.272 F420.000
G1 X1.577 Y-4.195 F420.000
G1 X1.810 Y-4.105 F420.000
G1 X2.038 Y-4.005 F420.000
G1 X2.260 Y-3.890 F420.000
G1 X2.475 Y-3.763 F420.000
G1 X2.683 Y-3.625 F420.000
G1 X2.882 Y-3.475 F420.000
G1 X3.075 Y-3.315 F420.000
G1 X3.257 Y-3.145 F420.000
G1 X3.430 Y-2.965 F420.000
G1 X3.592 Y-2.775 F420.000
G1 X3.745 Y-2.578 F420.000
G1 X3.888 Y-2.370 F420.000
G1 X4.018 Y-2.155 F420.000
G1 X4.135 Y-1.935 F420.000
G1 X4.240 Y-1.708 F420.000
G1 X4.332 Y-1.475 F420.000
G1 X4.412 Y-1.238 F420.000
G1 X4.480 Y-0.995 F420.000
G1 X4.535 Y-0.750 F420.000
G1 X4.575 Y-0.502 F420.000
G1 X4.603 Y-0.253 F420.000
G1 X4.610 Y-0.003 F420.000
G1 X4.605 Y0.245 F420.000
G1 X4.585 Y0.492 F420.000
G1 X4.548 Y0.740 F420.000
G1 X4.497 Y0.985 F420.000
G1 X4.433 Y1.225 F420.000
G1 X4.360 Y1.462 F420.000
G1 X4.270 Y1.695 F420.000
G1 X4.173 Y1.925 F420.000
G1 X4.062 Y2.150 F420.000
G1 X3.942 Y2.368 F420.000
G1 X3.812 Y2.580 F420.000
G1 X3.672 Y2.785 F420.000
G1 X3.348 Y3.165 F420.000
G1 X3.170 Y3.340 F420.000
G1 X2.985 Y3.510 F420.000
G1 X2.790 Y3.667 F420.000
G1 X2.587 Y3.815 F420.000
G1 X2.377 Y3.953 F420.000
G1 X2.160 Y4.080 F420.000
G1 X1.933 Y4.185 F420.000
G1 X1.702 Y4.282 F420.000
G1 X1.465 Y4.365 F420.000
G1 X1.225 Y4.438 F420.000
G1 X0.980 Y4.495 F420.000
G1 X0.733 Y4.540 F420.000
G1 X0.482 Y4.572 F420.000
G1 X0.233 Y4.598 F420.000
G1 X-0.015 Y4.607 F420.000
G1 X-0.263 Y4.605 F420.000
G1 X-0.510 Y4.593 F420.000
G1 X-0.757 Y4.567 F420.000
G1 X-1.002 Y4.522 F420.000
G1 X-1.245 Y4.468 F420.000
G1 X-1.485 Y4.397 F420.000
G1 X-1.720 Y4.312 F420.000
G1 X-1.948 Y4.207 F420.000
G1 X-2.170 Y4.093 F420.000
G1 X-2.388 Y3.967 F420.000
G1 X-2.598 Y3.833 F420.000
G1 X-2.800 Y3.685 F420.000
G1 X-2.995 Y3.530 F420.000
G1 X-3.183 Y3.365 F420.000
G1 X-3.355 Y3.183 F420.000
G1 X-3.520 Y2.995 F420.000
G1 X-3.672 Y2.797 F420.000
G1 X-3.817 Y2.592 F420.000
G1 X-3.950 Y2.380 F420.000
G1 X-4.070 Y2.160 F420.000
G1 X-4.180 Y1.935 F420.000
G1 X-4.277 Y1.702 F420.000
G1 X-4.362 Y1.468 F420.000
G1 X-4.440 Y1.230 F420.000
G1 X-4.503 Y0.988 F420.000
G1 X-4.555 Y0.743 F420.000
G1 X-4.595 Y0.495 F420.000
G1 X-4.612 Y0.245 F420.000
G1 X-4.622 Y-0.003 F420.000
G1 X-4.615 Y-0.250 F420.000
G1 X-4.598 Y-0.497 F420.000
G1 X-4.567 Y-0.745 F420.000
G1 X-4.522 Y-0.990 F420.000
G1 X-4.468 Y-1.232 F420.000
G1 X-4.397 Y-1.472 F420.000
G1 X-4.317 Y-1.708 F420.000
G1 X-4.225 Y-1.940 F420.000
G1 X-4.120 Y-2.167 F420.000
G1 X-4.003 Y-2.388 F420.000
G1 X-3.875 Y-2.603 F420.000
G1 X-3.730 Y-2.808 F420.000
G1 X-3.578 Y-3.005 F420.000
G1 X-3.413 Y-3.192 F420.000
