(Exported by FreeCAD)
(Post Processor: grbl_post)
(Output Time:2024-02-17 14:52:12.492413)
(Begin preamble)
G17 G90
G21
(Block-name: Fixture)
(Block-expand: 0)
(Block-enable: 1)
(Begin operation: Fixture)
(Path: Fixture)
G54
(Finish operation: Fixture)
(Block-name: 3mm Endmill001)
(Block-expand: 0)
(Block-enable: 1)
(Begin operation: 3mm Endmill001)
(Path: 3mm Endmill001)
(3mm Endmill001)
(Begin toolchange)
( M6 T2 )
M3 S8000
(Finish operation: 3mm Endmill001)
(Block-name: Adaptive001_8mm)
(Block-expand: 0)
(Block-enable: 1)
(Begin operation: Adaptive001_8mm)
(Path: Adaptive001_8mm)
(Adaptive001_8mm)
(Helix to depth: 2.000000)
G0 Z10.000
G0 X0.730 Y-0.842 Z10.000
G0 X0.730 Y-0.842 Z8.000
G1 X0.730 Y-0.842 Z5.000 F7.000
G1 X0.730 Y-0.842 Z5.000 F7.000
G1 X0.880 Y-0.683 Z4.981 F7.000
G1 X0.996 Y-0.499 Z4.961 F7.000
G1 X1.074 Y-0.295 Z4.942 F7.000
G1 X1.111 Y-0.080 Z4.923 F7.000
G1 X1.105 Y0.139 Z4.903 F7.000
G1 X1.057 Y0.352 Z4.884 F7.000
G1 X0.968 Y0.551 Z4.865 F7.000
G1 X0.842 Y0.730 Z4.846 F7.000
G1 X0.683 Y0.880 Z4.826 F7.000
G1 X0.499 Y0.996 Z4.807 F7.000
G1 X0.295 Y1.074 Z4.788 F7.000
G1 X0.080 Y1.111 Z4.768 F7.000
G1 X-0.139 Y1.105 Z4.749 F7.000
G1 X-0.352 Y1.057 Z4.730 F7.000
G1 X-0.551 Y0.968 Z4.710 F7.000
G1 X-0.730 Y0.842 Z4.691 F7.000
G1 X-0.880 Y0.683 Z4.672 F7.000
G1 X-0.996 Y0.499 Z4.652 F7.000
G1 X-1.074 Y0.295 Z4.633 F7.000
G1 X-1.111 Y0.080 Z4.614 F7.000
G1 X-1.105 Y-0.139 Z4.595 F7.000
G1 X-1.057 Y-0.352 Z4.575 F7.000
G1 X-0.968 Y-0.551 Z4.556 F7.000
G1 X-0.842 Y-0.730 Z4.537 F7.000
G1 X-0.683 Y-0.880 Z4.517 F7.000
G1 X-0.499 Y-0.996 Z4.498 F7.000
G1 X-0.295 Y-1.074 Z4.479 F7.000
G1 X-0.080 Y-1.111 Z4.459 F7.000
G1 X0.139 Y-1.105 Z4.440 F7.000
G1 X0.352 Y-1.057 Z4.421 F7.000
G1 X0.551 Y-0.968 Z4.401 F7.000
G1 X0.730 Y-0.842 Z4.382 F7.000
G1 X0.880 Y-0.683 Z4.363 F7.000
G1 X0.996 Y-0.499 Z4.343 F7.000
G1 X1.074 Y-0.295 Z4.324 F7.000
G1 X1.111 Y-0.080 Z4.305 F7.000
G1 X1.105 Y0.139 Z4.286 F7.000
G1 X1.057 Y0.352 Z4.266 F7.000
G1 X0.968 Y0.551 Z4.247 F7.000
G1 X0.842 Y0.730 Z4.228 F7.000
G1 X0.683 Y0.880 Z4.208 F7.000
G1 X0.499 Y0.996 Z4.189 F7.000
G1 X0.295 Y1.074 Z4.170 F7.000
G1 X0.080 Y1.111 Z4.150 F7.000
G1 X-0.139 Y1.105 Z4.131 F7.000
G1 X-0.352 Y1.057 Z4.112 F7.000
G1 X-0.551 Y0.968 Z4.092 F7.000
G1 X-0.730 Y0.842 Z4.073 F7.000
G1 X-0.880 Y0.683 Z4.054 F7.000
G1 X-0.996 Y0.499 Z4.035 F7.000
G1 X-1.074 Y0.295 Z4.015 F7.000
G1 X-1.111 Y0.080 Z3.996 F7.000
G1 X-1.105 Y-0.139 Z3.977 F7.000
G1 X-1.057 Y-0.352 Z3.957 F7.000
G1 X-0.968 Y-0.551 Z3.938 F7.000
G1 X-0.842 Y-0.730 Z3.919 F7.000
G1 X-0.683 Y-0.880 Z3.899 F7.000
G1 X-0.499 Y-0.996 Z3.880 F7.000
G1 X-0.295 Y-1.074 Z3.861 F7.000
G1 X-0.080 Y-1.111 Z3.841 F7.000
G1 X0.139 Y-1.105 Z3.822 F7.000
G1 X0.352 Y-1.057 Z3.803 F7.000
G1 X0.551 Y-0.968 Z3.784 F7.000
G1 X0.730 Y-0.842 Z3.764 F7.000
G1 X0.880 Y-0.683 Z3.745 F7.000
G1 X0.996 Y-0.499 Z3.726 F7.000
G1 X1.074 Y-0.295 Z3.706 F7.000
G1 X1.111 Y-0.080 Z3.687 F7.000
G1 X1.105 Y0.139 Z3.668 F7.000
G1 X1.057 Y0.352 Z3.648 F7.000
G1 X0.968 Y0.551 Z3.629 F7.000
G1 X0.842 Y0.730 Z3.610 F7.000
G1 X0.683 Y0.880 Z3.590 F7.000
G1 X0.499 Y0.996 Z3.571 F7.000
G1 X0.295 Y1.074 Z3.552 F7.000
G1 X0.080 Y1.111 Z3.532 F7.000
G1 X-0.139 Y1.105 Z3.513 F7.000
G1 X-0.352 Y1.057 Z3.494 F7.000
G1 X-0.551 Y0.968 Z3.475 F7.000
G1 X-0.730 Y0.842 Z3.455 F7.000
G1 X-0.880 Y0.683 Z3.436 F7.000
G1 X-0.996 Y0.499 Z3.417 F7.000
G1 X-1.074 Y0.295 Z3.397 F7.000
G1 X-1.111 Y0.080 Z3.378 F7.000
G1 X-1.105 Y-0.139 Z3.359 F7.000
G1 X-1.057 Y-0.352 Z3.339 F7.000
G1 X-0.968 Y-0.551 Z3.320 F7.000
G1 X-0.842 Y-0.730 Z3.301 F7.000
G1 X-0.683 Y-0.880 Z3.281 F7.000
G1 X-0.499 Y-0.996 Z3.262 F7.000
G1 X-0.295 Y-1.074 Z3.243 F7.000
G1 X-0.080 Y-1.111 Z3.224 F7.000
G1 X0.139 Y-1.105 Z3.204 F7.000
G1 X0.352 Y-1.057 Z3.185 F7.000
G1 X0.551 Y-0.968 Z3.166 F7.000
G1 X0.730 Y-0.842 Z3.146 F7.000
G1 X0.880 Y-0.683 Z3.127 F7.000
G1 X0.996 Y-0.499 Z3.108 F7.000
G1 X1.074 Y-0.295 Z3.088 F7.000
G1 X1.111 Y-0.080 Z3.069 F7.000
G1 X1.105 Y0.139 Z3.050 F7.000
G1 X1.057 Y0.352 Z3.030 F7.000
G1 X0.968 Y0.551 Z3.011 F7.000
G1 X0.842 Y0.730 Z2.992 F7.000
G1 X0.683 Y0.880 Z2.973 F7.000
G1 X0.499 Y0.996 Z2.953 F7.000
G1 X0.295 Y1.074 Z2.934 F7.000
G1 X0.080 Y1.111 Z2.915 F7.000
G1 X-0.139 Y1.105 Z2.895 F7.000
G1 X-0.352 Y1.057 Z2.876 F7.000
G1 X-0.551 Y0.968 Z2.857 F7.000
G1 X-0.730 Y0.842 Z2.837 F7.000
G1 X-0.880 Y0.683 Z2.818 F7.000
G1 X-0.996 Y0.499 Z2.799 F7.000
G1 X-1.074 Y0.295 Z2.779 F7.000
G1 X-1.111 Y0.080 Z2.760 F7.000
G1 X-1.105 Y-0.139 Z2.741 F7.000
G1 X-1.057 Y-0.352 Z2.721 F7.000
G1 X-0.968 Y-0.551 Z2.702 F7.000
G1 X-0.842 Y-0.730 Z2.683 F7.000
G1 X-0.683 Y-0.880 Z2.664 F7.000
G1 X-0.499 Y-0.996 Z2.644 F7.000
G1 X-0.295 Y-1.074 Z2.625 F7.000
G1 X-0.080 Y-1.111 Z2.606 F7.000
G1 X0.139 Y-1.105 Z2.586 F7.000
G1 X0.352 Y-1.057 Z2.567 F7.000
G1 X0.551 Y-0.968 Z2.548 F7.000
G1 X0.730 Y-0.842 Z2.528 F7.000
G1 X0.880 Y-0.683 Z2.509 F7.000
G1 X0.996 Y-0.499 Z2.490 F7.000
G1 X1.074 Y-0.295 Z2.470 F7.000
G1 X1.111 Y-0.080 Z2.451 F7.000
G1 X1.105 Y0.139 Z2.432 F7.000
G1 X1.057 Y0.352 Z2.413 F7.000
G1 X0.968 Y0.551 Z2.393 F7.000
G1 X0.842 Y0.730 Z2.374 F7.000
G1 X0.683 Y0.880 Z2.355 F7.000
G1 X0.499 Y0.996 Z2.335 F7.000
G1 X0.295 Y1.074 Z2.316 F7.000
G1 X0.080 Y1.111 Z2.297 F7.000
G1 X-0.139 Y1.105 Z2.277 F7.000
G1 X-0.352 Y1.057 Z2.258 F7.000
G1 X-0.551 Y0.968 Z2.239 F7.000
G1 X-0.730 Y0.842 Z2.219 F7.000
G1 X-0.880 Y0.683 Z2.200 F7.000
G1 X-0.996 Y0.499 Z2.181 F7.000
G1 X-1.074 Y0.295 Z2.162 F7.000
G1 X-1.111 Y0.080 Z2.142 F7.000
G1 X-1.105 Y-0.139 Z2.123 F7.000
G1 X-1.057 Y-0.352 Z2.104 F7.000
G1 X-0.968 Y-0.551 Z2.084 F7.000
G1 X-0.842 Y-0.730 Z2.065 F7.000
G1 X-0.683 Y-0.880 Z2.046 F7.000
G1 X-0.499 Y-0.996 Z2.026 F7.000
G1 X-0.295 Y-1.074 Z2.007 F7.000
G1 X-0.080 Y-1.111 Z2.000 F7.000
G1 X0.139 Y-1.105 Z2.000 F7.000
G1 X0.352 Y-1.057 Z2.000 F7.000
G1 X0.551 Y-0.968 Z2.000 F7.000
G1 X0.730 Y-0.842 Z2.000 F7.000
G1 X0.880 Y-0.683 Z2.000 F7.000
G1 X0.996 Y-0.499 Z2.000 F7.000
G1 X1.074 Y-0.295 Z2.000 F7.000
G1 X1.111 Y-0.080 Z2.000 F7.000
G1 X1.105 Y0.139 Z2.000 F7.000
G1 X1.057 Y0.352 Z2.000 F7.000
G1 X0.968 Y0.551 Z2.000 F7.000
G1 X0.842 Y0.730 Z2.000 F7.000
G1 X0.683 Y0.880 Z2.000 F7.000
G1 X0.499 Y0.996 Z2.000 F7.000
G1 X0.295 Y1.074 Z2.000 F7.000
G1 X0.080 Y1.111 Z2.000 F7.000
G1 X-0.139 Y1.105 Z2.000 F7.000
G1 X-0.352 Y1.057 Z2.000 F7.000
G1 X-0.551 Y0.968 Z2.000 F7.000
G1 X-0.730 Y0.842 Z2.000 F7.000
G1 X-0.880 Y0.683 Z2.000 F7.000
G1 X-0.996 Y0.499 Z2.000 F7.000
G1 X-1.074 Y0.295 Z2.000 F7.000
G1 X-1.111 Y0.080 Z2.000 F7.000
G1 X-1.105 Y-0.139 Z2.000 F7.000
G1 X-1.057 Y-0.352 Z2.000 F7.000
G1 X-0.968 Y-0.551 Z2.000 F7.000
G1 X-0.842 Y-0.730 Z2.000 F7.000
G1 X-0.683 Y-0.880 Z2.000 F7.000
G1 X-0.499 Y-0.996 Z2.000 F7.000
G1 X-0.295 Y-1.074 Z2.000 F7.000
(Adaptive - depth: 2.000000)
G1 X0.000 Y-1.124 F7.000
G1 X0.041 Y-1.165 F7.000
G1 X0.207 Y-1.214 F7.000
G1 X0.376 Y-1.218 F7.000
G1 X0.489 Y-1.199 F7.000
G1 X0.835 Y-1.064 F7.000
G1 X1.015 Y-0.917 F7.000
G1 X1.102 Y-0.823 F7.000
G1 X1.180 Y-0.707 F7.000
G1 X1.267 Y-0.553 F7.000
G1 X1.357 Y-0.308 F7.000
G1 X1.391 Y-0.086 F7.000
G1 X1.391 Y0.086 F7.000
G1 X1.372 Y0.259 F7.000
G1 X1.320 Y0.470 F7.000
G1 X1.233 Y0.673 F7.000
G1 X1.124 Y0.842 F7.000
G1 X1.004 Y0.985 F7.000
G1 X0.850 Y1.117 F7.000
G1 X0.684 Y1.226 F7.000
G1 X0.485 Y1.316 F7.000
G1 X0.286 Y1.376 F7.000
G1 X0.079 Y1.406 F7.000
G1 X-0.128 Y1.406 F7.000
G1 X-0.331 Y1.376 F7.000
G1 X-0.526 Y1.308 F7.000
G1 X-0.680 Y1.237 F7.000
G1 X-0.861 Y1.117 F7.000
G1 X-1.023 Y0.970 F7.000
G1 X-1.150 Y0.816 F7.000
G1 X-1.259 Y0.635 F7.000
G1 X-1.342 Y0.440 F7.000
G1 X-1.387 Y0.237 F7.000
G1 X-1.402 Y0.060 F7.000
G1 X-1.398 Y-0.132 F7.000
G1 X-1.361 Y-0.361 F7.000
G1 X-1.286 Y-0.571 F7.000
G1 X-1.195 Y-0.741 F7.000
G1 X-1.083 Y-0.898 F7.000
G1 X-0.944 Y-1.045 F7.000
G1 X-0.774 Y-1.177 F7.000
G1 X-0.602 Y-1.286 F7.000
G1 X-0.387 Y-1.395 F7.000
G1 X-0.147 Y-1.459 F7.000
G1 X0.312 Y-1.496 F7.000
G1 X0.680 Y-1.444 F7.000
G1 X0.936 Y-1.335 F7.000
G1 X1.060 Y-1.252 F7.000
G1 X1.173 Y-1.158 F7.000
G1 X1.312 Y-1.015 F7.000
G1 X1.462 Y-0.808 F7.000
G1 X1.568 Y-0.598 F7.000
G1 X1.632 Y-0.410 F7.000
G1 X1.673 Y-0.218 F7.000
G1 X1.695 Y0.008 F7.000
G1 X1.680 Y0.248 F7.000
G1 X1.643 Y0.466 F7.000
G1 X1.568 Y0.684 F7.000
G1 X1.477 Y0.868 F7.000
G1 X1.353 Y1.049 F7.000
G1 X1.207 Y1.211 F7.000
G1 X1.045 Y1.353 F7.000
G1 X0.846 Y1.489 F7.000
G1 X0.628 Y1.598 F7.000
G1 X0.406 Y1.669 F7.000
G1 X0.199 Y1.711 F7.000
G1 X-0.026 Y1.722 F7.000
G1 X-0.244 Y1.707 F7.000
G1 X-0.474 Y1.662 F7.000
G1 X-0.688 Y1.586 F7.000
G1 X-0.895 Y1.485 F7.000
G1 X-1.083 Y1.350 F7.000
G1 X-1.237 Y1.211 F7.000
G1 X-1.380 Y1.041 F7.000
G1 X-1.500 Y0.857 F7.000
G1 X-1.605 Y0.635 F7.000
G1 X-1.677 Y0.417 F7.000
G1 X-1.714 Y0.188 F7.000
G1 X-1.722 Y-0.015 F7.000
G1 X-1.707 Y-0.233 F7.000
G1 X-1.654 Y-0.470 F7.000
G1 X-1.579 Y-0.680 F7.000
G1 X-1.474 Y-0.883 F7.000
G1 X-1.342 Y-1.075 F7.000
G1 X-1.192 Y-1.248 F7.000
G1 X-1.004 Y-1.414 F7.000
G1 X-0.808 Y-1.549 F7.000
G1 X-0.594 Y-1.662 F7.000
G1 X-0.365 Y-1.748 F7.000
G1 X-0.128 Y-1.805 F7.000
G1 X0.109 Y-1.831 F7.000
G1 X0.346 Y-1.835 F7.000
G1 X0.609 Y-1.801 F7.000
G1 X0.846 Y-1.729 F7.000
G1 X1.038 Y-1.643 F7.000
G1 X1.218 Y-1.534 F7.000
G1 X1.391 Y-1.398 F7.000
G1 X1.556 Y-1.226 F7.000
G1 X1.692 Y-1.045 F7.000
G1 X1.910 Y-0.605 F7.000
G1 X1.981 Y-0.184 F7.000
G1 X1.977 Y0.278 F7.000
G1 X1.910 Y0.617 F7.000
G1 X1.771 Y0.944 F7.000
G1 X1.571 Y1.244 F7.000
G1 X1.320 Y1.504 F7.000
G1 X1.023 Y1.718 F7.000
G1 X0.695 Y1.880 F7.000
G1 X0.278 Y1.985 F7.000
G1 X-0.132 Y2.011 F7.000
G1 X-0.526 Y1.966 F7.000
G1 X-0.917 Y1.827 F7.000
G1 X-1.218 Y1.639 F7.000
G1 X-1.523 Y1.350 F7.000
G1 X-1.699 Y1.105 F7.000
G1 X-1.842 Y0.835 F7.000
G1 X-1.970 Y0.425 F7.000
G1 X-2.011 Y0.064 F7.000
G1 X-1.981 Y-0.391 F7.000
G1 X-1.902 Y-0.673 F7.000
G1 X-1.786 Y-0.944 F7.000
G1 X-1.474 Y-1.383 F7.000
G1 X-1.259 Y-1.590 F7.000
G1 X-0.805 Y-1.891 F7.000
G1 X-0.410 Y-2.049 F7.000
G1 X0.120 Y-2.147 F7.000
G1 X0.459 Y-2.147 F7.000
G1 X0.797 Y-2.079 F7.000
G1 X1.128 Y-1.947 F7.000
G1 X1.477 Y-1.714 F7.000
G1 X1.737 Y-1.462 F7.000
G1 X1.989 Y-1.128 F7.000
G1 X2.169 Y-0.741 F7.000
G1 X2.271 Y-0.327 F7.000
G1 X2.301 Y0.199 F7.000
G1 X2.241 Y0.594 F7.000
G1 X2.124 Y0.929 F7.000
G1 X1.891 Y1.338 F7.000
G1 X1.613 Y1.650 F7.000
G1 X1.237 Y1.947 F7.000
G1 X0.741 Y2.184 F7.000
G1 X0.327 Y2.289 F7.000
G1 X-0.199 Y2.323 F7.000
G1 X-0.481 Y2.301 F7.000
G1 X-0.820 Y2.214 F7.000
G1 X-1.244 Y2.004 F7.000
G1 X-1.620 Y1.707 F7.000
G1 X-1.887 Y1.383 F7.000
G1 X-2.075 Y1.068 F7.000
G1 X-2.211 Y0.726 F7.000
G1 X-2.308 Y0.244 F7.000
G1 X-2.308 Y-0.278 F7.000
G1 X-2.229 Y-0.673 F7.000
G1 X-2.049 Y-1.109 F7.000
G1 X-1.823 Y-1.459 F7.000
G1 X-1.489 Y-1.805 F7.000
G1 X-1.098 Y-2.090 F7.000
G1 X-0.658 Y-2.297 F7.000
G1 X-0.365 Y-2.387 F7.000
G1 X0.109 Y-2.447 F7.000
G1 X0.447 Y-2.425 F7.000
G1 X0.617 Y-2.391 F7.000
G1 X1.011 Y-2.252 F7.000
G1 X1.327 Y-2.083 F7.000
G1 X1.699 Y-1.789 F7.000
G1 X2.015 Y-1.429 F7.000
G1 X2.147 Y-1.229 F7.000
G1 X2.256 Y-1.008 F7.000
G1 X2.361 Y-0.726 F7.000
G1 X2.436 Y-0.425 F7.000
G1 X2.470 Y-0.064 F7.000
G1 X2.444 Y0.335 F7.000
G1 X2.391 Y0.617 F7.000
G1 X2.271 Y0.955 F7.000
G1 X2.083 Y1.323 F7.000
G1 X1.868 Y1.613 F7.000
G1 X1.429 Y2.015 F7.000
G1 X1.169 Y2.173 F7.000
G1 X0.722 Y2.365 F7.000
G1 X0.421 Y2.436 F7.000
G1 X0.000 Y2.470 F7.000
G1 X-0.451 Y2.425 F7.000
G1 X-0.789 Y2.335 F7.000
G1 X-1.173 Y2.169 F7.000
G1 X-1.327 Y2.083 F7.000
G1 X-1.741 Y1.752 F7.000
G1 X-2.045 Y1.383 F7.000
G1 X-2.147 Y1.226 F7.000
G1 X-2.256 Y1.011 F7.000
G1 X-2.436 Y0.429 F7.000
G1 X-2.474 Y0.068 F7.000
G1 X-2.414 Y-0.500 F7.000
G1 X-2.252 Y-1.008 F7.000
G1 X-2.113 Y-1.271 F7.000
G1 X-1.793 Y-1.695 F7.000
G1 X-1.432 Y-2.011 F7.000
G1 X-1.229 Y-2.147 F7.000
G1 X-0.962 Y-2.274 F7.000
G1 X-0.436 Y-2.436 F7.000
G1 X-0.015 Y-2.470 F7.000
G1 X-0.015 Y-2.466 F7.000
G1 X0.045 Y-2.462 F7.000
G1 X0.045 Y-2.462 F7.000
G1 X0.075 Y-2.485 F7.000
G1 X0.075 Y-2.485 F7.000
G1 X0.139 Y-2.489 F7.000
G1 X0.139 Y-2.489 F7.000
G1 X0.492 Y-2.440 F7.000
G1 X0.680 Y-2.395 F7.000
G1 X0.989 Y-2.289 F7.000
G1 X1.263 Y-2.154 F7.000
G1 X1.519 Y-1.977 F7.000
G1 X1.733 Y-1.793 F7.000
G1 X1.929 Y-1.583 F7.000
G1 X2.034 Y-1.447 F7.000
G1 X2.192 Y-1.195 F7.000
G1 X2.282 Y-1.008 F7.000
G1 X2.387 Y-0.726 F7.000
G1 X2.466 Y-0.398 F7.000
G1 X2.496 Y-0.124 F7.000
G1 X2.466 Y0.353 F7.000
G1 X2.421 Y0.586 F7.000
G1 X2.372 Y0.748 F7.000
G1 X2.233 Y1.102 F7.000
G1 X2.143 Y1.274 F7.000
G1 X2.000 Y1.489 F7.000
G1 X1.876 Y1.647 F7.000
G1 X1.748 Y1.778 F7.000
G1 X1.504 Y1.992 F7.000
G1 X1.244 Y2.165 F7.000
G1 X1.068 Y2.256 F7.000
G1 X0.782 Y2.372 F7.000
G1 X0.391 Y2.470 F7.000
G1 X0.177 Y2.492 F7.000
G1 X-0.004 Y2.500 F7.000
G1 X-0.132 Y2.492 F7.000
G1 X-0.485 Y2.444 F7.000
G1 X-0.801 Y2.361 F7.000
G1 X-0.944 Y2.308 F7.000
G1 X-1.278 Y2.139 F7.000
G1 X-1.538 Y1.962 F7.000
G1 X-1.718 Y1.808 F7.000
G1 X-1.853 Y1.669 F7.000
G1 X-2.071 Y1.387 F7.000
G1 X-2.165 Y1.244 F7.000
G1 X-2.259 Y1.064 F7.000
G1 X-2.395 Y0.695 F7.000
G1 X-2.466 Y0.398 F7.000
G1 X-2.496 Y0.124 F7.000
G1 X-2.496 Y-0.090 F7.000
G1 X-2.447 Y-0.477 F7.000
G1 X-2.425 Y-0.583 F7.000
G1 X-2.289 Y-0.981 F7.000
G1 X-2.150 Y-1.263 F7.000
G1 X-1.981 Y-1.511 F7.000
G1 X-1.820 Y-1.707 F7.000
G1 X-1.692 Y-1.831 F7.000
G1 X-1.387 Y-2.075 F7.000
G1 X-1.124 Y-2.233 F7.000
G1 X-0.688 Y-2.398 F7.000
G1 X-0.372 Y-2.470 F7.000
G1 X-0.132 Y-2.500 F7.000
G1 X0.139 Y-2.489 F7.000
G1 X0.139 Y-2.489 F7.000
G0 Z10.000
(Helix to depth: 0.000000)
G0 Z10.000
G0 X-1.107 Y0.126 Z10.000
G0 X-1.107 Y0.126 Z8.000
G1 X-1.107 Y0.126 Z2.000 F7.000
G1 X-1.107 Y0.126 Z2.000 F7.000
G1 X-1.110 Y-0.093 Z1.981 F7.000
G1 X-1.071 Y-0.307 Z1.961 F7.000
G1 X-0.990 Y-0.510 Z1.942 F7.000
G1 X-0.872 Y-0.694 Z1.923 F7.000
G1 X-0.720 Y-0.851 Z1.903 F7.000
G1 X-0.540 Y-0.975 Z1.884 F7.000
G1 X-0.339 Y-1.061 Z1.865 F7.000
G1 X-0.126 Y-1.107 Z1.846 F7.000
G1 X0.093 Y-1.110 Z1.826 F7.000
G1 X0.307 Y-1.071 Z1.807 F7.000
G1 X0.510 Y-0.990 Z1.788 F7.000
G1 X0.694 Y-0.872 Z1.768 F7.000
G1 X0.851 Y-0.720 Z1.749 F7.000
G1 X0.975 Y-0.540 Z1.730 F7.000
G1 X1.061 Y-0.339 Z1.710 F7.000
G1 X1.107 Y-0.126 Z1.691 F7.000
G1 X1.110 Y0.093 Z1.672 F7.000
G1 X1.071 Y0.307 Z1.652 F7.000
G1 X0.990 Y0.510 Z1.633 F7.000
G1 X0.872 Y0.694 Z1.614 F7.000
G1 X0.720 Y0.851 Z1.595 F7.000
G1 X0.540 Y0.975 Z1.575 F7.000
G1 X0.339 Y1.061 Z1.556 F7.000
G1 X0.126 Y1.107 Z1.537 F7.000
G1 X-0.093 Y1.110 Z1.517 F7.000
G1 X-0.307 Y1.071 Z1.498 F7.000
G1 X-0.510 Y0.990 Z1.479 F7.000
G1 X-0.694 Y0.872 Z1.459 F7.000
G1 X-0.851 Y0.720 Z1.440 F7.000
G1 X-0.975 Y0.540 Z1.421 F7.000
G1 X-1.061 Y0.339 Z1.401 F7.000
G1 X-1.107 Y0.126 Z1.382 F7.000
G1 X-1.110 Y-0.093 Z1.363 F7.000
G1 X-1.071 Y-0.307 Z1.343 F7.000
G1 X-0.990 Y-0.510 Z1.324 F7.000
G1 X-0.872 Y-0.694 Z1.305 F7.000
G1 X-0.720 Y-0.851 Z1.286 F7.000
G1 X-0.540 Y-0.975 Z1.266 F7.000
G1 X-0.339 Y-1.061 Z1.247 F7.000
G1 X-0.126 Y-1.107 Z1.228 F7.000
G1 X0.093 Y-1.110 Z1.208 F7.000
G1 X0.307 Y-1.071 Z1.189 F7.000
G1 X0.510 Y-0.990 Z1.170 F7.000
G1 X0.694 Y-0.872 Z1.150 F7.000
G1 X0.851 Y-0.720 Z1.131 F7.000
G1 X0.975 Y-0.540 Z1.112 F7.000
G1 X1.061 Y-0.339 Z1.092 F7.000
G1 X1.107 Y-0.126 Z1.073 F7.000
G1 X1.110 Y0.093 Z1.054 F7.000
G1 X1.071 Y0.307 Z1.035 F7.000
G1 X0.990 Y0.510 Z1.015 F7.000
G1 X0.872 Y0.694 Z0.996 F7.000
G1 X0.720 Y0.851 Z0.977 F7.000
G1 X0.540 Y0.975 Z0.957 F7.000
G1 X0.339 Y1.061 Z0.938 F7.000
G1 X0.126 Y1.107 Z0.919 F7.000
G1 X-0.093 Y1.110 Z0.899 F7.000
G1 X-0.307 Y1.071 Z0.880 F7.000
G1 X-0.510 Y0.990 Z0.861 F7.000
G1 X-0.694 Y0.872 Z0.841 F7.000
G1 X-0.851 Y0.720 Z0.822 F7.000
G1 X-0.975 Y0.540 Z0.803 F7.000
G1 X-1.061 Y0.339 Z0.784 F7.000
G1 X-1.107 Y0.126 Z0.764 F7.000
G1 X-1.110 Y-0.093 Z0.745 F7.000
G1 X-1.071 Y-0.307 Z0.726 F7.000
G1 X-0.990 Y-0.510 Z0.706 F7.000
G1 X-0.872 Y-0.694 Z0.687 F7.000
G1 X-0.720 Y-0.851 Z0.668 F7.000
G1 X-0.540 Y-0.975 Z0.648 F7.000
G1 X-0.339 Y-1.061 Z0.629 F7.000
G1 X-0.126 Y-1.107 Z0.610 F7.000
G1 X0.093 Y-1.110 Z0.590 F7.000
G1 X0.307 Y-1.071 Z0.571 F7.000
G1 X0.510 Y-0.990 Z0.552 F7.000
G1 X0.694 Y-0.872 Z0.532 F7.000
G1 X0.851 Y-0.720 Z0.513 F7.000
G1 X0.975 Y-0.540 Z0.494 F7.000
G1 X1.061 Y-0.339 Z0.475 F7.000
G1 X1.107 Y-0.126 Z0.455 F7.000
G1 X1.110 Y0.093 Z0.436 F7.000
G1 X1.071 Y0.307 Z0.417 F7.000
G1 X0.990 Y0.510 Z0.397 F7.000
G1 X0.872 Y0.694 Z0.378 F7.000
G1 X0.720 Y0.851 Z0.359 F7.000
G1 X0.540 Y0.975 Z0.339 F7.000
G1 X0.339 Y1.061 Z0.320 F7.000
G1 X0.126 Y1.107 Z0.301 F7.000
G1 X-0.093 Y1.110 Z0.281 F7.000
G1 X-0.307 Y1.071 Z0.262 F7.000
G1 X-0.510 Y0.990 Z0.243 F7.000
G1 X-0.694 Y0.872 Z0.224 F7.000
G1 X-0.851 Y0.720 Z0.204 F7.000
G1 X-0.975 Y0.540 Z0.185 F7.000
G1 X-1.061 Y0.339 Z0.166 F7.000
G1 X-1.107 Y0.126 Z0.146 F7.000
G1 X-1.110 Y-0.093 Z0.127 F7.000
G1 X-1.071 Y-0.307 Z0.108 F7.000
G1 X-0.990 Y-0.510 Z0.088 F7.000
G1 X-0.872 Y-0.694 Z0.069 F7.000
G1 X-0.720 Y-0.851 Z0.050 F7.000
G1 X-0.540 Y-0.975 Z0.030 F7.000
G1 X-0.339 Y-1.061 Z0.011 F7.000
G1 X-0.126 Y-1.107 Z0.000 F7.000
G1 X0.093 Y-1.110 Z0.000 F7.000
G1 X0.307 Y-1.071 Z0.000 F7.000
G1 X0.510 Y-0.990 Z0.000 F7.000
G1 X0.694 Y-0.872 Z0.000 F7.000
G1 X0.851 Y-0.720 Z0.000 F7.000
G1 X0.975 Y-0.540 Z0.000 F7.000
G1 X1.061 Y-0.339 Z0.000 F7.000
G1 X1.107 Y-0.126 Z0.000 F7.000
G1 X1.110 Y0.093 Z0.000 F7.000
G1 X1.071 Y0.307 Z0.000 F7.000
G1 X0.990 Y0.510 Z0.000 F7.000
G1 X0.872 Y0.694 Z0.000 F7.000
G1 X0.720 Y0.851 Z0.000 F7.000
G1 X0.540 Y0.975 Z0.000 F7.000
G1 X0.339 Y1.061 Z0.000 F7.000
G1 X0.126 Y1.107 Z0.000 F7.000
G1 X-0.093 Y1.110 Z0.000 F7.000
G1 X-0.307 Y1.071 Z0.000 F7.000
G1 X-0.510 Y0.990 Z0.000 F7.000
G1 X-0.694 Y0.872 Z0.000 F7.000
G1 X-0.851 Y0.720 Z0.000 F7.000
G1 X-0.975 Y0.540 Z0.000 F7.000
G1 X-1.061 Y0.339 Z0.000 F7.000
G1 X-1.107 Y0.126 Z0.000 F7.000
G1 X-1.110 Y-0.093 Z0.000 F7.000
G1 X-1.071 Y-0.307 Z0.000 F7.000
G1 X-0.990 Y-0.510 Z0.000 F7.000
G1 X-0.872 Y-0.694 Z0.000 F7.000
G1 X-0.720 Y-0.851 Z0.000 F7.000
G1 X-0.540 Y-0.975 Z0.000 F7.000
G1 X-0.339 Y-1.061 Z0.000 F7.000
(Adaptive - depth: 0.000000)
G1 X0.000 Y-1.124 F7.000
G1 X0.041 Y-1.165 F7.000
G1 X0.207 Y-1.214 F7.000
G1 X0.376 Y-1.218 F7.000
G1 X0.489 Y-1.199 F7.000
G1 X0.835 Y-1.064 F7.000
G1 X1.015 Y-0.917 F7.000
G1 X1.102 Y-0.823 F7.000
G1 X1.180 Y-0.707 F7.000
G1 X1.267 Y-0.553 F7.000
G1 X1.357 Y-0.308 F7.000
G1 X1.391 Y-0.086 F7.000
G1 X1.391 Y0.086 F7.000
G1 X1.372 Y0.259 F7.000
G1 X1.320 Y0.470 F7.000
G1 X1.233 Y0.673 F7.000
G1 X1.124 Y0.842 F7.000
G1 X1.004 Y0.985 F7.000
G1 X0.850 Y1.117 F7.000
G1 X0.684 Y1.226 F7.000
G1 X0.485 Y1.316 F7.000
G1 X0.286 Y1.376 F7.000
G1 X0.079 Y1.406 F7.000
G1 X-0.128 Y1.406 F7.000
G1 X-0.331 Y1.376 F7.000
G1 X-0.526 Y1.308 F7.000
G1 X-0.680 Y1.237 F7.000
G1 X-0.861 Y1.117 F7.000
G1 X-1.023 Y0.970 F7.000
G1 X-1.150 Y0.816 F7.000
G1 X-1.259 Y0.635 F7.000
G1 X-1.342 Y0.440 F7.000
G1 X-1.387 Y0.237 F7.000
G1 X-1.402 Y0.060 F7.000
G1 X-1.398 Y-0.132 F7.000
G1 X-1.361 Y-0.361 F7.000
G1 X-1.286 Y-0.571 F7.000
G1 X-1.195 Y-0.741 F7.000
G1 X-1.083 Y-0.898 F7.000
G1 X-0.944 Y-1.045 F7.000
G1 X-0.774 Y-1.177 F7.000
G1 X-0.602 Y-1.286 F7.000
G1 X-0.387 Y-1.395 F7.000
G1 X-0.147 Y-1.459 F7.000
G1 X0.312 Y-1.496 F7.000
G1 X0.680 Y-1.444 F7.000
G1 X0.936 Y-1.335 F7.000
G1 X1.060 Y-1.252 F7.000
G1 X1.173 Y-1.158 F7.000
G1 X1.312 Y-1.015 F7.000
G1 X1.462 Y-0.808 F7.000
G1 X1.568 Y-0.598 F7.000
G1 X1.632 Y-0.410 F7.000
G1 X1.673 Y-0.218 F7.000
G1 X1.695 Y0.008 F7.000
G1 X1.680 Y0.248 F7.000
G1 X1.643 Y0.466 F7.000
G1 X1.568 Y0.684 F7.000
G1 X1.477 Y0.868 F7.000
G1 X1.353 Y1.049 F7.000
G1 X1.207 Y1.211 F7.000
G1 X1.045 Y1.353 F7.000
G1 X0.846 Y1.489 F7.000
G1 X0.628 Y1.598 F7.000
G1 X0.406 Y1.669 F7.000
G1 X0.199 Y1.711 F7.000
G1 X-0.026 Y1.722 F7.000
G1 X-0.244 Y1.707 F7.000
G1 X-0.474 Y1.662 F7.000
G1 X-0.688 Y1.586 F7.000
G1 X-0.895 Y1.485 F7.000
G1 X-1.083 Y1.350 F7.000
G1 X-1.237 Y1.211 F7.000
G1 X-1.380 Y1.041 F7.000
G1 X-1.500 Y0.857 F7.000
G1 X-1.605 Y0.635 F7.000
G1 X-1.677 Y0.417 F7.000
G1 X-1.714 Y0.188 F7.000
G1 X-1.722 Y-0.015 F7.000
G1 X-1.707 Y-0.233 F7.000
G1 X-1.654 Y-0.470 F7.000
G1 X-1.579 Y-0.680 F7.000
G1 X-1.474 Y-0.883 F7.000
G1 X-1.342 Y-1.075 F7.000
G1 X-1.192 Y-1.248 F7.000
G1 X-1.004 Y-1.414 F7.000
G1 X-0.808 Y-1.549 F7.000
G1 X-0.594 Y-1.662 F7.000
G1 X-0.365 Y-1.748 F7.000
G1 X-0.128 Y-1.805 F7.000
G1 X0.109 Y-1.831 F7.000
G1 X0.346 Y-1.835 F7.000
G1 X0.609 Y-1.801 F7.000
G1 X0.846 Y-1.729 F7.000
G1 X1.038 Y-1.643 F7.000
G1 X1.218 Y-1.534 F7.000
G1 X1.391 Y-1.398 F7.000
G1 X1.556 Y-1.226 F7.000
G1 X1.692 Y-1.045 F7.000
G1 X1.910 Y-0.605 F7.000
G1 X1.981 Y-0.184 F7.000
G1 X1.977 Y0.278 F7.000
G1 X1.910 Y0.617 F7.000
G1 X1.771 Y0.944 F7.000
G1 X1.571 Y1.244 F7.000
G1 X1.320 Y1.504 F7.000
G1 X1.023 Y1.718 F7.000
G1 X0.695 Y1.880 F7.000
G1 X0.278 Y1.985 F7.000
G1 X-0.132 Y2.011 F7.000
G1 X-0.526 Y1.966 F7.000
G1 X-0.917 Y1.827 F7.000
G1 X-1.218 Y1.639 F7.000
G1 X-1.523 Y1.350 F7.000
G1 X-1.699 Y1.105 F7.000
G1 X-1.842 Y0.835 F7.000
G1 X-1.970 Y0.425 F7.000
G1 X-2.011 Y0.064 F7.000
G1 X-1.981 Y-0.391 F7.000
G1 X-1.902 Y-0.673 F7.000
G1 X-1.786 Y-0.944 F7.000
G1 X-1.474 Y-1.383 F7.000
G1 X-1.259 Y-1.590 F7.000
G1 X-0.805 Y-1.891 F7.000
G1 X-0.410 Y-2.049 F7.000
G1 X0.120 Y-2.147 F7.000
G1 X0.459 Y-2.147 F7.000
G1 X0.797 Y-2.079 F7.000
G1 X1.128 Y-1.947 F7.000
G1 X1.477 Y-1.714 F7.000
G1 X1.737 Y-1.462 F7.000
G1 X1.989 Y-1.128 F7.000
G1 X2.169 Y-0.741 F7.000
G1 X2.271 Y-0.327 F7.000
G1 X2.301 Y0.199 F7.000
G1 X2.241 Y0.594 F7.000
G1 X2.124 Y0.929 F7.000
G1 X1.891 Y1.338 F7.000
G1 X1.613 Y1.650 F7.000
G1 X1.237 Y1.947 F7.000
G1 X0.741 Y2.184 F7.000
G1 X0.327 Y2.289 F7.000
G1 X-0.199 Y2.323 F7.000
G1 X-0.481 Y2.301 F7.000
G1 X-0.820 Y2.214 F7.000
G1 X-1.244 Y2.004 F7.000
G1 X-1.620 Y1.707 F7.000
G1 X-1.887 Y1.383 F7.000
G1 X-2.075 Y1.068 F7.000
G1 X-2.211 Y0.726 F7.000
G1 X-2.308 Y0.244 F7.000
G1 X-2.308 Y-0.278 F7.000
G1 X-2.229 Y-0.673 F7.000
G1 X-2.049 Y-1.109 F7.000
G1 X-1.823 Y-1.459 F7.000
G1 X-1.489 Y-1.805 F7.000
G1 X-1.098 Y-2.090 F7.000
G1 X-0.658 Y-2.297 F7.000
G1 X-0.365 Y-2.387 F7.000
G1 X0.109 Y-2.447 F7.000
G1 X0.447 Y-2.425 F7.000
G1 X0.617 Y-2.391 F7.000
G1 X1.011 Y-2.252 F7.000
G1 X1.327 Y-2.083 F7.000
G1 X1.699 Y-1.789 F7.000
G1 X2.015 Y-1.429 F7.000
G1 X2.147 Y-1.229 F7.000
G1 X2.256 Y-1.008 F7.000
G1 X2.361 Y-0.726 F7.000
G1 X2.436 Y-0.425 F7.000
G1 X2.470 Y-0.064 F7.000
G1 X2.444 Y0.335 F7.000
G1 X2.391 Y0.617 F7.000
G1 X2.271 Y0.955 F7.000
G1 X2.083 Y1.323 F7.000
G1 X1.868 Y1.613 F7.000
G1 X1.429 Y2.015 F7.000
G1 X1.169 Y2.173 F7.000
G1 X0.722 Y2.365 F7.000
G1 X0.421 Y2.436 F7.000
G1 X0.000 Y2.470 F7.000
G1 X-0.451 Y2.425 F7.000
G1 X-0.789 Y2.335 F7.000
G1 X-1.173 Y2.169 F7.000
G1 X-1.327 Y2.083 F7.000
G1 X-1.741 Y1.752 F7.000
G1 X-2.045 Y1.383 F7.000
G1 X-2.147 Y1.226 F7.000
G1 X-2.256 Y1.011 F7.000
G1 X-2.436 Y0.429 F7.000
G1 X-2.474 Y0.068 F7.000
G1 X-2.414 Y-0.500 F7.000
G1 X-2.252 Y-1.008 F7.000
G1 X-2.113 Y-1.271 F7.000
G1 X-1.793 Y-1.695 F7.000
G1 X-1.432 Y-2.011 F7.000
G1 X-1.229 Y-2.147 F7.000
G1 X-0.962 Y-2.274 F7.000
G1 X-0.436 Y-2.436 F7.000
G1 X-0.015 Y-2.470 F7.000
G1 X-0.015 Y-2.466 F7.000
G1 X0.045 Y-2.462 F7.000
G1 X0.045 Y-2.462 F7.000
G1 X0.075 Y-2.485 F7.000
G1 X0.075 Y-2.485 F7.000
G1 X0.139 Y-2.489 F7.000
G1 X0.139 Y-2.489 F7.000
G1 X0.492 Y-2.440 F7.000
G1 X0.680 Y-2.395 F7.000
G1 X0.989 Y-2.289 F7.000
G1 X1.263 Y-2.154 F7.000
G1 X1.519 Y-1.977 F7.000
G1 X1.733 Y-1.793 F7.000
G1 X1.929 Y-1.583 F7.000
G1 X2.034 Y-1.447 F7.000
G1 X2.192 Y-1.195 F7.000
G1 X2.282 Y-1.008 F7.000
G1 X2.387 Y-0.726 F7.000
G1 X2.466 Y-0.398 F7.000
G1 X2.496 Y-0.124 F7.000
G1 X2.466 Y0.353 F7.000
G1 X2.421 Y0.586 F7.000
G1 X2.372 Y0.748 F7.000
G1 X2.233 Y1.102 F7.000
G1 X2.143 Y1.274 F7.000
G1 X2.000 Y1.489 F7.000
G1 X1.876 Y1.647 F7.000
G1 X1.748 Y1.778 F7.000
G1 X1.504 Y1.992 F7.000
G1 X1.244 Y2.165 F7.000
G1 X1.068 Y2.256 F7.000
G1 X0.782 Y2.372 F7.000
G1 X0.391 Y2.470 F7.000
G1 X0.177 Y2.492 F7.000
G1 X-0.004 Y2.500 F7.000
G1 X-0.132 Y2.492 F7.000
G1 X-0.485 Y2.444 F7.000
G1 X-0.801 Y2.361 F7.000
G1 X-0.944 Y2.308 F7.000
G1 X-1.278 Y2.139 F7.000
G1 X-1.538 Y1.962 F7.000
G1 X-1.718 Y1.808 F7.000
G1 X-1.853 Y1.669 F7.000
G1 X-2.071 Y1.387 F7.000
G1 X-2.165 Y1.244 F7.000
G1 X-2.259 Y1.064 F7.000
G1 X-2.395 Y0.695 F7.000
G1 X-2.466 Y0.398 F7.000
G1 X-2.496 Y0.124 F7.000
G1 X-2.496 Y-0.090 F7.000
G1 X-2.447 Y-0.477 F7.000
G1 X-2.425 Y-0.583 F7.000
G1 X-2.289 Y-0.981 F7.000
G1 X-2.150 Y-1.263 F7.000
G1 X-1.981 Y-1.511 F7.000
G1 X-1.820 Y-1.707 F7.000
G1 X-1.692 Y-1.831 F7.000
G1 X-1.387 Y-2.075 F7.000
G1 X-1.124 Y-2.233 F7.000
G1 X-0.688 Y-2.398 F7.000
G1 X-0.372 Y-2.470 F7.000
G1 X-0.132 Y-2.500 F7.000
G1 X0.139 Y-2.489 F7.000
G1 X0.139 Y-2.489 F7.000
G0 Z10.000
G0 Z10.000
(Finish operation: Adaptive001_8mm)
(Block-name: Adaptive_23mm)
(Block-expand: 0)
(Block-enable: 1)
(Begin operation: Adaptive_23mm)
(Path: Adaptive_23mm)
(Adaptive_23mm)
(Helix to depth: 2.000000)
G0 Z10.000
G0 X14.831 Y0.891 Z10.000
G0 X14.831 Y0.891 Z8.000
G1 X14.831 Y0.891 Z5.000 F7.000
G1 X14.831 Y0.891 Z5.000 F7.000
G1 X14.980 Y1.051 Z4.981 F7.000
G1 X15.096 Y1.236 Z4.961 F7.000
G1 X15.172 Y1.441 Z4.942 F7.000
G1 X15.208 Y1.656 Z4.923 F7.000
G1 X15.201 Y1.875 Z4.903 F7.000
G1 X15.151 Y2.087 Z4.884 F7.000
G1 X15.061 Y2.286 Z4.865 F7.000
G1 X14.934 Y2.464 Z4.845 F7.000
G1 X14.774 Y2.613 Z4.826 F7.000
G1 X14.589 Y2.728 Z4.807 F7.000
G1 X14.384 Y2.805 Z4.788 F7.000
G1 X14.169 Y2.841 Z4.768 F7.000
G1 X13.950 Y2.834 Z4.749 F7.000
G1 X13.738 Y2.784 Z4.730 F7.000
G1 X13.539 Y2.694 Z4.710 F7.000
G1 X13.361 Y2.566 Z4.691 F7.000
G1 X13.212 Y2.407 Z4.672 F7.000
G1 X13.096 Y2.221 Z4.652 F7.000
G1 X13.020 Y2.017 Z4.633 F7.000
G1 X12.984 Y1.801 Z4.614 F7.000
G1 X12.991 Y1.583 Z4.594 F7.000
G1 X13.041 Y1.370 Z4.575 F7.000
G1 X13.131 Y1.171 Z4.556 F7.000
G1 X13.259 Y0.994 Z4.536 F7.000
G1 X13.418 Y0.845 Z4.517 F7.000
G1 X13.604 Y0.729 Z4.498 F7.000
G1 X13.808 Y0.652 Z4.479 F7.000
G1 X14.024 Y0.617 Z4.459 F7.000
G1 X14.242 Y0.624 Z4.440 F7.000
G1 X14.455 Y0.674 Z4.421 F7.000
G1 X14.654 Y0.764 Z4.401 F7.000
G1 X14.831 Y0.891 Z4.382 F7.000
G1 X14.980 Y1.051 Z4.363 F7.000
G1 X15.096 Y1.236 Z4.343 F7.000
G1 X15.172 Y1.441 Z4.324 F7.000
G1 X15.208 Y1.656 Z4.305 F7.000
G1 X15.201 Y1.875 Z4.285 F7.000
G1 X15.151 Y2.087 Z4.266 F7.000
G1 X15.061 Y2.286 Z4.247 F7.000
G1 X14.934 Y2.464 Z4.227 F7.000
G1 X14.774 Y2.613 Z4.208 F7.000
G1 X14.589 Y2.728 Z4.189 F7.000
G1 X14.384 Y2.805 Z4.170 F7.000
G1 X14.169 Y2.841 Z4.150 F7.000
G1 X13.950 Y2.834 Z4.131 F7.000
G1 X13.738 Y2.784 Z4.112 F7.000
G1 X13.539 Y2.694 Z4.092 F7.000
G1 X13.361 Y2.566 Z4.073 F7.000
G1 X13.212 Y2.407 Z4.054 F7.000
G1 X13.096 Y2.221 Z4.034 F7.000
G1 X13.020 Y2.017 Z4.015 F7.000
G1 X12.984 Y1.801 Z3.996 F7.000
G1 X12.991 Y1.583 Z3.976 F7.000
G1 X13.041 Y1.370 Z3.957 F7.000
G1 X13.131 Y1.171 Z3.938 F7.000
G1 X13.259 Y0.994 Z3.918 F7.000
G1 X13.418 Y0.845 Z3.899 F7.000
G1 X13.604 Y0.729 Z3.880 F7.000
G1 X13.808 Y0.652 Z3.861 F7.000
G1 X14.024 Y0.617 Z3.841 F7.000
G1 X14.242 Y0.624 Z3.822 F7.000
G1 X14.455 Y0.674 Z3.803 F7.000
G1 X14.654 Y0.764 Z3.783 F7.000
G1 X14.831 Y0.891 Z3.764 F7.000
G1 X14.980 Y1.051 Z3.745 F7.000
G1 X15.096 Y1.236 Z3.725 F7.000
G1 X15.172 Y1.441 Z3.706 F7.000
G1 X15.208 Y1.656 Z3.687 F7.000
G1 X15.201 Y1.875 Z3.667 F7.000
G1 X15.151 Y2.087 Z3.648 F7.000
G1 X15.061 Y2.286 Z3.629 F7.000
G1 X14.934 Y2.464 Z3.609 F7.000
G1 X14.774 Y2.613 Z3.590 F7.000
G1 X14.589 Y2.728 Z3.571 F7.000
G1 X14.384 Y2.805 Z3.551 F7.000
G1 X14.169 Y2.841 Z3.532 F7.000
G1 X13.950 Y2.834 Z3.513 F7.000
G1 X13.738 Y2.784 Z3.494 F7.000
G1 X13.539 Y2.694 Z3.474 F7.000
G1 X13.361 Y2.566 Z3.455 F7.000
G1 X13.212 Y2.407 Z3.436 F7.000
G1 X13.096 Y2.221 Z3.416 F7.000
G1 X13.020 Y2.017 Z3.397 F7.000
G1 X12.984 Y1.801 Z3.378 F7.000
G1 X12.991 Y1.583 Z3.358 F7.000
G1 X13.041 Y1.370 Z3.339 F7.000
G1 X13.131 Y1.171 Z3.320 F7.000
G1 X13.259 Y0.994 Z3.300 F7.000
G1 X13.418 Y0.845 Z3.281 F7.000
G1 X13.604 Y0.729 Z3.262 F7.000
G1 X13.808 Y0.652 Z3.242 F7.000
G1 X14.024 Y0.617 Z3.223 F7.000
G1 X14.242 Y0.624 Z3.204 F7.000
G1 X14.455 Y0.674 Z3.185 F7.000
G1 X14.654 Y0.764 Z3.165 F7.000
G1 X14.831 Y0.891 Z3.146 F7.000
G1 X14.980 Y1.051 Z3.127 F7.000
G1 X15.096 Y1.236 Z3.107 F7.000
G1 X15.172 Y1.441 Z3.088 F7.000
G1 X15.208 Y1.656 Z3.069 F7.000
G1 X15.201 Y1.875 Z3.049 F7.000
G1 X15.151 Y2.087 Z3.030 F7.000
G1 X15.061 Y2.286 Z3.011 F7.000
G1 X14.934 Y2.464 Z2.991 F7.000
G1 X14.774 Y2.613 Z2.972 F7.000
G1 X14.589 Y2.728 Z2.953 F7.000
G1 X14.384 Y2.805 Z2.933 F7.000
G1 X14.169 Y2.841 Z2.914 F7.000
G1 X13.950 Y2.834 Z2.895 F7.000
G1 X13.738 Y2.784 Z2.876 F7.000
G1 X13.539 Y2.694 Z2.856 F7.000
G1 X13.361 Y2.566 Z2.837 F7.000
G1 X13.212 Y2.407 Z2.818 F7.000
G1 X13.096 Y2.221 Z2.798 F7.000
G1 X13.020 Y2.017 Z2.779 F7.000
G1 X12.984 Y1.801 Z2.760 F7.000
G1 X12.991 Y1.583 Z2.740 F7.000
G1 X13.041 Y1.370 Z2.721 F7.000
G1 X13.131 Y1.171 Z2.702 F7.000
G1 X13.259 Y0.994 Z2.682 F7.000
G1 X13.418 Y0.845 Z2.663 F7.000
G1 X13.604 Y0.729 Z2.644 F7.000
G1 X13.808 Y0.652 Z2.624 F7.000
G1 X14.024 Y0.617 Z2.605 F7.000
G1 X14.242 Y0.624 Z2.586 F7.000
G1 X14.455 Y0.674 Z2.566 F7.000
G1 X14.654 Y0.764 Z2.547 F7.000
G1 X14.831 Y0.891 Z2.528 F7.000
G1 X14.980 Y1.051 Z2.509 F7.000
G1 X15.096 Y1.236 Z2.489 F7.000
G1 X15.172 Y1.441 Z2.470 F7.000
G1 X15.208 Y1.656 Z2.451 F7.000
G1 X15.201 Y1.875 Z2.431 F7.000
G1 X15.151 Y2.087 Z2.412 F7.000
G1 X15.061 Y2.286 Z2.393 F7.000
G1 X14.934 Y2.464 Z2.373 F7.000
G1 X14.774 Y2.613 Z2.354 F7.000
G1 X14.589 Y2.728 Z2.335 F7.000
G1 X14.384 Y2.805 Z2.315 F7.000
G1 X14.169 Y2.841 Z2.296 F7.000
G1 X13.950 Y2.834 Z2.277 F7.000
G1 X13.738 Y2.784 Z2.257 F7.000
G1 X13.539 Y2.694 Z2.238 F7.000
G1 X13.361 Y2.566 Z2.219 F7.000
G1 X13.212 Y2.407 Z2.200 F7.000
G1 X13.096 Y2.221 Z2.180 F7.000
G1 X13.020 Y2.017 Z2.161 F7.000
G1 X12.984 Y1.801 Z2.142 F7.000
G1 X12.991 Y1.583 Z2.122 F7.000
G1 X13.041 Y1.370 Z2.103 F7.000
G1 X13.131 Y1.171 Z2.084 F7.000
G1 X13.259 Y0.994 Z2.064 F7.000
G1 X13.418 Y0.845 Z2.045 F7.000
G1 X13.604 Y0.729 Z2.026 F7.000
G1 X13.808 Y0.652 Z2.006 F7.000
G1 X14.024 Y0.617 Z2.000 F7.000
G1 X14.242 Y0.624 Z2.000 F7.000
G1 X14.455 Y0.674 Z2.000 F7.000
G1 X14.654 Y0.764 Z2.000 F7.000
G1 X14.831 Y0.891 Z2.000 F7.000
G1 X14.980 Y1.051 Z2.000 F7.000
G1 X15.096 Y1.236 Z2.000 F7.000
G1 X15.172 Y1.441 Z2.000 F7.000
G1 X15.208 Y1.656 Z2.000 F7.000
G1 X15.201 Y1.875 Z2.000 F7.000
G1 X15.151 Y2.087 Z2.000 F7.000
G1 X15.061 Y2.286 Z2.000 F7.000
G1 X14.934 Y2.464 Z2.000 F7.000
G1 X14.774 Y2.613 Z2.000 F7.000
G1 X14.589 Y2.728 Z2.000 F7.000
G1 X14.384 Y2.805 Z2.000 F7.000
G1 X14.169 Y2.841 Z2.000 F7.000
G1 X13.950 Y2.834 Z2.000 F7.000
G1 X13.738 Y2.784 Z2.000 F7.000
G1 X13.539 Y2.694 Z2.000 F7.000
G1 X13.361 Y2.566 Z2.000 F7.000
G1 X13.212 Y2.407 Z2.000 F7.000
G1 X13.096 Y2.221 Z2.000 F7.000
G1 X13.020 Y2.017 Z2.000 F7.000
G1 X12.984 Y1.801 Z2.000 F7.000
G1 X12.991 Y1.583 Z2.000 F7.000
G1 X13.041 Y1.370 Z2.000 F7.000
G1 X13.131 Y1.171 Z2.000 F7.000
G1 X13.259 Y0.994 Z2.000 F7.000
G1 X13.418 Y0.845 Z2.000 F7.000
G1 X13.604 Y0.729 Z2.000 F7.000
G1 X13.808 Y0.652 Z2.000 F7.000
(Adaptive - depth: 2.000000)
G1 X14.096 Y0.605 F7.000
G1 X14.158 Y0.537 F7.000
G1 X14.322 Y0.469 F7.000
G1 X14.492 Y0.446 F7.000
G1 X14.661 Y0.463 F7.000
G1 X14.910 Y0.548 F7.000
G1 X15.130 Y0.689 F7.000
G1 X15.192 Y0.746 F7.000
G1 X15.282 Y0.893 F7.000
G1 X15.282 Y1.994 F7.000
G1 X15.266 Y2.079 F7.000
G1 X15.147 Y2.316 F7.000
G1 X15.000 Y2.734 F7.000
G1 X14.910 Y2.887 F7.000
G1 X14.847 Y2.955 F7.000
G1 X14.531 Y3.136 F7.000
G1 X14.266 Y3.203 F7.000
G1 X13.802 Y3.232 F7.000
G1 X13.435 Y3.136 F7.000
G1 X13.141 Y2.972 F7.000
G1 X12.927 Y2.791 F7.000
G1 X12.808 Y2.650 F7.000
G1 X12.774 Y2.565 F7.000
G1 X12.785 Y2.475 F7.000
G1 X12.785 Y2.475 F7.000
G1 X12.876 Y2.249 F7.000
G1 X12.898 Y2.209 F7.000
G1 X12.927 Y2.169 F7.000
G1 X12.949 Y2.124 F7.000
G1 X12.989 Y1.977 F7.000
G1 X12.915 Y1.582 F7.000
G1 X12.915 Y1.582 F7.000
G1 X13.006 Y0.859 F7.000
G1 X13.068 Y0.684 F7.000
G1 X13.169 Y0.537 F7.000
G1 X13.520 Y0.249 F7.000
G1 X13.836 Y0.085 F7.000
G1 X14.090 Y0.011 F7.000
G1 X14.429 Y-0.023 F7.000
G1 X14.881 Y0.040 F7.000
G1 X15.040 Y0.102 F7.000
G1 X15.254 Y0.254 F7.000
G1 X15.288 Y0.333 F7.000
G1 X15.282 Y0.503 F7.000
G1 X15.282 Y0.503 F7.000
G1 X15.237 Y0.678 F7.000
G1 X15.158 Y0.791 F7.000
G0 X15.124 Y0.814
G0 X14.898 Y0.859
G0 X13.367 Y1.000
G1 X13.316 Y1.006 F7.000
G1 X13.164 Y1.006 F7.000
G1 X13.090 Y0.966 F7.000
G1 X13.023 Y0.859 F7.000
G1 X13.000 Y0.684 F7.000
G1 X13.000 Y0.684 F7.000
G1 X13.073 Y0.232 F7.000
G1 X13.153 Y0.068 F7.000
G1 X13.271 Y-0.062 F7.000
G1 X13.475 Y-0.226 F7.000
G1 X13.780 Y-0.390 F7.000
G1 X14.136 Y-0.492 F7.000
G1 X14.503 Y-0.525 F7.000
G1 X14.785 Y-0.492 F7.000
G1 X15.034 Y-0.407 F7.000
G1 X15.186 Y-0.322 F7.000
G1 X15.254 Y-0.266 F7.000
G1 X15.294 Y-0.181 F7.000
G1 X15.294 Y-0.090 F7.000
G1 X15.294 Y-0.090 F7.000
G1 X15.249 Y0.085 F7.000
G1 X15.169 Y0.198 F7.000
G0 X15.136 Y0.220
G0 X14.910 Y0.271
G0 X13.424 Y0.446
G1 X13.373 Y0.452 F7.000
G1 X13.220 Y0.458 F7.000
G1 X13.141 Y0.424 F7.000
G1 X13.062 Y0.316 F7.000
G1 X13.023 Y0.147 F7.000
G1 X13.023 Y0.147 F7.000
G1 X13.045 Y-0.198 F7.000
G1 X13.096 Y-0.362 F7.000
G1 X13.136 Y-0.441 F7.000
G1 X13.311 Y-0.621 F7.000
G1 X13.593 Y-0.814 F7.000
G1 X13.751 Y-0.887 F7.000
G1 X14.102 Y-1.000 F7.000
G1 X14.469 Y-1.045 F7.000
G1 X14.791 Y-1.011 F7.000
G1 X15.040 Y-0.927 F7.000
G1 X15.266 Y-0.791 F7.000
G1 X15.299 Y-0.706 F7.000
G1 X15.299 Y-0.616 F7.000
G1 X15.299 Y-0.616 F7.000
G1 X15.254 Y-0.424 F7.000
G1 X15.175 Y-0.305 F7.000
G0 X15.141 Y-0.277
G0 X14.915 Y-0.226
G0 X13.424 Y-0.056
G1 X13.373 Y-0.045 F7.000
G1 X13.220 Y-0.045 F7.000
G1 X13.141 Y-0.085 F7.000
G1 X13.062 Y-0.198 F7.000
G1 X13.023 Y-0.384 F7.000
G1 X13.023 Y-0.384 F7.000
G1 X13.045 Y-0.723 F7.000
G1 X13.102 Y-0.887 F7.000
G1 X13.271 Y-1.079 F7.000
G1 X13.621 Y-1.328 F7.000
G1 X13.695 Y-1.367 F7.000
G1 X14.045 Y-1.492 F7.000
G1 X14.412 Y-1.542 F7.000
G1 X14.678 Y-1.537 F7.000
G1 X15.017 Y-1.446 F7.000
G1 X15.175 Y-1.367 F7.000
G1 X15.249 Y-1.316 F7.000
G1 X15.305 Y-1.243 F7.000
G1 X15.305 Y-1.062 F7.000
G1 X15.305 Y-1.062 F7.000
G1 X15.260 Y-0.870 F7.000
G1 X15.181 Y-0.751 F7.000
G0 X15.147 Y-0.723
G0 X14.921 Y-0.672
G0 X13.429 Y-0.520
G1 X13.379 Y-0.514 F7.000
G1 X13.220 Y-0.514 F7.000
G1 X13.141 Y-0.548 F7.000
G1 X13.056 Y-0.655 F7.000
G1 X12.994 Y-0.836 F7.000
G1 X12.994 Y-0.836 F7.000
G1 X12.994 Y-1.090 F7.000
G1 X13.023 Y-1.260 F7.000
G1 X13.051 Y-1.345 F7.000
G1 X13.153 Y-1.486 F7.000
G1 X13.486 Y-1.763 F7.000
G1 X13.633 Y-1.853 F7.000
G1 X13.977 Y-1.989 F7.000
G1 X14.339 Y-2.051 F7.000
G1 X14.616 Y-2.056 F7.000
G1 X14.870 Y-2.006 F7.000
G1 X15.119 Y-1.910 F7.000
G1 X15.186 Y-1.853 F7.000
G1 X15.277 Y-1.695 F7.000
G1 X15.311 Y-1.610 F7.000
G1 X15.311 Y-1.339 F7.000
G1 X15.311 Y-1.339 F7.000
G1 X15.266 Y-1.147 F7.000
G1 X15.186 Y-1.028 F7.000
G0 X15.153 Y-1.006
G0 X14.921 Y-0.972
G0 X13.379 Y-0.938
G1 X13.328 Y-0.938 F7.000
G1 X13.169 Y-0.949 F7.000
G1 X13.090 Y-0.989 F7.000
G1 X13.011 Y-1.096 F7.000
G1 X12.960 Y-1.282 F7.000
G1 X12.960 Y-1.282 F7.000
G1 X12.960 Y-1.621 F7.000
G1 X12.994 Y-1.791 F7.000
G1 X13.136 Y-2.006 F7.000
G1 X13.322 Y-2.181 F7.000
G1 X13.621 Y-2.362 F7.000
G1 X13.955 Y-2.514 F7.000
G1 X14.322 Y-2.576 F7.000
G1 X14.593 Y-2.576 F7.000
G1 X14.847 Y-2.525 F7.000
G1 X15.017 Y-2.463 F7.000
G1 X15.085 Y-2.401 F7.000
G1 X15.141 Y-2.130 F7.000
G1 X15.141 Y-2.124 F7.000
G1 X15.136 Y-1.932 F7.000
G1 X15.079 Y-1.802 F7.000
G0 X15.051 Y-1.774
G0 X14.831 Y-1.701
G0 X13.362 Y-1.435
G1 X13.311 Y-1.429 F7.000
G1 X13.153 Y-1.412 F7.000
G1 X13.068 Y-1.446 F7.000
G1 X12.977 Y-1.548 F7.000
G1 X12.915 Y-1.729 F7.000
G1 X12.915 Y-1.729 F7.000
G1 X12.893 Y-2.068 F7.000
G1 X12.915 Y-2.237 F7.000
G1 X12.944 Y-2.316 F7.000
G1 X13.158 Y-2.588 F7.000
G1 X13.503 Y-2.842 F7.000
G1 X13.836 Y-2.994 F7.000
G1 X14.198 Y-3.079 F7.000
G1 X14.480 Y-3.096 F7.000
G1 X14.819 Y-3.034 F7.000
G1 X14.904 Y-3.000 F7.000
G1 X14.977 Y-2.944 F7.000
G1 X15.090 Y-2.407 F7.000
G1 X15.090 Y-2.401 F7.000
G1 X15.085 Y-2.209 F7.000
G1 X15.028 Y-2.079 F7.000
G0 X15.000 Y-2.051
G0 X14.780 Y-2.000
G0 X13.311 Y-1.876
G1 X13.260 Y-1.870 F7.000
G1 X13.102 Y-1.870 F7.000
G1 X13.017 Y-1.904 F7.000
G1 X12.921 Y-2.000 F7.000
G1 X12.842 Y-2.169 F7.000
G1 X12.842 Y-2.169 F7.000
G1 X12.802 Y-2.508 F7.000
G1 X12.819 Y-2.678 F7.000
G1 X12.842 Y-2.763 F7.000
G1 X13.045 Y-3.045 F7.000
G1 X13.316 Y-3.271 F7.000
G1 X13.723 Y-3.480 F7.000
G1 X14.079 Y-3.576 F7.000
G1 X14.379 Y-3.605 F7.000
G1 X14.633 Y-3.571 F7.000
G1 X14.802 Y-3.520 F7.000
G1 X14.876 Y-3.469 F7.000
G1 X14.910 Y-3.384 F7.000
G1 X14.972 Y-3.023 F7.000
G1 X14.972 Y-3.023 F7.000
G1 X14.966 Y-2.831 F7.000
G1 X14.910 Y-2.701 F7.000
G0 X14.881 Y-2.672
G0 X14.667 Y-2.610
G0 X13.203 Y-2.418
G1 X13.153 Y-2.407 F7.000
G1 X12.994 Y-2.401 F7.000
G1 X12.910 Y-2.429 F7.000
G1 X12.819 Y-2.525 F7.000
G1 X12.746 Y-2.701 F7.000
G1 X12.746 Y-2.701 F7.000
G1 X12.718 Y-3.040 F7.000
G1 X12.723 Y-3.124 F7.000
G1 X12.746 Y-3.209 F7.000
G1 X12.932 Y-3.497 F7.000
G1 X13.254 Y-3.785 F7.000
G1 X13.571 Y-3.972 F7.000
G1 X13.921 Y-4.085 F7.000
G1 X14.192 Y-4.119 F7.000
G1 X14.531 Y-4.090 F7.000
G1 X14.701 Y-4.034 F7.000
G1 X14.757 Y-3.966 F7.000
G1 X14.859 Y-3.605 F7.000
G1 X14.859 Y-3.605 F7.000
G1 X14.864 Y-3.412 F7.000
G1 X14.825 Y-3.282 F7.000
G0 X14.797 Y-3.254
G0 X14.582 Y-3.175
G0 X13.124 Y-2.881
G1 X13.073 Y-2.870 F7.000
G1 X12.921 Y-2.853 F7.000
G1 X12.836 Y-2.881 F7.000
G1 X12.734 Y-2.972 F7.000
G1 X12.644 Y-3.141 F7.000
G1 X12.644 Y-3.141 F7.000
G1 X12.593 Y-3.480 F7.000
G1 X12.616 Y-3.650 F7.000
G1 X12.734 Y-3.881 F7.000
G1 X12.960 Y-4.141 F7.000
G1 X13.096 Y-4.249 F7.000
G1 X13.407 Y-4.446 F7.000
G1 X13.751 Y-4.582 F7.000
G1 X14.164 Y-4.638 F7.000
G1 X14.418 Y-4.605 F7.000
G1 X14.503 Y-4.582 F7.000
G1 X14.576 Y-4.531 F7.000
G1 X14.627 Y-4.452 F7.000
G1 X14.723 Y-4.090 F7.000
G1 X14.723 Y-4.090 F7.000
G1 X14.729 Y-3.898 F7.000
G1 X14.689 Y-3.768 F7.000
G0 X14.661 Y-3.734
G0 X14.446 Y-3.655
G0 X13.006 Y-3.316
G1 X12.955 Y-3.305 F7.000
G1 X12.802 Y-3.288 F7.000
G1 X12.718 Y-3.311 F7.000
G1 X12.616 Y-3.401 F7.000
G1 X12.525 Y-3.571 F7.000
G1 X12.525 Y-3.571 F7.000
G1 X12.458 Y-3.910 F7.000
G1 X12.458 Y-4.079 F7.000
G1 X12.480 Y-4.164 F7.000
G1 X12.661 Y-4.458 F7.000
G1 X12.898 Y-4.706 F7.000
G1 X12.966 Y-4.763 F7.000
G1 X13.282 Y-4.955 F7.000
G1 X13.627 Y-5.096 F7.000
G1 X13.960 Y-5.147 F7.000
G1 X14.215 Y-5.136 F7.000
G1 X14.299 Y-5.119 F7.000
G1 X14.384 Y-5.085 F7.000
G1 X14.435 Y-5.011 F7.000
G1 X14.554 Y-4.672 F7.000
G1 X14.554 Y-4.672 F7.000
G1 X14.571 Y-4.480 F7.000
G1 X14.537 Y-4.350 F7.000
G0 X14.514 Y-4.316
G0 X14.305 Y-4.220
G0 X12.893 Y-3.797
G1 X12.842 Y-3.780 F7.000
G1 X12.695 Y-3.751 F7.000
G1 X12.605 Y-3.763 F7.000
G1 X12.497 Y-3.842 F7.000
G1 X12.395 Y-4.000 F7.000
G1 X12.395 Y-4.000 F7.000
G1 X12.305 Y-4.339 F7.000
G1 X12.299 Y-4.508 F7.000
G1 X12.316 Y-4.593 F7.000
G1 X12.435 Y-4.825 F7.000
G1 X12.650 Y-5.096 F7.000
G1 X12.774 Y-5.215 F7.000
G1 X13.079 Y-5.424 F7.000
G1 X13.418 Y-5.571 F7.000
G1 X13.706 Y-5.638 F7.000
G1 X13.960 Y-5.650 F7.000
G1 X14.130 Y-5.621 F7.000
G1 X14.209 Y-5.582 F7.000
G1 X14.266 Y-5.514 F7.000
G1 X14.379 Y-5.175 F7.000
G1 X14.379 Y-5.175 F7.000
G1 X14.395 Y-4.983 F7.000
G1 X14.362 Y-4.853 F7.000
G0 X14.339 Y-4.819
G0 X14.130 Y-4.718
G0 X12.734 Y-4.232
G1 X12.689 Y-4.215 F7.000
G1 X12.537 Y-4.175 F7.000
G1 X12.452 Y-4.192 F7.000
G1 X12.345 Y-4.266 F7.000
G1 X12.243 Y-4.424 F7.000
G1 X12.243 Y-4.424 F7.000
G1 X12.147 Y-4.763 F7.000
G1 X12.130 Y-4.932 F7.000
G1 X12.136 Y-5.017 F7.000
G1 X12.237 Y-5.254 F7.000
G1 X12.497 Y-5.599 F7.000
G1 X12.559 Y-5.661 F7.000
G1 X12.853 Y-5.881 F7.000
G1 X13.186 Y-6.045 F7.000
G1 X13.475 Y-6.130 F7.000
G1 X13.814 Y-6.147 F7.000
G1 X13.898 Y-6.136 F7.000
G1 X13.977 Y-6.096 F7.000
G1 X14.040 Y-6.034 F7.000
G1 X14.220 Y-5.616 F7.000
G1 X14.220 Y-5.616 F7.000
G1 X14.254 Y-5.379 F7.000
G1 X14.232 Y-5.294 F7.000
G0 X14.209 Y-5.260
G0 X14.000 Y-5.164
G0 X12.576 Y-4.734
G1 X12.525 Y-4.718 F7.000
G1 X12.373 Y-4.684 F7.000
G1 X12.282 Y-4.701 F7.000
G1 X12.169 Y-4.774 F7.000
G1 X12.056 Y-4.927 F7.000
G1 X12.056 Y-4.927 F7.000
G1 X11.938 Y-5.266 F7.000
G1 X11.921 Y-5.435 F7.000
G1 X11.932 Y-5.520 F7.000
G1 X12.040 Y-5.751 F7.000
G1 X12.254 Y-6.034 F7.000
G1 X12.379 Y-6.158 F7.000
G1 X12.672 Y-6.379 F7.000
G1 X13.085 Y-6.571 F7.000
G1 X13.339 Y-6.627 F7.000
G1 X13.593 Y-6.638 F7.000
G1 X13.678 Y-6.627 F7.000
G1 X13.763 Y-6.593 F7.000
G1 X13.825 Y-6.531 F7.000
G1 X14.006 Y-6.107 F7.000
G1 X14.006 Y-6.107 F7.000
G1 X14.040 Y-5.870 F7.000
G1 X14.017 Y-5.785 F7.000
G0 X13.994 Y-5.751
G0 X13.785 Y-5.661
G0 X12.362 Y-5.237
G1 X12.311 Y-5.220 F7.000
G1 X12.158 Y-5.186 F7.000
G1 X12.062 Y-5.203 F7.000
G1 X11.949 Y-5.271 F7.000
G1 X11.836 Y-5.424 F7.000
G1 X11.836 Y-5.424 F7.000
G1 X11.740 Y-5.763 F7.000
G1 X11.729 Y-5.847 F7.000
G1 X11.734 Y-5.932 F7.000
G1 X11.825 Y-6.175 F7.000
G1 X11.966 Y-6.395 F7.000
G1 X12.141 Y-6.593 F7.000
G1 X12.424 Y-6.831 F7.000
G1 X12.746 Y-7.011 F7.000
G1 X13.141 Y-7.124 F7.000
G1 X13.395 Y-7.136 F7.000
G1 X13.480 Y-7.119 F7.000
G1 X13.548 Y-7.062 F7.000
G1 X13.718 Y-6.740 F7.000
G1 X13.718 Y-6.740 F7.000
G1 X13.763 Y-6.503 F7.000
G1 X13.746 Y-6.418 F7.000
G0 X13.729 Y-6.384
G0 X13.531 Y-6.266
G0 X12.175 Y-5.684
G1 X12.130 Y-5.661 F7.000
G1 X11.983 Y-5.616 F7.000
G1 X11.893 Y-5.616 F7.000
G1 X11.774 Y-5.684 F7.000
G1 X11.650 Y-5.831 F7.000
G1 X11.650 Y-5.831 F7.000
G1 X11.548 Y-6.073 F7.000
G1 X11.508 Y-6.328 F7.000
G1 X11.621 Y-6.655 F7.000
G1 X11.808 Y-6.944 F7.000
G1 X11.864 Y-7.011 F7.000
G1 X12.136 Y-7.266 F7.000
G1 X12.452 Y-7.458 F7.000
G1 X12.718 Y-7.565 F7.000
G1 X12.972 Y-7.616 F7.000
G1 X13.141 Y-7.621 F7.000
G1 X13.226 Y-7.605 F7.000
G1 X13.294 Y-7.548 F7.000
G1 X13.508 Y-7.141 F7.000
G1 X13.508 Y-7.141 F7.000
G1 X13.554 Y-6.904 F7.000
G1 X13.537 Y-6.819 F7.000
G0 X13.520 Y-6.785
G0 X13.322 Y-6.667
G0 X11.966 Y-6.090
G1 X11.921 Y-6.068 F7.000
G1 X11.774 Y-6.023 F7.000
G1 X11.684 Y-6.023 F7.000
G1 X11.565 Y-6.085 F7.000
G1 X11.435 Y-6.226 F7.000
G1 X11.435 Y-6.226 F7.000
G1 X11.299 Y-6.554 F7.000
G1 X11.266 Y-6.723 F7.000
G1 X11.271 Y-6.808 F7.000
G1 X11.356 Y-7.056 F7.000
G1 X11.531 Y-7.362 F7.000
G1 X11.582 Y-7.429 F7.000
G1 X11.842 Y-7.695 F7.000
G1 X12.147 Y-7.904 F7.000
G1 X12.429 Y-8.028 F7.000
G1 X12.768 Y-8.102 F7.000
G1 X12.853 Y-8.102 F7.000
G1 X12.938 Y-8.085 F7.000
G1 X13.011 Y-8.028 F7.000
G1 X13.153 Y-7.791 F7.000
G1 X13.153 Y-7.791 F7.000
G1 X13.209 Y-7.605 F7.000
G1 X13.203 Y-7.469 F7.000
G0 X13.186 Y-7.435
G0 X13.006 Y-7.294
G0 X11.740 Y-6.525
G1 X11.695 Y-6.497 F7.000
G1 X11.554 Y-6.429 F7.000
G1 X11.469 Y-6.424 F7.000
G1 X11.350 Y-6.480 F7.000
G1 X11.220 Y-6.621 F7.000
G1 X11.220 Y-6.621 F7.000
G1 X11.090 Y-6.859 F7.000
G1 X11.028 Y-7.028 F7.000
G1 X11.011 Y-7.113 F7.000
G1 X11.011 Y-7.198 F7.000
G1 X11.079 Y-7.452 F7.000
G1 X11.186 Y-7.689 F7.000
G1 X11.339 Y-7.904 F7.000
G1 X11.588 Y-8.175 F7.000
G1 X11.887 Y-8.390 F7.000
G1 X12.186 Y-8.514 F7.000
G1 X12.441 Y-8.565 F7.000
G1 X12.610 Y-8.565 F7.000
G1 X12.684 Y-8.520 F7.000
G1 X12.989 Y-8.079 F7.000
G1 X12.989 Y-8.079 F7.000
G1 X13.045 Y-7.842 F7.000
G1 X13.034 Y-7.757 F7.000
G0 X13.011 Y-7.718
G0 X12.831 Y-7.588
G0 X11.525 Y-6.910
G1 X11.480 Y-6.887 F7.000
G1 X11.333 Y-6.825 F7.000
G1 X11.243 Y-6.819 F7.000
G1 X11.119 Y-6.870 F7.000
G1 X10.983 Y-7.000 F7.000
G1 X10.983 Y-7.000 F7.000
G1 X10.774 Y-7.390 F7.000
G1 X10.729 Y-7.559 F7.000
G1 X10.774 Y-7.814 F7.000
G1 X10.949 Y-8.209 F7.000
G1 X10.994 Y-8.282 F7.000
G1 X11.243 Y-8.559 F7.000
G1 X11.531 Y-8.785 F7.000
G1 X11.876 Y-8.966 F7.000
G1 X12.130 Y-9.028 F7.000
G1 X12.215 Y-9.034 F7.000
G1 X12.299 Y-9.023 F7.000
G1 X12.373 Y-8.972 F7.000
G1 X12.531 Y-8.746 F7.000
G1 X12.531 Y-8.746 F7.000
G1 X12.599 Y-8.571 F7.000
G1 X12.599 Y-8.435 F7.000
G0 X12.582 Y-8.395
G0 X12.418 Y-8.243
G0 X11.203 Y-7.390
G1 X11.164 Y-7.362 F7.000
G1 X11.028 Y-7.288 F7.000
G1 X10.944 Y-7.277 F7.000
G1 X10.814 Y-7.322 F7.000
G1 X10.678 Y-7.446 F7.000
G1 X10.678 Y-7.446 F7.000
G1 X10.497 Y-7.757 F7.000
G1 X10.435 Y-7.921 F7.000
G1 X10.424 Y-8.006 F7.000
G1 X10.475 Y-8.260 F7.000
G1 X10.610 Y-8.582 F7.000
G1 X10.701 Y-8.729 F7.000
G1 X10.938 Y-9.011 F7.000
G1 X11.220 Y-9.249 F7.000
G1 X11.520 Y-9.407 F7.000
G1 X11.768 Y-9.475 F7.000
G1 X11.938 Y-9.480 F7.000
G1 X12.017 Y-9.435 F7.000
G1 X12.356 Y-9.000 F7.000
G1 X12.356 Y-9.000 F7.000
G1 X12.435 Y-8.825 F7.000
G1 X12.446 Y-8.734 F7.000
G1 X12.441 Y-8.689 F7.000
G0 X12.429 Y-8.655
G0 X12.249 Y-8.525
G0 X10.927 Y-7.825
G1 X10.881 Y-7.797 F7.000
G1 X10.734 Y-7.734 F7.000
G1 X10.644 Y-7.729 F7.000
G1 X10.475 Y-7.791 F7.000
G1 X10.367 Y-7.881 F7.000
G1 X10.367 Y-7.881 F7.000
G1 X10.181 Y-8.186 F7.000
G1 X10.136 Y-8.356 F7.000
G1 X10.169 Y-8.610 F7.000
G1 X10.282 Y-8.944 F7.000
G1 X10.362 Y-9.102 F7.000
G1 X10.588 Y-9.395 F7.000
G1 X10.853 Y-9.650 F7.000
G1 X11.136 Y-9.819 F7.000
G1 X11.379 Y-9.904 F7.000
G1 X11.548 Y-9.932 F7.000
G1 X11.633 Y-9.910 F7.000
G1 X11.864 Y-9.633 F7.000
G1 X11.864 Y-9.633 F7.000
G1 X11.944 Y-9.458 F7.000
G1 X11.955 Y-9.322 F7.000
G0 X11.938 Y-9.282
G0 X11.780 Y-9.124
G0 X10.616 Y-8.220
G1 X10.576 Y-8.186 F7.000
G1 X10.446 Y-8.102 F7.000
G1 X10.362 Y-8.085 F7.000
G1 X10.232 Y-8.124 F7.000
G1 X10.085 Y-8.237 F7.000
G1 X10.085 Y-8.237 F7.000
G1 X9.881 Y-8.537 F7.000
G1 X9.814 Y-8.701 F7.000
G1 X9.802 Y-8.785 F7.000
G1 X9.836 Y-9.040 F7.000
G1 X9.949 Y-9.367 F7.000
G1 X9.989 Y-9.446 F7.000
G1 X10.192 Y-9.751 F7.000
G1 X10.446 Y-10.023 F7.000
G1 X10.718 Y-10.209 F7.000
G1 X10.960 Y-10.311 F7.000
G1 X11.130 Y-10.350 F7.000
G1 X11.215 Y-10.345 F7.000
G1 X11.294 Y-10.305 F7.000
G1 X11.537 Y-10.034 F7.000
G1 X11.537 Y-10.034 F7.000
G1 X11.627 Y-9.870 F7.000
G1 X11.644 Y-9.734 F7.000
G0 X11.633 Y-9.695
G0 X11.469 Y-9.537
G0 X10.277 Y-8.638
G1 X10.237 Y-8.605 F7.000
G1 X10.107 Y-8.525 F7.000
G1 X10.017 Y-8.503 F7.000
G1 X9.887 Y-8.537 F7.000
G1 X9.740 Y-8.650 F7.000
G1 X9.740 Y-8.650 F7.000
G1 X9.576 Y-8.864 F7.000
G1 X9.497 Y-9.023 F7.000
G1 X9.475 Y-9.107 F7.000
G1 X9.486 Y-9.362 F7.000
G1 X9.576 Y-9.701 F7.000
G1 X9.644 Y-9.859 F7.000
G1 X9.847 Y-10.169 F7.000
G1 X10.102 Y-10.441 F7.000
G1 X10.356 Y-10.621 F7.000
G1 X10.599 Y-10.723 F7.000
G1 X10.768 Y-10.763 F7.000
G1 X10.853 Y-10.746 F7.000
G1 X11.107 Y-10.497 F7.000
G1 X11.107 Y-10.497 F7.000
G1 X11.203 Y-10.333 F7.000
G1 X11.226 Y-10.198 F7.000
G0 X11.220 Y-10.158
G0 X11.073 Y-9.989
G0 X9.966 Y-9.006
G1 X9.927 Y-8.972 F7.000
G1 X9.802 Y-8.876 F7.000
G1 X9.718 Y-8.853 F7.000
G1 X9.588 Y-8.876 F7.000
G1 X9.435 Y-8.977 F7.000
G1 X9.435 Y-8.977 F7.000
G1 X9.203 Y-9.260 F7.000
G1 X9.130 Y-9.424 F7.000
G1 X9.113 Y-9.508 F7.000
G1 X9.124 Y-9.763 F7.000
G1 X9.215 Y-10.102 F7.000
G1 X9.249 Y-10.181 F7.000
G1 X9.435 Y-10.497 F7.000
G1 X9.667 Y-10.785 F7.000
G1 X9.921 Y-10.994 F7.000
G1 X10.153 Y-11.113 F7.000
G1 X10.322 Y-11.164 F7.000
G1 X10.407 Y-11.164 F7.000
G1 X10.486 Y-11.124 F7.000
G1 X10.672 Y-10.938 F7.000
G1 X10.672 Y-10.938 F7.000
G1 X10.768 Y-10.774 F7.000
G1 X10.797 Y-10.638 F7.000
G0 X10.785 Y-10.593
G0 X10.650 Y-10.412
G0 X9.638 Y-9.339
G1 X9.605 Y-9.299 F7.000
G1 X9.492 Y-9.198 F7.000
G1 X9.407 Y-9.169 F7.000
G1 X9.277 Y-9.192 F7.000
G1 X9.119 Y-9.294 F7.000
G1 X9.119 Y-9.294 F7.000
G1 X8.881 Y-9.565 F7.000
G1 X8.791 Y-9.718 F7.000
G1 X8.763 Y-9.802 F7.000
G1 X8.757 Y-10.141 F7.000
G1 X8.870 Y-10.559 F7.000
G1 X9.045 Y-10.881 F7.000
G1 X9.282 Y-11.164 F7.000
G1 X9.582 Y-11.407 F7.000
G1 X9.734 Y-11.492 F7.000
G1 X9.904 Y-11.542 F7.000
G1 X9.989 Y-11.542 F7.000
G1 X10.073 Y-11.508 F7.000
G1 X10.277 Y-11.322 F7.000
G1 X10.277 Y-11.322 F7.000
G1 X10.384 Y-11.164 F7.000
G1 X10.412 Y-11.034 F7.000
G0 X10.401 Y-10.989
G0 X10.266 Y-10.808
G0 X9.254 Y-9.740
G1 X9.220 Y-9.701 F7.000
G1 X9.107 Y-9.599 F7.000
G1 X9.023 Y-9.571 F7.000
G1 X8.893 Y-9.582 F7.000
G1 X8.729 Y-9.672 F7.000
G1 X8.729 Y-9.672 F7.000
G1 X8.537 Y-9.864 F7.000
G1 X8.429 Y-10.011 F7.000
G1 X8.390 Y-10.090 F7.000
G1 X8.356 Y-10.345 F7.000
G1 X8.373 Y-10.599 F7.000
G1 X8.441 Y-10.853 F7.000
G1 X8.599 Y-11.186 F7.000
G1 X8.814 Y-11.486 F7.000
G1 X9.130 Y-11.763 F7.000
G1 X9.362 Y-11.881 F7.000
G1 X9.446 Y-11.910 F7.000
G1 X9.531 Y-11.910 F7.000
G1 X9.616 Y-11.876 F7.000
G1 X9.751 Y-11.763 F7.000
G1 X9.751 Y-11.763 F7.000
G1 X9.870 Y-11.610 F7.000
G1 X9.904 Y-11.480 F7.000
G0 X9.898 Y-11.441
G0 X9.785 Y-11.243
G0 X8.893 Y-10.062
G1 X8.859 Y-10.023 F7.000
G1 X8.757 Y-9.910 F7.000
G1 X8.684 Y-9.870 F7.000
G1 X8.554 Y-9.881 F7.000
G1 X8.390 Y-9.960 F7.000
G1 X8.390 Y-9.960 F7.000
G1 X8.181 Y-10.141 F7.000
G1 X8.062 Y-10.277 F7.000
G1 X7.977 Y-10.429 F7.000
G1 X7.944 Y-10.684 F7.000
G1 X7.960 Y-10.938 F7.000
G1 X8.023 Y-11.192 F7.000
G1 X8.175 Y-11.531 F7.000
G1 X8.395 Y-11.831 F7.000
G1 X8.605 Y-12.034 F7.000
G1 X8.814 Y-12.181 F7.000
G1 X8.972 Y-12.254 F7.000
G1 X9.056 Y-12.271 F7.000
G1 X9.141 Y-12.249 F7.000
G1 X9.288 Y-12.141 F7.000
G1 X9.288 Y-12.141 F7.000
G1 X9.407 Y-11.989 F7.000
G1 X9.441 Y-11.859 F7.000
G0 X9.435 Y-11.819
G0 X9.328 Y-11.616
G0 X8.463 Y-10.407
G1 X8.435 Y-10.367 F7.000
G1 X8.333 Y-10.249 F7.000
G1 X8.260 Y-10.209 F7.000
G1 X8.130 Y-10.220 F7.000
G1 X7.966 Y-10.299 F7.000
G1 X7.966 Y-10.299 F7.000
G1 X7.701 Y-10.548 F7.000
G1 X7.599 Y-10.695 F7.000
G1 X7.542 Y-10.949 F7.000
G1 X7.542 Y-11.203 F7.000
G1 X7.610 Y-11.542 F7.000
G1 X7.757 Y-11.881 F7.000
G1 X7.966 Y-12.186 F7.000
G1 X8.266 Y-12.458 F7.000
G1 X8.492 Y-12.588 F7.000
G1 X8.576 Y-12.610 F7.000
G1 X8.661 Y-12.588 F7.000
G1 X8.808 Y-12.486 F7.000
G1 X8.802 Y-12.486 F7.000
G1 X8.927 Y-12.345 F7.000
G1 X8.977 Y-12.220 F7.000
G0 X8.977 Y-12.181
G0 X8.881 Y-11.966
G0 X8.096 Y-10.712
G1 X8.068 Y-10.667 F7.000
G1 X7.977 Y-10.542 F7.000
G1 X7.904 Y-10.503 F7.000
G1 X7.774 Y-10.503 F7.000
G1 X7.610 Y-10.571 F7.000
G1 X7.610 Y-10.571 F7.000
G1 X7.322 Y-10.797 F7.000
G1 X7.203 Y-10.938 F7.000
G1 X7.164 Y-11.017 F7.000
G1 X7.113 Y-11.271 F7.000
G1 X7.113 Y-11.525 F7.000
G1 X7.158 Y-11.780 F7.000
G1 X7.288 Y-12.124 F7.000
G1 X7.475 Y-12.441 F7.000
G1 X7.763 Y-12.746 F7.000
G1 X7.977 Y-12.893 F7.000
G1 X8.056 Y-12.927 F7.000
G1 X8.141 Y-12.927 F7.000
G1 X8.299 Y-12.842 F7.000
G1 X8.299 Y-12.842 F7.000
G1 X8.429 Y-12.701 F7.000
G1 X8.486 Y-12.576 F7.000
G0 X8.486 Y-12.537
G0 X8.395 Y-12.322
G0 X7.650 Y-11.023
G1 X7.621 Y-10.977 F7.000
G1 X7.537 Y-10.847 F7.000
G1 X7.463 Y-10.808 F7.000
G1 X7.333 Y-10.802 F7.000
G1 X7.164 Y-10.870 F7.000
G1 X7.164 Y-10.870 F7.000
G1 X6.881 Y-11.090 F7.000
G1 X6.768 Y-11.232 F7.000
G1 X6.729 Y-11.311 F7.000
G1 X6.678 Y-11.565 F7.000
G1 X6.678 Y-11.904 F7.000
G1 X6.706 Y-12.073 F7.000
G1 X6.825 Y-12.424 F7.000
G1 X7.011 Y-12.746 F7.000
G1 X7.266 Y-13.040 F7.000
G1 X7.475 Y-13.192 F7.000
G1 X7.554 Y-13.232 F7.000
G1 X7.638 Y-13.237 F7.000
G1 X7.712 Y-13.186 F7.000
G1 X7.712 Y-13.186 F7.000
G1 X7.842 Y-13.056 F7.000
G1 X7.904 Y-12.932 F7.000
G0 X7.904 Y-12.893
G0 X7.836 Y-12.672
G0 X7.243 Y-11.311
G1 X7.220 Y-11.266 F7.000
G1 X7.153 Y-11.130 F7.000
G1 X7.085 Y-11.079 F7.000
G1 X6.955 Y-11.062 F7.000
G1 X6.785 Y-11.113 F7.000
G1 X6.785 Y-11.113 F7.000
G1 X6.486 Y-11.316 F7.000
G1 X6.356 Y-11.446 F7.000
G1 X6.311 Y-11.520 F7.000
G1 X6.220 Y-11.859 F7.000
G1 X6.215 Y-12.198 F7.000
G1 X6.226 Y-12.282 F7.000
G1 X6.328 Y-12.638 F7.000
G1 X6.492 Y-12.966 F7.000
G1 X6.667 Y-13.215 F7.000
G1 X6.847 Y-13.395 F7.000
G1 X6.989 Y-13.492 F7.000
G1 X7.073 Y-13.514 F7.000
G1 X7.158 Y-13.508 F7.000
G1 X7.316 Y-13.424 F7.000
G1 X7.316 Y-13.424 F7.000
G1 X7.452 Y-13.299 F7.000
G1 X7.514 Y-13.181 F7.000
G0 X7.520 Y-13.141
G0 X7.446 Y-12.921
G0 X6.791 Y-11.576
G1 X6.768 Y-11.531 F7.000
G1 X6.689 Y-11.401 F7.000
G1 X6.621 Y-11.350 F7.000
G1 X6.492 Y-11.333 F7.000
G1 X6.322 Y-11.384 F7.000
G1 X6.322 Y-11.384 F7.000
G1 X6.023 Y-11.582 F7.000
G1 X5.893 Y-11.712 F7.000
G1 X5.847 Y-11.791 F7.000
G1 X5.757 Y-12.130 F7.000
G1 X5.740 Y-12.384 F7.000
G1 X5.757 Y-12.554 F7.000
G1 X5.847 Y-12.910 F7.000
G1 X6.006 Y-13.243 F7.000
G1 X6.237 Y-13.559 F7.000
G1 X6.435 Y-13.729 F7.000
G1 X6.508 Y-13.774 F7.000
G1 X6.593 Y-13.785 F7.000
G1 X6.757 Y-13.718 F7.000
G1 X6.757 Y-13.718 F7.000
G1 X6.893 Y-13.593 F7.000
G1 X6.955 Y-13.475 F7.000
G0 X6.960 Y-13.435
G0 X6.898 Y-13.215
G0 X6.311 Y-11.853
G1 X6.288 Y-11.808 F7.000
G1 X6.220 Y-11.672 F7.000
G1 X6.153 Y-11.616 F7.000
G1 X6.023 Y-11.599 F7.000
G1 X5.847 Y-11.638 F7.000
G1 X5.847 Y-11.638 F7.000
G1 X5.542 Y-11.836 F7.000
G1 X5.418 Y-11.966 F7.000
G1 X5.299 Y-12.299 F7.000
G1 X5.266 Y-12.554 F7.000
G1 X5.266 Y-12.723 F7.000
G1 X5.339 Y-13.085 F7.000
G1 X5.469 Y-13.429 F7.000
G1 X5.695 Y-13.780 F7.000
G1 X5.814 Y-13.910 F7.000
G1 X5.955 Y-14.011 F7.000
G1 X6.040 Y-14.028 F7.000
G1 X6.124 Y-14.000 F7.000
G1 X6.124 Y-14.000 F7.000
G1 X6.271 Y-13.887 F7.000
G1 X6.345 Y-13.774 F7.000
G0 X6.350 Y-13.734
G0 X6.311 Y-13.508
G0 X5.876 Y-12.079
G1 X5.859 Y-12.028 F7.000
G1 X5.808 Y-11.881 F7.000
G1 X5.740 Y-11.825 F7.000
G1 X5.616 Y-11.797 F7.000
G1 X5.441 Y-11.831 F7.000
G1 X5.441 Y-11.831 F7.000
G1 X5.119 Y-12.000 F7.000
G1 X4.977 Y-12.119 F7.000
G1 X4.921 Y-12.186 F7.000
G1 X4.802 Y-12.520 F7.000
G1 X4.757 Y-12.859 F7.000
G1 X4.757 Y-12.944 F7.000
G1 X4.825 Y-13.305 F7.000
G1 X4.944 Y-13.655 F7.000
G1 X5.158 Y-14.006 F7.000
G1 X5.277 Y-14.136 F7.000
G1 X5.418 Y-14.243 F7.000
G1 X5.503 Y-14.260 F7.000
G1 X5.588 Y-14.226 F7.000
G1 X5.588 Y-14.226 F7.000
G1 X5.734 Y-14.119 F7.000
G1 X5.814 Y-14.006 F7.000
G0 X5.819 Y-13.966
G0 X5.785 Y-13.734
G0 X5.379 Y-12.294
G1 X5.362 Y-12.243 F7.000
G1 X5.311 Y-12.096 F7.000
G1 X5.249 Y-12.040 F7.000
G1 X5.124 Y-12.011 F7.000
G1 X4.949 Y-12.051 F7.000
G1 X4.949 Y-12.051 F7.000
G1 X4.621 Y-12.220 F7.000
G1 X4.486 Y-12.333 F7.000
G1 X4.435 Y-12.407 F7.000
G1 X4.316 Y-12.740 F7.000
G1 X4.271 Y-13.079 F7.000
G1 X4.305 Y-13.446 F7.000
G1 X4.412 Y-13.802 F7.000
G1 X4.593 Y-14.153 F7.000
G1 X4.757 Y-14.356 F7.000
G1 X4.819 Y-14.412 F7.000
G1 X4.893 Y-14.452 F7.000
G1 X4.977 Y-14.458 F7.000
G1 X5.147 Y-14.401 F7.000
G1 X5.147 Y-14.401 F7.000
G1 X5.305 Y-14.305 F7.000
G1 X5.390 Y-14.203 F7.000
G0 X5.401 Y-14.164
G0 X5.367 Y-13.938
G0 X4.960 Y-12.480
G1 X4.944 Y-12.429 F7.000
G1 X4.893 Y-12.282 F7.000
G1 X4.831 Y-12.220 F7.000
G1 X4.706 Y-12.186 F7.000
G1 X4.531 Y-12.215 F7.000
G1 X4.531 Y-12.215 F7.000
G1 X4.119 Y-12.407 F7.000
G1 X4.045 Y-12.463 F7.000
G1 X3.983 Y-12.531 F7.000
G1 X3.864 Y-12.774 F7.000
G1 X3.768 Y-13.198 F7.000
G1 X3.763 Y-13.282 F7.000
G1 X3.797 Y-13.650 F7.000
G1 X3.887 Y-14.006 F7.000
G1 X4.073 Y-14.373 F7.000
G1 X4.305 Y-14.627 F7.000
G1 X4.390 Y-14.644 F7.000
G1 X4.475 Y-14.616 F7.000
G1 X4.469 Y-14.616 F7.000
G1 X4.627 Y-14.520 F7.000
G1 X4.712 Y-14.418 F7.000
G0 X4.723 Y-14.373
G0 X4.706 Y-14.147
G0 X4.418 Y-12.684
G1 X4.407 Y-12.633 F7.000
G1 X4.367 Y-12.480 F7.000
G1 X4.311 Y-12.418 F7.000
G1 X4.192 Y-12.373 F7.000
G1 X4.017 Y-12.384 F7.000
G1 X4.017 Y-12.384 F7.000
G1 X3.763 Y-12.492 F7.000
G1 X3.605 Y-12.588 F7.000
G1 X3.537 Y-12.644 F7.000
G1 X3.435 Y-12.791 F7.000
G1 X3.305 Y-13.119 F7.000
G1 X3.249 Y-13.373 F7.000
G1 X3.249 Y-13.740 F7.000
G1 X3.328 Y-14.102 F7.000
G1 X3.508 Y-14.514 F7.000
G1 X3.661 Y-14.718 F7.000
G1 X3.723 Y-14.780 F7.000
G1 X3.808 Y-14.802 F7.000
G1 X4.062 Y-14.746 F7.000
G1 X4.062 Y-14.746 F7.000
G1 X4.220 Y-14.655 F7.000
G1 X4.311 Y-14.554 F7.000
G0 X4.322 Y-14.508
G0 X4.305 Y-14.277
G0 X3.994 Y-12.808
G1 X3.983 Y-12.757 F7.000
G1 X3.944 Y-12.610 F7.000
G1 X3.887 Y-12.548 F7.000
G1 X3.763 Y-12.503 F7.000
G1 X3.588 Y-12.520 F7.000
G1 X3.588 Y-12.520 F7.000
G1 X3.158 Y-12.684 F7.000
G1 X3.011 Y-12.797 F7.000
G1 X2.836 Y-13.102 F7.000
G1 X2.751 Y-13.356 F7.000
G1 X2.718 Y-13.525 F7.000
G1 X2.718 Y-13.893 F7.000
G1 X2.785 Y-14.254 F7.000
G1 X2.893 Y-14.554 F7.000
G1 X3.017 Y-14.780 F7.000
G1 X3.124 Y-14.910 F7.000
G1 X3.203 Y-14.938 F7.000
G1 X3.288 Y-14.921 F7.000
G1 X3.288 Y-14.921 F7.000
G1 X3.452 Y-14.842 F7.000
G1 X3.548 Y-14.746 F7.000
G0 X3.565 Y-14.706
G0 X3.571 Y-14.475
G0 X3.441 Y-12.989
G1 X3.435 Y-12.938 F7.000
G1 X3.412 Y-12.785 F7.000
G1 X3.362 Y-12.718 F7.000
G1 X3.243 Y-12.661 F7.000
G1 X3.068 Y-12.655 F7.000
G1 X3.068 Y-12.655 F7.000
G1 X2.712 Y-12.768 F7.000
G1 X2.554 Y-12.859 F7.000
G1 X2.486 Y-12.921 F7.000
G1 X2.311 Y-13.232 F7.000
G1 X2.186 Y-13.655 F7.000
G1 X2.181 Y-14.023 F7.000
G1 X2.237 Y-14.390 F7.000
G1 X2.367 Y-14.768 F7.000
G1 X2.508 Y-14.983 F7.000
G1 X2.576 Y-15.040 F7.000
G1 X2.661 Y-15.051 F7.000
G1 X2.746 Y-15.034 F7.000
G1 X2.740 Y-15.034 F7.000
G1 X2.910 Y-14.955 F7.000
G1 X3.006 Y-14.859 F7.000
G0 X3.023 Y-14.819
G0 X3.028 Y-14.588
G0 X2.915 Y-13.107
G1 X2.910 Y-13.056 F7.000
G1 X2.887 Y-12.904 F7.000
G1 X2.836 Y-12.836 F7.000
G1 X2.718 Y-12.780 F7.000
G1 X2.542 Y-12.774 F7.000
G1 X2.542 Y-12.774 F7.000
G1 X2.271 Y-12.847 F7.000
G1 X2.107 Y-12.921 F7.000
G1 X1.972 Y-13.034 F7.000
G1 X1.785 Y-13.339 F7.000
G1 X1.672 Y-13.672 F7.000
G1 X1.638 Y-14.040 F7.000
G1 X1.667 Y-14.407 F7.000
G1 X1.768 Y-14.785 F7.000
G1 X1.887 Y-15.017 F7.000
G1 X1.938 Y-15.085 F7.000
G1 X2.011 Y-15.130 F7.000
G1 X2.096 Y-15.141 F7.000
G1 X2.266 Y-15.119 F7.000
G1 X2.266 Y-15.119 F7.000
G1 X2.475 Y-15.023 F7.000
G1 X2.537 Y-14.960 F7.000
G0 X2.554 Y-14.927
G0 X2.565 Y-14.689
G0 X2.463 Y-13.192
G1 X2.463 Y-13.141 F7.000
G1 X2.446 Y-13.034 F7.000
G1 X2.401 Y-12.944 F7.000
G1 X2.322 Y-12.887 F7.000
G1 X2.102 Y-12.859 F7.000
G1 X2.102 Y-12.859 F7.000
G1 X1.740 Y-12.938 F7.000
G1 X1.576 Y-13.011 F7.000
G1 X1.503 Y-13.068 F7.000
G1 X1.390 Y-13.209 F7.000
G1 X1.237 Y-13.525 F7.000
G1 X1.169 Y-13.780 F7.000
G1 X1.119 Y-14.147 F7.000
G1 X1.141 Y-14.514 F7.000
G1 X1.232 Y-14.853 F7.000
G1 X1.356 Y-15.079 F7.000
G1 X1.407 Y-15.147 F7.000
G1 X1.475 Y-15.198 F7.000
G1 X1.644 Y-15.198 F7.000
G1 X1.644 Y-15.198 F7.000
G1 X1.853 Y-15.102 F7.000
G1 X1.915 Y-15.040 F7.000
G0 X1.938 Y-15.006
G0 X1.966 Y-14.774
G0 X1.989 Y-13.282
G1 X1.994 Y-13.232 F7.000
G1 X1.983 Y-13.079 F7.000
G1 X1.938 Y-13.006 F7.000
G1 X1.831 Y-12.938 F7.000
G1 X1.655 Y-12.915 F7.000
G1 X1.655 Y-12.915 F7.000
G1 X1.384 Y-12.960 F7.000
G1 X1.124 Y-13.062 F7.000
G1 X1.051 Y-13.119 F7.000
G1 X0.847 Y-13.412 F7.000
G1 X0.712 Y-13.746 F7.000
G1 X0.627 Y-14.107 F7.000
G1 X0.610 Y-14.475 F7.000
G1 X0.678 Y-14.819 F7.000
G1 X0.780 Y-15.056 F7.000
G1 X0.876 Y-15.198 F7.000
G1 X0.949 Y-15.243 F7.000
G1 X1.119 Y-15.249 F7.000
G1 X1.113 Y-15.249 F7.000
G1 X1.288 Y-15.198 F7.000
G1 X1.390 Y-15.124 F7.000
G0 X1.412 Y-15.085
G0 X1.441 Y-14.859
G0 X1.452 Y-13.345
G1 X1.458 Y-13.294 F7.000
G1 X1.446 Y-13.141 F7.000
G1 X1.401 Y-13.068 F7.000
G1 X1.294 Y-13.000 F7.000
G1 X1.119 Y-12.977 F7.000
G1 X1.119 Y-12.977 F7.000
G1 X0.847 Y-13.028 F7.000
G1 X0.678 Y-13.102 F7.000
G1 X0.605 Y-13.158 F7.000
G1 X0.384 Y-13.441 F7.000
G1 X0.232 Y-13.763 F7.000
G1 X0.124 Y-14.119 F7.000
G1 X0.096 Y-14.486 F7.000
G1 X0.141 Y-14.819 F7.000
G1 X0.243 Y-15.062 F7.000
G1 X0.339 Y-15.209 F7.000
G1 X0.407 Y-15.260 F7.000
G1 X0.492 Y-15.277 F7.000
G1 X0.576 Y-15.277 F7.000
G1 X0.576 Y-15.277 F7.000
G1 X0.751 Y-15.226 F7.000
G1 X0.853 Y-15.153 F7.000
G0 X0.876 Y-15.113
G0 X0.921 Y-14.887
G0 X1.073 Y-13.379
G1 X1.079 Y-13.328 F7.000
G1 X1.079 Y-13.220 F7.000
G1 X1.051 Y-13.124 F7.000
G1 X0.977 Y-13.056 F7.000
G1 X0.763 Y-13.000 F7.000
G1 X0.763 Y-13.000 F7.000
G1 X0.401 Y-13.045 F7.000
G1 X0.232 Y-13.107 F7.000
G1 X0.153 Y-13.153 F7.000
G1 X-0.034 Y-13.350 F7.000
G1 X-0.254 Y-13.729 F7.000
G1 X-0.288 Y-13.808 F7.000
G1 X-0.384 Y-14.164 F7.000
G1 X-0.412 Y-14.531 F7.000
G1 X-0.367 Y-14.831 F7.000
G1 X-0.266 Y-15.079 F7.000
G1 X-0.164 Y-15.226 F7.000
G1 X-0.090 Y-15.277 F7.000
G1 X0.000 Y-15.294 F7.000
G1 X0.000 Y-15.294 F7.000
G1 X0.175 Y-15.254 F7.000
G1 X0.288 Y-15.186 F7.000
G0 X0.311 Y-15.153
G0 X0.362 Y-14.927
G0 X0.531 Y-13.407
G1 X0.537 Y-13.356 F7.000
G1 X0.542 Y-13.249 F7.000
G1 X0.508 Y-13.153 F7.000
G1 X0.441 Y-13.085 F7.000
G1 X0.226 Y-13.028 F7.000
G1 X0.226 Y-13.028 F7.000
G1 X-0.124 Y-13.068 F7.000
G1 X-0.288 Y-13.124 F7.000
G1 X-0.486 Y-13.294 F7.000
G1 X-0.684 Y-13.576 F7.000
G1 X-0.757 Y-13.734 F7.000
G1 X-0.876 Y-14.085 F7.000
G1 X-0.915 Y-14.452 F7.000
G1 X-0.898 Y-14.751 F7.000
G1 X-0.814 Y-15.006 F7.000
G1 X-0.678 Y-15.237 F7.000
G1 X-0.599 Y-15.282 F7.000
G1 X-0.508 Y-15.282 F7.000
G1 X-0.508 Y-15.282 F7.000
G1 X-0.316 Y-15.243 F7.000
G1 X-0.198 Y-15.175 F7.000
G0 X-0.169 Y-15.141
G0 X-0.113 Y-14.915
G0 X0.073 Y-13.435
G1 X0.085 Y-13.384 F7.000
G1 X0.096 Y-13.226 F7.000
G1 X0.062 Y-13.147 F7.000
G1 X-0.034 Y-13.068 F7.000
G1 X-0.220 Y-13.028 F7.000
G1 X-0.220 Y-13.028 F7.000
G1 X-0.559 Y-13.045 F7.000
G1 X-0.729 Y-13.090 F7.000
G1 X-0.808 Y-13.130 F7.000
G1 X-1.051 Y-13.379 F7.000
G1 X-1.232 Y-13.667 F7.000
G1 X-1.384 Y-14.096 F7.000
G1 X-1.429 Y-14.463 F7.000
G1 X-1.407 Y-14.763 F7.000
G1 X-1.328 Y-15.017 F7.000
G1 X-1.243 Y-15.175 F7.000
G1 X-1.175 Y-15.232 F7.000
G1 X-1.085 Y-15.260 F7.000
G1 X-0.904 Y-15.277 F7.000
G1 X-0.904 Y-15.277 F7.000
G1 X-0.712 Y-15.237 F7.000
G1 X-0.593 Y-15.169 F7.000
G0 X-0.565 Y-15.136
G0 X-0.514 Y-14.910
G0 X-0.345 Y-13.424
G1 X-0.339 Y-13.373 F7.000
G1 X-0.339 Y-13.215 F7.000
G1 X-0.373 Y-13.136 F7.000
G1 X-0.480 Y-13.056 F7.000
G1 X-0.667 Y-13.011 F7.000
G1 X-0.667 Y-13.011 F7.000
G1 X-1.090 Y-13.028 F7.000
G1 X-1.254 Y-13.085 F7.000
G1 X-1.514 Y-13.316 F7.000
G1 X-1.706 Y-13.605 F7.000
G1 X-1.876 Y-14.028 F7.000
G1 X-1.932 Y-14.395 F7.000
G1 X-1.932 Y-14.672 F7.000
G1 X-1.870 Y-14.927 F7.000
G1 X-1.797 Y-15.085 F7.000
G1 X-1.746 Y-15.158 F7.000
G1 X-1.661 Y-15.198 F7.000
G1 X-1.571 Y-15.209 F7.000
G1 X-1.571 Y-15.209 F7.000
G1 X-1.379 Y-15.186 F7.000
G1 X-1.254 Y-15.124 F7.000
G0 X-1.226 Y-15.090
G0 X-1.153 Y-14.870
G0 X-0.836 Y-13.407
G1 X-0.825 Y-13.356 F7.000
G1 X-0.808 Y-13.203 F7.000
G1 X-0.836 Y-13.119 F7.000
G1 X-0.938 Y-13.034 F7.000
G1 X-1.119 Y-12.977 F7.000
G1 X-1.119 Y-12.977 F7.000
G1 X-1.373 Y-12.960 F7.000
G1 X-1.627 Y-12.994 F7.000
G1 X-1.712 Y-13.023 F7.000
G1 X-1.921 Y-13.181 F7.000
G1 X-2.141 Y-13.452 F7.000
G1 X-2.232 Y-13.599 F7.000
G1 X-2.384 Y-13.932 F7.000
G1 X-2.458 Y-14.294 F7.000
G1 X-2.463 Y-14.593 F7.000
G1 X-2.412 Y-14.847 F7.000
G1 X-2.339 Y-15.011 F7.000
G1 X-2.288 Y-15.085 F7.000
G1 X-2.209 Y-15.136 F7.000
G1 X-2.119 Y-15.147 F7.000
G1 X-2.119 Y-15.147 F7.000
G1 X-1.876 Y-15.124 F7.000
G1 X-1.797 Y-15.079 F7.000
G0 X-1.763 Y-15.051
G0 X-1.689 Y-14.836
G0 X-1.367 Y-13.350
G1 X-1.356 Y-13.299 F7.000
G1 X-1.339 Y-13.147 F7.000
G1 X-1.367 Y-13.062 F7.000
G1 X-1.469 Y-12.977 F7.000
G1 X-1.650 Y-12.921 F7.000
G1 X-1.650 Y-12.921 F7.000
G1 X-1.989 Y-12.921 F7.000
G1 X-2.158 Y-12.955 F7.000
G1 X-2.441 Y-13.153 F7.000
G1 X-2.616 Y-13.345 F7.000
G1 X-2.712 Y-13.492 F7.000
G1 X-2.870 Y-13.825 F7.000
G1 X-2.960 Y-14.181 F7.000
G1 X-2.983 Y-14.486 F7.000
G1 X-2.966 Y-14.655 F7.000
G1 X-2.881 Y-14.904 F7.000
G1 X-2.842 Y-14.983 F7.000
G1 X-2.768 Y-15.034 F7.000
G1 X-2.678 Y-15.051 F7.000
G1 X-2.678 Y-15.051 F7.000
G1 X-2.435 Y-15.028 F7.000
G1 X-2.350 Y-14.983 F7.000
G0 X-2.322 Y-14.955
G0 X-2.226 Y-14.746
G0 X-1.768 Y-13.328
G1 X-1.751 Y-13.277 F7.000
G1 X-1.718 Y-13.130 F7.000
G1 X-1.740 Y-13.045 F7.000
G1 X-1.831 Y-12.949 F7.000
G1 X-2.006 Y-12.870 F7.000
G1 X-2.006 Y-12.870 F7.000
G1 X-2.429 Y-12.831 F7.000
G1 X-2.599 Y-12.853 F7.000
G1 X-2.684 Y-12.881 F7.000
G1 X-2.898 Y-13.040 F7.000
G1 X-3.181 Y-13.362 F7.000
G1 X-3.390 Y-13.768 F7.000
G1 X-3.486 Y-14.124 F7.000
G1 X-3.492 Y-14.531 F7.000
G1 X-3.424 Y-14.785 F7.000
G1 X-3.390 Y-14.864 F7.000
G1 X-3.322 Y-14.927 F7.000
G1 X-3.141 Y-14.972 F7.000
G1 X-3.141 Y-14.972 F7.000
G1 X-2.898 Y-14.949 F7.000
G1 X-2.819 Y-14.904 F7.000
G0 X-2.785 Y-14.876
G0 X-2.695 Y-14.661
G0 X-2.277 Y-13.232
G1 X-2.260 Y-13.181 F7.000
G1 X-2.237 Y-13.028 F7.000
G1 X-2.260 Y-12.944 F7.000
G1 X-2.362 Y-12.853 F7.000
G1 X-2.537 Y-12.780 F7.000
G1 X-2.537 Y-12.780 F7.000
G1 X-2.876 Y-12.734 F7.000
G1 X-3.045 Y-12.740 F7.000
G1 X-3.130 Y-12.763 F7.000
G1 X-3.350 Y-12.904 F7.000
G1 X-3.593 Y-13.147 F7.000
G1 X-3.695 Y-13.282 F7.000
G1 X-3.870 Y-13.610 F7.000
G1 X-3.977 Y-13.966 F7.000
G1 X-4.011 Y-14.345 F7.000
G1 X-3.994 Y-14.514 F7.000
G1 X-3.944 Y-14.684 F7.000
G1 X-3.893 Y-14.757 F7.000
G1 X-3.814 Y-14.802 F7.000
G1 X-3.723 Y-14.825 F7.000
G1 X-3.723 Y-14.825 F7.000
G1 X-3.531 Y-14.831 F7.000
G1 X-3.401 Y-14.791 F7.000
G0 X-3.367 Y-14.763
G0 X-3.271 Y-14.554
G0 X-2.825 Y-13.136
G1 X-2.808 Y-13.085 F7.000
G1 X-2.780 Y-12.938 F7.000
G1 X-2.802 Y-12.847 F7.000
G1 X-2.893 Y-12.751 F7.000
G1 X-3.062 Y-12.667 F7.000
G1 X-3.062 Y-12.667 F7.000
G1 X-3.401 Y-12.616 F7.000
G1 X-3.571 Y-12.638 F7.000
G1 X-3.797 Y-12.763 F7.000
G1 X-4.056 Y-12.994 F7.000
G1 X-4.164 Y-13.130 F7.000
G1 X-4.350 Y-13.446 F7.000
G1 X-4.480 Y-13.791 F7.000
G1 X-4.537 Y-14.136 F7.000
G1 X-4.520 Y-14.390 F7.000
G1 X-4.469 Y-14.559 F7.000
G1 X-4.412 Y-14.627 F7.000
G1 X-4.328 Y-14.667 F7.000
G1 X-4.328 Y-14.667 F7.000
G1 X-4.085 Y-14.672 F7.000
G1 X-4.000 Y-14.638 F7.000
G0 X-3.966 Y-14.616
G0 X-3.859 Y-14.412
G0 X-3.288 Y-13.011
G1 X-3.266 Y-12.966 F7.000
G1 X-3.220 Y-12.819 F7.000
G1 X-3.237 Y-12.734 F7.000
G1 X-3.328 Y-12.638 F7.000
G1 X-3.497 Y-12.554 F7.000
G1 X-3.497 Y-12.554 F7.000
G1 X-3.836 Y-12.486 F7.000
G1 X-4.006 Y-12.497 F7.000
G1 X-4.164 Y-12.565 F7.000
G1 X-4.446 Y-12.768 F7.000
G1 X-4.627 Y-12.960 F7.000
G1 X-4.831 Y-13.266 F7.000
G1 X-4.977 Y-13.605 F7.000
G1 X-5.040 Y-13.904 F7.000
G1 X-5.040 Y-14.158 F7.000
G1 X-5.011 Y-14.328 F7.000
G1 X-4.983 Y-14.412 F7.000
G1 X-4.915 Y-14.475 F7.000
G1 X-4.831 Y-14.503 F7.000
G1 X-4.825 Y-14.503 F7.000
G1 X-4.633 Y-14.520 F7.000
G1 X-4.497 Y-14.486 F7.000
G0 X-4.463 Y-14.463
G0 X-4.345 Y-14.266
G0 X-3.740 Y-12.904
G1 X-3.718 Y-12.859 F7.000
G1 X-3.667 Y-12.712 F7.000
G1 X-3.684 Y-12.627 F7.000
G1 X-3.763 Y-12.520 F7.000
G1 X-3.927 Y-12.424 F7.000
G1 X-3.927 Y-12.424 F7.000
G1 X-4.266 Y-12.333 F7.000
G1 X-4.435 Y-12.328 F7.000
G1 X-4.520 Y-12.339 F7.000
G1 X-4.746 Y-12.458 F7.000
G1 X-4.949 Y-12.616 F7.000
G1 X-5.130 Y-12.802 F7.000
G1 X-5.333 Y-13.107 F7.000
G1 X-5.475 Y-13.446 F7.000
G1 X-5.542 Y-13.740 F7.000
G1 X-5.548 Y-13.994 F7.000
G1 X-5.520 Y-14.164 F7.000
G1 X-5.480 Y-14.243 F7.000
G1 X-5.412 Y-14.305 F7.000
G1 X-5.328 Y-14.333 F7.000
G1 X-5.328 Y-14.333 F7.000
G1 X-5.136 Y-14.350 F7.000
G1 X-5.000 Y-14.316 F7.000
G0 X-4.966 Y-14.294
G0 X-4.847 Y-14.096
G0 X-4.249 Y-12.734
G1 X-4.226 Y-12.689 F7.000
G1 X-4.181 Y-12.542 F7.000
G1 X-4.192 Y-12.458 F7.000
G1 X-4.277 Y-12.350 F7.000
G1 X-4.441 Y-12.254 F7.000
G1 X-4.441 Y-12.254 F7.000
G1 X-4.780 Y-12.169 F7.000
G1 X-4.949 Y-12.169 F7.000
G1 X-5.186 Y-12.277 F7.000
G1 X-5.469 Y-12.486 F7.000
G1 X-5.588 Y-12.610 F7.000
G1 X-5.808 Y-12.910 F7.000
G1 X-5.960 Y-13.249 F7.000
G1 X-6.045 Y-13.627 F7.000
G1 X-6.045 Y-13.881 F7.000
G1 X-6.028 Y-13.966 F7.000
G1 X-5.989 Y-14.045 F7.000
G1 X-5.921 Y-14.102 F7.000
G1 X-5.836 Y-14.136 F7.000
G1 X-5.836 Y-14.136 F7.000
G1 X-5.644 Y-14.164 F7.000
G1 X-5.514 Y-14.141 F7.000
G0 X-5.475 Y-14.113
G0 X-5.350 Y-13.921
G0 X-4.701 Y-12.593
G1 X-4.678 Y-12.548 F7.000
G1 X-4.627 Y-12.407 F7.000
G1 X-4.633 Y-12.316 F7.000
G1 X-4.706 Y-12.209 F7.000
G1 X-4.859 Y-12.096 F7.000
G1 X-4.859 Y-12.096 F7.000
G1 X-5.113 Y-12.011 F7.000
G1 X-5.282 Y-11.983 F7.000
G1 X-5.367 Y-11.983 F7.000
G1 X-5.610 Y-12.062 F7.000
G1 X-5.898 Y-12.249 F7.000
G1 X-6.028 Y-12.367 F7.000
G1 X-6.254 Y-12.655 F7.000
G1 X-6.429 Y-12.977 F7.000
G1 X-6.542 Y-13.373 F7.000
G1 X-6.548 Y-13.627 F7.000
G1 X-6.537 Y-13.712 F7.000
G1 X-6.508 Y-13.797 F7.000
G1 X-6.446 Y-13.859 F7.000
G1 X-6.362 Y-13.898 F7.000
G1 X-6.362 Y-13.898 F7.000
G1 X-6.169 Y-13.938 F7.000
G1 X-6.034 Y-13.921 F7.000
G0 X-6.000 Y-13.898
G0 X-5.864 Y-13.712
G0 X-5.141 Y-12.412
G1 X-5.113 Y-12.367 F7.000
G1 X-5.051 Y-12.226 F7.000
G1 X-5.051 Y-12.141 F7.000
G1 X-5.119 Y-12.028 F7.000
G1 X-5.271 Y-11.915 F7.000
G1 X-5.271 Y-11.915 F7.000
G1 X-5.605 Y-11.797 F7.000
G1 X-5.774 Y-11.774 F7.000
G1 X-5.859 Y-11.780 F7.000
G1 X-6.175 Y-11.915 F7.000
G1 X-6.458 Y-12.124 F7.000
G1 X-6.757 Y-12.469 F7.000
G1 X-6.927 Y-12.797 F7.000
G1 X-7.023 Y-13.079 F7.000
G1 X-7.045 Y-13.418 F7.000
G1 X-7.034 Y-13.503 F7.000
G1 X-6.994 Y-13.582 F7.000
G1 X-6.927 Y-13.638 F7.000
G1 X-6.842 Y-13.678 F7.000
G1 X-6.842 Y-13.678 F7.000
G1 X-6.650 Y-13.718 F7.000
G1 X-6.514 Y-13.701 F7.000
G0 X-6.480 Y-13.678
G0 X-6.333 Y-13.497
G0 X-5.559 Y-12.226
G1 X-5.531 Y-12.181 F7.000
G1 X-5.463 Y-12.045 F7.000
G1 X-5.469 Y-11.960 F7.000
G1 X-5.531 Y-11.842 F7.000
G1 X-5.678 Y-11.723 F7.000
G1 X-5.678 Y-11.723 F7.000
G1 X-6.096 Y-11.571 F7.000
G1 X-6.266 Y-11.559 F7.000
G1 X-6.514 Y-11.638 F7.000
G1 X-6.814 Y-11.819 F7.000
G1 X-6.949 Y-11.932 F7.000
G1 X-7.198 Y-12.209 F7.000
G1 X-7.384 Y-12.531 F7.000
G1 X-7.486 Y-12.802 F7.000
G1 X-7.525 Y-13.056 F7.000
G1 X-7.520 Y-13.226 F7.000
G1 X-7.486 Y-13.305 F7.000
G1 X-7.418 Y-13.367 F7.000
G1 X-7.339 Y-13.412 F7.000
G1 X-7.339 Y-13.412 F7.000
G1 X-7.153 Y-13.463 F7.000
G1 X-7.017 Y-13.452 F7.000
G0 X-6.983 Y-13.435
G0 X-6.842 Y-13.254
G0 X-6.068 Y-11.994
G1 X-6.040 Y-11.949 F7.000
G1 X-5.972 Y-11.814 F7.000
G1 X-5.966 Y-11.723 F7.000
G1 X-6.023 Y-11.605 F7.000
G1 X-6.158 Y-11.480 F7.000
G1 X-6.158 Y-11.480 F7.000
G1 X-6.486 Y-11.345 F7.000
G1 X-6.655 Y-11.322 F7.000
G1 X-6.910 Y-11.390 F7.000
G1 X-7.141 Y-11.508 F7.000
G1 X-7.356 Y-11.667 F7.000
G1 X-7.621 Y-11.921 F7.000
G1 X-7.831 Y-12.226 F7.000
G1 X-7.955 Y-12.525 F7.000
G1 X-8.006 Y-12.780 F7.000
G1 X-8.006 Y-12.949 F7.000
G1 X-7.972 Y-13.034 F7.000
G1 X-7.904 Y-13.096 F7.000
G1 X-7.825 Y-13.141 F7.000
G1 X-7.825 Y-13.141 F7.000
G1 X-7.638 Y-13.192 F7.000
G1 X-7.503 Y-13.181 F7.000
G0 X-7.463 Y-13.164
G0 X-7.311 Y-12.989
G0 X-6.458 Y-11.763
G1 X-6.429 Y-11.718 F7.000
G1 X-6.356 Y-11.588 F7.000
G1 X-6.350 Y-11.497 F7.000
G1 X-6.407 Y-11.384 F7.000
G1 X-6.548 Y-11.260 F7.000
G1 X-6.548 Y-11.260 F7.000
G1 X-6.870 Y-11.102 F7.000
G1 X-7.040 Y-11.056 F7.000
G1 X-7.124 Y-11.056 F7.000
G1 X-7.452 Y-11.164 F7.000
G1 X-7.819 Y-11.395 F7.000
G1 X-8.079 Y-11.655 F7.000
G1 X-8.288 Y-11.960 F7.000
G1 X-8.418 Y-12.243 F7.000
G1 X-8.469 Y-12.497 F7.000
G1 X-8.475 Y-12.667 F7.000
G1 X-8.435 Y-12.746 F7.000
G1 X-8.209 Y-12.898 F7.000
G1 X-8.209 Y-12.898 F7.000
G1 X-8.028 Y-12.966 F7.000
G1 X-7.893 Y-12.966 F7.000
G0 X-7.859 Y-12.949
G0 X-7.718 Y-12.768
G0 X-6.944 Y-11.514
G1 X-6.915 Y-11.469 F7.000
G1 X-6.847 Y-11.333 F7.000
G1 X-6.842 Y-11.243 F7.000
G1 X-6.887 Y-11.113 F7.000
G1 X-7.011 Y-10.977 F7.000
G1 X-7.011 Y-10.977 F7.000
G1 X-7.333 Y-10.819 F7.000
G1 X-7.503 Y-10.785 F7.000
G1 X-7.836 Y-10.870 F7.000
G1 X-8.147 Y-11.028 F7.000
G1 X-8.220 Y-11.079 F7.000
G1 X-8.492 Y-11.328 F7.000
G1 X-8.712 Y-11.621 F7.000
G1 X-8.859 Y-11.904 F7.000
G1 X-8.927 Y-12.153 F7.000
G1 X-8.944 Y-12.322 F7.000
G1 X-8.915 Y-12.407 F7.000
G1 X-8.853 Y-12.469 F7.000
G1 X-8.774 Y-12.520 F7.000
G1 X-8.774 Y-12.520 F7.000
G1 X-8.593 Y-12.588 F7.000
G1 X-8.458 Y-12.588 F7.000
G0 X-8.418 Y-12.571
G0 X-8.254 Y-12.407
G0 X-7.345 Y-11.249
G1 X-7.311 Y-11.209 F7.000
G1 X-7.226 Y-11.079 F7.000
G1 X-7.215 Y-10.994 F7.000
G1 X-7.260 Y-10.864 F7.000
G1 X-7.384 Y-10.729 F7.000
G1 X-7.384 Y-10.729 F7.000
G1 X-7.695 Y-10.559 F7.000
G1 X-7.864 Y-10.508 F7.000
G1 X-8.119 Y-10.537 F7.000
G1 X-8.362 Y-10.621 F7.000
G1 X-8.593 Y-10.746 F7.000
G1 X-8.887 Y-10.972 F7.000
G1 X-9.124 Y-11.254 F7.000
G1 X-9.311 Y-11.599 F7.000
G1 X-9.379 Y-11.853 F7.000
G1 X-9.390 Y-11.938 F7.000
G1 X-9.384 Y-12.023 F7.000
G1 X-9.345 Y-12.102 F7.000
G1 X-9.198 Y-12.209 F7.000
G1 X-9.192 Y-12.209 F7.000
G1 X-9.017 Y-12.282 F7.000
G1 X-8.881 Y-12.288 F7.000
G0 X-8.842 Y-12.277
G0 X-8.678 Y-12.119
G0 X-7.734 Y-10.994
G1 X-7.701 Y-10.955 F7.000
G1 X-7.610 Y-10.831 F7.000
G1 X-7.593 Y-10.740 F7.000
G1 X-7.633 Y-10.616 F7.000
G1 X-7.751 Y-10.469 F7.000
G1 X-7.751 Y-10.469 F7.000
G1 X-8.062 Y-10.282 F7.000
G1 X-8.226 Y-10.226 F7.000
G1 X-8.480 Y-10.237 F7.000
G1 X-8.814 Y-10.333 F7.000
G1 X-9.045 Y-10.452 F7.000
G1 X-9.333 Y-10.684 F7.000
G1 X-9.571 Y-10.966 F7.000
G1 X-9.734 Y-11.232 F7.000
G1 X-9.831 Y-11.565 F7.000
G1 X-9.831 Y-11.650 F7.000
G1 X-9.791 Y-11.729 F7.000
G1 X-9.655 Y-11.842 F7.000
G1 X-9.655 Y-11.842 F7.000
G1 X-9.486 Y-11.927 F7.000
G1 X-9.350 Y-11.944 F7.000
G0 X-9.311 Y-11.932
G0 X-9.130 Y-11.785
G0 X-8.107 Y-10.712
G1 X-8.073 Y-10.672 F7.000
G1 X-7.977 Y-10.554 F7.000
G1 X-7.960 Y-10.469 F7.000
G1 X-7.994 Y-10.345 F7.000
G1 X-8.107 Y-10.198 F7.000
G1 X-8.107 Y-10.198 F7.000
G1 X-8.322 Y-10.034 F7.000
G1 X-8.565 Y-9.915 F7.000
G1 X-8.650 Y-9.898 F7.000
G1 X-8.904 Y-9.915 F7.000
G1 X-9.232 Y-10.011 F7.000
G1 X-9.390 Y-10.090 F7.000
G1 X-9.695 Y-10.294 F7.000
G1 X-9.949 Y-10.559 F7.000
G1 X-10.158 Y-10.881 F7.000
G1 X-10.243 Y-11.130 F7.000
G1 X-10.260 Y-11.215 F7.000
G1 X-10.249 Y-11.299 F7.000
G1 X-10.203 Y-11.379 F7.000
G1 X-10.136 Y-11.435 F7.000
G1 X-10.136 Y-11.435 F7.000
G1 X-9.966 Y-11.520 F7.000
G1 X-9.831 Y-11.537 F7.000
G0 X-9.791 Y-11.525
G0 X-9.605 Y-11.384
G0 X-8.542 Y-10.350
G1 X-8.503 Y-10.316 F7.000
G1 X-8.401 Y-10.203 F7.000
G1 X-8.379 Y-10.119 F7.000
G1 X-8.407 Y-9.994 F7.000
G1 X-8.520 Y-9.847 F7.000
G1 X-8.520 Y-9.847 F7.000
G1 X-8.814 Y-9.644 F7.000
G1 X-8.977 Y-9.571 F7.000
G1 X-9.232 Y-9.565 F7.000
G1 X-9.486 Y-9.616 F7.000
G1 X-9.808 Y-9.746 F7.000
G1 X-10.113 Y-9.955 F7.000
G1 X-10.373 Y-10.215 F7.000
G1 X-10.548 Y-10.480 F7.000
G1 X-10.644 Y-10.729 F7.000
G1 X-10.667 Y-10.898 F7.000
G1 X-10.638 Y-10.983 F7.000
G1 X-10.503 Y-11.107 F7.000
G1 X-10.503 Y-11.107 F7.000
G1 X-10.339 Y-11.198 F7.000
G1 X-10.203 Y-11.215 F7.000
G0 X-10.158 Y-11.209
G0 X-9.977 Y-11.073
G0 X-8.898 Y-10.073
G1 X-8.859 Y-10.040 F7.000
G1 X-8.751 Y-9.927 F7.000
G1 X-8.729 Y-9.842 F7.000
G1 X-8.751 Y-9.712 F7.000
G1 X-8.853 Y-9.554 F7.000
G1 X-8.853 Y-9.554 F7.000
G1 X-9.130 Y-9.328 F7.000
G1 X-9.288 Y-9.243 F7.000
G1 X-9.373 Y-9.215 F7.000
G1 X-9.627 Y-9.215 F7.000
G1 X-9.881 Y-9.266 F7.000
G1 X-10.124 Y-9.356 F7.000
G1 X-10.441 Y-9.548 F7.000
G1 X-10.723 Y-9.785 F7.000
G1 X-10.966 Y-10.130 F7.000
G1 X-11.040 Y-10.288 F7.000
G1 X-11.079 Y-10.458 F7.000
G1 X-11.062 Y-10.542 F7.000
G1 X-10.944 Y-10.678 F7.000
G1 X-10.944 Y-10.678 F7.000
G1 X-10.785 Y-10.774 F7.000
G1 X-10.650 Y-10.802 F7.000
G0 X-10.610 Y-10.791
G0 X-10.418 Y-10.667
G0 X-9.299 Y-9.695
G1 X-9.260 Y-9.661 F7.000
G1 X-9.153 Y-9.548 F7.000
G1 X-9.119 Y-9.469 F7.000
G1 X-9.141 Y-9.339 F7.000
G1 X-9.243 Y-9.181 F7.000
G1 X-9.243 Y-9.181 F7.000
G1 X-9.441 Y-9.000 F7.000
G1 X-9.593 Y-8.904 F7.000
G1 X-9.672 Y-8.870 F7.000
G1 X-9.927 Y-8.847 F7.000
G1 X-10.181 Y-8.881 F7.000
G1 X-10.435 Y-8.955 F7.000
G1 X-10.763 Y-9.119 F7.000
G1 X-11.056 Y-9.345 F7.000
G1 X-11.305 Y-9.638 F7.000
G1 X-11.424 Y-9.870 F7.000
G1 X-11.475 Y-10.040 F7.000
G1 X-11.446 Y-10.124 F7.000
G1 X-11.328 Y-10.260 F7.000
G1 X-11.328 Y-10.260 F7.000
G1 X-11.169 Y-10.367 F7.000
G1 X-11.040 Y-10.401 F7.000
G0 X-11.000 Y-10.395
G0 X-10.802 Y-10.277
G0 X-9.638 Y-9.356
G1 X-9.599 Y-9.322 F7.000
G1 X-9.486 Y-9.220 F7.000
G1 X-9.452 Y-9.141 F7.000
G1 X-9.463 Y-9.011 F7.000
G1 X-9.554 Y-8.853 F7.000
G1 X-9.554 Y-8.853 F7.000
G1 X-9.814 Y-8.605 F7.000
G1 X-9.966 Y-8.508 F7.000
G1 X-10.051 Y-8.480 F7.000
G1 X-10.305 Y-8.463 F7.000
G1 X-10.729 Y-8.537 F7.000
G1 X-10.814 Y-8.565 F7.000
G1 X-11.141 Y-8.729 F7.000
G1 X-11.435 Y-8.949 F7.000
G1 X-11.706 Y-9.277 F7.000
G1 X-11.791 Y-9.429 F7.000
G1 X-11.842 Y-9.599 F7.000
G1 X-11.831 Y-9.684 F7.000
G1 X-11.712 Y-9.825 F7.000
G1 X-11.712 Y-9.825 F7.000
G1 X-11.554 Y-9.932 F7.000
G1 X-11.424 Y-9.966 F7.000
G0 X-11.384 Y-9.960
G0 X-11.186 Y-9.847
G0 X-9.994 Y-8.949
G1 X-9.955 Y-8.915 F7.000
G1 X-9.842 Y-8.814 F7.000
G1 X-9.808 Y-8.734 F7.000
G1 X-9.819 Y-8.605 F7.000
G1 X-9.910 Y-8.446 F7.000
G1 X-9.910 Y-8.446 F7.000
G1 X-10.169 Y-8.198 F7.000
G1 X-10.322 Y-8.107 F7.000
G1 X-10.576 Y-8.068 F7.000
G1 X-10.915 Y-8.085 F7.000
G1 X-11.169 Y-8.153 F7.000
G1 X-11.497 Y-8.322 F7.000
G1 X-11.853 Y-8.599 F7.000
G1 X-12.028 Y-8.791 F7.000
G1 X-12.124 Y-8.938 F7.000
G1 X-12.192 Y-9.096 F7.000
G1 X-12.192 Y-9.181 F7.000
G1 X-12.153 Y-9.260 F7.000
G1 X-12.096 Y-9.333 F7.000
G1 X-12.096 Y-9.333 F7.000
G1 X-11.944 Y-9.452 F7.000
G1 X-11.814 Y-9.497 F7.000
G0 X-11.774 Y-9.492
G0 X-11.565 Y-9.390
G0 X-10.322 Y-8.588
G1 X-10.277 Y-8.559 F7.000
G1 X-10.153 Y-8.469 F7.000
G1 X-10.113 Y-8.390 F7.000
G1 X-10.119 Y-8.266 F7.000
G1 X-10.198 Y-8.102 F7.000
G1 X-10.198 Y-8.102 F7.000
G1 X-10.435 Y-7.831 F7.000
G1 X-10.576 Y-7.723 F7.000
G1 X-10.655 Y-7.684 F7.000
G1 X-10.994 Y-7.638 F7.000
G1 X-11.333 Y-7.684 F7.000
G1 X-11.418 Y-7.706 F7.000
G1 X-11.757 Y-7.853 F7.000
G1 X-12.073 Y-8.045 F7.000
G1 X-12.333 Y-8.294 F7.000
G1 X-12.480 Y-8.503 F7.000
G1 X-12.520 Y-8.582 F7.000
G1 X-12.542 Y-8.667 F7.000
G1 X-12.525 Y-8.751 F7.000
G1 X-12.424 Y-8.898 F7.000
G1 X-12.424 Y-8.898 F7.000
G1 X-12.271 Y-9.017 F7.000
G1 X-12.141 Y-9.062 F7.000
G0 X-12.102 Y-9.056
G0 X-11.893 Y-8.960
G0 X-10.655 Y-8.164
G1 X-10.610 Y-8.136 F7.000
G1 X-10.486 Y-8.045 F7.000
G1 X-10.446 Y-7.966 F7.000
G1 X-10.446 Y-7.836 F7.000
G1 X-10.520 Y-7.672 F7.000
G1 X-10.520 Y-7.672 F7.000
G1 X-10.763 Y-7.401 F7.000
G1 X-10.904 Y-7.294 F7.000
G1 X-10.989 Y-7.260 F7.000
G1 X-11.412 Y-7.220 F7.000
G1 X-11.751 Y-7.271 F7.000
G1 X-12.096 Y-7.407 F7.000
G1 X-12.407 Y-7.605 F7.000
G1 X-12.689 Y-7.870 F7.000
G1 X-12.825 Y-8.090 F7.000
G1 X-12.859 Y-8.169 F7.000
G1 X-12.859 Y-8.254 F7.000
G1 X-12.819 Y-8.333 F7.000
G1 X-12.763 Y-8.407 F7.000
G1 X-12.763 Y-8.407 F7.000
G1 X-12.621 Y-8.531 F7.000
G1 X-12.497 Y-8.582 F7.000
G0 X-12.452 Y-8.582
G0 X-12.237 Y-8.497
G0 X-10.938 Y-7.791
G1 X-10.893 Y-7.763 F7.000
G1 X-10.763 Y-7.678 F7.000
G1 X-10.723 Y-7.605 F7.000
G1 X-10.718 Y-7.475 F7.000
G1 X-10.785 Y-7.311 F7.000
G1 X-10.785 Y-7.311 F7.000
G1 X-10.944 Y-7.085 F7.000
G1 X-11.068 Y-6.955 F7.000
G1 X-11.220 Y-6.853 F7.000
G1 X-11.559 Y-6.785 F7.000
G1 X-11.814 Y-6.785 F7.000
G1 X-11.983 Y-6.808 F7.000
G1 X-12.333 Y-6.932 F7.000
G1 X-12.655 Y-7.107 F7.000
G1 X-12.966 Y-7.367 F7.000
G1 X-13.119 Y-7.582 F7.000
G1 X-13.158 Y-7.661 F7.000
G1 X-13.164 Y-7.746 F7.000
G1 X-13.079 Y-7.898 F7.000
G1 X-13.079 Y-7.898 F7.000
G1 X-12.949 Y-8.028 F7.000
G1 X-12.825 Y-8.090 F7.000
G0 X-12.785 Y-8.090
G0 X-12.571 Y-8.011
G0 X-11.249 Y-7.328
G1 X-11.203 Y-7.305 F7.000
G1 X-11.073 Y-7.226 F7.000
G1 X-11.023 Y-7.153 F7.000
G1 X-11.011 Y-7.023 F7.000
G1 X-11.068 Y-6.853 F7.000
G1 X-11.068 Y-6.853 F7.000
G1 X-11.226 Y-6.627 F7.000
G1 X-11.418 Y-6.441 F7.000
G1 X-11.497 Y-6.395 F7.000
G1 X-11.836 Y-6.322 F7.000
G1 X-12.260 Y-6.339 F7.000
G1 X-12.610 Y-6.452 F7.000
G1 X-12.938 Y-6.627 F7.000
G1 X-13.175 Y-6.808 F7.000
G1 X-13.395 Y-7.073 F7.000
G1 X-13.441 Y-7.147 F7.000
G1 X-13.452 Y-7.232 F7.000
G1 X-13.333 Y-7.475 F7.000
G1 X-13.333 Y-7.475 F7.000
G1 X-13.203 Y-7.605 F7.000
G1 X-13.079 Y-7.667 F7.000
G0 X-13.040 Y-7.667
G0 X-12.819 Y-7.593
G0 X-11.475 Y-6.938
G1 X-11.429 Y-6.915 F7.000
G1 X-11.299 Y-6.836 F7.000
G1 X-11.249 Y-6.768 F7.000
G1 X-11.243 Y-6.638 F7.000
G1 X-11.299 Y-6.469 F7.000
G1 X-11.299 Y-6.469 F7.000
G1 X-11.554 Y-6.096 F7.000
G1 X-11.684 Y-5.972 F7.000
G1 X-11.932 Y-5.881 F7.000
G1 X-12.186 Y-5.847 F7.000
G1 X-12.441 Y-5.853 F7.000
G1 X-12.802 Y-5.932 F7.000
G1 X-13.141 Y-6.079 F7.000
G1 X-13.452 Y-6.294 F7.000
G1 X-13.627 Y-6.486 F7.000
G1 X-13.723 Y-6.633 F7.000
G1 X-13.729 Y-6.718 F7.000
G1 X-13.644 Y-6.876 F7.000
G1 X-13.644 Y-6.876 F7.000
G1 X-13.520 Y-7.017 F7.000
G1 X-13.401 Y-7.085 F7.000
G0 X-13.362 Y-7.090
G0 X-13.136 Y-7.028
G0 X-11.768 Y-6.452
G1 X-11.723 Y-6.429 F7.000
G1 X-11.588 Y-6.362 F7.000
G1 X-11.537 Y-6.294 F7.000
G1 X-11.514 Y-6.164 F7.000
G1 X-11.559 Y-5.994 F7.000
G1 X-11.559 Y-5.994 F7.000
G1 X-11.740 Y-5.684 F7.000
G1 X-11.859 Y-5.554 F7.000
G1 X-11.932 Y-5.503 F7.000
G1 X-12.186 Y-5.418 F7.000
G1 X-12.525 Y-5.367 F7.000
G1 X-12.695 Y-5.373 F7.000
G1 X-13.056 Y-5.452 F7.000
G1 X-13.395 Y-5.593 F7.000
G1 X-13.729 Y-5.808 F7.000
G1 X-13.847 Y-5.927 F7.000
G1 X-13.949 Y-6.062 F7.000
G1 X-13.972 Y-6.147 F7.000
G1 X-13.955 Y-6.232 F7.000
G1 X-13.887 Y-6.401 F7.000
G1 X-13.887 Y-6.401 F7.000
G1 X-13.774 Y-6.548 F7.000
G1 X-13.661 Y-6.621 F7.000
G0 X-13.621 Y-6.633
G0 X-13.407 Y-6.571
G0 X-12.006 Y-5.972
G1 X-11.960 Y-5.949 F7.000
G1 X-11.825 Y-5.881 F7.000
G1 X-11.774 Y-5.814 F7.000
G1 X-11.751 Y-5.684 F7.000
G1 X-11.797 Y-5.514 F7.000
G1 X-11.797 Y-5.514 F7.000
G1 X-11.977 Y-5.203 F7.000
G1 X-12.096 Y-5.068 F7.000
G1 X-12.254 Y-4.989 F7.000
G1 X-12.593 Y-4.898 F7.000
G1 X-12.932 Y-4.876 F7.000
G1 X-13.294 Y-4.949 F7.000
G1 X-13.638 Y-5.085 F7.000
G1 X-13.955 Y-5.288 F7.000
G1 X-14.141 Y-5.469 F7.000
G1 X-14.192 Y-5.537 F7.000
G1 X-14.209 Y-5.621 F7.000
G1 X-14.141 Y-5.785 F7.000
G1 X-14.141 Y-5.785 F7.000
G1 X-14.028 Y-5.932 F7.000
G1 X-13.915 Y-6.011 F7.000
G0 X-13.876 Y-6.017
G0 X-13.650 Y-5.977
G0 X-12.226 Y-5.537
G1 X-12.175 Y-5.520 F7.000
G1 X-12.034 Y-5.469 F7.000
G1 X-11.977 Y-5.401 F7.000
G1 X-11.949 Y-5.277 F7.000
G1 X-11.977 Y-5.102 F7.000
G1 X-11.977 Y-5.102 F7.000
G1 X-12.136 Y-4.768 F7.000
G1 X-12.305 Y-4.565 F7.000
G1 X-12.463 Y-4.486 F7.000
G1 X-12.802 Y-4.390 F7.000
G1 X-13.056 Y-4.362 F7.000
G1 X-13.424 Y-4.418 F7.000
G1 X-13.780 Y-4.525 F7.000
G1 X-14.130 Y-4.718 F7.000
G1 X-14.322 Y-4.887 F7.000
G1 X-14.379 Y-4.955 F7.000
G1 X-14.412 Y-5.034 F7.000
G1 X-14.401 Y-5.119 F7.000
G1 X-14.373 Y-5.203 F7.000
G1 X-14.373 Y-5.203 F7.000
G1 X-14.271 Y-5.356 F7.000
G1 X-14.158 Y-5.435 F7.000
G0 X-14.119 Y-5.446
G0 X-13.887 Y-5.412
G0 X-12.435 Y-5.028
G1 X-12.384 Y-5.011 F7.000
G1 X-12.237 Y-4.960 F7.000
G1 X-12.181 Y-4.898 F7.000
G1 X-12.153 Y-4.774 F7.000
G1 X-12.181 Y-4.599 F7.000
G1 X-12.181 Y-4.599 F7.000
G1 X-12.339 Y-4.266 F7.000
G1 X-12.446 Y-4.124 F7.000
G1 X-12.514 Y-4.062 F7.000
G1 X-12.842 Y-3.921 F7.000
G1 X-13.266 Y-3.853 F7.000
G1 X-13.633 Y-3.898 F7.000
G1 X-13.983 Y-4.006 F7.000
G1 X-14.316 Y-4.181 F7.000
G1 X-14.520 Y-4.350 F7.000
G1 X-14.576 Y-4.418 F7.000
G1 X-14.599 Y-4.503 F7.000
G1 X-14.554 Y-4.672 F7.000
G1 X-14.554 Y-4.672 F7.000
G1 X-14.463 Y-4.831 F7.000
G1 X-14.362 Y-4.921 F7.000
G0 X-14.322 Y-4.932
G0 X-14.090 Y-4.898
G0 X-12.638 Y-4.520
G1 X-12.588 Y-4.503 F7.000
G1 X-12.441 Y-4.446 F7.000
G1 X-12.373 Y-4.367 F7.000
G1 X-12.345 Y-4.232 F7.000
G1 X-12.362 Y-4.096 F7.000
G1 X-12.362 Y-4.096 F7.000
G1 X-12.497 Y-3.763 F7.000
G1 X-12.605 Y-3.621 F7.000
G1 X-12.751 Y-3.520 F7.000
G1 X-13.000 Y-3.418 F7.000
G1 X-13.339 Y-3.350 F7.000
G1 X-13.706 Y-3.367 F7.000
G1 X-14.068 Y-3.446 F7.000
G1 X-14.435 Y-3.605 F7.000
G1 X-14.650 Y-3.757 F7.000
G1 X-14.712 Y-3.819 F7.000
G1 X-14.757 Y-3.893 F7.000
G1 X-14.757 Y-3.977 F7.000
G1 X-14.757 Y-3.977 F7.000
G1 X-14.667 Y-4.136 F7.000
G1 X-14.565 Y-4.226 F7.000
G0 X-14.520 Y-4.243
G0 X-14.294 Y-4.237
G0 X-12.785 Y-4.045
G1 X-12.734 Y-4.040 F7.000
G1 X-12.582 Y-4.006 F7.000
G1 X-12.520 Y-3.955 F7.000
G1 X-12.475 Y-3.836 F7.000
G1 X-12.492 Y-3.661 F7.000
G1 X-12.492 Y-3.661 F7.000
G1 X-12.621 Y-3.316 F7.000
G1 X-12.718 Y-3.164 F7.000
G1 X-12.780 Y-3.096 F7.000
G1 X-13.011 Y-2.960 F7.000
G1 X-13.435 Y-2.836 F7.000
G1 X-13.520 Y-2.825 F7.000
G1 X-13.887 Y-2.836 F7.000
G1 X-14.249 Y-2.910 F7.000
G1 X-14.627 Y-3.073 F7.000
G1 X-14.836 Y-3.226 F7.000
G1 X-14.893 Y-3.294 F7.000
G1 X-14.910 Y-3.379 F7.000
G1 X-14.870 Y-3.548 F7.000
G1 X-14.870 Y-3.548 F7.000
G1 X-14.791 Y-3.712 F7.000
G1 X-14.689 Y-3.808 F7.000
G0 X-14.650 Y-3.819
G0 X-14.424 Y-3.808
G0 X-12.932 Y-3.542
G1 X-12.876 Y-3.537 F7.000
G1 X-12.729 Y-3.497 F7.000
G1 X-12.667 Y-3.441 F7.000
G1 X-12.621 Y-3.322 F7.000
G1 X-12.638 Y-3.147 F7.000
G1 X-12.638 Y-3.147 F7.000
G1 X-12.718 Y-2.881 F7.000
G1 X-12.802 Y-2.718 F7.000
G1 X-12.859 Y-2.644 F7.000
G1 X-13.000 Y-2.531 F7.000
G1 X-13.243 Y-2.412 F7.000
G1 X-13.582 Y-2.322 F7.000
G1 X-13.949 Y-2.305 F7.000
G1 X-14.316 Y-2.350 F7.000
G1 X-14.706 Y-2.492 F7.000
G1 X-14.927 Y-2.627 F7.000
G1 X-14.989 Y-2.684 F7.000
G1 X-15.028 Y-2.763 F7.000
G1 X-14.989 Y-3.017 F7.000
G1 X-14.989 Y-3.017 F7.000
G1 X-14.910 Y-3.186 F7.000
G1 X-14.814 Y-3.277 F7.000
G0 X-14.774 Y-3.294
G0 X-14.542 Y-3.294
G0 X-13.056 Y-3.096
G1 X-13.006 Y-3.085 F7.000
G1 X-12.853 Y-3.056 F7.000
G1 X-12.785 Y-3.000 F7.000
G1 X-12.734 Y-2.881 F7.000
G1 X-12.740 Y-2.706 F7.000
G1 X-12.740 Y-2.706 F7.000
G1 X-12.808 Y-2.435 F7.000
G1 X-12.927 Y-2.186 F7.000
G1 X-12.983 Y-2.113 F7.000
G1 X-13.209 Y-1.960 F7.000
G1 X-13.537 Y-1.825 F7.000
G1 X-13.706 Y-1.785 F7.000
G1 X-14.073 Y-1.763 F7.000
G1 X-14.441 Y-1.808 F7.000
G1 X-14.814 Y-1.932 F7.000
G1 X-15.040 Y-2.068 F7.000
G1 X-15.107 Y-2.124 F7.000
G1 X-15.147 Y-2.203 F7.000
G1 X-15.119 Y-2.542 F7.000
G1 X-15.119 Y-2.542 F7.000
G1 X-14.994 Y-2.734 F7.000
G1 X-14.927 Y-2.791 F7.000
G0 X-14.887 Y-2.808
G0 X-14.655 Y-2.797
G0 X-13.181 Y-2.559
G1 X-13.130 Y-2.548 F7.000
G1 X-12.977 Y-2.514 F7.000
G1 X-12.904 Y-2.452 F7.000
G1 X-12.847 Y-2.311 F7.000
G1 X-12.836 Y-2.175 F7.000
G1 X-12.836 Y-2.175 F7.000
G1 X-12.910 Y-1.904 F7.000
G1 X-13.028 Y-1.655 F7.000
G1 X-13.085 Y-1.582 F7.000
G1 X-13.305 Y-1.429 F7.000
G1 X-13.723 Y-1.282 F7.000
G1 X-14.090 Y-1.232 F7.000
G1 X-14.458 Y-1.249 F7.000
G1 X-14.785 Y-1.328 F7.000
G1 X-15.090 Y-1.486 F7.000
G1 X-15.164 Y-1.537 F7.000
G1 X-15.203 Y-1.610 F7.000
G1 X-15.198 Y-1.695 F7.000
G1 X-15.198 Y-1.695 F7.000
G1 X-15.141 Y-1.864 F7.000
G1 X-15.056 Y-1.966 F7.000
G0 X-15.023 Y-1.989
G0 X-14.791 Y-2.023
G0 X-13.260 Y-2.062
G1 X-13.209 Y-2.068 F7.000
G1 X-13.056 Y-2.062 F7.000
G1 X-12.983 Y-2.006 F7.000
G1 X-12.927 Y-1.870 F7.000
G1 X-12.915 Y-1.734 F7.000
G1 X-12.915 Y-1.734 F7.000
G1 X-12.989 Y-1.373 F7.000
G1 X-13.017 Y-1.288 F7.000
G1 X-13.119 Y-1.141 F7.000
G1 X-13.260 Y-1.028 F7.000
G1 X-13.497 Y-0.898 F7.000
G1 X-13.751 Y-0.814 F7.000
G1 X-14.113 Y-0.734 F7.000
G1 X-14.480 Y-0.734 F7.000
G1 X-14.814 Y-0.797 F7.000
G1 X-15.045 Y-0.898 F7.000
G1 X-15.186 Y-0.994 F7.000
G1 X-15.237 Y-1.062 F7.000
G1 X-15.249 Y-1.147 F7.000
G1 X-15.232 Y-1.316 F7.000
G1 X-15.232 Y-1.316 F7.000
G1 X-15.175 Y-1.486 F7.000
G1 X-15.090 Y-1.588 F7.000
G0 X-15.056 Y-1.605
G0 X-14.825 Y-1.621
G0 X-13.339 Y-1.548
G1 X-13.288 Y-1.548 F7.000
G1 X-13.136 Y-1.531 F7.000
G1 X-13.062 Y-1.486 F7.000
G1 X-12.994 Y-1.373 F7.000
G1 X-12.972 Y-1.198 F7.000
G1 X-12.972 Y-1.198 F7.000
G1 X-13.056 Y-0.842 F7.000
G1 X-13.147 Y-0.689 F7.000
G1 X-13.356 Y-0.525 F7.000
G1 X-13.672 Y-0.367 F7.000
G1 X-14.119 Y-0.249 F7.000
G1 X-14.486 Y-0.220 F7.000
G1 X-14.853 Y-0.277 F7.000
G1 X-15.090 Y-0.384 F7.000
G1 X-15.232 Y-0.480 F7.000
G1 X-15.277 Y-0.554 F7.000
G1 X-15.271 Y-0.808 F7.000
G1 X-15.271 Y-0.808 F7.000
G1 X-15.220 Y-0.983 F7.000
G1 X-15.141 Y-1.090 F7.000
G0 X-15.107 Y-1.107
G0 X-14.876 Y-1.130
G0 X-13.379 Y-1.096
G1 X-13.328 Y-1.096 F7.000
G1 X-13.175 Y-1.079 F7.000
G1 X-13.102 Y-1.034 F7.000
G1 X-13.034 Y-0.927 F7.000
G1 X-13.017 Y-0.751 F7.000
G1 X-13.017 Y-0.751 F7.000
G1 X-13.062 Y-0.480 F7.000
G1 X-13.130 Y-0.311 F7.000
G1 X-13.243 Y-0.175 F7.000
G1 X-13.531 Y0.034 F7.000
G1 X-13.763 Y0.147 F7.000
G1 X-14.113 Y0.260 F7.000
G1 X-14.480 Y0.294 F7.000
G1 X-14.757 Y0.266 F7.000
G1 X-15.011 Y0.181 F7.000
G1 X-15.243 Y0.045 F7.000
G1 X-15.288 Y-0.028 F7.000
G1 X-15.288 Y-0.452 F7.000
G1 X-15.288 Y-0.452 F7.000
G1 X-15.237 Y-0.627 F7.000
G1 X-15.164 Y-0.734 F7.000
G0 X-15.124 Y-0.751
G0 X-14.898 Y-0.774
G0 X-13.418 Y-0.740
G1 X-13.367 Y-0.734 F7.000
G1 X-13.215 Y-0.723 F7.000
G1 X-13.136 Y-0.678 F7.000
G1 X-13.062 Y-0.571 F7.000
G1 X-13.028 Y-0.395 F7.000
G1 X-13.028 Y-0.395 F7.000
G1 X-13.068 Y-0.034 F7.000
G1 X-13.119 Y0.130 F7.000
G1 X-13.158 Y0.203 F7.000
G1 X-13.407 Y0.446 F7.000
G1 X-13.706 Y0.627 F7.000
G1 X-14.141 Y0.768 F7.000
G1 X-14.508 Y0.802 F7.000
G1 X-14.797 Y0.768 F7.000
G1 X-15.051 Y0.684 F7.000
G1 X-15.203 Y0.588 F7.000
G1 X-15.266 Y0.520 F7.000
G1 X-15.294 Y0.435 F7.000
G1 X-15.299 Y-0.011 F7.000
G1 X-15.299 Y-0.011 F7.000
G1 X-15.260 Y-0.186 F7.000
G1 X-15.181 Y-0.294 F7.000
G0 X-15.147 Y-0.316
G0 X-14.921 Y-0.328
G0 X-13.441 Y-0.215
G1 X-13.390 Y-0.209 F7.000
G1 X-13.237 Y-0.186 F7.000
G1 X-13.158 Y-0.141 F7.000
G1 X-13.079 Y-0.034 F7.000
G1 X-13.040 Y0.141 F7.000
G1 X-13.040 Y0.141 F7.000
G1 X-13.062 Y0.480 F7.000
G1 X-13.119 Y0.644 F7.000
G1 X-13.220 Y0.785 F7.000
G1 X-13.486 Y1.006 F7.000
G1 X-13.712 Y1.136 F7.000
G1 X-14.056 Y1.266 F7.000
G1 X-14.424 Y1.322 F7.000
G1 X-14.706 Y1.311 F7.000
G1 X-14.960 Y1.243 F7.000
G1 X-15.192 Y1.119 F7.000
G1 X-15.243 Y1.045 F7.000
G1 X-15.266 Y0.955 F7.000
G1 X-15.288 Y0.593 F7.000
G1 X-15.288 Y0.593 F7.000
G1 X-15.254 Y0.401 F7.000
G1 X-15.186 Y0.282 F7.000
G0 X-15.153 Y0.260
G0 X-14.927 Y0.232
G0 X-13.441 Y0.237
G1 X-13.390 Y0.237 F7.000
G1 X-13.232 Y0.249 F7.000
G1 X-13.153 Y0.294 F7.000
G1 X-13.073 Y0.401 F7.000
G1 X-13.023 Y0.588 F7.000
G1 X-13.023 Y0.588 F7.000
G1 X-13.034 Y0.927 F7.000
G1 X-13.079 Y1.096 F7.000
G1 X-13.119 Y1.169 F7.000
G1 X-13.294 Y1.367 F7.000
G1 X-13.497 Y1.531 F7.000
G1 X-13.723 Y1.661 F7.000
G1 X-14.073 Y1.785 F7.000
G1 X-14.441 Y1.842 F7.000
G1 X-14.718 Y1.831 F7.000
G1 X-14.972 Y1.751 F7.000
G1 X-15.130 Y1.667 F7.000
G1 X-15.186 Y1.599 F7.000
G1 X-15.215 Y1.514 F7.000
G1 X-15.243 Y1.153 F7.000
G1 X-15.243 Y1.153 F7.000
G1 X-15.215 Y0.960 F7.000
G1 X-15.153 Y0.842 F7.000
G0 X-15.119 Y0.814
G0 X-14.898 Y0.774
G0 X-13.418 Y0.701
G1 X-13.367 Y0.701 F7.000
G1 X-13.209 Y0.706 F7.000
G1 X-13.130 Y0.746 F7.000
G1 X-13.045 Y0.853 F7.000
G1 X-12.989 Y1.034 F7.000
G1 X-12.989 Y1.034 F7.000
G1 X-12.972 Y1.288 F7.000
G1 X-12.989 Y1.458 F7.000
G1 X-13.045 Y1.621 F7.000
G1 X-13.266 Y1.881 F7.000
G1 X-13.616 Y2.130 F7.000
G1 X-13.955 Y2.277 F7.000
G1 X-14.316 Y2.356 F7.000
G1 X-14.712 Y2.339 F7.000
G1 X-14.960 Y2.254 F7.000
G1 X-15.040 Y2.215 F7.000
G1 X-15.107 Y2.158 F7.000
G1 X-15.147 Y2.079 F7.000
G1 X-15.203 Y1.627 F7.000
G1 X-15.203 Y1.627 F7.000
G1 X-15.175 Y1.435 F7.000
G1 X-15.113 Y1.316 F7.000
G0 X-15.079 Y1.288
G0 X-14.859 Y1.254
G0 X-13.362 Y1.232
G1 X-13.311 Y1.232 F7.000
G1 X-13.153 Y1.243 F7.000
G1 X-13.073 Y1.282 F7.000
G1 X-12.989 Y1.390 F7.000
G1 X-12.932 Y1.571 F7.000
G1 X-12.932 Y1.571 F7.000
G1 X-12.932 Y1.910 F7.000
G1 X-12.966 Y2.079 F7.000
G1 X-13.006 Y2.158 F7.000
G1 X-13.243 Y2.418 F7.000
G1 X-13.525 Y2.621 F7.000
G1 X-13.859 Y2.774 F7.000
G1 X-14.220 Y2.853 F7.000
G1 X-14.492 Y2.870 F7.000
G1 X-14.661 Y2.853 F7.000
G1 X-14.915 Y2.768 F7.000
G1 X-14.994 Y2.729 F7.000
G1 X-15.056 Y2.661 F7.000
G1 X-15.130 Y2.209 F7.000
G1 X-15.130 Y2.209 F7.000
G1 X-15.113 Y2.017 F7.000
G1 X-15.085 Y1.927 F7.000
G1 X-15.056 Y1.893 F7.000
G0 X-15.023 Y1.864
G0 X-14.802 Y1.814
G0 X-13.322 Y1.701
G1 X-13.271 Y1.695 F7.000
G1 X-13.113 Y1.695 F7.000
G1 X-13.028 Y1.734 F7.000
G1 X-12.938 Y1.836 F7.000
G1 X-12.876 Y2.017 F7.000
G1 X-12.876 Y2.017 F7.000
G1 X-12.847 Y2.356 F7.000
G1 X-12.881 Y2.525 F7.000
G1 X-13.023 Y2.746 F7.000
G1 X-13.141 Y2.876 F7.000
G1 X-13.345 Y3.040 F7.000
G1 X-13.746 Y3.254 F7.000
G1 X-14.102 Y3.362 F7.000
G1 X-14.424 Y3.390 F7.000
G1 X-14.593 Y3.373 F7.000
G1 X-14.847 Y3.288 F7.000
G1 X-14.921 Y3.237 F7.000
G1 X-14.966 Y3.158 F7.000
G1 X-15.051 Y2.706 F7.000
G1 X-15.051 Y2.706 F7.000
G1 X-15.034 Y2.514 F7.000
G1 X-14.977 Y2.390 F7.000
G0 X-14.944 Y2.362
G0 X-14.723 Y2.305
G0 X-13.254 Y2.153
G1 X-13.203 Y2.147 F7.000
G1 X-13.045 Y2.147 F7.000
G1 X-12.960 Y2.181 F7.000
G1 X-12.870 Y2.282 F7.000
G1 X-12.802 Y2.463 F7.000
G1 X-12.802 Y2.463 F7.000
G1 X-12.763 Y2.802 F7.000
G1 X-12.785 Y2.972 F7.000
G1 X-12.814 Y3.051 F7.000
G1 X-12.960 Y3.266 F7.000
G1 X-13.203 Y3.503 F7.000
G1 X-13.345 Y3.605 F7.000
G1 X-13.672 Y3.774 F7.000
G1 X-14.023 Y3.881 F7.000
G1 X-14.339 Y3.910 F7.000
G1 X-14.593 Y3.876 F7.000
G1 X-14.757 Y3.814 F7.000
G1 X-14.819 Y3.751 F7.000
G1 X-14.955 Y3.215 F7.000
G1 X-14.955 Y3.215 F7.000
G1 X-14.944 Y2.972 F7.000
G1 X-14.910 Y2.893 F7.000
G0 X-14.881 Y2.864
G0 X-14.661 Y2.802
G0 X-13.181 Y2.616
G1 X-13.130 Y2.610 F7.000
G1 X-12.972 Y2.605 F7.000
G1 X-12.887 Y2.633 F7.000
G1 X-12.785 Y2.729 F7.000
G1 X-12.706 Y2.898 F7.000
G1 X-12.706 Y2.898 F7.000
G1 X-12.638 Y3.322 F7.000
G1 X-12.644 Y3.407 F7.000
G1 X-12.667 Y3.492 F7.000
G1 X-12.802 Y3.712 F7.000
G1 X-13.102 Y4.017 F7.000
G1 X-13.169 Y4.068 F7.000
G1 X-13.492 Y4.254 F7.000
G1 X-13.842 Y4.379 F7.000
G1 X-14.136 Y4.418 F7.000
G1 X-14.390 Y4.401 F7.000
G1 X-14.559 Y4.362 F7.000
G1 X-14.638 Y4.316 F7.000
G1 X-14.684 Y4.237 F7.000
G1 X-14.814 Y3.791 F7.000
G1 X-14.814 Y3.791 F7.000
G1 X-14.819 Y3.599 F7.000
G1 X-14.797 Y3.503 F7.000
G1 X-14.780 Y3.469 F7.000
G0 X-14.751 Y3.441
G0 X-14.531 Y3.373
G0 X-13.056 Y3.158
G1 X-13.006 Y3.153 F7.000
G1 X-12.847 Y3.141 F7.000
G1 X-12.757 Y3.164 F7.000
G1 X-12.655 Y3.254 F7.000
G1 X-12.565 Y3.418 F7.000
G1 X-12.565 Y3.418 F7.000
G1 X-12.508 Y3.672 F7.000
G1 X-12.503 Y3.842 F7.000
G1 X-12.514 Y3.927 F7.000
G1 X-12.627 Y4.153 F7.000
G1 X-12.915 Y4.469 F7.000
G1 X-13.288 Y4.734 F7.000
G1 X-13.627 Y4.876 F7.000
G1 X-13.938 Y4.944 F7.000
G1 X-14.192 Y4.944 F7.000
G1 X-14.446 Y4.881 F7.000
G1 X-14.508 Y4.819 F7.000
G1 X-14.672 Y4.294 F7.000
G1 X-14.672 Y4.294 F7.000
G1 X-14.678 Y4.102 F7.000
G1 X-14.638 Y3.972 F7.000
G0 X-14.610 Y3.944
G0 X-14.395 Y3.870
G0 X-12.932 Y3.605
G1 X-12.881 Y3.593 F7.000
G1 X-12.723 Y3.576 F7.000
G1 X-12.633 Y3.605 F7.000
G1 X-12.531 Y3.689 F7.000
G1 X-12.441 Y3.853 F7.000
G1 X-12.441 Y3.853 F7.000
G1 X-12.367 Y4.192 F7.000
G1 X-12.367 Y4.362 F7.000
G1 X-12.424 Y4.525 F7.000
G1 X-12.559 Y4.746 F7.000
G1 X-12.797 Y5.000 F7.000
G1 X-12.864 Y5.056 F7.000
G1 X-13.175 Y5.260 F7.000
G1 X-13.520 Y5.395 F7.000
G1 X-13.808 Y5.452 F7.000
G1 X-14.062 Y5.452 F7.000
G1 X-14.232 Y5.412 F7.000
G1 X-14.305 Y5.362 F7.000
G1 X-14.469 Y4.938 F7.000
G1 X-14.469 Y4.932 F7.000
G1 X-14.486 Y4.695 F7.000
G1 X-14.463 Y4.610 F7.000
G0 X-14.435 Y4.576
G0 X-14.232 Y4.486
G0 X-12.814 Y4.073
G1 X-12.763 Y4.056 F7.000
G1 X-12.610 Y4.028 F7.000
G1 X-12.520 Y4.045 F7.000
G1 X-12.407 Y4.124 F7.000
G1 X-12.299 Y4.277 F7.000
G1 X-12.299 Y4.277 F7.000
G1 X-12.203 Y4.616 F7.000
G1 X-12.192 Y4.785 F7.000
G1 X-12.203 Y4.870 F7.000
G1 X-12.356 Y5.175 F7.000
G1 X-12.582 Y5.441 F7.000
G1 X-12.944 Y5.712 F7.000
G1 X-13.271 Y5.876 F7.000
G1 X-13.605 Y5.966 F7.000
G1 X-13.859 Y5.966 F7.000
G1 X-14.028 Y5.932 F7.000
G1 X-14.102 Y5.881 F7.000
G1 X-14.153 Y5.802 F7.000
G1 X-14.311 Y5.379 F7.000
G1 X-14.311 Y5.379 F7.000
G1 X-14.328 Y5.141 F7.000
G1 X-14.299 Y5.056 F7.000
G0 X-14.277 Y5.023
G0 X-14.068 Y4.938
G0 X-12.627 Y4.576
G1 X-12.576 Y4.559 F7.000
G1 X-12.424 Y4.537 F7.000
G1 X-12.333 Y4.554 F7.000
G1 X-12.220 Y4.633 F7.000
G1 X-12.113 Y4.785 F7.000
G1 X-12.113 Y4.785 F7.000
G1 X-12.023 Y5.124 F7.000
G1 X-12.023 Y5.294 F7.000
G1 X-12.158 Y5.610 F7.000
G1 X-12.424 Y5.949 F7.000
G1 X-12.712 Y6.181 F7.000
G1 X-13.034 Y6.362 F7.000
G1 X-13.333 Y6.446 F7.000
G1 X-13.588 Y6.469 F7.000
G1 X-13.757 Y6.452 F7.000
G1 X-13.842 Y6.418 F7.000
G1 X-13.910 Y6.356 F7.000
G1 X-14.096 Y5.932 F7.000
G1 X-14.096 Y5.932 F7.000
G1 X-14.130 Y5.740 F7.000
G1 X-14.119 Y5.650 F7.000
G1 X-14.102 Y5.610 F7.000
G0 X-14.079 Y5.576
G0 X-13.876 Y5.475
G0 X-12.463 Y5.017
G1 X-12.412 Y5.000 F7.000
G1 X-12.260 Y4.966 F7.000
G1 X-12.169 Y4.977 F7.000
G1 X-12.056 Y5.045 F7.000
G1 X-11.944 Y5.198 F7.000
G1 X-11.944 Y5.198 F7.000
G1 X-11.831 Y5.531 F7.000
G1 X-11.808 Y5.701 F7.000
G1 X-11.819 Y5.785 F7.000
G1 X-11.955 Y6.096 F7.000
G1 X-12.220 Y6.435 F7.000
G1 X-12.508 Y6.667 F7.000
G1 X-12.831 Y6.847 F7.000
G1 X-13.130 Y6.949 F7.000
G1 X-13.384 Y6.966 F7.000
G1 X-13.554 Y6.949 F7.000
G1 X-13.633 Y6.904 F7.000
G1 X-13.836 Y6.497 F7.000
G1 X-13.836 Y6.497 F7.000
G1 X-13.881 Y6.305 F7.000
G1 X-13.864 Y6.175 F7.000
G0 X-13.842 Y6.141
G0 X-13.644 Y6.023
G0 X-12.282 Y5.463
G1 X-12.237 Y5.441 F7.000
G1 X-12.090 Y5.395 F7.000
G1 X-12.000 Y5.395 F7.000
G1 X-11.881 Y5.463 F7.000
G1 X-11.757 Y5.605 F7.000
G1 X-11.757 Y5.605 F7.000
G1 X-11.621 Y5.938 F7.000
G1 X-11.588 Y6.107 F7.000
G1 X-11.588 Y6.192 F7.000
G1 X-11.718 Y6.514 F7.000
G1 X-11.966 Y6.864 F7.000
G1 X-12.237 Y7.113 F7.000
G1 X-12.548 Y7.311 F7.000
G1 X-12.859 Y7.424 F7.000
G1 X-13.113 Y7.458 F7.000
G1 X-13.282 Y7.452 F7.000
G1 X-13.362 Y7.412 F7.000
G1 X-13.576 Y7.017 F7.000
G1 X-13.576 Y7.017 F7.000
G1 X-13.621 Y6.825 F7.000
G1 X-13.605 Y6.695 F7.000
G0 X-13.582 Y6.661
G0 X-13.390 Y6.542
G0 X-12.040 Y5.944
G1 X-11.994 Y5.921 F7.000
G1 X-11.847 Y5.876 F7.000
G1 X-11.757 Y5.876 F7.000
G1 X-11.638 Y5.944 F7.000
G1 X-11.514 Y6.085 F7.000
G1 X-11.514 Y6.085 F7.000
G1 X-11.407 Y6.328 F7.000
G1 X-11.350 Y6.582 F7.000
G1 X-11.356 Y6.667 F7.000
G1 X-11.441 Y6.910 F7.000
G1 X-11.672 Y7.277 F7.000
G1 X-11.932 Y7.537 F7.000
G1 X-12.232 Y7.751 F7.000
G1 X-12.554 Y7.887 F7.000
G1 X-12.808 Y7.938 F7.000
G1 X-12.977 Y7.944 F7.000
G1 X-13.062 Y7.910 F7.000
G1 X-13.350 Y7.446 F7.000
G1 X-13.350 Y7.446 F7.000
G1 X-13.407 Y7.260 F7.000
G1 X-13.407 Y7.169 F7.000
G1 X-13.395 Y7.130 F7.000
G0 X-13.379 Y7.090
G0 X-13.186 Y6.972
G0 X-11.831 Y6.356
G1 X-11.785 Y6.333 F7.000
G1 X-11.638 Y6.282 F7.000
G1 X-11.548 Y6.282 F7.000
G1 X-11.429 Y6.339 F7.000
G1 X-11.299 Y6.480 F7.000
G1 X-11.299 Y6.480 F7.000
G1 X-11.141 Y6.802 F7.000
G1 X-11.102 Y6.972 F7.000
G1 X-11.102 Y7.056 F7.000
G1 X-11.209 Y7.384 F7.000
G1 X-11.435 Y7.751 F7.000
G1 X-11.695 Y8.011 F7.000
G1 X-12.000 Y8.220 F7.000
G1 X-12.288 Y8.350 F7.000
G1 X-12.542 Y8.401 F7.000
G1 X-12.712 Y8.407 F7.000
G1 X-12.791 Y8.367 F7.000
G1 X-13.034 Y7.983 F7.000
G1 X-13.034 Y7.983 F7.000
G1 X-13.090 Y7.797 F7.000
G1 X-13.079 Y7.661 F7.000
G0 X-13.062 Y7.627
G0 X-12.876 Y7.492
G0 X-11.588 Y6.768
G1 X-11.542 Y6.740 F7.000
G1 X-11.401 Y6.678 F7.000
G1 X-11.316 Y6.672 F7.000
G1 X-11.198 Y6.729 F7.000
G1 X-11.068 Y6.870 F7.000
G1 X-11.068 Y6.870 F7.000
G1 X-10.876 Y7.266 F7.000
G1 X-10.842 Y7.435 F7.000
G1 X-10.893 Y7.689 F7.000
G1 X-11.034 Y8.006 F7.000
G1 X-11.130 Y8.153 F7.000
G1 X-11.379 Y8.429 F7.000
G1 X-11.678 Y8.650 F7.000
G1 X-11.944 Y8.785 F7.000
G1 X-12.198 Y8.853 F7.000
G1 X-12.367 Y8.870 F7.000
G1 X-12.452 Y8.842 F7.000
G1 X-12.768 Y8.412 F7.000
G1 X-12.768 Y8.407 F7.000
G1 X-12.836 Y8.232 F7.000
G1 X-12.836 Y8.096 F7.000
G0 X-12.819 Y8.062
G0 X-12.638 Y7.932
G0 X-11.328 Y7.232
G1 X-11.282 Y7.209 F7.000
G1 X-11.136 Y7.147 F7.000
G1 X-11.045 Y7.141 F7.000
G1 X-10.915 Y7.192 F7.000
G1 X-10.780 Y7.322 F7.000
G1 X-10.780 Y7.322 F7.000
G1 X-10.605 Y7.627 F7.000
G1 X-10.554 Y7.797 F7.000
G1 X-10.582 Y8.051 F7.000
G1 X-10.751 Y8.446 F7.000
G1 X-10.797 Y8.520 F7.000
G1 X-11.028 Y8.808 F7.000
G1 X-11.311 Y9.045 F7.000
G1 X-11.571 Y9.198 F7.000
G1 X-11.819 Y9.282 F7.000
G1 X-11.989 Y9.311 F7.000
G1 X-12.073 Y9.311 F7.000
G1 X-12.153 Y9.266 F7.000
G1 X-12.424 Y8.898 F7.000
G1 X-12.424 Y8.898 F7.000
G1 X-12.503 Y8.723 F7.000
G1 X-12.514 Y8.633 F7.000
G1 X-12.508 Y8.588 F7.000
G0 X-12.492 Y8.554
G0 X-12.316 Y8.407
G0 X-11.062 Y7.633
G1 X-11.017 Y7.605 F7.000
G1 X-10.881 Y7.537 F7.000
G1 X-10.791 Y7.525 F7.000
G1 X-10.661 Y7.565 F7.000
G1 X-10.514 Y7.684 F7.000
G1 X-10.514 Y7.684 F7.000
G1 X-10.367 Y7.904 F7.000
G1 X-10.266 Y8.153 F7.000
G1 X-10.254 Y8.237 F7.000
G1 X-10.288 Y8.492 F7.000
G1 X-10.458 Y8.893 F7.000
G1 X-10.729 Y9.254 F7.000
G1 X-11.011 Y9.492 F7.000
G1 X-11.260 Y9.650 F7.000
G1 X-11.418 Y9.718 F7.000
G1 X-11.672 Y9.768 F7.000
G1 X-11.757 Y9.751 F7.000
G1 X-11.825 Y9.695 F7.000
G1 X-12.102 Y9.333 F7.000
G1 X-12.102 Y9.333 F7.000
G1 X-12.181 Y9.158 F7.000
G1 X-12.186 Y9.023 F7.000
G0 X-12.169 Y8.989
G0 X-12.000 Y8.836
G0 X-10.774 Y7.994
G1 X-10.729 Y7.966 F7.000
G1 X-10.593 Y7.887 F7.000
G1 X-10.508 Y7.876 F7.000
G1 X-10.379 Y7.915 F7.000
G1 X-10.243 Y8.040 F7.000
G1 X-10.243 Y8.040 F7.000
G1 X-10.045 Y8.339 F7.000
G1 X-9.972 Y8.503 F7.000
G1 X-9.955 Y8.588 F7.000
G1 X-9.972 Y8.842 F7.000
G1 X-10.079 Y9.169 F7.000
G1 X-10.158 Y9.328 F7.000
G1 X-10.367 Y9.633 F7.000
G1 X-10.633 Y9.887 F7.000
G1 X-10.898 Y10.062 F7.000
G1 X-11.141 Y10.164 F7.000
G1 X-11.311 Y10.192 F7.000
G1 X-11.395 Y10.175 F7.000
G1 X-11.695 Y9.842 F7.000
G1 X-11.695 Y9.836 F7.000
G1 X-11.785 Y9.667 F7.000
G1 X-11.802 Y9.531 F7.000
G0 X-11.791 Y9.492
G0 X-11.638 Y9.328
G0 X-10.492 Y8.401
G1 X-10.452 Y8.367 F7.000
G1 X-10.328 Y8.277 F7.000
G1 X-10.237 Y8.260 F7.000
G1 X-10.107 Y8.288 F7.000
G1 X-9.960 Y8.390 F7.000
G1 X-9.960 Y8.390 F7.000
G1 X-9.740 Y8.672 F7.000
G1 X-9.655 Y8.831 F7.000
G1 X-9.627 Y8.915 F7.000
G1 X-9.616 Y9.000 F7.000
G1 X-9.655 Y9.339 F7.000
G1 X-9.740 Y9.588 F7.000
G1 X-9.977 Y9.977 F7.000
G1 X-10.226 Y10.249 F7.000
G1 X-10.559 Y10.492 F7.000
G1 X-10.718 Y10.559 F7.000
G1 X-10.887 Y10.599 F7.000
G1 X-10.972 Y10.605 F7.000
G1 X-11.051 Y10.571 F7.000
G1 X-11.350 Y10.237 F7.000
G1 X-11.350 Y10.237 F7.000
G1 X-11.441 Y10.068 F7.000
G1 X-11.458 Y9.932 F7.000
G0 X-11.446 Y9.893
G0 X-11.288 Y9.729
G0 X-10.130 Y8.791
G1 X-10.090 Y8.757 F7.000
G1 X-9.966 Y8.667 F7.000
G1 X-9.876 Y8.650 F7.000
G1 X-9.751 Y8.678 F7.000
G1 X-9.605 Y8.791 F7.000
G1 X-9.605 Y8.791 F7.000
G1 X-9.379 Y9.079 F7.000
G1 X-9.294 Y9.237 F7.000
G1 X-9.271 Y9.322 F7.000
G1 X-9.271 Y9.576 F7.000
G1 X-9.356 Y9.915 F7.000
G1 X-9.424 Y10.073 F7.000
